(G-CODE GENERATED BY FLATCAM v8.994 - www.flatcam.org - Version Date: 2020/11/7)

(Name: Fonte_corrente_mono-B_Cu.gbr_cutout_cnc)
(Type: G-code from Geometry)
(Units: MM)

(Created on segunda, 17 julho 2023 at 16:24)

(This preprocessor is the default preprocessor used by FlatCAM.)
(It is made to work with MACH3 compatible motion controllers.)

(TOOL DIAMETER: 1.0 mm)
(Feedrate_XY: 60.0 mm/min)
(Feedrate_Z: 60.0 mm/min)
(Feedrate rapids 1500.0 mm/min)

(Z_Cut: -1.6 mm)
(DepthPerCut: 0.2 mm <=>8 passes)
(Z_Move: 2.0 mm)
(Z Start: None mm)
(Z End: 15.0 mm)
(X,Y End: None mm)
(Steps per circle: 64)
(Preprocessor Geometry: default)

(X range:   -2.5000 ...   88.0903  mm)
(Y range:   -2.5000 ...  101.5004  mm)

(Spindle Speed: 1000.0 RPM)
G21
G90
G94

G01 F60.00

M5
G00 Z15.0000
G00 X0.0000 Y0.0000
(T1)
(M6  )  
(MSG, Change to Tool Dia = 1.0000)
(M0)
G00 Z15.0000

M03 S1000.0
G01 F60.00
G00 X85.5903 Y-2.5000
G01 F60.00
G01 Z-0.2000
G01 F60.00
G01 X0.0000 Y-2.5000
G01 X-0.2450 Y-2.4880
G01 X-0.4877 Y-2.4520
G01 X-0.7257 Y-2.3924
G01 X-0.9567 Y-2.3097
G01 X-1.1785 Y-2.2048
G01 X-1.3889 Y-2.0787
G01 X-1.5860 Y-1.9325
G01 X-1.7678 Y-1.7678
G01 X-1.9325 Y-1.5860
G01 X-2.0787 Y-1.3889
G01 X-2.2048 Y-1.1785
G01 X-2.3097 Y-0.9567
G01 X-2.3924 Y-0.7257
G01 X-2.4520 Y-0.4877
G01 X-2.4880 Y-0.2450
G01 X-2.5000 Y0.0000
G01 X-2.5000 Y99.0004
G01 X-2.4880 Y99.2455
G01 X-2.4520 Y99.4882
G01 X-2.3924 Y99.7261
G01 X-2.3097 Y99.9571
G01 X-2.2048 Y100.1789
G01 X-2.0787 Y100.3894
G01 X-1.9325 Y100.5864
G01 X-1.7678 Y100.7682
G01 X-1.5860 Y100.9330
G01 X-1.3889 Y101.0791
G01 X-1.1785 Y101.2052
G01 X-0.9567 Y101.3101
G01 X-0.7257 Y101.3928
G01 X-0.4877 Y101.4524
G01 X-0.2450 Y101.4884
G01 X0.0000 Y101.5004
G01 X85.5903 Y101.5004
G01 X85.8354 Y101.4884
G01 X86.0780 Y101.4524
G01 X86.3160 Y101.3928
G01 X86.5470 Y101.3101
G01 X86.7688 Y101.2052
G01 X86.9792 Y101.0791
G01 X87.1763 Y100.9330
G01 X87.3581 Y100.7682
G01 X87.5228 Y100.5864
G01 X87.6690 Y100.3894
G01 X87.7951 Y100.1789
G01 X87.9000 Y99.9571
G01 X87.9827 Y99.7261
G01 X88.0423 Y99.4882
G01 X88.0783 Y99.2455
G01 X88.0903 Y99.0004
G01 X88.0903 Y0.0000
G01 X88.0783 Y-0.2450
G01 X88.0423 Y-0.4877
G01 X87.9827 Y-0.7257
G01 X87.9000 Y-0.9567
G01 X87.7951 Y-1.1785
G01 X87.6690 Y-1.3889
G01 X87.5228 Y-1.5860
G01 X87.3581 Y-1.7678
G01 X87.1763 Y-1.9325
G01 X86.9792 Y-2.0787
G01 X86.7688 Y-2.2048
G01 X86.5470 Y-2.3097
G01 X86.3160 Y-2.3924
G01 X86.0780 Y-2.4520
G01 X85.8354 Y-2.4880
G01 X85.5903 Y-2.5000
G00 X85.5903 Y-2.5000
G01 F60.00
G01 Z-0.4000
G01 F60.00
G01 X85.8354 Y-2.4880
G01 X86.0780 Y-2.4520
G01 X86.3160 Y-2.3924
G01 X86.5470 Y-2.3097
G01 X86.7688 Y-2.2048
G01 X86.9792 Y-2.0787
G01 X87.1763 Y-1.9325
G01 X87.3581 Y-1.7678
G01 X87.5228 Y-1.5860
G01 X87.6690 Y-1.3889
G01 X87.7951 Y-1.1785
G01 X87.9000 Y-0.9567
G01 X87.9827 Y-0.7257
G01 X88.0423 Y-0.4877
G01 X88.0783 Y-0.2450
G01 X88.0903 Y0.0000
G01 X88.0903 Y99.0004
G01 X88.0783 Y99.2455
G01 X88.0423 Y99.4882
G01 X87.9827 Y99.7261
G01 X87.9000 Y99.9571
G01 X87.7951 Y100.1789
G01 X87.6690 Y100.3894
G01 X87.5228 Y100.5864
G01 X87.3581 Y100.7682
G01 X87.1763 Y100.9330
G01 X86.9792 Y101.0791
G01 X86.7688 Y101.2052
G01 X86.5470 Y101.3101
G01 X86.3160 Y101.3928
G01 X86.0780 Y101.4524
G01 X85.8354 Y101.4884
G01 X85.5903 Y101.5004
G01 X0.0000 Y101.5004
G01 X-0.2450 Y101.4884
G01 X-0.4877 Y101.4524
G01 X-0.7257 Y101.3928
G01 X-0.9567 Y101.3101
G01 X-1.1785 Y101.2052
G01 X-1.3889 Y101.0791
G01 X-1.5860 Y100.9330
G01 X-1.7678 Y100.7682
G01 X-1.9325 Y100.5864
G01 X-2.0787 Y100.3894
G01 X-2.2048 Y100.1789
G01 X-2.3097 Y99.9571
G01 X-2.3924 Y99.7261
G01 X-2.4520 Y99.4882
G01 X-2.4880 Y99.2455
G01 X-2.5000 Y99.0004
G01 X-2.5000 Y0.0000
G01 X-2.4880 Y-0.2450
G01 X-2.4520 Y-0.4877
G01 X-2.3924 Y-0.7257
G01 X-2.3097 Y-0.9567
G01 X-2.2048 Y-1.1785
G01 X-2.0787 Y-1.3889
G01 X-1.9325 Y-1.5860
G01 X-1.7678 Y-1.7678
G01 X-1.5860 Y-1.9325
G01 X-1.3889 Y-2.0787
G01 X-1.1785 Y-2.2048
G01 X-0.9567 Y-2.3097
G01 X-0.7257 Y-2.3924
G01 X-0.4877 Y-2.4520
G01 X-0.2450 Y-2.4880
G01 X0.0000 Y-2.5000
G01 X85.5903 Y-2.5000
G00 X85.5903 Y-2.5000
G01 F60.00
G01 Z-0.6000
G01 F60.00
G01 X0.0000 Y-2.5000
G01 X-0.2450 Y-2.4880
G01 X-0.4877 Y-2.4520
G01 X-0.7257 Y-2.3924
G01 X-0.9567 Y-2.3097
G01 X-1.1785 Y-2.2048
G01 X-1.3889 Y-2.0787
G01 X-1.5860 Y-1.9325
G01 X-1.7678 Y-1.7678
G01 X-1.9325 Y-1.5860
G01 X-2.0787 Y-1.3889
G01 X-2.2048 Y-1.1785
G01 X-2.3097 Y-0.9567
G01 X-2.3924 Y-0.7257
G01 X-2.4520 Y-0.4877
G01 X-2.4880 Y-0.2450
G01 X-2.5000 Y0.0000
G01 X-2.5000 Y99.0004
G01 X-2.4880 Y99.2455
G01 X-2.4520 Y99.4882
G01 X-2.3924 Y99.7261
G01 X-2.3097 Y99.9571
G01 X-2.2048 Y100.1789
G01 X-2.0787 Y100.3894
G01 X-1.9325 Y100.5864
G01 X-1.7678 Y100.7682
G01 X-1.5860 Y100.9330
G01 X-1.3889 Y101.0791
G01 X-1.1785 Y101.2052
G01 X-0.9567 Y101.3101
G01 X-0.7257 Y101.3928
G01 X-0.4877 Y101.4524
G01 X-0.2450 Y101.4884
G01 X0.0000 Y101.5004
G01 X85.5903 Y101.5004
G01 X85.8354 Y101.4884
G01 X86.0780 Y101.4524
G01 X86.3160 Y101.3928
G01 X86.5470 Y101.3101
G01 X86.7688 Y101.2052
G01 X86.9792 Y101.0791
G01 X87.1763 Y100.9330
G01 X87.3581 Y100.7682
G01 X87.5228 Y100.5864
G01 X87.6690 Y100.3894
G01 X87.7951 Y100.1789
G01 X87.9000 Y99.9571
G01 X87.9827 Y99.7261
G01 X88.0423 Y99.4882
G01 X88.0783 Y99.2455
G01 X88.0903 Y99.0004
G01 X88.0903 Y0.0000
G01 X88.0783 Y-0.2450
G01 X88.0423 Y-0.4877
G01 X87.9827 Y-0.7257
G01 X87.9000 Y-0.9567
G01 X87.7951 Y-1.1785
G01 X87.6690 Y-1.3889
G01 X87.5228 Y-1.5860
G01 X87.3581 Y-1.7678
G01 X87.1763 Y-1.9325
G01 X86.9792 Y-2.0787
G01 X86.7688 Y-2.2048
G01 X86.5470 Y-2.3097
G01 X86.3160 Y-2.3924
G01 X86.0780 Y-2.4520
G01 X85.8354 Y-2.4880
G01 X85.5903 Y-2.5000
G00 X85.5903 Y-2.5000
G01 F60.00
G01 Z-0.8000
G01 F60.00
G01 X85.8354 Y-2.4880
G01 X86.0780 Y-2.4520
G01 X86.3160 Y-2.3924
G01 X86.5470 Y-2.3097
G01 X86.7688 Y-2.2048
G01 X86.9792 Y-2.0787
G01 X87.1763 Y-1.9325
G01 X87.3581 Y-1.7678
G01 X87.5228 Y-1.5860
G01 X87.6690 Y-1.3889
G01 X87.7951 Y-1.1785
G01 X87.9000 Y-0.9567
G01 X87.9827 Y-0.7257
G01 X88.0423 Y-0.4877
G01 X88.0783 Y-0.2450
G01 X88.0903 Y0.0000
G01 X88.0903 Y99.0004
G01 X88.0783 Y99.2455
G01 X88.0423 Y99.4882
G01 X87.9827 Y99.7261
G01 X87.9000 Y99.9571
G01 X87.7951 Y100.1789
G01 X87.6690 Y100.3894
G01 X87.5228 Y100.5864
G01 X87.3581 Y100.7682
G01 X87.1763 Y100.9330
G01 X86.9792 Y101.0791
G01 X86.7688 Y101.2052
G01 X86.5470 Y101.3101
G01 X86.3160 Y101.3928
G01 X86.0780 Y101.4524
G01 X85.8354 Y101.4884
G01 X85.5903 Y101.5004
G01 X0.0000 Y101.5004
G01 X-0.2450 Y101.4884
G01 X-0.4877 Y101.4524
G01 X-0.7257 Y101.3928
G01 X-0.9567 Y101.3101
G01 X-1.1785 Y101.2052
G01 X-1.3889 Y101.0791
G01 X-1.5860 Y100.9330
G01 X-1.7678 Y100.7682
G01 X-1.9325 Y100.5864
G01 X-2.0787 Y100.3894
G01 X-2.2048 Y100.1789
G01 X-2.3097 Y99.9571
G01 X-2.3924 Y99.7261
G01 X-2.4520 Y99.4882
G01 X-2.4880 Y99.2455
G01 X-2.5000 Y99.0004
G01 X-2.5000 Y0.0000
G01 X-2.4880 Y-0.2450
G01 X-2.4520 Y-0.4877
G01 X-2.3924 Y-0.7257
G01 X-2.3097 Y-0.9567
G01 X-2.2048 Y-1.1785
G01 X-2.0787 Y-1.3889
G01 X-1.9325 Y-1.5860
G01 X-1.7678 Y-1.7678
G01 X-1.5860 Y-1.9325
G01 X-1.3889 Y-2.0787
G01 X-1.1785 Y-2.2048
G01 X-0.9567 Y-2.3097
G01 X-0.7257 Y-2.3924
G01 X-0.4877 Y-2.4520
G01 X-0.2450 Y-2.4880
G01 X0.0000 Y-2.5000
G01 X85.5903 Y-2.5000
G00 X85.5903 Y-2.5000
G01 F60.00
G01 Z-1.0000
G01 F60.00
G01 X0.0000 Y-2.5000
G01 X-0.2450 Y-2.4880
G01 X-0.4877 Y-2.4520
G01 X-0.7257 Y-2.3924
G01 X-0.9567 Y-2.3097
G01 X-1.1785 Y-2.2048
G01 X-1.3889 Y-2.0787
G01 X-1.5860 Y-1.9325
G01 X-1.7678 Y-1.7678
G01 X-1.9325 Y-1.5860
G01 X-2.0787 Y-1.3889
G01 X-2.2048 Y-1.1785
G01 X-2.3097 Y-0.9567
G01 X-2.3924 Y-0.7257
G01 X-2.4520 Y-0.4877
G01 X-2.4880 Y-0.2450
G01 X-2.5000 Y0.0000
G01 X-2.5000 Y99.0004
G01 X-2.4880 Y99.2455
G01 X-2.4520 Y99.4882
G01 X-2.3924 Y99.7261
G01 X-2.3097 Y99.9571
G01 X-2.2048 Y100.1789
G01 X-2.0787 Y100.3894
G01 X-1.9325 Y100.5864
G01 X-1.7678 Y100.7682
G01 X-1.5860 Y100.9330
G01 X-1.3889 Y101.0791
G01 X-1.1785 Y101.2052
G01 X-0.9567 Y101.3101
G01 X-0.7257 Y101.3928
G01 X-0.4877 Y101.4524
G01 X-0.2450 Y101.4884
G01 X0.0000 Y101.5004
G01 X85.5903 Y101.5004
G01 X85.8354 Y101.4884
G01 X86.0780 Y101.4524
G01 X86.3160 Y101.3928
G01 X86.5470 Y101.3101
G01 X86.7688 Y101.2052
G01 X86.9792 Y101.0791
G01 X87.1763 Y100.9330
G01 X87.3581 Y100.7682
G01 X87.5228 Y100.5864
G01 X87.6690 Y100.3894
G01 X87.7951 Y100.1789
G01 X87.9000 Y99.9571
G01 X87.9827 Y99.7261
G01 X88.0423 Y99.4882
G01 X88.0783 Y99.2455
G01 X88.0903 Y99.0004
G01 X88.0903 Y0.0000
G01 X88.0783 Y-0.2450
G01 X88.0423 Y-0.4877
G01 X87.9827 Y-0.7257
G01 X87.9000 Y-0.9567
G01 X87.7951 Y-1.1785
G01 X87.6690 Y-1.3889
G01 X87.5228 Y-1.5860
G01 X87.3581 Y-1.7678
G01 X87.1763 Y-1.9325
G01 X86.9792 Y-2.0787
G01 X86.7688 Y-2.2048
G01 X86.5470 Y-2.3097
G01 X86.3160 Y-2.3924
G01 X86.0780 Y-2.4520
G01 X85.8354 Y-2.4880
G01 X85.5903 Y-2.5000
G00 X85.5903 Y-2.5000
G01 F60.00
G01 Z-1.2000
G01 F60.00
G01 X85.8354 Y-2.4880
G01 X86.0780 Y-2.4520
G01 X86.3160 Y-2.3924
G01 X86.5470 Y-2.3097
G01 X86.7688 Y-2.2048
G01 X86.9792 Y-2.0787
G01 X87.1763 Y-1.9325
G01 X87.3581 Y-1.7678
G01 X87.5228 Y-1.5860
G01 X87.6690 Y-1.3889
G01 X87.7951 Y-1.1785
G01 X87.9000 Y-0.9567
G01 X87.9827 Y-0.7257
G01 X88.0423 Y-0.4877
G01 X88.0783 Y-0.2450
G01 X88.0903 Y0.0000
G01 X88.0903 Y99.0004
G01 X88.0783 Y99.2455
G01 X88.0423 Y99.4882
G01 X87.9827 Y99.7261
G01 X87.9000 Y99.9571
G01 X87.7951 Y100.1789
G01 X87.6690 Y100.3894
G01 X87.5228 Y100.5864
G01 X87.3581 Y100.7682
G01 X87.1763 Y100.9330
G01 X86.9792 Y101.0791
G01 X86.7688 Y101.2052
G01 X86.5470 Y101.3101
G01 X86.3160 Y101.3928
G01 X86.0780 Y101.4524
G01 X85.8354 Y101.4884
G01 X85.5903 Y101.5004
G01 X0.0000 Y101.5004
G01 X-0.2450 Y101.4884
G01 X-0.4877 Y101.4524
G01 X-0.7257 Y101.3928
G01 X-0.9567 Y101.3101
G01 X-1.1785 Y101.2052
G01 X-1.3889 Y101.0791
G01 X-1.5860 Y100.9330
G01 X-1.7678 Y100.7682
G01 X-1.9325 Y100.5864
G01 X-2.0787 Y100.3894
G01 X-2.2048 Y100.1789
G01 X-2.3097 Y99.9571
G01 X-2.3924 Y99.7261
G01 X-2.4520 Y99.4882
G01 X-2.4880 Y99.2455
G01 X-2.5000 Y99.0004
G01 X-2.5000 Y0.0000
G01 X-2.4880 Y-0.2450
G01 X-2.4520 Y-0.4877
G01 X-2.3924 Y-0.7257
G01 X-2.3097 Y-0.9567
G01 X-2.2048 Y-1.1785
G01 X-2.0787 Y-1.3889
G01 X-1.9325 Y-1.5860
G01 X-1.7678 Y-1.7678
G01 X-1.5860 Y-1.9325
G01 X-1.3889 Y-2.0787
G01 X-1.1785 Y-2.2048
G01 X-0.9567 Y-2.3097
G01 X-0.7257 Y-2.3924
G01 X-0.4877 Y-2.4520
G01 X-0.2450 Y-2.4880
G01 X0.0000 Y-2.5000
G01 X85.5903 Y-2.5000
G00 X85.5903 Y-2.5000
G01 F60.00
G01 Z-1.4000
G01 F60.00
G01 X0.0000 Y-2.5000
G01 X-0.2450 Y-2.4880
G01 X-0.4877 Y-2.4520
G01 X-0.7257 Y-2.3924
G01 X-0.9567 Y-2.3097
G01 X-1.1785 Y-2.2048
G01 X-1.3889 Y-2.0787
G01 X-1.5860 Y-1.9325
G01 X-1.7678 Y-1.7678
G01 X-1.9325 Y-1.5860
G01 X-2.0787 Y-1.3889
G01 X-2.2048 Y-1.1785
G01 X-2.3097 Y-0.9567
G01 X-2.3924 Y-0.7257
G01 X-2.4520 Y-0.4877
G01 X-2.4880 Y-0.2450
G01 X-2.5000 Y0.0000
G01 X-2.5000 Y99.0004
G01 X-2.4880 Y99.2455
G01 X-2.4520 Y99.4882
G01 X-2.3924 Y99.7261
G01 X-2.3097 Y99.9571
G01 X-2.2048 Y100.1789
G01 X-2.0787 Y100.3894
G01 X-1.9325 Y100.5864
G01 X-1.7678 Y100.7682
G01 X-1.5860 Y100.9330
G01 X-1.3889 Y101.0791
G01 X-1.1785 Y101.2052
G01 X-0.9567 Y101.3101
G01 X-0.7257 Y101.3928
G01 X-0.4877 Y101.4524
G01 X-0.2450 Y101.4884
G01 X0.0000 Y101.5004
G01 X85.5903 Y101.5004
G01 X85.8354 Y101.4884
G01 X86.0780 Y101.4524
G01 X86.3160 Y101.3928
G01 X86.5470 Y101.3101
G01 X86.7688 Y101.2052
G01 X86.9792 Y101.0791
G01 X87.1763 Y100.9330
G01 X87.3581 Y100.7682
G01 X87.5228 Y100.5864
G01 X87.6690 Y100.3894
G01 X87.7951 Y100.1789
G01 X87.9000 Y99.9571
G01 X87.9827 Y99.7261
G01 X88.0423 Y99.4882
G01 X88.0783 Y99.2455
G01 X88.0903 Y99.0004
G01 X88.0903 Y0.0000
G01 X88.0783 Y-0.2450
G01 X88.0423 Y-0.4877
G01 X87.9827 Y-0.7257
G01 X87.9000 Y-0.9567
G01 X87.7951 Y-1.1785
G01 X87.6690 Y-1.3889
G01 X87.5228 Y-1.5860
G01 X87.3581 Y-1.7678
G01 X87.1763 Y-1.9325
G01 X86.9792 Y-2.0787
G01 X86.7688 Y-2.2048
G01 X86.5470 Y-2.3097
G01 X86.3160 Y-2.3924
G01 X86.0780 Y-2.4520
G01 X85.8354 Y-2.4880
G01 X85.5903 Y-2.5000
G00 X85.5903 Y-2.5000
G01 F60.00
G01 Z-1.6000
G01 F60.00
G01 X85.8354 Y-2.4880
G01 X86.0780 Y-2.4520
G01 X86.3160 Y-2.3924
G01 X86.5470 Y-2.3097
G01 X86.7688 Y-2.2048
G01 X86.9792 Y-2.0787
G01 X87.1763 Y-1.9325
G01 X87.3581 Y-1.7678
G01 X87.5228 Y-1.5860
G01 X87.6690 Y-1.3889
G01 X87.7951 Y-1.1785
G01 X87.9000 Y-0.9567
G01 X87.9827 Y-0.7257
G01 X88.0423 Y-0.4877
G01 X88.0783 Y-0.2450
G01 X88.0903 Y0.0000
G01 X88.0903 Y99.0004
G01 X88.0783 Y99.2455
G01 X88.0423 Y99.4882
G01 X87.9827 Y99.7261
G01 X87.9000 Y99.9571
G01 X87.7951 Y100.1789
G01 X87.6690 Y100.3894
G01 X87.5228 Y100.5864
G01 X87.3581 Y100.7682
G01 X87.1763 Y100.9330
G01 X86.9792 Y101.0791
G01 X86.7688 Y101.2052
G01 X86.5470 Y101.3101
G01 X86.3160 Y101.3928
G01 X86.0780 Y101.4524
G01 X85.8354 Y101.4884
G01 X85.5903 Y101.5004
G01 X0.0000 Y101.5004
G01 X-0.2450 Y101.4884
G01 X-0.4877 Y101.4524
G01 X-0.7257 Y101.3928
G01 X-0.9567 Y101.3101
G01 X-1.1785 Y101.2052
G01 X-1.3889 Y101.0791
G01 X-1.5860 Y100.9330
G01 X-1.7678 Y100.7682
G01 X-1.9325 Y100.5864
G01 X-2.0787 Y100.3894
G01 X-2.2048 Y100.1789
G01 X-2.3097 Y99.9571
G01 X-2.3924 Y99.7261
G01 X-2.4520 Y99.4882
G01 X-2.4880 Y99.2455
G01 X-2.5000 Y99.0004
G01 X-2.5000 Y0.0000
G01 X-2.4880 Y-0.2450
G01 X-2.4520 Y-0.4877
G01 X-2.3924 Y-0.7257
G01 X-2.3097 Y-0.9567
G01 X-2.2048 Y-1.1785
G01 X-2.0787 Y-1.3889
G01 X-1.9325 Y-1.5860
G01 X-1.7678 Y-1.7678
G01 X-1.5860 Y-1.9325
G01 X-1.3889 Y-2.0787
G01 X-1.1785 Y-2.2048
G01 X-0.9567 Y-2.3097
G01 X-0.7257 Y-2.3924
G01 X-0.4877 Y-2.4520
G01 X-0.2450 Y-2.4880
G01 X0.0000 Y-2.5000
G01 X85.5903 Y-2.5000
G00 Z2.0000
M05
G00 Z2.0000
G00 Z15.00


