(G-CODE GENERATED BY FLATCAM v8.994 - www.flatcam.org - Version Date: 2020/11/7)

(Name: Fonte_corrente_mono-PTH_LIMPO.drl_mill_cnc)
(Type: G-code from Geometry)
(Units: MM)

(Created on segunda, 17 julho 2023 at 16:26)

(This preprocessor is the default preprocessor used by FlatCAM.)
(It is made to work with MACH3 compatible motion controllers.)

(TOOL DIAMETER: 0.8 mm)
(Feedrate_XY: 120.0 mm/min)
(Feedrate_Z: 15.0 mm/min)
(Feedrate rapids 1500.0 mm/min)

(Z_Cut: -2.6 mm)
(Z_Move: 0.9999999999999992 mm)
(Z Start: None mm)
(Z End: 15.0 mm)
(X,Y End: None mm)
(Steps per circle: 64)
(Preprocessor Geometry: default)

(X range:    0.9999 ...   81.0100  mm)
(Y range:    3.4801 ...   93.6502  mm)

(Spindle Speed: 1000.0 RPM)
G21
G90
G94

G01 F120.00

M5
G00 Z1.0000
G00 X0.0000 Y0.0000
(T1)
(M6  )  
(MSG, Change to Tool Dia = 0.8000)
(M0)
G00 Z1.0000

M03 S1000.0
G01 F120.00
G00 X1.0000 Y7.2901
G01 F15.00
G01 Z-2.6000
G01 F120.00
G01 X1.0000 Y7.2901
G01 X0.9999 Y7.2901
G01 X1.0000 Y7.2902
G01 X1.0000 Y7.2901
G00 Z1.0000
G00 X1.0000 Y9.8301
G01 F15.00
G01 Z-2.6000
G01 F120.00
G01 X1.0000 Y9.8301
G01 X0.9999 Y9.8301
G01 X1.0000 Y9.8302
G01 X1.0000 Y9.8301
G00 Z1.0000
G00 X1.0000 Y12.3701
G01 F15.00
G01 Z-2.6000
G01 F120.00
G01 X1.0000 Y12.3701
G01 X0.9999 Y12.3701
G01 X1.0000 Y12.3702
G01 X1.0000 Y12.3701
G00 Z1.0000
G00 X1.0000 Y14.9101
G01 F15.00
G01 Z-2.6000
G01 F120.00
G01 X1.0000 Y14.9101
G01 X0.9999 Y14.9101
G01 X1.0000 Y14.9102
G01 X1.0000 Y14.9101
G00 Z1.0000
G00 X1.0000 Y17.4501
G01 F15.00
G01 Z-2.6000
G01 F120.00
G01 X1.0000 Y17.4501
G01 X0.9999 Y17.4501
G01 X1.0000 Y17.4502
G01 X1.0000 Y17.4501
G00 Z1.0000
G00 X1.0000 Y19.9901
G01 F15.00
G01 Z-2.6000
G01 F120.00
G01 X1.0000 Y19.9901
G01 X0.9999 Y19.9901
G01 X1.0000 Y19.9902
G01 X1.0000 Y19.9901
G00 Z1.0000
G00 X1.0000 Y22.5301
G01 F15.00
G01 Z-2.6000
G01 F120.00
G01 X1.0000 Y22.5301
G01 X0.9999 Y22.5301
G01 X1.0000 Y22.5302
G01 X1.0000 Y22.5301
G00 Z1.0000
G00 X1.0000 Y25.0701
G01 F15.00
G01 Z-2.6000
G01 F120.00
G01 X1.0000 Y25.0701
G01 X0.9999 Y25.0701
G01 X1.0000 Y25.0702
G01 X1.0000 Y25.0701
G00 Z1.0000
G00 X1.0000 Y27.6101
G01 F15.00
G01 Z-2.6000
G01 F120.00
G01 X1.0000 Y27.6101
G01 X0.9999 Y27.6101
G01 X1.0000 Y27.6102
G01 X1.0000 Y27.6101
G00 Z1.0000
G00 X1.0000 Y30.1501
G01 F15.00
G01 Z-2.6000
G01 F120.00
G01 X1.0000 Y30.1501
G01 X0.9999 Y30.1501
G01 X1.0000 Y30.1502
G01 X1.0000 Y30.1501
G00 Z1.0000
G00 X1.0000 Y32.6901
G01 F15.00
G01 Z-2.6000
G01 F120.00
G01 X1.0000 Y32.6901
G01 X0.9999 Y32.6901
G01 X1.0000 Y32.6902
G01 X1.0000 Y32.6901
G00 Z1.0000
G00 X1.0000 Y35.2301
G01 F15.00
G01 Z-2.6000
G01 F120.00
G01 X1.0000 Y35.2301
G01 X0.9999 Y35.2301
G01 X1.0000 Y35.2302
G01 X1.0000 Y35.2301
G00 Z1.0000
G00 X1.0000 Y37.7701
G01 F15.00
G01 Z-2.6000
G01 F120.00
G01 X1.0000 Y37.7701
G01 X0.9999 Y37.7701
G01 X1.0000 Y37.7702
G01 X1.0000 Y37.7701
G00 Z1.0000
G00 X1.0000 Y40.3101
G01 F15.00
G01 Z-2.6000
G01 F120.00
G01 X1.0000 Y40.3101
G01 X0.9999 Y40.3101
G01 X1.0000 Y40.3102
G01 X1.0000 Y40.3101
G00 Z1.0000
G00 X1.0000 Y42.8501
G01 F15.00
G01 Z-2.6000
G01 F120.00
G01 X1.0000 Y42.8501
G01 X0.9999 Y42.8501
G01 X1.0000 Y42.8502
G01 X1.0000 Y42.8501
G00 Z1.0000
G00 X1.0000 Y45.3901
G01 F15.00
G01 Z-2.6000
G01 F120.00
G01 X1.0000 Y45.3901
G01 X0.9999 Y45.3901
G01 X1.0000 Y45.3902
G01 X1.0000 Y45.3901
G00 Z1.0000
G00 X1.0000 Y47.9301
G01 F15.00
G01 Z-2.6000
G01 F120.00
G01 X1.0000 Y47.9301
G01 X0.9999 Y47.9301
G01 X1.0000 Y47.9302
G01 X1.0000 Y47.9301
G00 Z1.0000
G00 X1.0000 Y50.4701
G01 F15.00
G01 Z-2.6000
G01 F120.00
G01 X1.0000 Y50.4701
G01 X0.9999 Y50.4701
G01 X1.0000 Y50.4702
G01 X1.0000 Y50.4701
G00 Z1.0000
G00 X1.0000 Y53.0101
G01 F15.00
G01 Z-2.6000
G01 F120.00
G01 X1.0000 Y53.0101
G01 X0.9999 Y53.0101
G01 X1.0000 Y53.0102
G01 X1.0000 Y53.0101
G00 Z1.0000
G00 X1.0000 Y55.5501
G01 F15.00
G01 Z-2.6000
G01 F120.00
G01 X1.0000 Y55.5501
G01 X0.9999 Y55.5501
G01 X1.0000 Y55.5502
G01 X1.0000 Y55.5501
G00 Z1.0000
G00 X1.0000 Y58.0901
G01 F15.00
G01 Z-2.6000
G01 F120.00
G01 X1.0000 Y58.0901
G01 X0.9999 Y58.0901
G01 X1.0000 Y58.0902
G01 X1.0000 Y58.0901
G00 Z1.0000
G00 X1.0000 Y60.6301
G01 F15.00
G01 Z-2.6000
G01 F120.00
G01 X1.0000 Y60.6301
G01 X0.9999 Y60.6301
G01 X1.0000 Y60.6302
G01 X1.0000 Y60.6301
G00 Z1.0000
G00 X1.0000 Y63.1701
G01 F15.00
G01 Z-2.6000
G01 F120.00
G01 X1.0000 Y63.1701
G01 X0.9999 Y63.1701
G01 X1.0000 Y63.1702
G01 X1.0000 Y63.1701
G00 Z1.0000
G00 X1.0000 Y65.7101
G01 F15.00
G01 Z-2.6000
G01 F120.00
G01 X1.0000 Y65.7101
G01 X0.9999 Y65.7101
G01 X1.0000 Y65.7102
G01 X1.0000 Y65.7101
G00 Z1.0000
G00 X1.0000 Y68.2501
G01 F15.00
G01 Z-2.6000
G01 F120.00
G01 X1.0000 Y68.2501
G01 X0.9999 Y68.2501
G01 X1.0000 Y68.2502
G01 X1.0000 Y68.2501
G00 Z1.0000
G00 X1.0000 Y70.7901
G01 F15.00
G01 Z-2.6000
G01 F120.00
G01 X1.0000 Y70.7901
G01 X0.9999 Y70.7901
G01 X1.0000 Y70.7902
G01 X1.0000 Y70.7901
G00 Z1.0000
G00 X1.0000 Y73.3301
G01 F15.00
G01 Z-2.6000
G01 F120.00
G01 X1.0000 Y73.3301
G01 X0.9999 Y73.3301
G01 X1.0000 Y73.3302
G01 X1.0000 Y73.3301
G00 Z1.0000
G00 X1.0000 Y75.8701
G01 F15.00
G01 Z-2.6000
G01 F120.00
G01 X1.0000 Y75.8701
G01 X0.9999 Y75.8701
G01 X1.0000 Y75.8702
G01 X1.0000 Y75.8701
G00 Z1.0000
G00 X1.0000 Y78.4101
G01 F15.00
G01 Z-2.6000
G01 F120.00
G01 X1.0000 Y78.4101
G01 X0.9999 Y78.4101
G01 X1.0000 Y78.4102
G01 X1.0000 Y78.4101
G00 Z1.0000
G00 X1.0000 Y80.9501
G01 F15.00
G01 Z-2.6000
G01 F120.00
G01 X1.0000 Y80.9501
G01 X0.9999 Y80.9501
G01 X1.0000 Y80.9502
G01 X1.0000 Y80.9501
G00 Z1.0000
G00 X1.0000 Y83.4901
G01 F15.00
G01 Z-2.6000
G01 F120.00
G01 X1.0000 Y83.4901
G01 X0.9999 Y83.4901
G01 X1.0000 Y83.4902
G01 X1.0000 Y83.4901
G00 Z1.0000
G00 X1.0000 Y86.0301
G01 F15.00
G01 Z-2.6000
G01 F120.00
G01 X1.0000 Y86.0301
G01 X0.9999 Y86.0301
G01 X1.0000 Y86.0302
G01 X1.0000 Y86.0301
G00 Z1.0000
G00 X1.0000 Y88.5701
G01 F15.00
G01 Z-2.6000
G01 F120.00
G01 X1.0000 Y88.5701
G01 X0.9999 Y88.5701
G01 X1.0000 Y88.5702
G01 X1.0000 Y88.5701
G00 Z1.0000
G00 X1.0000 Y91.1101
G01 F15.00
G01 Z-2.6000
G01 F120.00
G01 X1.0000 Y91.1101
G01 X0.9999 Y91.1101
G01 X1.0000 Y91.1102
G01 X1.0000 Y91.1101
G00 Z1.0000
G00 X1.0000 Y93.6501
G01 F15.00
G01 Z-2.6000
G01 F120.00
G01 X1.0000 Y93.6501
G01 X0.9999 Y93.6501
G01 X1.0000 Y93.6502
G01 X1.0000 Y93.6501
G00 Z1.0000
G00 X35.9403 Y80.6707
G01 F15.00
G01 Z-2.6000
G01 F120.00
G01 X35.9402 Y80.6707
G01 X35.9402 Y80.6707
G01 X35.9402 Y80.6708
G01 X35.9403 Y80.6707
G00 Z1.0000
G00 X35.9403 Y73.0507
G01 F15.00
G01 Z-2.6000
G01 F120.00
G01 X35.9402 Y73.0507
G01 X35.9402 Y73.0507
G01 X35.9402 Y73.0508
G01 X35.9403 Y73.0507
G00 Z1.0000
G00 X35.9403 Y67.4195
G01 F15.00
G01 Z-2.6000
G01 F120.00
G01 X35.9402 Y67.4195
G01 X35.9402 Y67.4195
G01 X35.9402 Y67.4196
G01 X35.9403 Y67.4195
G00 Z1.0000
G00 X35.9403 Y59.7995
G01 F15.00
G01 Z-2.6000
G01 F120.00
G01 X35.9402 Y59.7995
G01 X35.9402 Y59.7995
G01 X35.9402 Y59.7996
G01 X35.9403 Y59.7995
G00 Z1.0000
G00 X38.1907 Y49.7996
G01 F15.00
G01 Z-2.6000
G01 F120.00
G01 X38.1907 Y49.7995
G01 X38.1906 Y49.7996
G01 X38.1907 Y49.7996
G01 X38.1907 Y49.7996
G00 Z1.0000
G00 X35.2900 Y49.5506
G01 F15.00
G01 Z-2.6000
G01 F120.00
G01 X35.2900 Y49.5506
G01 X35.2899 Y49.5506
G01 X35.2900 Y49.5507
G01 X35.2900 Y49.5506
G00 Z1.0000
G00 X38.1907 Y43.5512
G01 F15.00
G01 Z-2.6000
G01 F120.00
G01 X38.1907 Y43.5511
G01 X38.1906 Y43.5512
G01 X38.1907 Y43.5512
G01 X38.1907 Y43.5512
G00 Z1.0000
G00 X38.3457 Y39.3576
G01 F15.00
G01 Z-2.6000
G01 F120.00
G01 X38.3456 Y39.3576
G01 X38.3456 Y39.3576
G01 X38.3456 Y39.3577
G01 X38.3457 Y39.3576
G00 Z1.0000
G00 X38.3457 Y36.8176
G01 F15.00
G01 Z-2.6000
G01 F120.00
G01 X38.3456 Y36.8176
G01 X38.3456 Y36.8176
G01 X38.3456 Y36.8177
G01 X38.3457 Y36.8176
G00 Z1.0000
G00 X38.3457 Y34.2776
G01 F15.00
G01 Z-2.6000
G01 F120.00
G01 X38.3456 Y34.2776
G01 X38.3456 Y34.2776
G01 X38.3456 Y34.2777
G01 X38.3457 Y34.2776
G00 Z1.0000
G00 X38.3457 Y31.7376
G01 F15.00
G01 Z-2.6000
G01 F120.00
G01 X38.3456 Y31.7376
G01 X38.3456 Y31.7376
G01 X38.3456 Y31.7377
G01 X38.3457 Y31.7376
G00 Z1.0000
G00 X35.2900 Y29.2992
G01 F15.00
G01 Z-2.6000
G01 F120.00
G01 X35.2900 Y29.2992
G01 X35.2899 Y29.2992
G01 X35.2900 Y29.2993
G01 X35.2900 Y29.2992
G00 Z1.0000
G00 X31.3962 Y34.3614
G01 F15.00
G01 Z-2.6000
G01 F120.00
G01 X31.3962 Y34.3614
G01 X31.3961 Y34.3614
G01 X31.3962 Y34.3615
G01 X31.3962 Y34.3614
G00 Z1.0000
G00 X31.3962 Y36.8608
G01 F15.00
G01 Z-2.6000
G01 F120.00
G01 X31.3962 Y36.8607
G01 X31.3961 Y36.8608
G01 X31.3962 Y36.8608
G01 X31.3962 Y36.8608
G00 Z1.0000
G00 X24.1217 Y35.8016
G01 F15.00
G01 Z-2.6000
G01 F120.00
G01 X24.1216 Y35.8016
G01 X24.1216 Y35.8016
G01 X24.1216 Y35.8017
G01 X24.1217 Y35.8016
G00 Z1.0000
G00 X16.5017 Y35.8016
G01 F15.00
G01 Z-2.6000
G01 F120.00
G01 X16.5016 Y35.8016
G01 X16.5016 Y35.8016
G01 X16.5016 Y35.8017
G01 X16.5017 Y35.8016
G00 Z1.0000
G00 X21.4750 Y28.1562
G01 F15.00
G01 Z-2.6000
G01 F120.00
G01 X21.4749 Y28.1562
G01 X21.4749 Y28.1562
G01 X21.4749 Y28.1563
G01 X21.4750 Y28.1562
G00 Z1.0000
G00 X23.8677 Y23.6553
G01 F15.00
G01 Z-2.6000
G01 F120.00
G01 X23.8676 Y23.6553
G01 X23.8676 Y23.6553
G01 X23.8676 Y23.6554
G01 X23.8677 Y23.6553
G00 Z1.0000
G00 X17.9393 Y21.1103
G01 F15.00
G01 Z-2.6000
G01 F120.00
G01 X17.9393 Y21.1102
G01 X17.9392 Y21.1103
G01 X17.9393 Y21.1103
G01 X17.9393 Y21.1103
G00 Z1.0000
G00 X17.9393 Y13.4903
G01 F15.00
G01 Z-2.6000
G01 F120.00
G01 X17.9393 Y13.4902
G01 X17.9392 Y13.4903
G01 X17.9393 Y13.4903
G01 X17.9393 Y13.4903
G00 Z1.0000
G00 X21.6096 Y11.0493
G01 F15.00
G01 Z-2.6000
G01 F120.00
G01 X21.6096 Y11.0493
G01 X21.6095 Y11.0493
G01 X21.6096 Y11.0494
G01 X21.6096 Y11.0493
G00 Z1.0000
G00 X31.7696 Y11.0493
G01 F15.00
G01 Z-2.6000
G01 F120.00
G01 X31.7696 Y11.0493
G01 X31.7695 Y11.0493
G01 X31.7696 Y11.0494
G01 X31.7696 Y11.0493
G00 Z1.0000
G00 X30.9543 Y16.4062
G01 F15.00
G01 Z-2.6000
G01 F120.00
G01 X30.9542 Y16.4061
G01 X30.9542 Y16.4062
G01 X30.9542 Y16.4062
G01 X30.9543 Y16.4062
G00 Z1.0000
G00 X33.4536 Y16.4062
G01 F15.00
G01 Z-2.6000
G01 F120.00
G01 X33.4536 Y16.4061
G01 X33.4535 Y16.4062
G01 X33.4536 Y16.4062
G01 X33.4536 Y16.4062
G00 Z1.0000
G00 X31.4877 Y23.6553
G01 F15.00
G01 Z-2.6000
G01 F120.00
G01 X31.4876 Y23.6553
G01 X31.4876 Y23.6553
G01 X31.4876 Y23.6554
G01 X31.4877 Y23.6553
G00 Z1.0000
G00 X45.9657 Y31.7376
G01 F15.00
G01 Z-2.6000
G01 F120.00
G01 X45.9656 Y31.7376
G01 X45.9656 Y31.7376
G01 X45.9656 Y31.7377
G01 X45.9657 Y31.7376
G00 Z1.0000
G00 X45.9657 Y34.2776
G01 F15.00
G01 Z-2.6000
G01 F120.00
G01 X45.9656 Y34.2776
G01 X45.9656 Y34.2776
G01 X45.9656 Y34.2777
G01 X45.9657 Y34.2776
G00 Z1.0000
G00 X45.9657 Y36.8176
G01 F15.00
G01 Z-2.6000
G01 F120.00
G01 X45.9656 Y36.8176
G01 X45.9656 Y36.8176
G01 X45.9656 Y36.8177
G01 X45.9657 Y36.8176
G00 Z1.0000
G00 X45.9657 Y39.3576
G01 F15.00
G01 Z-2.6000
G01 F120.00
G01 X45.9656 Y39.3576
G01 X45.9656 Y39.3576
G01 X45.9656 Y39.3577
G01 X45.9657 Y39.3576
G00 Z1.0000
G00 X54.4391 Y40.8003
G01 F15.00
G01 Z-2.6000
G01 F120.00
G01 X54.4391 Y40.8003
G01 X54.4390 Y40.8003
G01 X54.4391 Y40.8004
G01 X54.4391 Y40.8003
G00 Z1.0000
G00 X60.9390 Y40.8003
G01 F15.00
G01 Z-2.6000
G01 F120.00
G01 X60.9389 Y40.8003
G01 X60.9389 Y40.8003
G01 X60.9389 Y40.8004
G01 X60.9390 Y40.8003
G00 Z1.0000
G00 X62.9506 Y33.5004
G01 F15.00
G01 Z-2.6000
G01 F120.00
G01 X62.9506 Y33.5003
G01 X62.9505 Y33.5004
G01 X62.9506 Y33.5004
G01 X62.9506 Y33.5004
G00 Z1.0000
G00 X62.9405 Y27.5492
G01 F15.00
G01 Z-2.6000
G01 F120.00
G01 X62.9404 Y27.5491
G01 X62.9404 Y27.5492
G01 X62.9404 Y27.5492
G01 X62.9405 Y27.5492
G00 Z1.0000
G00 X62.9405 Y25.0092
G01 F15.00
G01 Z-2.6000
G01 F120.00
G01 X62.9404 Y25.0091
G01 X62.9404 Y25.0092
G01 X62.9404 Y25.0092
G01 X62.9405 Y25.0092
G00 Z1.0000
G00 X62.9405 Y22.4692
G01 F15.00
G01 Z-2.6000
G01 F120.00
G01 X62.9404 Y22.4691
G01 X62.9404 Y22.4692
G01 X62.9404 Y22.4692
G01 X62.9405 Y22.4692
G00 Z1.0000
G00 X62.9405 Y19.9292
G01 F15.00
G01 Z-2.6000
G01 F120.00
G01 X62.9404 Y19.9291
G01 X62.9404 Y19.9292
G01 X62.9404 Y19.9292
G01 X62.9405 Y19.9292
G00 Z1.0000
G00 X68.8892 Y19.9393
G01 F15.00
G01 Z-2.6000
G01 F120.00
G01 X68.8891 Y19.9393
G01 X68.8891 Y19.9393
G01 X68.8891 Y19.9394
G01 X68.8892 Y19.9393
G00 Z1.0000
G00 X68.8892 Y27.5593
G01 F15.00
G01 Z-2.6000
G01 F120.00
G01 X68.8891 Y27.5593
G01 X68.8891 Y27.5593
G01 X68.8891 Y27.5594
G01 X68.8892 Y27.5593
G00 Z1.0000
G00 X81.0100 Y26.3401
G01 F15.00
G01 Z-2.6000
G01 F120.00
G01 X81.0100 Y26.3401
G01 X81.0099 Y26.3401
G01 X81.0100 Y26.3402
G01 X81.0100 Y26.3401
G00 Z1.0000
G00 X81.0100 Y23.8001
G01 F15.00
G01 Z-2.6000
G01 F120.00
G01 X81.0100 Y23.8001
G01 X81.0099 Y23.8001
G01 X81.0100 Y23.8002
G01 X81.0100 Y23.8001
G00 Z1.0000
G00 X81.0100 Y21.2601
G01 F15.00
G01 Z-2.6000
G01 F120.00
G01 X81.0100 Y21.2601
G01 X81.0099 Y21.2601
G01 X81.0100 Y21.2602
G01 X81.0100 Y21.2601
G00 Z1.0000
G00 X81.0100 Y18.7201
G01 F15.00
G01 Z-2.6000
G01 F120.00
G01 X81.0100 Y18.7201
G01 X81.0099 Y18.7201
G01 X81.0100 Y18.7202
G01 X81.0100 Y18.7201
G00 Z1.0000
G00 X81.0100 Y16.1801
G01 F15.00
G01 Z-2.6000
G01 F120.00
G01 X81.0100 Y16.1801
G01 X81.0099 Y16.1801
G01 X81.0100 Y16.1802
G01 X81.0100 Y16.1801
G00 Z1.0000
G00 X81.0100 Y13.6401
G01 F15.00
G01 Z-2.6000
G01 F120.00
G01 X81.0100 Y13.6401
G01 X81.0099 Y13.6401
G01 X81.0100 Y13.6402
G01 X81.0100 Y13.6401
G00 Z1.0000
G00 X81.0100 Y11.1001
G01 F15.00
G01 Z-2.6000
G01 F120.00
G01 X81.0100 Y11.1001
G01 X81.0099 Y11.1001
G01 X81.0100 Y11.1002
G01 X81.0100 Y11.1001
G00 Z1.0000
G00 X81.0100 Y8.5601
G01 F15.00
G01 Z-2.6000
G01 F120.00
G01 X81.0100 Y8.5601
G01 X81.0099 Y8.5601
G01 X81.0100 Y8.5602
G01 X81.0100 Y8.5601
G00 Z1.0000
G00 X81.0100 Y6.0201
G01 F15.00
G01 Z-2.6000
G01 F120.00
G01 X81.0100 Y6.0201
G01 X81.0099 Y6.0201
G01 X81.0100 Y6.0202
G01 X81.0100 Y6.0201
G00 Z1.0000
G00 X81.0100 Y3.4801
G01 F15.00
G01 Z-2.6000
G01 F120.00
G01 X81.0100 Y3.4801
G01 X81.0099 Y3.4801
G01 X81.0100 Y3.4802
G01 X81.0100 Y3.4801
G00 Z1.0000
G00 X77.6903 Y6.0506
G01 F15.00
G01 Z-2.6000
G01 F120.00
G01 X77.6902 Y6.0505
G01 X77.6902 Y6.0506
G01 X77.6902 Y6.0506
G01 X77.6903 Y6.0506
G00 Z1.0000
G00 X77.6903 Y13.5512
G01 F15.00
G01 Z-2.6000
G01 F120.00
G01 X77.6902 Y13.5512
G01 X77.6902 Y13.5512
G01 X77.6902 Y13.5513
G01 X77.6903 Y13.5512
G00 Z1.0000
G00 X81.0100 Y28.8801
G01 F15.00
G01 Z-2.6000
G01 F120.00
G01 X81.0100 Y28.8801
G01 X81.0099 Y28.8801
G01 X81.0100 Y28.8802
G01 X81.0100 Y28.8801
G00 Z1.0000
G00 X81.0100 Y31.4201
G01 F15.00
G01 Z-2.6000
G01 F120.00
G01 X81.0100 Y31.4201
G01 X81.0099 Y31.4201
G01 X81.0100 Y31.4202
G01 X81.0100 Y31.4201
G00 Z1.0000
G00 X81.0100 Y33.9601
G01 F15.00
G01 Z-2.6000
G01 F120.00
G01 X81.0100 Y33.9601
G01 X81.0099 Y33.9601
G01 X81.0100 Y33.9602
G01 X81.0100 Y33.9601
G00 Z1.0000
G00 X81.0100 Y36.5001
G01 F15.00
G01 Z-2.6000
G01 F120.00
G01 X81.0100 Y36.5001
G01 X81.0099 Y36.5001
G01 X81.0100 Y36.5002
G01 X81.0100 Y36.5001
G00 Z1.0000
G00 X81.0100 Y39.0401
G01 F15.00
G01 Z-2.6000
G01 F120.00
G01 X81.0100 Y39.0401
G01 X81.0099 Y39.0401
G01 X81.0100 Y39.0402
G01 X81.0100 Y39.0401
G00 Z1.0000
G00 X81.0100 Y41.5801
G01 F15.00
G01 Z-2.6000
G01 F120.00
G01 X81.0100 Y41.5801
G01 X81.0099 Y41.5801
G01 X81.0100 Y41.5802
G01 X81.0100 Y41.5801
G00 Z1.0000
G00 X81.0100 Y44.1201
G01 F15.00
G01 Z-2.6000
G01 F120.00
G01 X81.0100 Y44.1201
G01 X81.0099 Y44.1201
G01 X81.0100 Y44.1202
G01 X81.0100 Y44.1201
G00 Z1.0000
G00 X81.0100 Y46.6601
G01 F15.00
G01 Z-2.6000
G01 F120.00
G01 X81.0100 Y46.6601
G01 X81.0099 Y46.6601
G01 X81.0100 Y46.6602
G01 X81.0100 Y46.6601
G00 Z1.0000
G00 X81.0100 Y49.2001
G01 F15.00
G01 Z-2.6000
G01 F120.00
G01 X81.0100 Y49.2001
G01 X81.0099 Y49.2001
G01 X81.0100 Y49.2002
G01 X81.0100 Y49.2001
G00 Z1.0000
G00 X81.0100 Y51.7401
G01 F15.00
G01 Z-2.6000
G01 F120.00
G01 X81.0100 Y51.7401
G01 X81.0099 Y51.7401
G01 X81.0100 Y51.7402
G01 X81.0100 Y51.7401
G00 Z1.0000
G00 X81.0100 Y54.2801
G01 F15.00
G01 Z-2.6000
G01 F120.00
G01 X81.0100 Y54.2801
G01 X81.0099 Y54.2801
G01 X81.0100 Y54.2802
G01 X81.0100 Y54.2801
G00 Z1.0000
G00 X81.0100 Y56.8201
G01 F15.00
G01 Z-2.6000
G01 F120.00
G01 X81.0100 Y56.8201
G01 X81.0099 Y56.8201
G01 X81.0100 Y56.8202
G01 X81.0100 Y56.8201
G00 Z1.0000
G00 X81.0100 Y59.3601
G01 F15.00
G01 Z-2.6000
G01 F120.00
G01 X81.0100 Y59.3601
G01 X81.0099 Y59.3601
G01 X81.0100 Y59.3602
G01 X81.0100 Y59.3601
G00 Z1.0000
G00 X81.0100 Y61.9001
G01 F15.00
G01 Z-2.6000
G01 F120.00
G01 X81.0100 Y61.9001
G01 X81.0099 Y61.9001
G01 X81.0100 Y61.9002
G01 X81.0100 Y61.9001
G00 Z1.0000
G00 X81.0100 Y64.4401
G01 F15.00
G01 Z-2.6000
G01 F120.00
G01 X81.0100 Y64.4401
G01 X81.0099 Y64.4401
G01 X81.0100 Y64.4402
G01 X81.0100 Y64.4401
G00 Z1.0000
G00 X81.0100 Y66.9801
G01 F15.00
G01 Z-2.6000
G01 F120.00
G01 X81.0100 Y66.9801
G01 X81.0099 Y66.9801
G01 X81.0100 Y66.9802
G01 X81.0100 Y66.9801
G00 Z1.0000
G00 X81.0100 Y69.5201
G01 F15.00
G01 Z-2.6000
G01 F120.00
G01 X81.0100 Y69.5201
G01 X81.0099 Y69.5201
G01 X81.0100 Y69.5202
G01 X81.0100 Y69.5201
G00 Z1.0000
G00 X81.0100 Y75.8701
G01 F15.00
G01 Z-2.6000
G01 F120.00
G01 X81.0100 Y75.8701
G01 X81.0099 Y75.8701
G01 X81.0100 Y75.8702
G01 X81.0100 Y75.8701
G00 Z1.0000
G00 X81.0100 Y78.4101
G01 F15.00
G01 Z-2.6000
G01 F120.00
G01 X81.0100 Y78.4101
G01 X81.0099 Y78.4101
G01 X81.0100 Y78.4102
G01 X81.0100 Y78.4101
G00 Z1.0000
G00 X81.0100 Y80.9501
G01 F15.00
G01 Z-2.6000
G01 F120.00
G01 X81.0100 Y80.9501
G01 X81.0099 Y80.9501
G01 X81.0100 Y80.9502
G01 X81.0100 Y80.9501
G00 Z1.0000
G00 X81.0100 Y83.4901
G01 F15.00
G01 Z-2.6000
G01 F120.00
G01 X81.0100 Y83.4901
G01 X81.0099 Y83.4901
G01 X81.0100 Y83.4902
G01 X81.0100 Y83.4901
G00 Z1.0000
G00 X81.0100 Y86.0301
G01 F15.00
G01 Z-2.6000
G01 F120.00
G01 X81.0100 Y86.0301
G01 X81.0099 Y86.0301
G01 X81.0100 Y86.0302
G01 X81.0100 Y86.0301
G00 Z1.0000
G00 X81.0100 Y88.5701
G01 F15.00
G01 Z-2.6000
G01 F120.00
G01 X81.0100 Y88.5701
G01 X81.0099 Y88.5701
G01 X81.0100 Y88.5702
G01 X81.0100 Y88.5701
G00 Z1.0000
G00 X81.0100 Y91.1101
G01 F15.00
G01 Z-2.6000
G01 F120.00
G01 X81.0100 Y91.1101
G01 X81.0099 Y91.1101
G01 X81.0100 Y91.1102
G01 X81.0100 Y91.1101
G00 Z1.0000
G00 X81.0100 Y93.6501
G01 F15.00
G01 Z-2.6000
G01 F120.00
G01 X81.0100 Y93.6501
G01 X81.0099 Y93.6501
G01 X81.0100 Y93.6502
G01 X81.0100 Y93.6501
G00 Z1.0000
G00 X77.4388 Y90.8002
G01 F15.00
G01 Z-2.6000
G01 F120.00
G01 X77.4388 Y90.8002
G01 X77.4387 Y90.8002
G01 X77.4388 Y90.8003
G01 X77.4388 Y90.8002
G00 Z1.0000
G00 X65.2493 Y85.1106
G01 F15.00
G01 Z-2.6000
G01 F120.00
G01 X65.2493 Y85.1106
G01 X65.2492 Y85.1106
G01 X65.2493 Y85.1107
G01 X65.2493 Y85.1106
G00 Z1.0000
G00 X65.2493 Y82.5706
G01 F15.00
G01 Z-2.6000
G01 F120.00
G01 X65.2493 Y82.5706
G01 X65.2492 Y82.5706
G01 X65.2493 Y82.5707
G01 X65.2493 Y82.5706
G00 Z1.0000
G00 X65.2493 Y80.0306
G01 F15.00
G01 Z-2.6000
G01 F120.00
G01 X65.2493 Y80.0306
G01 X65.2492 Y80.0306
G01 X65.2493 Y80.0307
G01 X65.2493 Y80.0306
G00 Z1.0000
G00 X65.2493 Y77.4906
G01 F15.00
G01 Z-2.6000
G01 F120.00
G01 X65.2493 Y77.4906
G01 X65.2492 Y77.4906
G01 X65.2493 Y77.4907
G01 X65.2493 Y77.4906
G00 Z1.0000
G00 X65.8107 Y71.3007
G01 F15.00
G01 Z-2.6000
G01 F120.00
G01 X65.8106 Y71.3006
G01 X65.8106 Y71.3007
G01 X65.8106 Y71.3007
G01 X65.8107 Y71.3007
G00 Z1.0000
G00 X58.1907 Y71.3007
G01 F15.00
G01 Z-2.6000
G01 F120.00
G01 X58.1906 Y71.3006
G01 X58.1906 Y71.3007
G01 X58.1906 Y71.3007
G01 X58.1907 Y71.3007
G00 Z1.0000
G00 X57.6293 Y77.4906
G01 F15.00
G01 Z-2.6000
G01 F120.00
G01 X57.6293 Y77.4906
G01 X57.6292 Y77.4906
G01 X57.6293 Y77.4907
G01 X57.6293 Y77.4906
G00 Z1.0000
G00 X57.6293 Y80.0306
G01 F15.00
G01 Z-2.6000
G01 F120.00
G01 X57.6293 Y80.0306
G01 X57.6292 Y80.0306
G01 X57.6293 Y80.0307
G01 X57.6293 Y80.0306
G00 Z1.0000
G00 X57.6293 Y82.5706
G01 F15.00
G01 Z-2.6000
G01 F120.00
G01 X57.6293 Y82.5706
G01 X57.6292 Y82.5706
G01 X57.6293 Y82.5707
G01 X57.6293 Y82.5706
G00 Z1.0000
G00 X57.6293 Y85.1106
G01 F15.00
G01 Z-2.6000
G01 F120.00
G01 X57.6293 Y85.1106
G01 X57.6292 Y85.1106
G01 X57.6293 Y85.1107
G01 X57.6293 Y85.1106
G00 Z1.0000
G00 X57.4388 Y90.8002
G01 F15.00
G01 Z-2.6000
G01 F120.00
G01 X57.4388 Y90.8002
G01 X57.4387 Y90.8002
G01 X57.4388 Y90.8003
G01 X57.4388 Y90.8002
G00 Z1.0000
G00 X47.6903 Y80.6098
G01 F15.00
G01 Z-2.6000
G01 F120.00
G01 X47.6903 Y80.6097
G01 X47.6902 Y80.6098
G01 X47.6903 Y80.6098
G01 X47.6903 Y80.6098
G00 Z1.0000
G00 X47.6903 Y72.9898
G01 F15.00
G01 Z-2.6000
G01 F120.00
G01 X47.6903 Y72.9897
G01 X47.6902 Y72.9898
G01 X47.6903 Y72.9898
G01 X47.6903 Y72.9898
G00 Z1.0000
G00 X54.5712 Y63.8000
G01 F15.00
G01 Z-2.6000
G01 F120.00
G01 X54.5711 Y63.8000
G01 X54.5711 Y63.8000
G01 X54.5711 Y63.8001
G01 X54.5712 Y63.8000
G00 Z1.0000
G00 X54.6296 Y56.2994
G01 F15.00
G01 Z-2.6000
G01 F120.00
G01 X54.6296 Y56.2994
G01 X54.6295 Y56.2994
G01 X54.6296 Y56.2995
G01 X54.6296 Y56.2994
G00 Z1.0000
G00 X62.2496 Y56.2994
G01 F15.00
G01 Z-2.6000
G01 F120.00
G01 X62.2496 Y56.2994
G01 X62.2495 Y56.2994
G01 X62.2496 Y56.2995
G01 X62.2496 Y56.2994
G00 Z1.0000
G00 X62.1912 Y63.8000
G01 F15.00
G01 Z-2.6000
G01 F120.00
G01 X62.1911 Y63.8000
G01 X62.1911 Y63.8000
G01 X62.1911 Y63.8001
G01 X62.1912 Y63.8000
G00 Z1.0000
G00 X55.3306 Y33.5004
G01 F15.00
G01 Z-2.6000
G01 F120.00
G01 X55.3306 Y33.5003
G01 X55.3305 Y33.5004
G01 X55.3306 Y33.5004
G01 X55.3306 Y33.5004
G00 Z1.0000
G00 X55.3205 Y27.5492
G01 F15.00
G01 Z-2.6000
G01 F120.00
G01 X55.3204 Y27.5491
G01 X55.3204 Y27.5492
G01 X55.3204 Y27.5492
G01 X55.3205 Y27.5492
G00 Z1.0000
G00 X55.3205 Y25.0092
G01 F15.00
G01 Z-2.6000
G01 F120.00
G01 X55.3204 Y25.0091
G01 X55.3204 Y25.0092
G01 X55.3204 Y25.0092
G01 X55.3205 Y25.0092
G00 Z1.0000
G00 X55.3205 Y22.4692
G01 F15.00
G01 Z-2.6000
G01 F120.00
G01 X55.3204 Y22.4691
G01 X55.3204 Y22.4692
G01 X55.3204 Y22.4692
G01 X55.3205 Y22.4692
G00 Z1.0000
G00 X55.3205 Y19.9292
G01 F15.00
G01 Z-2.6000
G01 F120.00
G01 X55.3204 Y19.9291
G01 X55.3204 Y19.9292
G01 X55.3204 Y19.9292
G01 X55.3205 Y19.9292
G00 Z1.0000
G00 X11.3150 Y28.1562
G01 F15.00
G01 Z-2.6000
G01 F120.00
G01 X11.3149 Y28.1562
G01 X11.3149 Y28.1562
G01 X11.3149 Y28.1563
G01 X11.3150 Y28.1562
G00 Z1.0000
G00 X13.6899 Y47.8006
G01 F15.00
G01 Z-2.6000
G01 F120.00
G01 X13.6898 Y47.8005
G01 X13.6898 Y47.8006
G01 X13.6898 Y47.8006
G01 X13.6899 Y47.8006
G00 Z1.0000
G00 X7.6904 Y47.8006
G01 F15.00
G01 Z-2.6000
G01 F120.00
G01 X7.6904 Y47.8005
G01 X7.6903 Y47.8006
G01 X7.6904 Y47.8006
G01 X7.6904 Y47.8006
G00 Z1.0000
G00 X8.8410 Y55.6543
G01 F15.00
G01 Z-2.6000
G01 F120.00
G01 X8.8410 Y55.6542
G01 X8.8409 Y55.6543
G01 X8.8410 Y55.6543
G01 X8.8410 Y55.6543
G00 Z1.0000
G00 X11.3810 Y55.6543
G01 F15.00
G01 Z-2.6000
G01 F120.00
G01 X11.3810 Y55.6542
G01 X11.3809 Y55.6543
G01 X11.3810 Y55.6543
G01 X11.3810 Y55.6543
G00 Z1.0000
G00 X13.9210 Y55.6543
G01 F15.00
G01 Z-2.6000
G01 F120.00
G01 X13.9210 Y55.6542
G01 X13.9209 Y55.6543
G01 X13.9210 Y55.6543
G01 X13.9210 Y55.6543
G00 Z1.0000
M05
G00 Z1.0000
G00 Z15.00


