(G-CODE GENERATED BY FLATCAM v8.994 - www.flatcam.org - Version Date: 2020/11/7)

(Name: teste-CNC-PTH.drl_mill_cnc)
(Type: G-code from Geometry)
(Units: MM)

(Created on sexta, 04 agosto 2023 at 20:00)

(This preprocessor is the default preprocessor used by FlatCAM.)
(It is made to work with MACH3 compatible motion controllers.)

(TOOL DIAMETER: 0.8 mm)
(Feedrate_XY: 120.0 mm/min)
(Feedrate_Z: 10.0 mm/min)
(Feedrate rapids 1500.0 mm/min)

(Z_Cut: -2.8 mm)
(Z_Move: 1.0 mm)
(Z Start: None mm)
(Z End: 15.0 mm)
(X,Y End: None mm)
(Steps per circle: 64)
(Preprocessor Geometry: default)

(X range:    0.8995 ...   41.1001  mm)
(Y range:    0.8998 ...    6.1805  mm)

(Spindle Speed: 1000.0 RPM)
G21
G90
G94

G01 F120.00

M5
G00 Z15.0000
G00 X0.0000 Y0.0000
T1
M6    
(MSG, Change to Tool Dia = 0.80000)
M0
G00 Z15.0000

M03 S1000.0
G01 F120.00
G00 X1.1002 Y1.0001
G01 F10.00
G01 Z-2.8000
G01 F120.00
G01 X1.0997 Y0.9903
G01 X1.0983 Y0.9806
G01 X1.0959 Y0.9710
G01 X1.0926 Y0.9617
G01 X1.0884 Y0.9528
G01 X1.0833 Y0.9444
G01 X1.0774 Y0.9365
G01 X1.0708 Y0.9292
G01 X1.0635 Y0.9225
G01 X1.0556 Y0.9167
G01 X1.0472 Y0.9116
G01 X1.0383 Y0.9074
G01 X1.0290 Y0.9041
G01 X1.0194 Y0.9017
G01 X1.0097 Y0.9002
G01 X0.9998 Y0.8998
G01 X0.9900 Y0.9002
G01 X0.9803 Y0.9017
G01 X0.9707 Y0.9041
G01 X0.9614 Y0.9074
G01 X0.9525 Y0.9116
G01 X0.9441 Y0.9167
G01 X0.9362 Y0.9225
G01 X0.9289 Y0.9292
G01 X0.9222 Y0.9365
G01 X0.9164 Y0.9444
G01 X0.9113 Y0.9528
G01 X0.9071 Y0.9617
G01 X0.9038 Y0.9710
G01 X0.9014 Y0.9806
G01 X0.8999 Y0.9903
G01 X0.8995 Y1.0001
G01 X0.8999 Y1.0100
G01 X0.9014 Y1.0197
G01 X0.9038 Y1.0293
G01 X0.9071 Y1.0386
G01 X0.9113 Y1.0475
G01 X0.9164 Y1.0559
G01 X0.9222 Y1.0638
G01 X0.9289 Y1.0711
G01 X0.9362 Y1.0777
G01 X0.9441 Y1.0836
G01 X0.9525 Y1.0887
G01 X0.9614 Y1.0929
G01 X0.9707 Y1.0962
G01 X0.9803 Y1.0986
G01 X0.9900 Y1.1000
G01 X0.9998 Y1.1005
G01 X1.0097 Y1.1000
G01 X1.0194 Y1.0986
G01 X1.0290 Y1.0962
G01 X1.0383 Y1.0929
G01 X1.0472 Y1.0887
G01 X1.0556 Y1.0836
G01 X1.0635 Y1.0777
G01 X1.0708 Y1.0711
G01 X1.0774 Y1.0638
G01 X1.0833 Y1.0559
G01 X1.0884 Y1.0475
G01 X1.0926 Y1.0386
G01 X1.0959 Y1.0293
G01 X1.0983 Y1.0197
G01 X1.0997 Y1.0100
G01 X1.1002 Y1.0001
G00 Z1.0000
G00 X1.1002 Y3.5401
G01 F10.00
G01 Z-2.8000
G01 F120.00
G01 X1.0997 Y3.5303
G01 X1.0983 Y3.5206
G01 X1.0959 Y3.5110
G01 X1.0926 Y3.5017
G01 X1.0884 Y3.4928
G01 X1.0833 Y3.4844
G01 X1.0774 Y3.4765
G01 X1.0708 Y3.4692
G01 X1.0635 Y3.4625
G01 X1.0556 Y3.4567
G01 X1.0472 Y3.4516
G01 X1.0383 Y3.4474
G01 X1.0290 Y3.4441
G01 X1.0194 Y3.4417
G01 X1.0097 Y3.4402
G01 X0.9998 Y3.4398
G01 X0.9900 Y3.4402
G01 X0.9803 Y3.4417
G01 X0.9707 Y3.4441
G01 X0.9614 Y3.4474
G01 X0.9525 Y3.4516
G01 X0.9441 Y3.4567
G01 X0.9362 Y3.4625
G01 X0.9289 Y3.4692
G01 X0.9222 Y3.4765
G01 X0.9164 Y3.4844
G01 X0.9113 Y3.4928
G01 X0.9071 Y3.5017
G01 X0.9038 Y3.5110
G01 X0.9014 Y3.5206
G01 X0.8999 Y3.5303
G01 X0.8995 Y3.5401
G01 X0.8999 Y3.5500
G01 X0.9014 Y3.5597
G01 X0.9038 Y3.5693
G01 X0.9071 Y3.5786
G01 X0.9113 Y3.5875
G01 X0.9164 Y3.5959
G01 X0.9222 Y3.6038
G01 X0.9289 Y3.6111
G01 X0.9362 Y3.6177
G01 X0.9441 Y3.6236
G01 X0.9525 Y3.6287
G01 X0.9614 Y3.6329
G01 X0.9707 Y3.6362
G01 X0.9803 Y3.6386
G01 X0.9900 Y3.6400
G01 X0.9998 Y3.6405
G01 X1.0097 Y3.6400
G01 X1.0194 Y3.6386
G01 X1.0290 Y3.6362
G01 X1.0383 Y3.6329
G01 X1.0472 Y3.6287
G01 X1.0556 Y3.6236
G01 X1.0635 Y3.6177
G01 X1.0708 Y3.6111
G01 X1.0774 Y3.6038
G01 X1.0833 Y3.5959
G01 X1.0884 Y3.5875
G01 X1.0926 Y3.5786
G01 X1.0959 Y3.5693
G01 X1.0983 Y3.5597
G01 X1.0997 Y3.5500
G01 X1.1002 Y3.5401
G00 Z1.0000
G00 X1.1002 Y6.0801
G01 F10.00
G01 Z-2.8000
G01 F120.00
G01 X1.0997 Y6.0703
G01 X1.0983 Y6.0606
G01 X1.0959 Y6.0510
G01 X1.0926 Y6.0417
G01 X1.0884 Y6.0328
G01 X1.0833 Y6.0244
G01 X1.0774 Y6.0165
G01 X1.0708 Y6.0092
G01 X1.0635 Y6.0025
G01 X1.0556 Y5.9967
G01 X1.0472 Y5.9916
G01 X1.0383 Y5.9874
G01 X1.0290 Y5.9841
G01 X1.0194 Y5.9817
G01 X1.0097 Y5.9802
G01 X0.9998 Y5.9798
G01 X0.9900 Y5.9802
G01 X0.9803 Y5.9817
G01 X0.9707 Y5.9841
G01 X0.9614 Y5.9874
G01 X0.9525 Y5.9916
G01 X0.9441 Y5.9967
G01 X0.9362 Y6.0025
G01 X0.9289 Y6.0092
G01 X0.9222 Y6.0165
G01 X0.9164 Y6.0244
G01 X0.9113 Y6.0328
G01 X0.9071 Y6.0417
G01 X0.9038 Y6.0510
G01 X0.9014 Y6.0606
G01 X0.8999 Y6.0703
G01 X0.8995 Y6.0801
G01 X0.8999 Y6.0900
G01 X0.9014 Y6.0997
G01 X0.9038 Y6.1093
G01 X0.9071 Y6.1186
G01 X0.9113 Y6.1275
G01 X0.9164 Y6.1359
G01 X0.9222 Y6.1438
G01 X0.9289 Y6.1511
G01 X0.9362 Y6.1577
G01 X0.9441 Y6.1636
G01 X0.9525 Y6.1687
G01 X0.9614 Y6.1729
G01 X0.9707 Y6.1762
G01 X0.9803 Y6.1786
G01 X0.9900 Y6.1800
G01 X0.9998 Y6.1805
G01 X1.0097 Y6.1800
G01 X1.0194 Y6.1786
G01 X1.0290 Y6.1762
G01 X1.0383 Y6.1729
G01 X1.0472 Y6.1687
G01 X1.0556 Y6.1636
G01 X1.0635 Y6.1577
G01 X1.0708 Y6.1511
G01 X1.0774 Y6.1438
G01 X1.0833 Y6.1359
G01 X1.0884 Y6.1275
G01 X1.0926 Y6.1186
G01 X1.0959 Y6.1093
G01 X1.0983 Y6.0997
G01 X1.0997 Y6.0900
G01 X1.1002 Y6.0801
G00 Z1.0000
G00 X41.1001 Y6.0801
G01 F10.00
G01 Z-2.8000
G01 F120.00
G01 X41.0997 Y6.0703
G01 X41.0982 Y6.0606
G01 X41.0958 Y6.0510
G01 X41.0925 Y6.0417
G01 X41.0883 Y6.0328
G01 X41.0832 Y6.0244
G01 X41.0774 Y6.0165
G01 X41.0707 Y6.0092
G01 X41.0634 Y6.0025
G01 X41.0555 Y5.9967
G01 X41.0471 Y5.9916
G01 X41.0382 Y5.9874
G01 X41.0289 Y5.9841
G01 X41.0193 Y5.9817
G01 X41.0096 Y5.9802
G01 X40.9998 Y5.9798
G01 X40.9899 Y5.9802
G01 X40.9802 Y5.9817
G01 X40.9706 Y5.9841
G01 X40.9613 Y5.9874
G01 X40.9524 Y5.9916
G01 X40.9440 Y5.9967
G01 X40.9361 Y6.0025
G01 X40.9288 Y6.0092
G01 X40.9222 Y6.0165
G01 X40.9163 Y6.0244
G01 X40.9112 Y6.0328
G01 X40.9070 Y6.0417
G01 X40.9037 Y6.0510
G01 X40.9013 Y6.0606
G01 X40.8999 Y6.0703
G01 X40.8994 Y6.0801
G01 X40.8999 Y6.0900
G01 X40.9013 Y6.0997
G01 X40.9037 Y6.1093
G01 X40.9070 Y6.1186
G01 X40.9112 Y6.1275
G01 X40.9163 Y6.1359
G01 X40.9222 Y6.1438
G01 X40.9288 Y6.1511
G01 X40.9361 Y6.1577
G01 X40.9440 Y6.1636
G01 X40.9524 Y6.1687
G01 X40.9613 Y6.1729
G01 X40.9706 Y6.1762
G01 X40.9802 Y6.1786
G01 X40.9899 Y6.1800
G01 X40.9998 Y6.1805
G01 X41.0096 Y6.1800
G01 X41.0193 Y6.1786
G01 X41.0289 Y6.1762
G01 X41.0382 Y6.1729
G01 X41.0471 Y6.1687
G01 X41.0555 Y6.1636
G01 X41.0634 Y6.1577
G01 X41.0707 Y6.1511
G01 X41.0774 Y6.1438
G01 X41.0832 Y6.1359
G01 X41.0883 Y6.1275
G01 X41.0925 Y6.1186
G01 X41.0958 Y6.1093
G01 X41.0982 Y6.0997
G01 X41.0997 Y6.0900
G01 X41.1001 Y6.0801
G00 Z1.0000
G00 X41.1001 Y3.5401
G01 F10.00
G01 Z-2.8000
G01 F120.00
G01 X41.0997 Y3.5303
G01 X41.0982 Y3.5206
G01 X41.0958 Y3.5110
G01 X41.0925 Y3.5017
G01 X41.0883 Y3.4928
G01 X41.0832 Y3.4844
G01 X41.0774 Y3.4765
G01 X41.0707 Y3.4692
G01 X41.0634 Y3.4625
G01 X41.0555 Y3.4567
G01 X41.0471 Y3.4516
G01 X41.0382 Y3.4474
G01 X41.0289 Y3.4441
G01 X41.0193 Y3.4417
G01 X41.0096 Y3.4402
G01 X40.9998 Y3.4398
G01 X40.9899 Y3.4402
G01 X40.9802 Y3.4417
G01 X40.9706 Y3.4441
G01 X40.9613 Y3.4474
G01 X40.9524 Y3.4516
G01 X40.9440 Y3.4567
G01 X40.9361 Y3.4625
G01 X40.9288 Y3.4692
G01 X40.9222 Y3.4765
G01 X40.9163 Y3.4844
G01 X40.9112 Y3.4928
G01 X40.9070 Y3.5017
G01 X40.9037 Y3.5110
G01 X40.9013 Y3.5206
G01 X40.8999 Y3.5303
G01 X40.8994 Y3.5401
G01 X40.8999 Y3.5500
G01 X40.9013 Y3.5597
G01 X40.9037 Y3.5693
G01 X40.9070 Y3.5786
G01 X40.9112 Y3.5875
G01 X40.9163 Y3.5959
G01 X40.9222 Y3.6038
G01 X40.9288 Y3.6111
G01 X40.9361 Y3.6177
G01 X40.9440 Y3.6236
G01 X40.9524 Y3.6287
G01 X40.9613 Y3.6329
G01 X40.9706 Y3.6362
G01 X40.9802 Y3.6386
G01 X40.9899 Y3.6400
G01 X40.9998 Y3.6405
G01 X41.0096 Y3.6400
G01 X41.0193 Y3.6386
G01 X41.0289 Y3.6362
G01 X41.0382 Y3.6329
G01 X41.0471 Y3.6287
G01 X41.0555 Y3.6236
G01 X41.0634 Y3.6177
G01 X41.0707 Y3.6111
G01 X41.0774 Y3.6038
G01 X41.0832 Y3.5959
G01 X41.0883 Y3.5875
G01 X41.0925 Y3.5786
G01 X41.0958 Y3.5693
G01 X41.0982 Y3.5597
G01 X41.0997 Y3.5500
G01 X41.1001 Y3.5401
G00 Z1.0000
G00 X41.1001 Y1.0001
G01 F10.00
G01 Z-2.8000
G01 F120.00
G01 X41.0997 Y0.9903
G01 X41.0982 Y0.9806
G01 X41.0958 Y0.9710
G01 X41.0925 Y0.9617
G01 X41.0883 Y0.9528
G01 X41.0832 Y0.9444
G01 X41.0774 Y0.9365
G01 X41.0707 Y0.9292
G01 X41.0634 Y0.9225
G01 X41.0555 Y0.9167
G01 X41.0471 Y0.9116
G01 X41.0382 Y0.9074
G01 X41.0289 Y0.9041
G01 X41.0193 Y0.9017
G01 X41.0096 Y0.9002
G01 X40.9998 Y0.8998
G01 X40.9899 Y0.9002
G01 X40.9802 Y0.9017
G01 X40.9706 Y0.9041
G01 X40.9613 Y0.9074
G01 X40.9524 Y0.9116
G01 X40.9440 Y0.9167
G01 X40.9361 Y0.9225
G01 X40.9288 Y0.9292
G01 X40.9222 Y0.9365
G01 X40.9163 Y0.9444
G01 X40.9112 Y0.9528
G01 X40.9070 Y0.9617
G01 X40.9037 Y0.9710
G01 X40.9013 Y0.9806
G01 X40.8999 Y0.9903
G01 X40.8994 Y1.0001
G01 X40.8999 Y1.0100
G01 X40.9013 Y1.0197
G01 X40.9037 Y1.0293
G01 X40.9070 Y1.0386
G01 X40.9112 Y1.0475
G01 X40.9163 Y1.0559
G01 X40.9222 Y1.0638
G01 X40.9288 Y1.0711
G01 X40.9361 Y1.0777
G01 X40.9440 Y1.0836
G01 X40.9524 Y1.0887
G01 X40.9613 Y1.0929
G01 X40.9706 Y1.0962
G01 X40.9802 Y1.0986
G01 X40.9899 Y1.1000
G01 X40.9998 Y1.1005
G01 X41.0096 Y1.1000
G01 X41.0193 Y1.0986
G01 X41.0289 Y1.0962
G01 X41.0382 Y1.0929
G01 X41.0471 Y1.0887
G01 X41.0555 Y1.0836
G01 X41.0634 Y1.0777
G01 X41.0707 Y1.0711
G01 X41.0774 Y1.0638
G01 X41.0832 Y1.0559
G01 X41.0883 Y1.0475
G01 X41.0925 Y1.0386
G01 X41.0958 Y1.0293
G01 X41.0982 Y1.0197
G01 X41.0997 Y1.0100
G01 X41.1001 Y1.0001
G00 Z1.0000
M05
G00 Z1.0000
G00 Z15.00


