(G-CODE GENERATED BY FLATCAM v8.994 - www.flatcam.org - Version Date: 2020/11/7)

(Name: teste-CNC-B_Cu.gbr_iso_combined_cnc)
(Type: G-code from Geometry)
(Units: MM)

(Created on sexta, 04 agosto 2023 at 19:32)

(This preprocessor is the default preprocessor used by FlatCAM.)
(It is made to work with MACH3 compatible motion controllers.)

(TOOL DIAMETER: 0.23 mm)
(Feedrate_XY: 60.0 mm/min)
(Feedrate_Z: 60.0 mm/min)
(Feedrate rapids 1500.0 mm/min)

(Z_Cut: -0.08507 mm)
(Z_Move: 1.0 mm)
(Z Start: None mm)
(Z End: 15.0 mm)
(X,Y End: None mm)
(Steps per circle: 64)
(Preprocessor Geometry: default)

(X range:   -0.4600 ...   42.4600  mm)
(Y range:   -0.4600 ...    7.0400  mm)

(Spindle Speed: 1000.0 RPM)
G21
G90
G94

G01 F60.00

M5
G00 Z15.0000
G00 X0.0000 Y0.0000
T1
M6    
(MSG, Change to Tool Dia = 0.23000)
M0
G00 Z15.0000

M03 S1000.0
G01 F60.00
G00 X0.7500 Y-0.1150
G01 F60.00
G01 Z-0.0851
G01 F60.00
G01 X1.2528 Y-0.1150
G01 X1.3348 Y-0.1108
G01 X1.4132 Y-0.0993
G01 X1.4215 Y-0.0978
G01 X1.5011 Y-0.0778
G01 X1.5758 Y-0.0512
G01 X1.5862 Y-0.0469
G01 X1.6578 Y-0.0129
G01 X1.7258 Y0.0278
G01 X1.7352 Y0.0340
G01 X1.7988 Y0.0813
G01 X1.8579 Y0.1347
G01 X40.1421 Y0.1347
G01 X40.2012 Y0.0813
G01 X40.2648 Y0.0340
G01 X40.2742 Y0.0278
G01 X40.3422 Y-0.0129
G01 X40.4138 Y-0.0469
G01 X40.4242 Y-0.0512
G01 X40.4989 Y-0.0778
G01 X40.5785 Y-0.0978
G01 X40.5868 Y-0.0993
G01 X40.6652 Y-0.1108
G01 X40.7472 Y-0.1150
G01 X41.2528 Y-0.1150
G01 X41.3348 Y-0.1108
G01 X41.4188 Y-0.0984
G01 X41.5011 Y-0.0778
G01 X41.5810 Y-0.0492
G01 X41.6578 Y-0.0129
G01 X41.7306 Y0.0308
G01 X41.7988 Y0.0813
G01 X41.8616 Y0.1384
G01 X41.9187 Y0.2012
G01 X41.9692 Y0.2694
G01 X42.0129 Y0.3422
G01 X42.0492 Y0.4190
G01 X42.0778 Y0.4989
G01 X42.0984 Y0.5812
G01 X42.1108 Y0.6652
G01 X42.1149 Y0.7444
G01 X42.1150 Y0.7528
G01 X42.1108 Y0.8348
G01 X42.0984 Y0.9188
G01 X42.0778 Y1.0011
G01 X42.0492 Y1.0810
G01 X42.0129 Y1.1578
G01 X41.9692 Y1.2306
G01 X41.9187 Y1.2988
G01 X41.8616 Y1.3616
G01 X41.7988 Y1.4187
G01 X41.7306 Y1.4692
G01 X41.6578 Y1.5129
G01 X41.5810 Y1.5492
G01 X41.5011 Y1.5778
G01 X41.4188 Y1.5984
G01 X41.3348 Y1.6108
G01 X41.2528 Y1.6150
G01 X40.7472 Y1.6150
G01 X40.6652 Y1.6108
G01 X40.5868 Y1.5993
G01 X40.5785 Y1.5978
G01 X40.4989 Y1.5778
G01 X40.4242 Y1.5512
G01 X40.4138 Y1.5469
G01 X40.3422 Y1.5129
G01 X40.2742 Y1.4722
G01 X40.2648 Y1.4660
G01 X40.2012 Y1.4187
G01 X40.1421 Y1.3652
G01 X1.8579 Y1.3652
G01 X1.7988 Y1.4187
G01 X1.7352 Y1.4660
G01 X1.7258 Y1.4722
G01 X1.6578 Y1.5129
G01 X1.5862 Y1.5469
G01 X1.5758 Y1.5512
G01 X1.5011 Y1.5778
G01 X1.4215 Y1.5978
G01 X1.4132 Y1.5993
G01 X1.3348 Y1.6108
G01 X1.2528 Y1.6150
G01 X0.7472 Y1.6150
G01 X0.6652 Y1.6108
G01 X0.5812 Y1.5984
G01 X0.4989 Y1.5778
G01 X0.4190 Y1.5492
G01 X0.3422 Y1.5129
G01 X0.2694 Y1.4692
G01 X0.2012 Y1.4187
G01 X0.1384 Y1.3616
G01 X0.0813 Y1.2988
G01 X0.0308 Y1.2306
G01 X-0.0129 Y1.1578
G01 X-0.0492 Y1.0810
G01 X-0.0778 Y1.0011
G01 X-0.0984 Y0.9188
G01 X-0.1108 Y0.8348
G01 X-0.1150 Y0.7500
G01 X-0.1108 Y0.6652
G01 X-0.0984 Y0.5812
G01 X-0.0778 Y0.4989
G01 X-0.0492 Y0.4190
G01 X-0.0129 Y0.3422
G01 X0.0308 Y0.2694
G01 X0.0813 Y0.2012
G01 X0.1384 Y0.1384
G01 X0.2012 Y0.0813
G01 X0.2694 Y0.0308
G01 X0.3422 Y-0.0129
G01 X0.4190 Y-0.0492
G01 X0.4989 Y-0.0778
G01 X0.5812 Y-0.0984
G01 X0.6652 Y-0.1108
G01 X0.7500 Y-0.1150
G00 Z1.0000
G00 X0.7500 Y-0.2300
G01 F60.00
G01 Z-0.0851
G01 F60.00
G01 X1.2556 Y-0.2299
G01 X1.3348 Y-0.2261
G01 X1.3461 Y-0.2253
G01 X1.4301 Y-0.2131
G01 X1.4467 Y-0.2100
G01 X1.5236 Y-0.1908
G01 X1.5345 Y-0.1878
G01 X1.5452 Y-0.1843
G01 X1.6250 Y-0.1554
G01 X1.6354 Y-0.1508
G01 X1.7070 Y-0.1169
G01 X1.7218 Y-0.1087
G01 X1.7849 Y-0.0709
G01 X1.7991 Y-0.0616
G01 X1.8673 Y-0.0111
G01 X1.8760 Y-0.0039
G01 X1.9022 Y0.0197
G01 X40.0978 Y0.0197
G01 X40.1240 Y-0.0039
G01 X40.1327 Y-0.0111
G01 X40.2009 Y-0.0616
G01 X40.2151 Y-0.0709
G01 X40.2782 Y-0.1087
G01 X40.2930 Y-0.1169
G01 X40.3646 Y-0.1508
G01 X40.3750 Y-0.1554
G01 X40.3855 Y-0.1595
G01 X40.4655 Y-0.1878
G01 X40.4764 Y-0.1908
G01 X40.5533 Y-0.2100
G01 X40.5699 Y-0.2131
G01 X40.6539 Y-0.2253
G01 X40.6652 Y-0.2261
G01 X40.7444 Y-0.2299
G01 X41.2556 Y-0.2299
G01 X41.3348 Y-0.2261
G01 X41.3461 Y-0.2253
G01 X41.3573 Y-0.2239
G01 X41.4412 Y-0.2112
G01 X41.5236 Y-0.1908
G01 X41.5345 Y-0.1878
G01 X41.5452 Y-0.1843
G01 X41.6250 Y-0.1554
G01 X41.7019 Y-0.1194
G01 X41.7120 Y-0.1143
G01 X41.7218 Y-0.1087
G01 X41.7945 Y-0.0648
G01 X41.8037 Y-0.0583
G01 X41.8717 Y-0.0076
G01 X41.9348 Y0.0493
G01 X41.9430 Y0.0570
G01 X41.9507 Y0.0652
G01 X42.0076 Y0.1283
G01 X42.0145 Y0.1372
G01 X42.0648 Y0.2055
G01 X42.1087 Y0.2782
G01 X42.1143 Y0.2880
G01 X42.1194 Y0.2981
G01 X42.1554 Y0.3750
G01 X42.1843 Y0.4548
G01 X42.1878 Y0.4655
G01 X42.1908 Y0.4764
G01 X42.2112 Y0.5588
G01 X42.2239 Y0.6427
G01 X42.2253 Y0.6539
G01 X42.2297 Y0.7387
G01 X42.2299 Y0.7556
G01 X42.2261 Y0.8348
G01 X42.2253 Y0.8461
G01 X42.2131 Y0.9301
G01 X42.2112 Y0.9412
G01 X42.1908 Y1.0236
G01 X42.1878 Y1.0345
G01 X42.1843 Y1.0452
G01 X42.1554 Y1.1250
G01 X42.1194 Y1.2019
G01 X42.1143 Y1.2120
G01 X42.1087 Y1.2218
G01 X42.0648 Y1.2945
G01 X42.0583 Y1.3037
G01 X42.0076 Y1.3717
G01 X41.9507 Y1.4348
G01 X41.9430 Y1.4430
G01 X41.9348 Y1.4507
G01 X41.8717 Y1.5076
G01 X41.8037 Y1.5583
G01 X41.7945 Y1.5648
G01 X41.7849 Y1.5709
G01 X41.7120 Y1.6143
G01 X41.6354 Y1.6508
G01 X41.6250 Y1.6554
G01 X41.5452 Y1.6843
G01 X41.5345 Y1.6878
G01 X41.5236 Y1.6908
G01 X41.4412 Y1.7112
G01 X41.4301 Y1.7131
G01 X41.3461 Y1.7253
G01 X41.3348 Y1.7261
G01 X41.2556 Y1.7299
G01 X40.7444 Y1.7299
G01 X40.6652 Y1.7261
G01 X40.6539 Y1.7253
G01 X40.5699 Y1.7131
G01 X40.5533 Y1.7100
G01 X40.4764 Y1.6908
G01 X40.4655 Y1.6878
G01 X40.4548 Y1.6843
G01 X40.3750 Y1.6554
G01 X40.3646 Y1.6508
G01 X40.2930 Y1.6169
G01 X40.2782 Y1.6087
G01 X40.2151 Y1.5709
G01 X40.2009 Y1.5616
G01 X40.1327 Y1.5111
G01 X40.1240 Y1.5039
G01 X40.0978 Y1.4802
G01 X1.9022 Y1.4802
G01 X1.8760 Y1.5039
G01 X1.8673 Y1.5111
G01 X1.7991 Y1.5616
G01 X1.7849 Y1.5709
G01 X1.7218 Y1.6087
G01 X1.7070 Y1.6169
G01 X1.6354 Y1.6508
G01 X1.6250 Y1.6554
G01 X1.6145 Y1.6595
G01 X1.5345 Y1.6878
G01 X1.5236 Y1.6908
G01 X1.4467 Y1.7100
G01 X1.4301 Y1.7131
G01 X1.3461 Y1.7253
G01 X1.3348 Y1.7261
G01 X1.2556 Y1.7299
G01 X0.7444 Y1.7299
G01 X0.6652 Y1.7261
G01 X0.6539 Y1.7253
G01 X0.6427 Y1.7239
G01 X0.5588 Y1.7112
G01 X0.4764 Y1.6908
G01 X0.4655 Y1.6878
G01 X0.4548 Y1.6843
G01 X0.3750 Y1.6554
G01 X0.2981 Y1.6194
G01 X0.2880 Y1.6143
G01 X0.2782 Y1.6087
G01 X0.2055 Y1.5648
G01 X0.1372 Y1.5145
G01 X0.1283 Y1.5076
G01 X0.0652 Y1.4507
G01 X0.0570 Y1.4430
G01 X0.0493 Y1.4348
G01 X-0.0076 Y1.3717
G01 X-0.0583 Y1.3037
G01 X-0.0648 Y1.2945
G01 X-0.1087 Y1.2218
G01 X-0.1143 Y1.2120
G01 X-0.1194 Y1.2019
G01 X-0.1554 Y1.1250
G01 X-0.1595 Y1.1145
G01 X-0.1878 Y1.0345
G01 X-0.1908 Y1.0236
G01 X-0.2112 Y0.9412
G01 X-0.2239 Y0.8573
G01 X-0.2253 Y0.8461
G01 X-0.2261 Y0.8348
G01 X-0.2300 Y0.7500
G01 X-0.2297 Y0.7387
G01 X-0.2253 Y0.6539
G01 X-0.2239 Y0.6427
G01 X-0.2112 Y0.5588
G01 X-0.1908 Y0.4764
G01 X-0.1878 Y0.4655
G01 X-0.1843 Y0.4548
G01 X-0.1554 Y0.3750
G01 X-0.1194 Y0.2981
G01 X-0.1143 Y0.2880
G01 X-0.1087 Y0.2782
G01 X-0.0648 Y0.2055
G01 X-0.0145 Y0.1372
G01 X-0.0076 Y0.1283
G01 X0.0493 Y0.0652
G01 X0.0570 Y0.0570
G01 X0.0652 Y0.0493
G01 X0.1283 Y-0.0076
G01 X0.1963 Y-0.0583
G01 X0.2055 Y-0.0648
G01 X0.2782 Y-0.1087
G01 X0.2880 Y-0.1143
G01 X0.2981 Y-0.1194
G01 X0.3750 Y-0.1554
G01 X0.3855 Y-0.1595
G01 X0.4655 Y-0.1878
G01 X0.4764 Y-0.1908
G01 X0.5588 Y-0.2112
G01 X0.5699 Y-0.2131
G01 X0.6539 Y-0.2253
G01 X0.7387 Y-0.2297
G01 X0.7500 Y-0.2300
G00 Z1.0000
G00 X0.7500 Y-0.3450
G01 F60.00
G01 Z-0.0851
G01 F60.00
G01 X1.2585 Y-0.3449
G01 X1.3404 Y-0.3410
G01 X1.3573 Y-0.3397
G01 X1.3741 Y-0.3377
G01 X1.4469 Y-0.3269
G01 X1.4636 Y-0.3240
G01 X1.4801 Y-0.3202
G01 X1.5515 Y-0.3024
G01 X1.5679 Y-0.2978
G01 X1.5839 Y-0.2925
G01 X1.6532 Y-0.2677
G01 X1.6690 Y-0.2616
G01 X1.6845 Y-0.2548
G01 X1.7511 Y-0.2233
G01 X1.7662 Y-0.2157
G01 X1.7809 Y-0.2074
G01 X1.8440 Y-0.1695
G01 X1.8583 Y-0.1605
G01 X1.8722 Y-0.1507
G01 X1.9313 Y-0.1069
G01 X1.9461 Y-0.0953
G01 X40.0539 Y-0.0953
G01 X40.0687 Y-0.1069
G01 X40.1278 Y-0.1507
G01 X40.1417 Y-0.1605
G01 X40.1560 Y-0.1695
G01 X40.2191 Y-0.2074
G01 X40.2338 Y-0.2157
G01 X40.2489 Y-0.2233
G01 X40.3155 Y-0.2548
G01 X40.3310 Y-0.2616
G01 X40.3468 Y-0.2677
G01 X40.4161 Y-0.2925
G01 X40.4321 Y-0.2978
G01 X40.4485 Y-0.3024
G01 X40.5199 Y-0.3202
G01 X40.5364 Y-0.3240
G01 X40.5531 Y-0.3269
G01 X40.6259 Y-0.3377
G01 X40.6427 Y-0.3397
G01 X40.6596 Y-0.3410
G01 X40.7415 Y-0.3449
G01 X41.2585 Y-0.3449
G01 X41.3404 Y-0.3410
G01 X41.3573 Y-0.3397
G01 X41.3741 Y-0.3377
G01 X41.4469 Y-0.3269
G01 X41.4636 Y-0.3240
G01 X41.4801 Y-0.3202
G01 X41.5515 Y-0.3024
G01 X41.5679 Y-0.2978
G01 X41.5839 Y-0.2925
G01 X41.6532 Y-0.2677
G01 X41.6690 Y-0.2616
G01 X41.6845 Y-0.2548
G01 X41.7511 Y-0.2233
G01 X41.7662 Y-0.2157
G01 X41.7809 Y-0.2074
G01 X41.8440 Y-0.1695
G01 X41.8583 Y-0.1605
G01 X41.8722 Y-0.1507
G01 X41.9313 Y-0.1069
G01 X41.9447 Y-0.0964
G01 X41.9575 Y-0.0854
G01 X42.0120 Y-0.0360
G01 X42.0243 Y-0.0243
G01 X42.0360 Y-0.0120
G01 X42.0854 Y0.0425
G01 X42.0964 Y0.0553
G01 X42.1069 Y0.0687
G01 X42.1507 Y0.1278
G01 X42.1605 Y0.1417
G01 X42.1695 Y0.1560
G01 X42.2074 Y0.2191
G01 X42.2157 Y0.2338
G01 X42.2233 Y0.2489
G01 X42.2548 Y0.3155
G01 X42.2616 Y0.3310
G01 X42.2677 Y0.3468
G01 X42.2925 Y0.4161
G01 X42.2978 Y0.4321
G01 X42.3024 Y0.4485
G01 X42.3202 Y0.5199
G01 X42.3240 Y0.5364
G01 X42.3269 Y0.5531
G01 X42.3377 Y0.6259
G01 X42.3397 Y0.6427
G01 X42.3410 Y0.6596
G01 X42.3446 Y0.7331
G01 X42.3449 Y0.7585
G01 X42.3410 Y0.8404
G01 X42.3397 Y0.8573
G01 X42.3377 Y0.8741
G01 X42.3269 Y0.9469
G01 X42.3240 Y0.9636
G01 X42.3202 Y0.9801
G01 X42.3024 Y1.0515
G01 X42.2978 Y1.0679
G01 X42.2925 Y1.0839
G01 X42.2677 Y1.1532
G01 X42.2616 Y1.1690
G01 X42.2548 Y1.1845
G01 X42.2233 Y1.2511
G01 X42.2157 Y1.2662
G01 X42.2074 Y1.2809
G01 X42.1695 Y1.3440
G01 X42.1605 Y1.3583
G01 X42.1507 Y1.3722
G01 X42.1069 Y1.4313
G01 X42.0964 Y1.4447
G01 X42.0854 Y1.4575
G01 X42.0360 Y1.5120
G01 X42.0243 Y1.5243
G01 X42.0120 Y1.5360
G01 X41.9575 Y1.5854
G01 X41.9447 Y1.5964
G01 X41.9313 Y1.6069
G01 X41.8722 Y1.6507
G01 X41.8583 Y1.6605
G01 X41.8440 Y1.6695
G01 X41.7809 Y1.7074
G01 X41.7662 Y1.7157
G01 X41.7511 Y1.7233
G01 X41.6845 Y1.7548
G01 X41.6690 Y1.7616
G01 X41.6532 Y1.7677
G01 X41.5839 Y1.7925
G01 X41.5679 Y1.7978
G01 X41.5515 Y1.8024
G01 X41.4801 Y1.8202
G01 X41.4636 Y1.8240
G01 X41.4469 Y1.8269
G01 X41.3741 Y1.8377
G01 X41.3573 Y1.8397
G01 X41.3404 Y1.8410
G01 X41.2585 Y1.8449
G01 X40.7415 Y1.8449
G01 X40.6596 Y1.8410
G01 X40.6427 Y1.8397
G01 X40.6259 Y1.8377
G01 X40.5531 Y1.8269
G01 X40.5364 Y1.8240
G01 X40.5199 Y1.8202
G01 X40.4485 Y1.8024
G01 X40.4321 Y1.7978
G01 X40.4161 Y1.7925
G01 X40.3468 Y1.7677
G01 X40.3310 Y1.7616
G01 X40.3155 Y1.7548
G01 X40.2489 Y1.7233
G01 X40.2338 Y1.7157
G01 X40.2191 Y1.7074
G01 X40.1560 Y1.6695
G01 X40.1417 Y1.6605
G01 X40.1278 Y1.6507
G01 X40.0687 Y1.6069
G01 X40.0539 Y1.5952
G01 X1.9461 Y1.5952
G01 X1.9313 Y1.6069
G01 X1.8722 Y1.6507
G01 X1.8583 Y1.6605
G01 X1.8440 Y1.6695
G01 X1.7809 Y1.7074
G01 X1.7662 Y1.7157
G01 X1.7511 Y1.7233
G01 X1.6845 Y1.7548
G01 X1.6690 Y1.7616
G01 X1.6532 Y1.7677
G01 X1.5839 Y1.7925
G01 X1.5679 Y1.7978
G01 X1.5515 Y1.8024
G01 X1.4801 Y1.8202
G01 X1.4636 Y1.8240
G01 X1.4469 Y1.8269
G01 X1.3741 Y1.8377
G01 X1.3573 Y1.8397
G01 X1.3404 Y1.8410
G01 X1.2585 Y1.8449
G01 X0.7415 Y1.8449
G01 X0.6596 Y1.8410
G01 X0.6427 Y1.8397
G01 X0.6259 Y1.8377
G01 X0.5531 Y1.8269
G01 X0.5364 Y1.8240
G01 X0.5199 Y1.8202
G01 X0.4485 Y1.8024
G01 X0.4321 Y1.7978
G01 X0.4161 Y1.7925
G01 X0.3468 Y1.7677
G01 X0.3310 Y1.7616
G01 X0.3155 Y1.7548
G01 X0.2489 Y1.7233
G01 X0.2338 Y1.7157
G01 X0.2191 Y1.7074
G01 X0.1560 Y1.6695
G01 X0.1417 Y1.6605
G01 X0.1278 Y1.6507
G01 X0.0687 Y1.6069
G01 X0.0553 Y1.5964
G01 X0.0425 Y1.5854
G01 X-0.0120 Y1.5360
G01 X-0.0243 Y1.5243
G01 X-0.0360 Y1.5120
G01 X-0.0854 Y1.4575
G01 X-0.0964 Y1.4447
G01 X-0.1069 Y1.4313
G01 X-0.1507 Y1.3722
G01 X-0.1605 Y1.3583
G01 X-0.1695 Y1.3440
G01 X-0.2074 Y1.2809
G01 X-0.2157 Y1.2662
G01 X-0.2233 Y1.2511
G01 X-0.2548 Y1.1845
G01 X-0.2616 Y1.1690
G01 X-0.2677 Y1.1532
G01 X-0.2925 Y1.0839
G01 X-0.2978 Y1.0679
G01 X-0.3024 Y1.0515
G01 X-0.3202 Y0.9801
G01 X-0.3240 Y0.9636
G01 X-0.3269 Y0.9469
G01 X-0.3377 Y0.8741
G01 X-0.3397 Y0.8573
G01 X-0.3410 Y0.8404
G01 X-0.3446 Y0.7669
G01 X-0.3450 Y0.7500
G01 X-0.3446 Y0.7331
G01 X-0.3410 Y0.6596
G01 X-0.3397 Y0.6427
G01 X-0.3377 Y0.6259
G01 X-0.3269 Y0.5531
G01 X-0.3240 Y0.5364
G01 X-0.3202 Y0.5199
G01 X-0.3024 Y0.4485
G01 X-0.2978 Y0.4321
G01 X-0.2925 Y0.4161
G01 X-0.2677 Y0.3468
G01 X-0.2616 Y0.3310
G01 X-0.2548 Y0.3155
G01 X-0.2233 Y0.2489
G01 X-0.2157 Y0.2338
G01 X-0.2074 Y0.2191
G01 X-0.1695 Y0.1560
G01 X-0.1605 Y0.1417
G01 X-0.1507 Y0.1278
G01 X-0.1069 Y0.0687
G01 X-0.0964 Y0.0553
G01 X-0.0854 Y0.0425
G01 X-0.0360 Y-0.0120
G01 X-0.0243 Y-0.0243
G01 X-0.0120 Y-0.0360
G01 X0.0425 Y-0.0854
G01 X0.0553 Y-0.0964
G01 X0.0687 Y-0.1069
G01 X0.1278 Y-0.1507
G01 X0.1417 Y-0.1605
G01 X0.1560 Y-0.1695
G01 X0.2191 Y-0.2074
G01 X0.2338 Y-0.2157
G01 X0.2489 Y-0.2233
G01 X0.3155 Y-0.2548
G01 X0.3310 Y-0.2616
G01 X0.3468 Y-0.2677
G01 X0.4161 Y-0.2925
G01 X0.4321 Y-0.2978
G01 X0.4485 Y-0.3024
G01 X0.5199 Y-0.3202
G01 X0.5364 Y-0.3240
G01 X0.5531 Y-0.3269
G01 X0.6259 Y-0.3377
G01 X0.6427 Y-0.3397
G01 X0.6596 Y-0.3410
G01 X0.7331 Y-0.3446
G01 X0.7500 Y-0.3450
G00 Z1.0000
G00 X0.7500 Y-0.4600
G01 F60.00
G01 Z-0.0851
G01 F60.00
G01 X1.2613 Y-0.4599
G01 X1.3461 Y-0.4558
G01 X1.3686 Y-0.4542
G01 X1.3910 Y-0.4514
G01 X1.4638 Y-0.4406
G01 X1.4861 Y-0.4368
G01 X1.5081 Y-0.4318
G01 X1.5795 Y-0.4139
G01 X1.6012 Y-0.4079
G01 X1.6227 Y-0.4008
G01 X1.6920 Y-0.3760
G01 X1.7130 Y-0.3679
G01 X1.7234 Y-0.3634
G01 X1.8104 Y-0.3223
G01 X1.8204 Y-0.3171
G01 X1.8400 Y-0.3060
G01 X1.9032 Y-0.2682
G01 X1.9222 Y-0.2561
G01 X1.9407 Y-0.2431
G01 X1.9850 Y-0.2103
G01 X40.0150 Y-0.2103
G01 X40.0593 Y-0.2431
G01 X40.0778 Y-0.2561
G01 X40.0968 Y-0.2682
G01 X40.1600 Y-0.3060
G01 X40.1697 Y-0.3117
G01 X40.1896 Y-0.3223
G01 X40.2766 Y-0.3634
G01 X40.2974 Y-0.3721
G01 X40.3080 Y-0.3760
G01 X40.3773 Y-0.4008
G01 X40.3988 Y-0.4079
G01 X40.4205 Y-0.4139
G01 X40.4919 Y-0.4318
G01 X40.5139 Y-0.4368
G01 X40.5362 Y-0.4406
G01 X40.6090 Y-0.4514
G01 X40.6314 Y-0.4542
G01 X40.6539 Y-0.4558
G01 X40.7387 Y-0.4599
G01 X41.2613 Y-0.4599
G01 X41.3461 Y-0.4558
G01 X41.3686 Y-0.4542
G01 X41.3910 Y-0.4514
G01 X41.4638 Y-0.4406
G01 X41.4861 Y-0.4368
G01 X41.5081 Y-0.4318
G01 X41.5795 Y-0.4139
G01 X41.6012 Y-0.4079
G01 X41.6227 Y-0.4008
G01 X41.6920 Y-0.3760
G01 X41.7130 Y-0.3679
G01 X41.7337 Y-0.3587
G01 X41.8002 Y-0.3273
G01 X41.8204 Y-0.3171
G01 X41.8400 Y-0.3060
G01 X41.9032 Y-0.2682
G01 X41.9222 Y-0.2561
G01 X41.9407 Y-0.2431
G01 X41.9998 Y-0.1992
G01 X42.0176 Y-0.1853
G01 X42.0347 Y-0.1706
G01 X42.0892 Y-0.1212
G01 X42.1056 Y-0.1056
G01 X42.1212 Y-0.0892
G01 X42.1706 Y-0.0347
G01 X42.1853 Y-0.0176
G01 X42.1992 Y0.0002
G01 X42.2431 Y0.0593
G01 X42.2561 Y0.0778
G01 X42.2682 Y0.0968
G01 X42.3060 Y0.1600
G01 X42.3171 Y0.1796
G01 X42.3273 Y0.1998
G01 X42.3587 Y0.2663
G01 X42.3679 Y0.2870
G01 X42.3760 Y0.3080
G01 X42.4008 Y0.3773
G01 X42.4079 Y0.3988
G01 X42.4139 Y0.4205
G01 X42.4318 Y0.4919
G01 X42.4367 Y0.5139
G01 X42.4406 Y0.5362
G01 X42.4514 Y0.6090
G01 X42.4542 Y0.6314
G01 X42.4558 Y0.6539
G01 X42.4594 Y0.7274
G01 X42.4600 Y0.7500
G01 X42.4599 Y0.7613
G01 X42.4558 Y0.8461
G01 X42.4542 Y0.8686
G01 X42.4514 Y0.8910
G01 X42.4406 Y0.9638
G01 X42.4367 Y0.9861
G01 X42.4318 Y1.0081
G01 X42.4139 Y1.0795
G01 X42.4079 Y1.1012
G01 X42.4008 Y1.1227
G01 X42.3760 Y1.1920
G01 X42.3679 Y1.2130
G01 X42.3587 Y1.2337
G01 X42.3273 Y1.3002
G01 X42.3171 Y1.3204
G01 X42.3060 Y1.3400
G01 X42.2682 Y1.4032
G01 X42.2561 Y1.4222
G01 X42.2431 Y1.4407
G01 X42.1992 Y1.4998
G01 X42.1853 Y1.5176
G01 X42.1706 Y1.5347
G01 X42.1212 Y1.5892
G01 X42.1056 Y1.6056
G01 X42.0892 Y1.6212
G01 X42.0347 Y1.6706
G01 X42.0176 Y1.6853
G01 X41.9998 Y1.6992
G01 X41.9407 Y1.7431
G01 X41.9222 Y1.7561
G01 X41.9032 Y1.7682
G01 X41.8400 Y1.8060
G01 X41.8204 Y1.8171
G01 X41.8002 Y1.8273
G01 X41.7337 Y1.8587
G01 X41.7130 Y1.8679
G01 X41.6920 Y1.8760
G01 X41.6227 Y1.9008
G01 X41.6012 Y1.9079
G01 X41.5795 Y1.9139
G01 X41.5081 Y1.9318
G01 X41.4861 Y1.9367
G01 X41.4638 Y1.9406
G01 X41.3910 Y1.9514
G01 X41.3686 Y1.9542
G01 X41.3461 Y1.9558
G01 X41.2613 Y1.9599
G01 X40.7387 Y1.9599
G01 X40.6539 Y1.9558
G01 X40.6314 Y1.9542
G01 X40.6090 Y1.9514
G01 X40.5362 Y1.9406
G01 X40.5139 Y1.9367
G01 X40.4919 Y1.9318
G01 X40.4205 Y1.9139
G01 X40.3988 Y1.9079
G01 X40.3773 Y1.9008
G01 X40.3080 Y1.8760
G01 X40.2870 Y1.8679
G01 X40.2766 Y1.8634
G01 X40.1896 Y1.8223
G01 X40.1697 Y1.8117
G01 X40.1600 Y1.8060
G01 X40.0968 Y1.7682
G01 X40.0778 Y1.7561
G01 X40.0593 Y1.7431
G01 X40.0150 Y1.7102
G01 X1.9850 Y1.7102
G01 X1.9407 Y1.7431
G01 X1.9222 Y1.7561
G01 X1.9032 Y1.7682
G01 X1.8400 Y1.8060
G01 X1.8303 Y1.8117
G01 X1.8104 Y1.8223
G01 X1.7234 Y1.8634
G01 X1.7026 Y1.8721
G01 X1.6920 Y1.8760
G01 X1.6227 Y1.9008
G01 X1.6012 Y1.9079
G01 X1.5795 Y1.9139
G01 X1.5081 Y1.9318
G01 X1.4861 Y1.9367
G01 X1.4638 Y1.9406
G01 X1.3910 Y1.9514
G01 X1.3686 Y1.9542
G01 X1.3461 Y1.9558
G01 X1.2613 Y1.9599
G01 X0.7387 Y1.9599
G01 X0.6539 Y1.9558
G01 X0.6314 Y1.9542
G01 X0.6090 Y1.9514
G01 X0.5362 Y1.9406
G01 X0.5139 Y1.9367
G01 X0.4919 Y1.9318
G01 X0.4205 Y1.9139
G01 X0.3988 Y1.9079
G01 X0.3773 Y1.9008
G01 X0.3080 Y1.8760
G01 X0.2870 Y1.8679
G01 X0.2663 Y1.8587
G01 X0.1998 Y1.8273
G01 X0.1796 Y1.8171
G01 X0.1600 Y1.8060
G01 X0.0968 Y1.7682
G01 X0.0778 Y1.7561
G01 X0.0593 Y1.7431
G01 X0.0002 Y1.6992
G01 X-0.0176 Y1.6853
G01 X-0.0347 Y1.6706
G01 X-0.0892 Y1.6212
G01 X-0.1056 Y1.6056
G01 X-0.1212 Y1.5892
G01 X-0.1706 Y1.5347
G01 X-0.1853 Y1.5176
G01 X-0.1992 Y1.4998
G01 X-0.2431 Y1.4407
G01 X-0.2561 Y1.4222
G01 X-0.2682 Y1.4032
G01 X-0.3060 Y1.3400
G01 X-0.3171 Y1.3204
G01 X-0.3273 Y1.3002
G01 X-0.3587 Y1.2337
G01 X-0.3679 Y1.2130
G01 X-0.3760 Y1.1920
G01 X-0.4008 Y1.1227
G01 X-0.4079 Y1.1012
G01 X-0.4139 Y1.0795
G01 X-0.4318 Y1.0081
G01 X-0.4368 Y0.9861
G01 X-0.4406 Y0.9638
G01 X-0.4514 Y0.8910
G01 X-0.4542 Y0.8686
G01 X-0.4558 Y0.8461
G01 X-0.4594 Y0.7726
G01 X-0.4600 Y0.7500
G01 X-0.4594 Y0.7274
G01 X-0.4558 Y0.6539
G01 X-0.4542 Y0.6314
G01 X-0.4514 Y0.6090
G01 X-0.4406 Y0.5362
G01 X-0.4368 Y0.5139
G01 X-0.4318 Y0.4919
G01 X-0.4139 Y0.4205
G01 X-0.4079 Y0.3988
G01 X-0.4008 Y0.3773
G01 X-0.3760 Y0.3080
G01 X-0.3679 Y0.2870
G01 X-0.3587 Y0.2663
G01 X-0.3273 Y0.1998
G01 X-0.3171 Y0.1796
G01 X-0.3060 Y0.1600
G01 X-0.2682 Y0.0968
G01 X-0.2561 Y0.0778
G01 X-0.2431 Y0.0593
G01 X-0.1992 Y0.0002
G01 X-0.1853 Y-0.0176
G01 X-0.1706 Y-0.0347
G01 X-0.1212 Y-0.0892
G01 X-0.1056 Y-0.1056
G01 X-0.0892 Y-0.1212
G01 X-0.0347 Y-0.1706
G01 X-0.0176 Y-0.1853
G01 X0.0002 Y-0.1992
G01 X0.0593 Y-0.2431
G01 X0.0778 Y-0.2561
G01 X0.0968 Y-0.2682
G01 X0.1600 Y-0.3060
G01 X0.1796 Y-0.3171
G01 X0.1998 Y-0.3273
G01 X0.2663 Y-0.3587
G01 X0.2870 Y-0.3679
G01 X0.3080 Y-0.3760
G01 X0.3773 Y-0.4008
G01 X0.3988 Y-0.4079
G01 X0.4205 Y-0.4139
G01 X0.4919 Y-0.4318
G01 X0.5139 Y-0.4368
G01 X0.5362 Y-0.4406
G01 X0.6090 Y-0.4514
G01 X0.6314 Y-0.4542
G01 X0.6539 Y-0.4558
G01 X0.7274 Y-0.4594
G01 X0.7500 Y-0.4600
G00 Z1.0000
G00 X0.7500 Y2.0800
G01 F60.00
G01 Z-0.0851
G01 F60.00
G01 X1.2613 Y2.0801
G01 X1.3461 Y2.0842
G01 X1.3686 Y2.0858
G01 X1.3910 Y2.0886
G01 X1.4638 Y2.0994
G01 X1.4861 Y2.1032
G01 X1.5081 Y2.1082
G01 X1.5795 Y2.1261
G01 X1.6012 Y2.1321
G01 X1.6227 Y2.1392
G01 X1.6920 Y2.1640
G01 X1.7130 Y2.1721
G01 X1.7234 Y2.1766
G01 X1.8104 Y2.2177
G01 X1.8204 Y2.2229
G01 X1.8400 Y2.2340
G01 X1.9032 Y2.2718
G01 X1.9222 Y2.2839
G01 X1.9407 Y2.2969
G01 X1.9850 Y2.3297
G01 X40.0150 Y2.3297
G01 X40.0593 Y2.2969
G01 X40.0778 Y2.2839
G01 X40.0968 Y2.2718
G01 X40.1600 Y2.2340
G01 X40.1697 Y2.2283
G01 X40.1896 Y2.2177
G01 X40.2766 Y2.1766
G01 X40.2974 Y2.1679
G01 X40.3080 Y2.1640
G01 X40.3773 Y2.1392
G01 X40.3988 Y2.1321
G01 X40.4205 Y2.1261
G01 X40.4919 Y2.1082
G01 X40.5139 Y2.1032
G01 X40.5362 Y2.0994
G01 X40.6090 Y2.0886
G01 X40.6314 Y2.0858
G01 X40.6539 Y2.0842
G01 X40.7387 Y2.0801
G01 X41.2613 Y2.0801
G01 X41.3461 Y2.0842
G01 X41.3686 Y2.0858
G01 X41.3910 Y2.0886
G01 X41.4638 Y2.0994
G01 X41.4861 Y2.1032
G01 X41.5081 Y2.1082
G01 X41.5795 Y2.1261
G01 X41.6012 Y2.1321
G01 X41.6227 Y2.1392
G01 X41.6920 Y2.1640
G01 X41.7130 Y2.1721
G01 X41.7337 Y2.1813
G01 X41.8002 Y2.2127
G01 X41.8204 Y2.2229
G01 X41.8400 Y2.2340
G01 X41.9032 Y2.2718
G01 X41.9222 Y2.2839
G01 X41.9407 Y2.2969
G01 X41.9998 Y2.3408
G01 X42.0176 Y2.3547
G01 X42.0347 Y2.3694
G01 X42.0892 Y2.4188
G01 X42.1056 Y2.4344
G01 X42.1212 Y2.4508
G01 X42.1706 Y2.5053
G01 X42.1853 Y2.5224
G01 X42.1992 Y2.5402
G01 X42.2431 Y2.5993
G01 X42.2561 Y2.6178
G01 X42.2682 Y2.6368
G01 X42.3060 Y2.7000
G01 X42.3171 Y2.7196
G01 X42.3273 Y2.7398
G01 X42.3587 Y2.8063
G01 X42.3679 Y2.8270
G01 X42.3760 Y2.8480
G01 X42.4008 Y2.9173
G01 X42.4079 Y2.9388
G01 X42.4139 Y2.9605
G01 X42.4318 Y3.0319
G01 X42.4367 Y3.0539
G01 X42.4406 Y3.0762
G01 X42.4514 Y3.1490
G01 X42.4542 Y3.1714
G01 X42.4558 Y3.1939
G01 X42.4594 Y3.2674
G01 X42.4600 Y3.2900
G01 X42.4599 Y3.3013
G01 X42.4558 Y3.3861
G01 X42.4542 Y3.4086
G01 X42.4514 Y3.4310
G01 X42.4406 Y3.5038
G01 X42.4367 Y3.5261
G01 X42.4318 Y3.5481
G01 X42.4139 Y3.6195
G01 X42.4079 Y3.6412
G01 X42.4008 Y3.6627
G01 X42.3760 Y3.7320
G01 X42.3679 Y3.7530
G01 X42.3587 Y3.7737
G01 X42.3273 Y3.8402
G01 X42.3171 Y3.8604
G01 X42.3060 Y3.8800
G01 X42.2682 Y3.9432
G01 X42.2561 Y3.9622
G01 X42.2431 Y3.9807
G01 X42.1992 Y4.0398
G01 X42.1853 Y4.0576
G01 X42.1706 Y4.0747
G01 X42.1212 Y4.1292
G01 X42.1056 Y4.1456
G01 X42.0892 Y4.1612
G01 X42.0347 Y4.2106
G01 X42.0176 Y4.2253
G01 X41.9998 Y4.2392
G01 X41.9407 Y4.2831
G01 X41.9222 Y4.2961
G01 X41.9032 Y4.3082
G01 X41.8400 Y4.3460
G01 X41.8204 Y4.3571
G01 X41.8002 Y4.3673
G01 X41.7337 Y4.3987
G01 X41.7130 Y4.4079
G01 X41.6920 Y4.4160
G01 X41.6227 Y4.4408
G01 X41.6012 Y4.4479
G01 X41.5795 Y4.4539
G01 X41.5081 Y4.4718
G01 X41.4861 Y4.4767
G01 X41.4638 Y4.4806
G01 X41.3910 Y4.4914
G01 X41.3686 Y4.4942
G01 X41.3461 Y4.4958
G01 X41.2613 Y4.4999
G01 X40.7387 Y4.4999
G01 X40.6539 Y4.4958
G01 X40.6314 Y4.4942
G01 X40.6090 Y4.4914
G01 X40.5362 Y4.4806
G01 X40.5139 Y4.4767
G01 X40.4919 Y4.4718
G01 X40.4205 Y4.4539
G01 X40.3988 Y4.4479
G01 X40.3773 Y4.4408
G01 X40.3080 Y4.4160
G01 X40.2870 Y4.4079
G01 X40.2766 Y4.4034
G01 X40.1896 Y4.3623
G01 X40.1697 Y4.3517
G01 X40.1600 Y4.3460
G01 X40.0968 Y4.3082
G01 X40.0778 Y4.2961
G01 X40.0593 Y4.2831
G01 X40.0150 Y4.2502
G01 X1.9850 Y4.2502
G01 X1.9407 Y4.2831
G01 X1.9222 Y4.2961
G01 X1.9032 Y4.3082
G01 X1.8400 Y4.3460
G01 X1.8204 Y4.3571
G01 X1.8104 Y4.3623
G01 X1.7234 Y4.4034
G01 X1.7130 Y4.4079
G01 X1.6920 Y4.4160
G01 X1.6227 Y4.4408
G01 X1.6012 Y4.4479
G01 X1.5795 Y4.4539
G01 X1.5081 Y4.4718
G01 X1.4861 Y4.4767
G01 X1.4638 Y4.4806
G01 X1.3910 Y4.4914
G01 X1.3686 Y4.4942
G01 X1.3461 Y4.4958
G01 X1.2613 Y4.4999
G01 X0.7387 Y4.4999
G01 X0.6539 Y4.4958
G01 X0.6314 Y4.4942
G01 X0.6090 Y4.4914
G01 X0.5362 Y4.4806
G01 X0.5139 Y4.4767
G01 X0.4919 Y4.4718
G01 X0.4205 Y4.4539
G01 X0.3988 Y4.4479
G01 X0.3773 Y4.4408
G01 X0.3080 Y4.4160
G01 X0.2870 Y4.4079
G01 X0.2663 Y4.3987
G01 X0.1998 Y4.3673
G01 X0.1796 Y4.3571
G01 X0.1600 Y4.3460
G01 X0.0968 Y4.3082
G01 X0.0778 Y4.2961
G01 X0.0593 Y4.2831
G01 X0.0002 Y4.2392
G01 X-0.0176 Y4.2253
G01 X-0.0347 Y4.2106
G01 X-0.0892 Y4.1612
G01 X-0.1056 Y4.1456
G01 X-0.1212 Y4.1292
G01 X-0.1706 Y4.0747
G01 X-0.1853 Y4.0576
G01 X-0.1992 Y4.0398
G01 X-0.2431 Y3.9807
G01 X-0.2561 Y3.9622
G01 X-0.2682 Y3.9432
G01 X-0.3060 Y3.8800
G01 X-0.3171 Y3.8604
G01 X-0.3273 Y3.8402
G01 X-0.3587 Y3.7737
G01 X-0.3679 Y3.7530
G01 X-0.3760 Y3.7320
G01 X-0.4008 Y3.6627
G01 X-0.4079 Y3.6412
G01 X-0.4139 Y3.6195
G01 X-0.4318 Y3.5481
G01 X-0.4368 Y3.5261
G01 X-0.4406 Y3.5038
G01 X-0.4514 Y3.4310
G01 X-0.4542 Y3.4086
G01 X-0.4558 Y3.3861
G01 X-0.4594 Y3.3126
G01 X-0.4600 Y3.2900
G01 X-0.4594 Y3.2674
G01 X-0.4558 Y3.1939
G01 X-0.4542 Y3.1714
G01 X-0.4514 Y3.1490
G01 X-0.4406 Y3.0762
G01 X-0.4368 Y3.0539
G01 X-0.4318 Y3.0319
G01 X-0.4139 Y2.9605
G01 X-0.4079 Y2.9388
G01 X-0.4008 Y2.9173
G01 X-0.3760 Y2.8480
G01 X-0.3679 Y2.8270
G01 X-0.3587 Y2.8063
G01 X-0.3273 Y2.7398
G01 X-0.3171 Y2.7196
G01 X-0.3060 Y2.7000
G01 X-0.2682 Y2.6368
G01 X-0.2561 Y2.6178
G01 X-0.2431 Y2.5993
G01 X-0.1992 Y2.5402
G01 X-0.1853 Y2.5224
G01 X-0.1706 Y2.5053
G01 X-0.1212 Y2.4508
G01 X-0.1056 Y2.4344
G01 X-0.0892 Y2.4188
G01 X-0.0347 Y2.3694
G01 X-0.0176 Y2.3547
G01 X0.0002 Y2.3408
G01 X0.0593 Y2.2969
G01 X0.0778 Y2.2839
G01 X0.0968 Y2.2718
G01 X0.1600 Y2.2340
G01 X0.1796 Y2.2229
G01 X0.1998 Y2.2127
G01 X0.2663 Y2.1813
G01 X0.2870 Y2.1721
G01 X0.3080 Y2.1640
G01 X0.3773 Y2.1392
G01 X0.3988 Y2.1321
G01 X0.4205 Y2.1261
G01 X0.4919 Y2.1082
G01 X0.5139 Y2.1032
G01 X0.5362 Y2.0994
G01 X0.6090 Y2.0886
G01 X0.6314 Y2.0858
G01 X0.6539 Y2.0842
G01 X0.7274 Y2.0806
G01 X0.7500 Y2.0800
G00 Z1.0000
G00 X0.7500 Y2.1950
G01 F60.00
G01 Z-0.0851
G01 F60.00
G01 X1.2585 Y2.1951
G01 X1.3404 Y2.1990
G01 X1.3573 Y2.2003
G01 X1.3741 Y2.2023
G01 X1.4469 Y2.2131
G01 X1.4636 Y2.2160
G01 X1.4801 Y2.2198
G01 X1.5515 Y2.2376
G01 X1.5679 Y2.2422
G01 X1.5839 Y2.2475
G01 X1.6532 Y2.2723
G01 X1.6690 Y2.2784
G01 X1.6845 Y2.2852
G01 X1.7511 Y2.3167
G01 X1.7662 Y2.3243
G01 X1.7809 Y2.3326
G01 X1.8440 Y2.3705
G01 X1.8583 Y2.3795
G01 X1.8722 Y2.3893
G01 X1.9313 Y2.4331
G01 X1.9461 Y2.4447
G01 X40.0539 Y2.4447
G01 X40.0687 Y2.4331
G01 X40.1278 Y2.3893
G01 X40.1417 Y2.3795
G01 X40.1560 Y2.3705
G01 X40.2191 Y2.3326
G01 X40.2338 Y2.3243
G01 X40.2489 Y2.3167
G01 X40.3155 Y2.2852
G01 X40.3310 Y2.2784
G01 X40.3468 Y2.2723
G01 X40.4161 Y2.2475
G01 X40.4321 Y2.2422
G01 X40.4485 Y2.2376
G01 X40.5199 Y2.2198
G01 X40.5364 Y2.2160
G01 X40.5531 Y2.2131
G01 X40.6259 Y2.2023
G01 X40.6427 Y2.2003
G01 X40.6596 Y2.1990
G01 X40.7415 Y2.1951
G01 X41.2585 Y2.1951
G01 X41.3404 Y2.1990
G01 X41.3573 Y2.2003
G01 X41.3741 Y2.2023
G01 X41.4469 Y2.2131
G01 X41.4636 Y2.2160
G01 X41.4801 Y2.2198
G01 X41.5515 Y2.2376
G01 X41.5679 Y2.2422
G01 X41.5839 Y2.2475
G01 X41.6532 Y2.2723
G01 X41.6690 Y2.2784
G01 X41.6845 Y2.2852
G01 X41.7511 Y2.3167
G01 X41.7662 Y2.3243
G01 X41.7809 Y2.3326
G01 X41.8440 Y2.3705
G01 X41.8583 Y2.3795
G01 X41.8722 Y2.3893
G01 X41.9313 Y2.4331
G01 X41.9447 Y2.4436
G01 X41.9575 Y2.4546
G01 X42.0120 Y2.5040
G01 X42.0243 Y2.5157
G01 X42.0360 Y2.5280
G01 X42.0854 Y2.5825
G01 X42.0964 Y2.5953
G01 X42.1069 Y2.6087
G01 X42.1507 Y2.6678
G01 X42.1605 Y2.6817
G01 X42.1695 Y2.6960
G01 X42.2074 Y2.7591
G01 X42.2157 Y2.7738
G01 X42.2233 Y2.7889
G01 X42.2548 Y2.8555
G01 X42.2616 Y2.8710
G01 X42.2677 Y2.8868
G01 X42.2925 Y2.9561
G01 X42.2978 Y2.9721
G01 X42.3024 Y2.9885
G01 X42.3202 Y3.0599
G01 X42.3240 Y3.0764
G01 X42.3269 Y3.0931
G01 X42.3377 Y3.1659
G01 X42.3397 Y3.1827
G01 X42.3410 Y3.1996
G01 X42.3446 Y3.2731
G01 X42.3449 Y3.2985
G01 X42.3410 Y3.3804
G01 X42.3397 Y3.3973
G01 X42.3377 Y3.4141
G01 X42.3269 Y3.4869
G01 X42.3240 Y3.5036
G01 X42.3202 Y3.5201
G01 X42.3024 Y3.5915
G01 X42.2978 Y3.6079
G01 X42.2925 Y3.6239
G01 X42.2677 Y3.6932
G01 X42.2616 Y3.7090
G01 X42.2548 Y3.7245
G01 X42.2233 Y3.7911
G01 X42.2157 Y3.8062
G01 X42.2074 Y3.8209
G01 X42.1695 Y3.8840
G01 X42.1605 Y3.8983
G01 X42.1507 Y3.9122
G01 X42.1069 Y3.9713
G01 X42.0964 Y3.9847
G01 X42.0854 Y3.9975
G01 X42.0360 Y4.0520
G01 X42.0243 Y4.0643
G01 X42.0120 Y4.0760
G01 X41.9575 Y4.1254
G01 X41.9447 Y4.1364
G01 X41.9313 Y4.1469
G01 X41.8722 Y4.1907
G01 X41.8583 Y4.2005
G01 X41.8440 Y4.2095
G01 X41.7809 Y4.2474
G01 X41.7662 Y4.2557
G01 X41.7511 Y4.2633
G01 X41.6845 Y4.2948
G01 X41.6690 Y4.3016
G01 X41.6532 Y4.3077
G01 X41.5839 Y4.3325
G01 X41.5679 Y4.3378
G01 X41.5515 Y4.3424
G01 X41.4801 Y4.3602
G01 X41.4636 Y4.3640
G01 X41.4469 Y4.3669
G01 X41.3741 Y4.3777
G01 X41.3573 Y4.3797
G01 X41.3404 Y4.3810
G01 X41.2585 Y4.3849
G01 X40.7415 Y4.3849
G01 X40.6596 Y4.3810
G01 X40.6427 Y4.3797
G01 X40.6259 Y4.3777
G01 X40.5531 Y4.3669
G01 X40.5364 Y4.3640
G01 X40.5199 Y4.3602
G01 X40.4485 Y4.3424
G01 X40.4321 Y4.3378
G01 X40.4161 Y4.3325
G01 X40.3468 Y4.3077
G01 X40.3310 Y4.3016
G01 X40.3155 Y4.2948
G01 X40.2489 Y4.2633
G01 X40.2338 Y4.2557
G01 X40.2191 Y4.2474
G01 X40.1560 Y4.2095
G01 X40.1417 Y4.2005
G01 X40.1278 Y4.1907
G01 X40.0687 Y4.1469
G01 X40.0539 Y4.1352
G01 X1.9461 Y4.1352
G01 X1.9313 Y4.1469
G01 X1.8722 Y4.1907
G01 X1.8583 Y4.2005
G01 X1.8440 Y4.2095
G01 X1.7809 Y4.2474
G01 X1.7662 Y4.2557
G01 X1.7511 Y4.2633
G01 X1.6845 Y4.2948
G01 X1.6690 Y4.3016
G01 X1.6532 Y4.3077
G01 X1.5839 Y4.3325
G01 X1.5679 Y4.3378
G01 X1.5515 Y4.3424
G01 X1.4801 Y4.3602
G01 X1.4636 Y4.3640
G01 X1.4469 Y4.3669
G01 X1.3741 Y4.3777
G01 X1.3573 Y4.3797
G01 X1.3404 Y4.3810
G01 X1.2585 Y4.3849
G01 X0.7415 Y4.3849
G01 X0.6596 Y4.3810
G01 X0.6427 Y4.3797
G01 X0.6259 Y4.3777
G01 X0.5531 Y4.3669
G01 X0.5364 Y4.3640
G01 X0.5199 Y4.3602
G01 X0.4485 Y4.3424
G01 X0.4321 Y4.3378
G01 X0.4161 Y4.3325
G01 X0.3468 Y4.3077
G01 X0.3310 Y4.3016
G01 X0.3155 Y4.2948
G01 X0.2489 Y4.2633
G01 X0.2338 Y4.2557
G01 X0.2191 Y4.2474
G01 X0.1560 Y4.2095
G01 X0.1417 Y4.2005
G01 X0.1278 Y4.1907
G01 X0.0687 Y4.1469
G01 X0.0553 Y4.1364
G01 X0.0425 Y4.1254
G01 X-0.0120 Y4.0760
G01 X-0.0243 Y4.0643
G01 X-0.0360 Y4.0520
G01 X-0.0854 Y3.9975
G01 X-0.0964 Y3.9847
G01 X-0.1069 Y3.9713
G01 X-0.1507 Y3.9122
G01 X-0.1605 Y3.8983
G01 X-0.1695 Y3.8840
G01 X-0.2074 Y3.8209
G01 X-0.2157 Y3.8062
G01 X-0.2233 Y3.7911
G01 X-0.2548 Y3.7245
G01 X-0.2616 Y3.7090
G01 X-0.2677 Y3.6932
G01 X-0.2925 Y3.6239
G01 X-0.2978 Y3.6079
G01 X-0.3024 Y3.5915
G01 X-0.3202 Y3.5201
G01 X-0.3240 Y3.5036
G01 X-0.3269 Y3.4869
G01 X-0.3377 Y3.4141
G01 X-0.3397 Y3.3973
G01 X-0.3410 Y3.3804
G01 X-0.3446 Y3.3069
G01 X-0.3450 Y3.2900
G01 X-0.3446 Y3.2731
G01 X-0.3410 Y3.1996
G01 X-0.3397 Y3.1827
G01 X-0.3377 Y3.1659
G01 X-0.3269 Y3.0931
G01 X-0.3240 Y3.0764
G01 X-0.3202 Y3.0599
G01 X-0.3024 Y2.9885
G01 X-0.2978 Y2.9721
G01 X-0.2925 Y2.9561
G01 X-0.2677 Y2.8868
G01 X-0.2616 Y2.8710
G01 X-0.2548 Y2.8555
G01 X-0.2233 Y2.7889
G01 X-0.2157 Y2.7738
G01 X-0.2074 Y2.7591
G01 X-0.1695 Y2.6960
G01 X-0.1605 Y2.6817
G01 X-0.1507 Y2.6678
G01 X-0.1069 Y2.6087
G01 X-0.0964 Y2.5953
G01 X-0.0854 Y2.5825
G01 X-0.0360 Y2.5280
G01 X-0.0243 Y2.5157
G01 X-0.0120 Y2.5040
G01 X0.0425 Y2.4546
G01 X0.0553 Y2.4436
G01 X0.0687 Y2.4331
G01 X0.1278 Y2.3893
G01 X0.1417 Y2.3795
G01 X0.1560 Y2.3705
G01 X0.2191 Y2.3326
G01 X0.2338 Y2.3243
G01 X0.2489 Y2.3167
G01 X0.3155 Y2.2852
G01 X0.3310 Y2.2784
G01 X0.3468 Y2.2723
G01 X0.4161 Y2.2475
G01 X0.4321 Y2.2422
G01 X0.4485 Y2.2376
G01 X0.5199 Y2.2198
G01 X0.5364 Y2.2160
G01 X0.5531 Y2.2131
G01 X0.6259 Y2.2023
G01 X0.6427 Y2.2003
G01 X0.6596 Y2.1990
G01 X0.7331 Y2.1954
G01 X0.7500 Y2.1950
G00 Z1.0000
G00 X0.7500 Y2.3100
G01 F60.00
G01 Z-0.0851
G01 F60.00
G01 X1.2556 Y2.3101
G01 X1.3348 Y2.3139
G01 X1.3461 Y2.3147
G01 X1.4301 Y2.3269
G01 X1.4467 Y2.3300
G01 X1.5236 Y2.3492
G01 X1.5345 Y2.3522
G01 X1.5452 Y2.3557
G01 X1.6250 Y2.3846
G01 X1.6354 Y2.3892
G01 X1.7070 Y2.4231
G01 X1.7218 Y2.4313
G01 X1.7849 Y2.4691
G01 X1.7991 Y2.4784
G01 X1.8673 Y2.5289
G01 X1.8760 Y2.5361
G01 X1.9022 Y2.5597
G01 X40.0978 Y2.5597
G01 X40.1240 Y2.5361
G01 X40.1327 Y2.5289
G01 X40.2009 Y2.4784
G01 X40.2151 Y2.4691
G01 X40.2782 Y2.4313
G01 X40.2930 Y2.4231
G01 X40.3646 Y2.3892
G01 X40.3750 Y2.3846
G01 X40.3855 Y2.3805
G01 X40.4655 Y2.3522
G01 X40.4764 Y2.3492
G01 X40.5533 Y2.3300
G01 X40.5699 Y2.3269
G01 X40.6539 Y2.3147
G01 X40.6652 Y2.3139
G01 X40.7444 Y2.3101
G01 X41.2556 Y2.3101
G01 X41.3348 Y2.3139
G01 X41.3461 Y2.3147
G01 X41.3573 Y2.3161
G01 X41.4412 Y2.3288
G01 X41.5236 Y2.3492
G01 X41.5345 Y2.3522
G01 X41.5452 Y2.3557
G01 X41.6250 Y2.3846
G01 X41.7019 Y2.4206
G01 X41.7120 Y2.4257
G01 X41.7218 Y2.4313
G01 X41.7945 Y2.4752
G01 X41.8628 Y2.5255
G01 X41.8717 Y2.5324
G01 X41.9348 Y2.5893
G01 X41.9430 Y2.5970
G01 X41.9507 Y2.6052
G01 X42.0076 Y2.6683
G01 X42.0145 Y2.6772
G01 X42.0648 Y2.7455
G01 X42.1087 Y2.8182
G01 X42.1143 Y2.8280
G01 X42.1194 Y2.8381
G01 X42.1554 Y2.9150
G01 X42.1843 Y2.9948
G01 X42.1878 Y3.0055
G01 X42.1908 Y3.0164
G01 X42.2112 Y3.0988
G01 X42.2239 Y3.1827
G01 X42.2253 Y3.1939
G01 X42.2297 Y3.2787
G01 X42.2299 Y3.2956
G01 X42.2261 Y3.3748
G01 X42.2253 Y3.3861
G01 X42.2131 Y3.4701
G01 X42.2112 Y3.4812
G01 X42.1908 Y3.5636
G01 X42.1878 Y3.5745
G01 X42.1843 Y3.5852
G01 X42.1554 Y3.6650
G01 X42.1194 Y3.7419
G01 X42.1143 Y3.7520
G01 X42.1087 Y3.7618
G01 X42.0648 Y3.8345
G01 X42.0583 Y3.8437
G01 X42.0076 Y3.9117
G01 X41.9507 Y3.9748
G01 X41.9430 Y3.9830
G01 X41.9348 Y3.9907
G01 X41.8717 Y4.0476
G01 X41.8037 Y4.0983
G01 X41.7945 Y4.1048
G01 X41.7849 Y4.1109
G01 X41.7120 Y4.1543
G01 X41.6354 Y4.1908
G01 X41.6250 Y4.1954
G01 X41.5452 Y4.2243
G01 X41.5345 Y4.2278
G01 X41.5236 Y4.2308
G01 X41.4412 Y4.2512
G01 X41.4301 Y4.2531
G01 X41.3461 Y4.2653
G01 X41.3348 Y4.2661
G01 X41.2556 Y4.2699
G01 X40.7444 Y4.2699
G01 X40.6652 Y4.2661
G01 X40.6539 Y4.2653
G01 X40.5699 Y4.2531
G01 X40.5533 Y4.2500
G01 X40.4764 Y4.2308
G01 X40.4655 Y4.2278
G01 X40.4548 Y4.2243
G01 X40.3750 Y4.1954
G01 X40.3646 Y4.1908
G01 X40.2930 Y4.1569
G01 X40.2782 Y4.1487
G01 X40.2151 Y4.1109
G01 X40.2009 Y4.1016
G01 X40.1327 Y4.0511
G01 X40.1240 Y4.0439
G01 X40.0978 Y4.0202
G01 X1.9022 Y4.0202
G01 X1.8760 Y4.0439
G01 X1.8673 Y4.0511
G01 X1.7991 Y4.1016
G01 X1.7849 Y4.1109
G01 X1.7218 Y4.1487
G01 X1.7070 Y4.1569
G01 X1.6354 Y4.1908
G01 X1.6250 Y4.1954
G01 X1.6145 Y4.1995
G01 X1.5345 Y4.2278
G01 X1.5236 Y4.2308
G01 X1.4467 Y4.2500
G01 X1.4301 Y4.2531
G01 X1.3461 Y4.2653
G01 X1.3348 Y4.2661
G01 X1.2556 Y4.2699
G01 X0.7444 Y4.2699
G01 X0.6652 Y4.2661
G01 X0.6539 Y4.2653
G01 X0.6427 Y4.2639
G01 X0.5588 Y4.2512
G01 X0.4764 Y4.2308
G01 X0.4655 Y4.2278
G01 X0.4548 Y4.2243
G01 X0.3750 Y4.1954
G01 X0.2981 Y4.1594
G01 X0.2880 Y4.1543
G01 X0.2782 Y4.1487
G01 X0.2055 Y4.1048
G01 X0.1372 Y4.0545
G01 X0.1283 Y4.0476
G01 X0.0652 Y3.9907
G01 X0.0570 Y3.9830
G01 X0.0493 Y3.9748
G01 X-0.0076 Y3.9117
G01 X-0.0583 Y3.8437
G01 X-0.0648 Y3.8345
G01 X-0.1087 Y3.7618
G01 X-0.1143 Y3.7520
G01 X-0.1194 Y3.7419
G01 X-0.1554 Y3.6650
G01 X-0.1595 Y3.6545
G01 X-0.1878 Y3.5745
G01 X-0.1908 Y3.5636
G01 X-0.2112 Y3.4812
G01 X-0.2239 Y3.3973
G01 X-0.2253 Y3.3861
G01 X-0.2261 Y3.3748
G01 X-0.2300 Y3.2900
G01 X-0.2297 Y3.2787
G01 X-0.2253 Y3.1939
G01 X-0.2239 Y3.1827
G01 X-0.2112 Y3.0988
G01 X-0.1908 Y3.0164
G01 X-0.1878 Y3.0055
G01 X-0.1843 Y2.9948
G01 X-0.1554 Y2.9150
G01 X-0.1194 Y2.8381
G01 X-0.1143 Y2.8280
G01 X-0.1087 Y2.8182
G01 X-0.0648 Y2.7455
G01 X-0.0145 Y2.6772
G01 X-0.0076 Y2.6683
G01 X0.0493 Y2.6052
G01 X0.0570 Y2.5970
G01 X0.0652 Y2.5893
G01 X0.1283 Y2.5324
G01 X0.1963 Y2.4817
G01 X0.2055 Y2.4752
G01 X0.2151 Y2.4691
G01 X0.2880 Y2.4257
G01 X0.2981 Y2.4206
G01 X0.3750 Y2.3846
G01 X0.3855 Y2.3805
G01 X0.4655 Y2.3522
G01 X0.4764 Y2.3492
G01 X0.5588 Y2.3288
G01 X0.5699 Y2.3269
G01 X0.6539 Y2.3147
G01 X0.7387 Y2.3103
G01 X0.7500 Y2.3100
G00 Z1.0000
G00 X0.7500 Y2.4250
G01 F60.00
G01 Z-0.0851
G01 F60.00
G01 X1.2528 Y2.4250
G01 X1.3348 Y2.4292
G01 X1.4132 Y2.4407
G01 X1.4215 Y2.4422
G01 X1.5011 Y2.4622
G01 X1.5758 Y2.4888
G01 X1.5862 Y2.4931
G01 X1.6578 Y2.5271
G01 X1.7258 Y2.5678
G01 X1.7352 Y2.5740
G01 X1.7988 Y2.6213
G01 X1.8579 Y2.6747
G01 X40.1421 Y2.6747
G01 X40.2012 Y2.6213
G01 X40.2648 Y2.5740
G01 X40.2742 Y2.5678
G01 X40.3422 Y2.5271
G01 X40.4138 Y2.4931
G01 X40.4242 Y2.4888
G01 X40.4989 Y2.4622
G01 X40.5785 Y2.4422
G01 X40.5868 Y2.4407
G01 X40.6652 Y2.4292
G01 X40.7472 Y2.4250
G01 X41.2528 Y2.4250
G01 X41.3348 Y2.4292
G01 X41.4188 Y2.4416
G01 X41.5011 Y2.4622
G01 X41.5810 Y2.4908
G01 X41.6578 Y2.5271
G01 X41.7306 Y2.5708
G01 X41.7988 Y2.6213
G01 X41.8616 Y2.6784
G01 X41.9187 Y2.7412
G01 X41.9692 Y2.8094
G01 X42.0129 Y2.8822
G01 X42.0492 Y2.9590
G01 X42.0778 Y3.0389
G01 X42.0984 Y3.1212
G01 X42.1108 Y3.2052
G01 X42.1149 Y3.2844
G01 X42.1150 Y3.2928
G01 X42.1108 Y3.3748
G01 X42.0984 Y3.4588
G01 X42.0778 Y3.5411
G01 X42.0492 Y3.6210
G01 X42.0129 Y3.6978
G01 X41.9692 Y3.7706
G01 X41.9187 Y3.8388
G01 X41.8616 Y3.9016
G01 X41.7988 Y3.9587
G01 X41.7306 Y4.0092
G01 X41.6578 Y4.0529
G01 X41.5810 Y4.0892
G01 X41.5011 Y4.1178
G01 X41.4188 Y4.1384
G01 X41.3348 Y4.1508
G01 X41.2528 Y4.1550
G01 X40.7472 Y4.1550
G01 X40.6652 Y4.1508
G01 X40.5868 Y4.1393
G01 X40.5785 Y4.1378
G01 X40.4989 Y4.1178
G01 X40.4242 Y4.0912
G01 X40.4138 Y4.0869
G01 X40.3422 Y4.0529
G01 X40.2742 Y4.0122
G01 X40.2648 Y4.0060
G01 X40.2012 Y3.9587
G01 X40.1421 Y3.9052
G01 X1.8579 Y3.9052
G01 X1.7988 Y3.9587
G01 X1.7352 Y4.0060
G01 X1.7258 Y4.0122
G01 X1.6578 Y4.0529
G01 X1.5862 Y4.0869
G01 X1.5758 Y4.0912
G01 X1.5011 Y4.1178
G01 X1.4215 Y4.1378
G01 X1.4132 Y4.1393
G01 X1.3348 Y4.1508
G01 X1.2528 Y4.1550
G01 X0.7472 Y4.1550
G01 X0.6652 Y4.1508
G01 X0.5812 Y4.1384
G01 X0.4989 Y4.1178
G01 X0.4190 Y4.0892
G01 X0.3422 Y4.0529
G01 X0.2694 Y4.0092
G01 X0.2012 Y3.9587
G01 X0.1384 Y3.9016
G01 X0.0813 Y3.8388
G01 X0.0308 Y3.7706
G01 X-0.0129 Y3.6978
G01 X-0.0492 Y3.6210
G01 X-0.0778 Y3.5411
G01 X-0.0984 Y3.4588
G01 X-0.1108 Y3.3748
G01 X-0.1150 Y3.2900
G01 X-0.1108 Y3.2052
G01 X-0.0984 Y3.1212
G01 X-0.0778 Y3.0389
G01 X-0.0492 Y2.9590
G01 X-0.0129 Y2.8822
G01 X0.0308 Y2.8094
G01 X0.0813 Y2.7412
G01 X0.1384 Y2.6784
G01 X0.2012 Y2.6213
G01 X0.2694 Y2.5708
G01 X0.3422 Y2.5271
G01 X0.4190 Y2.4908
G01 X0.4989 Y2.4622
G01 X0.5812 Y2.4416
G01 X0.6652 Y2.4292
G01 X0.7500 Y2.4250
G00 Z1.0000
G00 X0.7500 Y4.6200
G01 F60.00
G01 Z-0.0851
G01 F60.00
G01 X1.2613 Y4.6201
G01 X1.3461 Y4.6242
G01 X1.3686 Y4.6258
G01 X1.3910 Y4.6286
G01 X1.4638 Y4.6394
G01 X1.4861 Y4.6432
G01 X1.5081 Y4.6482
G01 X1.5795 Y4.6661
G01 X1.6012 Y4.6721
G01 X1.6227 Y4.6792
G01 X1.6920 Y4.7040
G01 X1.7026 Y4.7079
G01 X1.7234 Y4.7166
G01 X1.8104 Y4.7577
G01 X1.8303 Y4.7683
G01 X1.8400 Y4.7740
G01 X1.9032 Y4.8118
G01 X1.9222 Y4.8239
G01 X1.9407 Y4.8369
G01 X1.9850 Y4.8697
G01 X40.0150 Y4.8697
G01 X40.0593 Y4.8369
G01 X40.0778 Y4.8239
G01 X40.0968 Y4.8118
G01 X40.1600 Y4.7740
G01 X40.1697 Y4.7683
G01 X40.1896 Y4.7577
G01 X40.2766 Y4.7166
G01 X40.2974 Y4.7079
G01 X40.3080 Y4.7040
G01 X40.3773 Y4.6792
G01 X40.3988 Y4.6721
G01 X40.4205 Y4.6661
G01 X40.4919 Y4.6482
G01 X40.5139 Y4.6432
G01 X40.5362 Y4.6394
G01 X40.6090 Y4.6286
G01 X40.6314 Y4.6258
G01 X40.6539 Y4.6242
G01 X40.7387 Y4.6201
G01 X41.2613 Y4.6201
G01 X41.3461 Y4.6242
G01 X41.3686 Y4.6258
G01 X41.3910 Y4.6286
G01 X41.4638 Y4.6394
G01 X41.4861 Y4.6432
G01 X41.5081 Y4.6482
G01 X41.5795 Y4.6661
G01 X41.6012 Y4.6721
G01 X41.6227 Y4.6792
G01 X41.6920 Y4.7040
G01 X41.7130 Y4.7121
G01 X41.7337 Y4.7213
G01 X41.8002 Y4.7527
G01 X41.8204 Y4.7629
G01 X41.8400 Y4.7740
G01 X41.9032 Y4.8118
G01 X41.9222 Y4.8239
G01 X41.9407 Y4.8369
G01 X41.9998 Y4.8808
G01 X42.0176 Y4.8947
G01 X42.0347 Y4.9094
G01 X42.0892 Y4.9588
G01 X42.1056 Y4.9744
G01 X42.1212 Y4.9908
G01 X42.1706 Y5.0453
G01 X42.1853 Y5.0624
G01 X42.1992 Y5.0802
G01 X42.2431 Y5.1393
G01 X42.2561 Y5.1578
G01 X42.2682 Y5.1768
G01 X42.3060 Y5.2400
G01 X42.3171 Y5.2596
G01 X42.3273 Y5.2798
G01 X42.3587 Y5.3463
G01 X42.3679 Y5.3670
G01 X42.3760 Y5.3880
G01 X42.4008 Y5.4573
G01 X42.4079 Y5.4788
G01 X42.4139 Y5.5005
G01 X42.4318 Y5.5719
G01 X42.4367 Y5.5939
G01 X42.4406 Y5.6162
G01 X42.4514 Y5.6890
G01 X42.4542 Y5.7114
G01 X42.4558 Y5.7339
G01 X42.4594 Y5.8074
G01 X42.4600 Y5.8300
G01 X42.4599 Y5.8413
G01 X42.4558 Y5.9261
G01 X42.4542 Y5.9486
G01 X42.4514 Y5.9710
G01 X42.4406 Y6.0438
G01 X42.4367 Y6.0661
G01 X42.4318 Y6.0881
G01 X42.4139 Y6.1595
G01 X42.4079 Y6.1812
G01 X42.4008 Y6.2027
G01 X42.3760 Y6.2720
G01 X42.3679 Y6.2930
G01 X42.3587 Y6.3137
G01 X42.3273 Y6.3802
G01 X42.3171 Y6.4004
G01 X42.3060 Y6.4200
G01 X42.2682 Y6.4832
G01 X42.2561 Y6.5022
G01 X42.2431 Y6.5207
G01 X42.1992 Y6.5798
G01 X42.1853 Y6.5976
G01 X42.1706 Y6.6147
G01 X42.1212 Y6.6692
G01 X42.1056 Y6.6856
G01 X42.0892 Y6.7012
G01 X42.0347 Y6.7506
G01 X42.0176 Y6.7653
G01 X41.9998 Y6.7792
G01 X41.9407 Y6.8231
G01 X41.9222 Y6.8361
G01 X41.9032 Y6.8482
G01 X41.8400 Y6.8860
G01 X41.8204 Y6.8971
G01 X41.8002 Y6.9073
G01 X41.7337 Y6.9387
G01 X41.7130 Y6.9479
G01 X41.6920 Y6.9560
G01 X41.6227 Y6.9808
G01 X41.6012 Y6.9879
G01 X41.5795 Y6.9939
G01 X41.5081 Y7.0118
G01 X41.4861 Y7.0167
G01 X41.4638 Y7.0206
G01 X41.3910 Y7.0314
G01 X41.3686 Y7.0342
G01 X41.3461 Y7.0358
G01 X41.2613 Y7.0399
G01 X40.7387 Y7.0399
G01 X40.6539 Y7.0358
G01 X40.6314 Y7.0342
G01 X40.6090 Y7.0314
G01 X40.5362 Y7.0206
G01 X40.5139 Y7.0167
G01 X40.4919 Y7.0118
G01 X40.4205 Y6.9939
G01 X40.3988 Y6.9879
G01 X40.3773 Y6.9808
G01 X40.3080 Y6.9560
G01 X40.2870 Y6.9479
G01 X40.2766 Y6.9434
G01 X40.1896 Y6.9023
G01 X40.1697 Y6.8917
G01 X40.1600 Y6.8860
G01 X40.0968 Y6.8482
G01 X40.0778 Y6.8361
G01 X40.0593 Y6.8231
G01 X40.0150 Y6.7902
G01 X1.9850 Y6.7902
G01 X1.9407 Y6.8231
G01 X1.9222 Y6.8361
G01 X1.9032 Y6.8482
G01 X1.8400 Y6.8860
G01 X1.8204 Y6.8971
G01 X1.8104 Y6.9023
G01 X1.7234 Y6.9434
G01 X1.7130 Y6.9479
G01 X1.6920 Y6.9560
G01 X1.6227 Y6.9808
G01 X1.6012 Y6.9879
G01 X1.5795 Y6.9939
G01 X1.5081 Y7.0118
G01 X1.4861 Y7.0167
G01 X1.4638 Y7.0206
G01 X1.3910 Y7.0314
G01 X1.3686 Y7.0342
G01 X1.3461 Y7.0358
G01 X1.2613 Y7.0399
G01 X0.7387 Y7.0399
G01 X0.6539 Y7.0358
G01 X0.6314 Y7.0342
G01 X0.6090 Y7.0314
G01 X0.5362 Y7.0206
G01 X0.5139 Y7.0167
G01 X0.4919 Y7.0118
G01 X0.4205 Y6.9939
G01 X0.3988 Y6.9879
G01 X0.3773 Y6.9808
G01 X0.3080 Y6.9560
G01 X0.2870 Y6.9479
G01 X0.2663 Y6.9387
G01 X0.1998 Y6.9073
G01 X0.1796 Y6.8971
G01 X0.1600 Y6.8860
G01 X0.0968 Y6.8482
G01 X0.0778 Y6.8361
G01 X0.0593 Y6.8231
G01 X0.0002 Y6.7792
G01 X-0.0176 Y6.7653
G01 X-0.0347 Y6.7506
G01 X-0.0892 Y6.7012
G01 X-0.1056 Y6.6856
G01 X-0.1212 Y6.6692
G01 X-0.1706 Y6.6147
G01 X-0.1853 Y6.5976
G01 X-0.1992 Y6.5798
G01 X-0.2431 Y6.5207
G01 X-0.2561 Y6.5022
G01 X-0.2682 Y6.4832
G01 X-0.3060 Y6.4200
G01 X-0.3171 Y6.4004
G01 X-0.3273 Y6.3802
G01 X-0.3587 Y6.3137
G01 X-0.3679 Y6.2930
G01 X-0.3760 Y6.2720
G01 X-0.4008 Y6.2027
G01 X-0.4079 Y6.1812
G01 X-0.4139 Y6.1595
G01 X-0.4318 Y6.0881
G01 X-0.4368 Y6.0661
G01 X-0.4406 Y6.0438
G01 X-0.4514 Y5.9710
G01 X-0.4542 Y5.9486
G01 X-0.4558 Y5.9261
G01 X-0.4594 Y5.8526
G01 X-0.4600 Y5.8300
G01 X-0.4594 Y5.8074
G01 X-0.4558 Y5.7339
G01 X-0.4542 Y5.7114
G01 X-0.4514 Y5.6890
G01 X-0.4406 Y5.6162
G01 X-0.4368 Y5.5939
G01 X-0.4318 Y5.5719
G01 X-0.4139 Y5.5005
G01 X-0.4079 Y5.4788
G01 X-0.4008 Y5.4573
G01 X-0.3760 Y5.3880
G01 X-0.3679 Y5.3670
G01 X-0.3587 Y5.3463
G01 X-0.3273 Y5.2798
G01 X-0.3171 Y5.2596
G01 X-0.3060 Y5.2400
G01 X-0.2682 Y5.1768
G01 X-0.2561 Y5.1578
G01 X-0.2431 Y5.1393
G01 X-0.1992 Y5.0802
G01 X-0.1853 Y5.0624
G01 X-0.1706 Y5.0453
G01 X-0.1212 Y4.9908
G01 X-0.1056 Y4.9744
G01 X-0.0892 Y4.9588
G01 X-0.0347 Y4.9094
G01 X-0.0176 Y4.8947
G01 X0.0002 Y4.8808
G01 X0.0593 Y4.8369
G01 X0.0778 Y4.8239
G01 X0.0968 Y4.8118
G01 X0.1600 Y4.7740
G01 X0.1796 Y4.7629
G01 X0.1998 Y4.7527
G01 X0.2663 Y4.7213
G01 X0.2870 Y4.7121
G01 X0.3080 Y4.7040
G01 X0.3773 Y4.6792
G01 X0.3988 Y4.6721
G01 X0.4205 Y4.6661
G01 X0.4919 Y4.6482
G01 X0.5139 Y4.6432
G01 X0.5362 Y4.6394
G01 X0.6090 Y4.6286
G01 X0.6314 Y4.6258
G01 X0.6539 Y4.6242
G01 X0.7274 Y4.6206
G01 X0.7500 Y4.6200
G00 Z1.0000
G00 X0.7500 Y4.7350
G01 F60.00
G01 Z-0.0851
G01 F60.00
G01 X1.2585 Y4.7351
G01 X1.3404 Y4.7390
G01 X1.3573 Y4.7403
G01 X1.3741 Y4.7423
G01 X1.4469 Y4.7531
G01 X1.4636 Y4.7560
G01 X1.4801 Y4.7598
G01 X1.5515 Y4.7776
G01 X1.5679 Y4.7822
G01 X1.5839 Y4.7875
G01 X1.6532 Y4.8123
G01 X1.6690 Y4.8184
G01 X1.6845 Y4.8252
G01 X1.7511 Y4.8567
G01 X1.7662 Y4.8643
G01 X1.7809 Y4.8726
G01 X1.8440 Y4.9105
G01 X1.8583 Y4.9195
G01 X1.8722 Y4.9293
G01 X1.9313 Y4.9731
G01 X1.9461 Y4.9847
G01 X40.0539 Y4.9847
G01 X40.0687 Y4.9731
G01 X40.1278 Y4.9293
G01 X40.1417 Y4.9195
G01 X40.1560 Y4.9105
G01 X40.2191 Y4.8726
G01 X40.2338 Y4.8643
G01 X40.2489 Y4.8567
G01 X40.3155 Y4.8252
G01 X40.3310 Y4.8184
G01 X40.3468 Y4.8123
G01 X40.4161 Y4.7875
G01 X40.4321 Y4.7822
G01 X40.4485 Y4.7776
G01 X40.5199 Y4.7598
G01 X40.5364 Y4.7560
G01 X40.5531 Y4.7531
G01 X40.6259 Y4.7423
G01 X40.6427 Y4.7403
G01 X40.6596 Y4.7390
G01 X40.7415 Y4.7351
G01 X41.2585 Y4.7351
G01 X41.3404 Y4.7390
G01 X41.3573 Y4.7403
G01 X41.3741 Y4.7423
G01 X41.4469 Y4.7531
G01 X41.4636 Y4.7560
G01 X41.4801 Y4.7598
G01 X41.5515 Y4.7776
G01 X41.5679 Y4.7822
G01 X41.5839 Y4.7875
G01 X41.6532 Y4.8123
G01 X41.6690 Y4.8184
G01 X41.6845 Y4.8252
G01 X41.7511 Y4.8567
G01 X41.7662 Y4.8643
G01 X41.7809 Y4.8726
G01 X41.8440 Y4.9105
G01 X41.8583 Y4.9195
G01 X41.8722 Y4.9293
G01 X41.9313 Y4.9731
G01 X41.9447 Y4.9836
G01 X41.9575 Y4.9946
G01 X42.0120 Y5.0440
G01 X42.0243 Y5.0557
G01 X42.0360 Y5.0680
G01 X42.0854 Y5.1225
G01 X42.0964 Y5.1353
G01 X42.1069 Y5.1487
G01 X42.1507 Y5.2078
G01 X42.1605 Y5.2217
G01 X42.1695 Y5.2360
G01 X42.2074 Y5.2991
G01 X42.2157 Y5.3138
G01 X42.2233 Y5.3289
G01 X42.2548 Y5.3955
G01 X42.2616 Y5.4110
G01 X42.2677 Y5.4268
G01 X42.2925 Y5.4961
G01 X42.2978 Y5.5121
G01 X42.3024 Y5.5285
G01 X42.3202 Y5.5999
G01 X42.3240 Y5.6164
G01 X42.3269 Y5.6331
G01 X42.3377 Y5.7059
G01 X42.3397 Y5.7227
G01 X42.3410 Y5.7396
G01 X42.3446 Y5.8131
G01 X42.3449 Y5.8385
G01 X42.3410 Y5.9204
G01 X42.3397 Y5.9373
G01 X42.3377 Y5.9541
G01 X42.3269 Y6.0269
G01 X42.3240 Y6.0436
G01 X42.3202 Y6.0601
G01 X42.3024 Y6.1315
G01 X42.2978 Y6.1479
G01 X42.2925 Y6.1639
G01 X42.2677 Y6.2332
G01 X42.2616 Y6.2490
G01 X42.2548 Y6.2645
G01 X42.2233 Y6.3311
G01 X42.2157 Y6.3462
G01 X42.2074 Y6.3609
G01 X42.1695 Y6.4240
G01 X42.1605 Y6.4383
G01 X42.1507 Y6.4522
G01 X42.1069 Y6.5113
G01 X42.0964 Y6.5247
G01 X42.0854 Y6.5375
G01 X42.0360 Y6.5920
G01 X42.0243 Y6.6043
G01 X42.0120 Y6.6160
G01 X41.9575 Y6.6654
G01 X41.9447 Y6.6764
G01 X41.9313 Y6.6869
G01 X41.8722 Y6.7307
G01 X41.8583 Y6.7405
G01 X41.8440 Y6.7495
G01 X41.7809 Y6.7874
G01 X41.7662 Y6.7957
G01 X41.7511 Y6.8033
G01 X41.6845 Y6.8348
G01 X41.6690 Y6.8416
G01 X41.6532 Y6.8477
G01 X41.5839 Y6.8725
G01 X41.5679 Y6.8778
G01 X41.5515 Y6.8824
G01 X41.4801 Y6.9002
G01 X41.4636 Y6.9040
G01 X41.4469 Y6.9069
G01 X41.3741 Y6.9177
G01 X41.3573 Y6.9197
G01 X41.3404 Y6.9210
G01 X41.2585 Y6.9249
G01 X40.7415 Y6.9249
G01 X40.6596 Y6.9210
G01 X40.6427 Y6.9197
G01 X40.6259 Y6.9177
G01 X40.5531 Y6.9069
G01 X40.5364 Y6.9040
G01 X40.5199 Y6.9002
G01 X40.4485 Y6.8824
G01 X40.4321 Y6.8778
G01 X40.4161 Y6.8725
G01 X40.3468 Y6.8477
G01 X40.3310 Y6.8416
G01 X40.3155 Y6.8348
G01 X40.2489 Y6.8033
G01 X40.2338 Y6.7957
G01 X40.2191 Y6.7874
G01 X40.1560 Y6.7495
G01 X40.1417 Y6.7405
G01 X40.1278 Y6.7307
G01 X40.0687 Y6.6869
G01 X40.0539 Y6.6752
G01 X1.9461 Y6.6752
G01 X1.9313 Y6.6869
G01 X1.8722 Y6.7307
G01 X1.8583 Y6.7405
G01 X1.8440 Y6.7495
G01 X1.7809 Y6.7874
G01 X1.7662 Y6.7957
G01 X1.7511 Y6.8033
G01 X1.6845 Y6.8348
G01 X1.6690 Y6.8416
G01 X1.6532 Y6.8477
G01 X1.5839 Y6.8725
G01 X1.5679 Y6.8778
G01 X1.5515 Y6.8824
G01 X1.4801 Y6.9002
G01 X1.4636 Y6.9040
G01 X1.4469 Y6.9069
G01 X1.3741 Y6.9177
G01 X1.3573 Y6.9197
G01 X1.3404 Y6.9210
G01 X1.2585 Y6.9249
G01 X0.7415 Y6.9249
G01 X0.6596 Y6.9210
G01 X0.6427 Y6.9197
G01 X0.6259 Y6.9177
G01 X0.5531 Y6.9069
G01 X0.5364 Y6.9040
G01 X0.5199 Y6.9002
G01 X0.4485 Y6.8824
G01 X0.4321 Y6.8778
G01 X0.4161 Y6.8725
G01 X0.3468 Y6.8477
G01 X0.3310 Y6.8416
G01 X0.3155 Y6.8348
G01 X0.2489 Y6.8033
G01 X0.2338 Y6.7957
G01 X0.2191 Y6.7874
G01 X0.1560 Y6.7495
G01 X0.1417 Y6.7405
G01 X0.1278 Y6.7307
G01 X0.0687 Y6.6869
G01 X0.0553 Y6.6764
G01 X0.0425 Y6.6654
G01 X-0.0120 Y6.6160
G01 X-0.0243 Y6.6043
G01 X-0.0360 Y6.5920
G01 X-0.0854 Y6.5375
G01 X-0.0964 Y6.5247
G01 X-0.1069 Y6.5113
G01 X-0.1507 Y6.4522
G01 X-0.1605 Y6.4383
G01 X-0.1695 Y6.4240
G01 X-0.2074 Y6.3609
G01 X-0.2157 Y6.3462
G01 X-0.2233 Y6.3311
G01 X-0.2548 Y6.2645
G01 X-0.2616 Y6.2490
G01 X-0.2677 Y6.2332
G01 X-0.2925 Y6.1639
G01 X-0.2978 Y6.1479
G01 X-0.3024 Y6.1315
G01 X-0.3202 Y6.0601
G01 X-0.3240 Y6.0436
G01 X-0.3269 Y6.0269
G01 X-0.3377 Y5.9541
G01 X-0.3397 Y5.9373
G01 X-0.3410 Y5.9204
G01 X-0.3446 Y5.8469
G01 X-0.3450 Y5.8300
G01 X-0.3446 Y5.8131
G01 X-0.3410 Y5.7396
G01 X-0.3397 Y5.7227
G01 X-0.3377 Y5.7059
G01 X-0.3269 Y5.6331
G01 X-0.3240 Y5.6164
G01 X-0.3202 Y5.5999
G01 X-0.3024 Y5.5285
G01 X-0.2978 Y5.5121
G01 X-0.2925 Y5.4961
G01 X-0.2677 Y5.4268
G01 X-0.2616 Y5.4110
G01 X-0.2548 Y5.3955
G01 X-0.2233 Y5.3289
G01 X-0.2157 Y5.3138
G01 X-0.2074 Y5.2991
G01 X-0.1695 Y5.2360
G01 X-0.1605 Y5.2217
G01 X-0.1507 Y5.2078
G01 X-0.1069 Y5.1487
G01 X-0.0964 Y5.1353
G01 X-0.0854 Y5.1225
G01 X-0.0360 Y5.0680
G01 X-0.0243 Y5.0557
G01 X-0.0120 Y5.0440
G01 X0.0425 Y4.9946
G01 X0.0553 Y4.9836
G01 X0.0687 Y4.9731
G01 X0.1278 Y4.9293
G01 X0.1417 Y4.9195
G01 X0.1560 Y4.9105
G01 X0.2191 Y4.8726
G01 X0.2338 Y4.8643
G01 X0.2489 Y4.8567
G01 X0.3155 Y4.8252
G01 X0.3310 Y4.8184
G01 X0.3468 Y4.8123
G01 X0.4161 Y4.7875
G01 X0.4321 Y4.7822
G01 X0.4485 Y4.7776
G01 X0.5199 Y4.7598
G01 X0.5364 Y4.7560
G01 X0.5531 Y4.7531
G01 X0.6259 Y4.7423
G01 X0.6427 Y4.7403
G01 X0.6596 Y4.7390
G01 X0.7331 Y4.7354
G01 X0.7500 Y4.7350
G00 Z1.0000
G00 X0.7500 Y4.8500
G01 F60.00
G01 Z-0.0851
G01 F60.00
G01 X1.2556 Y4.8501
G01 X1.3348 Y4.8539
G01 X1.3461 Y4.8547
G01 X1.4301 Y4.8669
G01 X1.4467 Y4.8700
G01 X1.5236 Y4.8892
G01 X1.5345 Y4.8922
G01 X1.5452 Y4.8957
G01 X1.6250 Y4.9246
G01 X1.6354 Y4.9292
G01 X1.7070 Y4.9631
G01 X1.7218 Y4.9713
G01 X1.7849 Y5.0091
G01 X1.7991 Y5.0184
G01 X1.8673 Y5.0689
G01 X1.8760 Y5.0761
G01 X1.9022 Y5.0997
G01 X40.0978 Y5.0997
G01 X40.1240 Y5.0761
G01 X40.1327 Y5.0689
G01 X40.2009 Y5.0184
G01 X40.2151 Y5.0091
G01 X40.2782 Y4.9713
G01 X40.2930 Y4.9631
G01 X40.3646 Y4.9292
G01 X40.3750 Y4.9246
G01 X40.3855 Y4.9205
G01 X40.4655 Y4.8922
G01 X40.4764 Y4.8892
G01 X40.5533 Y4.8700
G01 X40.5699 Y4.8669
G01 X40.6539 Y4.8547
G01 X40.6652 Y4.8539
G01 X40.7444 Y4.8501
G01 X41.2556 Y4.8501
G01 X41.3348 Y4.8539
G01 X41.3461 Y4.8547
G01 X41.3573 Y4.8561
G01 X41.4412 Y4.8688
G01 X41.5236 Y4.8892
G01 X41.5345 Y4.8922
G01 X41.5452 Y4.8957
G01 X41.6250 Y4.9246
G01 X41.7019 Y4.9606
G01 X41.7120 Y4.9657
G01 X41.7218 Y4.9713
G01 X41.7945 Y5.0152
G01 X41.8628 Y5.0655
G01 X41.8717 Y5.0724
G01 X41.9348 Y5.1293
G01 X41.9430 Y5.1370
G01 X41.9507 Y5.1452
G01 X42.0076 Y5.2083
G01 X42.0583 Y5.2763
G01 X42.0648 Y5.2855
G01 X42.1087 Y5.3582
G01 X42.1143 Y5.3680
G01 X42.1194 Y5.3781
G01 X42.1554 Y5.4550
G01 X42.1843 Y5.5348
G01 X42.1878 Y5.5455
G01 X42.1908 Y5.5564
G01 X42.2112 Y5.6388
G01 X42.2239 Y5.7227
G01 X42.2253 Y5.7339
G01 X42.2297 Y5.8187
G01 X42.2299 Y5.8356
G01 X42.2261 Y5.9148
G01 X42.2253 Y5.9261
G01 X42.2131 Y6.0101
G01 X42.2112 Y6.0212
G01 X42.1908 Y6.1036
G01 X42.1878 Y6.1145
G01 X42.1843 Y6.1252
G01 X42.1554 Y6.2050
G01 X42.1194 Y6.2819
G01 X42.1143 Y6.2920
G01 X42.1087 Y6.3018
G01 X42.0648 Y6.3745
G01 X42.0583 Y6.3837
G01 X42.0076 Y6.4517
G01 X41.9507 Y6.5148
G01 X41.9430 Y6.5230
G01 X41.9348 Y6.5307
G01 X41.8717 Y6.5876
G01 X41.8037 Y6.6383
G01 X41.7945 Y6.6448
G01 X41.7849 Y6.6509
G01 X41.7120 Y6.6943
G01 X41.6354 Y6.7308
G01 X41.6250 Y6.7354
G01 X41.5452 Y6.7643
G01 X41.5345 Y6.7678
G01 X41.5236 Y6.7708
G01 X41.4412 Y6.7912
G01 X41.4301 Y6.7931
G01 X41.3461 Y6.8053
G01 X41.3348 Y6.8061
G01 X41.2556 Y6.8099
G01 X40.7444 Y6.8099
G01 X40.6652 Y6.8061
G01 X40.6539 Y6.8053
G01 X40.5699 Y6.7931
G01 X40.5533 Y6.7900
G01 X40.4764 Y6.7708
G01 X40.4655 Y6.7678
G01 X40.4548 Y6.7643
G01 X40.3750 Y6.7354
G01 X40.3646 Y6.7308
G01 X40.2930 Y6.6969
G01 X40.2782 Y6.6887
G01 X40.2151 Y6.6509
G01 X40.2009 Y6.6416
G01 X40.1327 Y6.5911
G01 X40.1240 Y6.5839
G01 X40.0978 Y6.5602
G01 X1.9022 Y6.5602
G01 X1.8760 Y6.5839
G01 X1.8673 Y6.5911
G01 X1.7991 Y6.6416
G01 X1.7849 Y6.6509
G01 X1.7218 Y6.6887
G01 X1.7070 Y6.6969
G01 X1.6354 Y6.7308
G01 X1.6250 Y6.7354
G01 X1.6145 Y6.7395
G01 X1.5345 Y6.7678
G01 X1.5236 Y6.7708
G01 X1.4467 Y6.7900
G01 X1.4301 Y6.7931
G01 X1.3461 Y6.8053
G01 X1.3348 Y6.8061
G01 X1.2556 Y6.8099
G01 X0.7444 Y6.8099
G01 X0.6652 Y6.8061
G01 X0.6539 Y6.8053
G01 X0.6427 Y6.8039
G01 X0.5588 Y6.7912
G01 X0.4764 Y6.7708
G01 X0.4655 Y6.7678
G01 X0.4548 Y6.7643
G01 X0.3750 Y6.7354
G01 X0.2981 Y6.6994
G01 X0.2880 Y6.6943
G01 X0.2782 Y6.6887
G01 X0.2055 Y6.6448
G01 X0.1372 Y6.5945
G01 X0.1283 Y6.5876
G01 X0.0652 Y6.5307
G01 X0.0570 Y6.5230
G01 X0.0493 Y6.5148
G01 X-0.0076 Y6.4517
G01 X-0.0583 Y6.3837
G01 X-0.0648 Y6.3745
G01 X-0.1087 Y6.3018
G01 X-0.1143 Y6.2920
G01 X-0.1194 Y6.2819
G01 X-0.1554 Y6.2050
G01 X-0.1595 Y6.1945
G01 X-0.1878 Y6.1145
G01 X-0.1908 Y6.1036
G01 X-0.2112 Y6.0212
G01 X-0.2239 Y5.9373
G01 X-0.2253 Y5.9261
G01 X-0.2261 Y5.9148
G01 X-0.2300 Y5.8300
G01 X-0.2297 Y5.8187
G01 X-0.2253 Y5.7339
G01 X-0.2239 Y5.7227
G01 X-0.2112 Y5.6388
G01 X-0.1908 Y5.5564
G01 X-0.1878 Y5.5455
G01 X-0.1843 Y5.5348
G01 X-0.1554 Y5.4550
G01 X-0.1194 Y5.3781
G01 X-0.1143 Y5.3680
G01 X-0.1087 Y5.3582
G01 X-0.0648 Y5.2855
G01 X-0.0145 Y5.2172
G01 X-0.0076 Y5.2083
G01 X0.0493 Y5.1452
G01 X0.0570 Y5.1370
G01 X0.0652 Y5.1293
G01 X0.1283 Y5.0724
G01 X0.1963 Y5.0217
G01 X0.2055 Y5.0152
G01 X0.2782 Y4.9713
G01 X0.2880 Y4.9657
G01 X0.2981 Y4.9606
G01 X0.3750 Y4.9246
G01 X0.3855 Y4.9205
G01 X0.4655 Y4.8922
G01 X0.4764 Y4.8892
G01 X0.5588 Y4.8688
G01 X0.5699 Y4.8669
G01 X0.6539 Y4.8547
G01 X0.7387 Y4.8503
G01 X0.7500 Y4.8500
G00 Z1.0000
G00 X0.7500 Y4.9650
G01 F60.00
G01 Z-0.0851
G01 F60.00
G01 X1.2528 Y4.9650
G01 X1.3348 Y4.9692
G01 X1.4132 Y4.9807
G01 X1.4215 Y4.9822
G01 X1.5011 Y5.0022
G01 X1.5758 Y5.0288
G01 X1.5862 Y5.0331
G01 X1.6578 Y5.0671
G01 X1.7258 Y5.1078
G01 X1.7352 Y5.1140
G01 X1.7988 Y5.1613
G01 X1.8579 Y5.2147
G01 X40.1421 Y5.2147
G01 X40.2012 Y5.1613
G01 X40.2648 Y5.1140
G01 X40.2742 Y5.1078
G01 X40.3422 Y5.0671
G01 X40.4138 Y5.0331
G01 X40.4242 Y5.0288
G01 X40.4989 Y5.0022
G01 X40.5785 Y4.9822
G01 X40.5868 Y4.9807
G01 X40.6652 Y4.9692
G01 X40.7472 Y4.9650
G01 X41.2528 Y4.9650
G01 X41.3348 Y4.9692
G01 X41.4188 Y4.9816
G01 X41.5011 Y5.0022
G01 X41.5810 Y5.0308
G01 X41.6578 Y5.0671
G01 X41.7306 Y5.1108
G01 X41.7988 Y5.1613
G01 X41.8616 Y5.2184
G01 X41.9187 Y5.2812
G01 X41.9692 Y5.3494
G01 X42.0129 Y5.4222
G01 X42.0492 Y5.4990
G01 X42.0778 Y5.5789
G01 X42.0984 Y5.6612
G01 X42.1108 Y5.7452
G01 X42.1149 Y5.8244
G01 X42.1150 Y5.8328
G01 X42.1108 Y5.9148
G01 X42.0984 Y5.9988
G01 X42.0778 Y6.0811
G01 X42.0492 Y6.1610
G01 X42.0129 Y6.2378
G01 X41.9692 Y6.3106
G01 X41.9187 Y6.3788
G01 X41.8616 Y6.4416
G01 X41.7988 Y6.4987
G01 X41.7306 Y6.5492
G01 X41.6578 Y6.5929
G01 X41.5810 Y6.6292
G01 X41.5011 Y6.6578
G01 X41.4188 Y6.6784
G01 X41.3348 Y6.6908
G01 X41.2528 Y6.6950
G01 X40.7472 Y6.6950
G01 X40.6652 Y6.6908
G01 X40.5868 Y6.6793
G01 X40.5785 Y6.6778
G01 X40.4989 Y6.6578
G01 X40.4242 Y6.6312
G01 X40.4138 Y6.6269
G01 X40.3422 Y6.5929
G01 X40.2742 Y6.5522
G01 X40.2648 Y6.5460
G01 X40.2012 Y6.4987
G01 X40.1421 Y6.4452
G01 X1.8579 Y6.4452
G01 X1.7988 Y6.4987
G01 X1.7352 Y6.5460
G01 X1.7258 Y6.5522
G01 X1.6578 Y6.5929
G01 X1.5862 Y6.6269
G01 X1.5758 Y6.6312
G01 X1.5011 Y6.6578
G01 X1.4215 Y6.6778
G01 X1.4132 Y6.6793
G01 X1.3348 Y6.6908
G01 X1.2528 Y6.6950
G01 X0.7472 Y6.6950
G01 X0.6652 Y6.6908
G01 X0.5812 Y6.6784
G01 X0.4989 Y6.6578
G01 X0.4190 Y6.6292
G01 X0.3422 Y6.5929
G01 X0.2694 Y6.5492
G01 X0.2012 Y6.4987
G01 X0.1384 Y6.4416
G01 X0.0813 Y6.3788
G01 X0.0308 Y6.3106
G01 X-0.0129 Y6.2378
G01 X-0.0492 Y6.1610
G01 X-0.0778 Y6.0811
G01 X-0.0984 Y5.9988
G01 X-0.1108 Y5.9148
G01 X-0.1150 Y5.8300
G01 X-0.1108 Y5.7452
G01 X-0.0984 Y5.6612
G01 X-0.0778 Y5.5789
G01 X-0.0492 Y5.4990
G01 X-0.0129 Y5.4222
G01 X0.0308 Y5.3494
G01 X0.0813 Y5.2812
G01 X0.1384 Y5.2184
G01 X0.2012 Y5.1613
G01 X0.2694 Y5.1108
G01 X0.3422 Y5.0671
G01 X0.4190 Y5.0308
G01 X0.4989 Y5.0022
G01 X0.5812 Y4.9816
G01 X0.6652 Y4.9692
G01 X0.7500 Y4.9650
G00 Z1.0000
M05
G00 Z1.0000
G00 Z15.00


