(G-CODE GENERATED BY FLATCAM v8.994 - www.flatcam.org - Version Date: 2020/11/7)

(Name: teste-CNC-B_Cu.gbr_iso_combined_1_cnc)
(Type: G-code from Geometry)
(Units: MM)

(Created on sexta, 04 agosto 2023 at 19:33)

(This preprocessor is the default preprocessor used by FlatCAM.)
(It is made to work with MACH3 compatible motion controllers.)

(TOOL DIAMETER: 0.27 mm)
(Feedrate_XY: 60.0 mm/min)
(Feedrate_Z: 60.0 mm/min)
(Feedrate rapids 1500.0 mm/min)

(Z_Cut: -0.19849 mm)
(Z_Move: 1.0 mm)
(Z Start: None mm)
(Z End: 15.0 mm)
(X,Y End: None mm)
(Steps per circle: 64)
(Preprocessor Geometry: default)

(X range:   -0.6210 ...   42.6210  mm)
(Y range:   -0.6210 ...    7.2010  mm)

(Spindle Speed: 1000.0 RPM)
G21
G90
G94

G01 F60.00

M5
G00 Z15.0000
G00 X0.0000 Y0.0000
T1
M6    
(MSG, Change to Tool Dia = 0.27000)
M0
G00 Z15.0000

M03 S1000.0
G01 F60.00
G00 X0.7500 Y-0.1350
G01 F60.00
G01 Z-0.1985
G01 F60.00
G01 X1.2533 Y-0.1350
G01 X1.3367 Y-0.1307
G01 X1.4161 Y-0.1191
G01 X1.4259 Y-0.1173
G01 X1.5069 Y-0.0969
G01 X1.5825 Y-0.0700
G01 X1.5947 Y-0.0649
G01 X1.6672 Y-0.0305
G01 X1.7361 Y0.0106
G01 X1.7471 Y0.0180
G01 X1.8114 Y0.0659
G01 X1.8656 Y0.1147
G01 X40.1344 Y0.1147
G01 X40.1886 Y0.0659
G01 X40.2529 Y0.0180
G01 X40.2639 Y0.0106
G01 X40.3328 Y-0.0305
G01 X40.4053 Y-0.0649
G01 X40.4175 Y-0.0700
G01 X40.4931 Y-0.0969
G01 X40.5741 Y-0.1173
G01 X40.5839 Y-0.1191
G01 X40.6633 Y-0.1307
G01 X40.7467 Y-0.1350
G01 X41.2533 Y-0.1350
G01 X41.3367 Y-0.1307
G01 X41.4227 Y-0.1180
G01 X41.5069 Y-0.0969
G01 X41.5887 Y-0.0676
G01 X41.6672 Y-0.0305
G01 X41.7417 Y0.0141
G01 X41.8114 Y0.0659
G01 X41.8758 Y0.1242
G01 X41.9341 Y0.1886
G01 X41.9859 Y0.2583
G01 X42.0305 Y0.3328
G01 X42.0676 Y0.4113
G01 X42.0969 Y0.4931
G01 X42.1180 Y0.5773
G01 X42.1307 Y0.6633
G01 X42.1348 Y0.7434
G01 X42.1350 Y0.7533
G01 X42.1307 Y0.8367
G01 X42.1180 Y0.9227
G01 X42.0969 Y1.0069
G01 X42.0676 Y1.0887
G01 X42.0305 Y1.1672
G01 X41.9859 Y1.2417
G01 X41.9341 Y1.3114
G01 X41.8758 Y1.3758
G01 X41.8114 Y1.4341
G01 X41.7417 Y1.4859
G01 X41.6672 Y1.5305
G01 X41.5887 Y1.5676
G01 X41.5069 Y1.5969
G01 X41.4227 Y1.6180
G01 X41.3367 Y1.6307
G01 X41.2533 Y1.6350
G01 X40.7467 Y1.6350
G01 X40.6633 Y1.6307
G01 X40.5839 Y1.6191
G01 X40.5741 Y1.6173
G01 X40.4931 Y1.5969
G01 X40.4175 Y1.5700
G01 X40.4053 Y1.5649
G01 X40.3328 Y1.5305
G01 X40.2639 Y1.4894
G01 X40.2529 Y1.4820
G01 X40.1886 Y1.4341
G01 X40.1344 Y1.3852
G01 X1.8656 Y1.3852
G01 X1.8114 Y1.4341
G01 X1.7471 Y1.4820
G01 X1.7361 Y1.4894
G01 X1.6672 Y1.5305
G01 X1.5947 Y1.5649
G01 X1.5825 Y1.5700
G01 X1.5069 Y1.5969
G01 X1.4259 Y1.6173
G01 X1.4161 Y1.6191
G01 X1.3367 Y1.6307
G01 X1.2533 Y1.6350
G01 X0.7467 Y1.6350
G01 X0.6633 Y1.6307
G01 X0.5773 Y1.6180
G01 X0.4931 Y1.5969
G01 X0.4113 Y1.5676
G01 X0.3328 Y1.5305
G01 X0.2583 Y1.4859
G01 X0.1886 Y1.4341
G01 X0.1242 Y1.3758
G01 X0.0659 Y1.3114
G01 X0.0141 Y1.2417
G01 X-0.0305 Y1.1672
G01 X-0.0676 Y1.0887
G01 X-0.0969 Y1.0069
G01 X-0.1180 Y0.9227
G01 X-0.1307 Y0.8367
G01 X-0.1350 Y0.7500
G01 X-0.1307 Y0.6633
G01 X-0.1180 Y0.5773
G01 X-0.0969 Y0.4931
G01 X-0.0676 Y0.4113
G01 X-0.0305 Y0.3328
G01 X0.0141 Y0.2583
G01 X0.0659 Y0.1886
G01 X0.1242 Y0.1242
G01 X0.1886 Y0.0659
G01 X0.2583 Y0.0141
G01 X0.3328 Y-0.0305
G01 X0.4113 Y-0.0676
G01 X0.4931 Y-0.0969
G01 X0.5773 Y-0.1180
G01 X0.6633 Y-0.1307
G01 X0.7500 Y-0.1350
G00 Z1.0000
G00 X0.7500 Y-0.2970
G01 F60.00
G01 Z-0.1985
G01 F60.00
G01 X1.2573 Y-0.2969
G01 X1.3381 Y-0.2930
G01 X1.3526 Y-0.2920
G01 X1.3671 Y-0.2902
G01 X1.4399 Y-0.2794
G01 X1.4614 Y-0.2754
G01 X1.5399 Y-0.2558
G01 X1.5539 Y-0.2519
G01 X1.5678 Y-0.2473
G01 X1.6371 Y-0.2225
G01 X1.6507 Y-0.2173
G01 X1.6640 Y-0.2114
G01 X1.7371 Y-0.1767
G01 X1.7562 Y-0.1662
G01 X1.8194 Y-0.1283
G01 X1.8317 Y-0.1205
G01 X1.8436 Y-0.1122
G01 X1.9027 Y-0.0683
G01 X1.9142 Y-0.0593
G01 X1.9281 Y-0.0473
G01 X40.0719 Y-0.0473
G01 X40.0858 Y-0.0593
G01 X40.0973 Y-0.0683
G01 X40.1564 Y-0.1122
G01 X40.1683 Y-0.1205
G01 X40.1806 Y-0.1283
G01 X40.2438 Y-0.1662
G01 X40.2564 Y-0.1734
G01 X40.2695 Y-0.1799
G01 X40.3360 Y-0.2114
G01 X40.3493 Y-0.2173
G01 X40.3629 Y-0.2225
G01 X40.4322 Y-0.2473
G01 X40.4461 Y-0.2519
G01 X40.4601 Y-0.2558
G01 X40.5315 Y-0.2737
G01 X40.5457 Y-0.2769
G01 X40.5601 Y-0.2794
G01 X40.6329 Y-0.2902
G01 X40.6474 Y-0.2920
G01 X40.6619 Y-0.2930
G01 X40.7427 Y-0.2969
G01 X41.2573 Y-0.2969
G01 X41.3381 Y-0.2930
G01 X41.3526 Y-0.2920
G01 X41.3671 Y-0.2902
G01 X41.4399 Y-0.2794
G01 X41.4543 Y-0.2769
G01 X41.4685 Y-0.2737
G01 X41.5399 Y-0.2558
G01 X41.5539 Y-0.2519
G01 X41.5678 Y-0.2473
G01 X41.6371 Y-0.2225
G01 X41.6507 Y-0.2173
G01 X41.6640 Y-0.2114
G01 X41.7305 Y-0.1799
G01 X41.7436 Y-0.1734
G01 X41.7562 Y-0.1662
G01 X41.8194 Y-0.1283
G01 X41.8317 Y-0.1205
G01 X41.8436 Y-0.1122
G01 X41.9027 Y-0.0683
G01 X41.9142 Y-0.0593
G01 X41.9252 Y-0.0498
G01 X41.9798 Y-0.0004
G01 X41.9903 Y0.0097
G01 X42.0004 Y0.0202
G01 X42.0498 Y0.0748
G01 X42.0593 Y0.0858
G01 X42.0683 Y0.0973
G01 X42.1122 Y0.1564
G01 X42.1205 Y0.1683
G01 X42.1283 Y0.1806
G01 X42.1662 Y0.2438
G01 X42.1734 Y0.2564
G01 X42.1799 Y0.2695
G01 X42.2114 Y0.3360
G01 X42.2173 Y0.3493
G01 X42.2225 Y0.3629
G01 X42.2473 Y0.4322
G01 X42.2519 Y0.4461
G01 X42.2558 Y0.4601
G01 X42.2737 Y0.5315
G01 X42.2769 Y0.5457
G01 X42.2794 Y0.5601
G01 X42.2902 Y0.6329
G01 X42.2920 Y0.6474
G01 X42.2930 Y0.6619
G01 X42.2966 Y0.7354
G01 X42.2969 Y0.7573
G01 X42.2930 Y0.8381
G01 X42.2920 Y0.8526
G01 X42.2902 Y0.8671
G01 X42.2794 Y0.9399
G01 X42.2769 Y0.9543
G01 X42.2737 Y0.9685
G01 X42.2558 Y1.0399
G01 X42.2519 Y1.0539
G01 X42.2473 Y1.0678
G01 X42.2225 Y1.1371
G01 X42.2173 Y1.1507
G01 X42.2114 Y1.1640
G01 X42.1799 Y1.2305
G01 X42.1734 Y1.2436
G01 X42.1662 Y1.2562
G01 X42.1283 Y1.3194
G01 X42.1205 Y1.3317
G01 X42.1122 Y1.3436
G01 X42.0683 Y1.4027
G01 X42.0593 Y1.4142
G01 X42.0498 Y1.4252
G01 X42.0004 Y1.4798
G01 X41.9903 Y1.4903
G01 X41.9798 Y1.5004
G01 X41.9252 Y1.5498
G01 X41.9142 Y1.5593
G01 X41.9027 Y1.5683
G01 X41.8436 Y1.6122
G01 X41.8317 Y1.6205
G01 X41.8194 Y1.6283
G01 X41.7562 Y1.6662
G01 X41.7436 Y1.6734
G01 X41.7305 Y1.6799
G01 X41.6640 Y1.7114
G01 X41.6507 Y1.7173
G01 X41.6371 Y1.7225
G01 X41.5678 Y1.7473
G01 X41.5539 Y1.7519
G01 X41.5399 Y1.7558
G01 X41.4685 Y1.7737
G01 X41.4543 Y1.7769
G01 X41.4399 Y1.7794
G01 X41.3671 Y1.7902
G01 X41.3526 Y1.7920
G01 X41.3381 Y1.7930
G01 X41.2573 Y1.7969
G01 X40.7427 Y1.7969
G01 X40.6619 Y1.7930
G01 X40.6474 Y1.7920
G01 X40.6329 Y1.7902
G01 X40.5601 Y1.7794
G01 X40.5457 Y1.7769
G01 X40.5315 Y1.7737
G01 X40.4601 Y1.7558
G01 X40.4461 Y1.7519
G01 X40.4322 Y1.7473
G01 X40.3629 Y1.7225
G01 X40.3493 Y1.7173
G01 X40.3360 Y1.7114
G01 X40.2695 Y1.6799
G01 X40.2564 Y1.6734
G01 X40.2438 Y1.6662
G01 X40.1806 Y1.6283
G01 X40.1683 Y1.6205
G01 X40.1564 Y1.6122
G01 X40.0973 Y1.5683
G01 X40.0858 Y1.5593
G01 X40.0719 Y1.5472
G01 X1.9281 Y1.5472
G01 X1.9142 Y1.5593
G01 X1.9027 Y1.5683
G01 X1.8436 Y1.6122
G01 X1.8317 Y1.6205
G01 X1.8194 Y1.6283
G01 X1.7562 Y1.6662
G01 X1.7436 Y1.6734
G01 X1.7305 Y1.6799
G01 X1.6640 Y1.7114
G01 X1.6507 Y1.7173
G01 X1.6371 Y1.7225
G01 X1.5678 Y1.7473
G01 X1.5539 Y1.7519
G01 X1.5399 Y1.7558
G01 X1.4685 Y1.7737
G01 X1.4543 Y1.7769
G01 X1.4399 Y1.7794
G01 X1.3671 Y1.7902
G01 X1.3526 Y1.7920
G01 X1.3381 Y1.7930
G01 X1.2573 Y1.7969
G01 X0.7427 Y1.7969
G01 X0.6619 Y1.7930
G01 X0.6474 Y1.7920
G01 X0.6329 Y1.7902
G01 X0.5601 Y1.7794
G01 X0.5457 Y1.7769
G01 X0.5315 Y1.7737
G01 X0.4601 Y1.7558
G01 X0.4461 Y1.7519
G01 X0.4322 Y1.7473
G01 X0.3629 Y1.7225
G01 X0.3493 Y1.7173
G01 X0.3360 Y1.7114
G01 X0.2695 Y1.6799
G01 X0.2564 Y1.6734
G01 X0.2438 Y1.6662
G01 X0.1806 Y1.6283
G01 X0.1683 Y1.6205
G01 X0.1564 Y1.6122
G01 X0.0973 Y1.5683
G01 X0.0858 Y1.5593
G01 X0.0748 Y1.5498
G01 X0.0202 Y1.5004
G01 X0.0097 Y1.4903
G01 X-0.0004 Y1.4798
G01 X-0.0498 Y1.4252
G01 X-0.0593 Y1.4142
G01 X-0.0683 Y1.4027
G01 X-0.1122 Y1.3436
G01 X-0.1205 Y1.3317
G01 X-0.1283 Y1.3194
G01 X-0.1662 Y1.2562
G01 X-0.1734 Y1.2436
G01 X-0.1799 Y1.2305
G01 X-0.2114 Y1.1640
G01 X-0.2173 Y1.1507
G01 X-0.2225 Y1.1371
G01 X-0.2473 Y1.0678
G01 X-0.2519 Y1.0539
G01 X-0.2558 Y1.0399
G01 X-0.2737 Y0.9685
G01 X-0.2769 Y0.9543
G01 X-0.2794 Y0.9399
G01 X-0.2902 Y0.8671
G01 X-0.2920 Y0.8526
G01 X-0.2930 Y0.8381
G01 X-0.2966 Y0.7646
G01 X-0.2970 Y0.7500
G01 X-0.2966 Y0.7354
G01 X-0.2930 Y0.6619
G01 X-0.2920 Y0.6474
G01 X-0.2902 Y0.6329
G01 X-0.2794 Y0.5601
G01 X-0.2769 Y0.5457
G01 X-0.2737 Y0.5315
G01 X-0.2558 Y0.4601
G01 X-0.2519 Y0.4461
G01 X-0.2473 Y0.4322
G01 X-0.2225 Y0.3629
G01 X-0.2173 Y0.3493
G01 X-0.2114 Y0.3360
G01 X-0.1799 Y0.2695
G01 X-0.1734 Y0.2564
G01 X-0.1662 Y0.2438
G01 X-0.1283 Y0.1806
G01 X-0.1205 Y0.1683
G01 X-0.1122 Y0.1564
G01 X-0.0683 Y0.0973
G01 X-0.0593 Y0.0858
G01 X-0.0498 Y0.0748
G01 X-0.0004 Y0.0202
G01 X0.0097 Y0.0097
G01 X0.0202 Y-0.0004
G01 X0.0748 Y-0.0498
G01 X0.0858 Y-0.0593
G01 X0.0973 Y-0.0683
G01 X0.1564 Y-0.1122
G01 X0.1683 Y-0.1205
G01 X0.1806 Y-0.1283
G01 X0.2438 Y-0.1662
G01 X0.2564 Y-0.1734
G01 X0.2695 Y-0.1799
G01 X0.3360 Y-0.2114
G01 X0.3493 Y-0.2173
G01 X0.3629 Y-0.2225
G01 X0.4322 Y-0.2473
G01 X0.4461 Y-0.2519
G01 X0.4601 Y-0.2558
G01 X0.5315 Y-0.2737
G01 X0.5457 Y-0.2769
G01 X0.5601 Y-0.2794
G01 X0.6329 Y-0.2902
G01 X0.6474 Y-0.2920
G01 X0.6619 Y-0.2930
G01 X0.7354 Y-0.2966
G01 X0.7500 Y-0.2970
G00 Z1.0000
G00 X0.7500 Y-0.4590
G01 F60.00
G01 Z-0.1985
G01 F60.00
G01 X1.2613 Y-0.4589
G01 X1.3460 Y-0.4548
G01 X1.3685 Y-0.4532
G01 X1.3909 Y-0.4504
G01 X1.4637 Y-0.4396
G01 X1.4859 Y-0.4358
G01 X1.5078 Y-0.4308
G01 X1.5792 Y-0.4129
G01 X1.6010 Y-0.4069
G01 X1.6223 Y-0.3999
G01 X1.6916 Y-0.3751
G01 X1.7127 Y-0.3670
G01 X1.7230 Y-0.3625
G01 X1.8099 Y-0.3214
G01 X1.8298 Y-0.3108
G01 X1.8395 Y-0.3051
G01 X1.9027 Y-0.2673
G01 X1.9217 Y-0.2552
G01 X1.9401 Y-0.2423
G01 X1.9846 Y-0.2093
G01 X40.0154 Y-0.2093
G01 X40.0599 Y-0.2423
G01 X40.0783 Y-0.2552
G01 X40.0973 Y-0.2673
G01 X40.1605 Y-0.3051
G01 X40.1702 Y-0.3108
G01 X40.1901 Y-0.3214
G01 X40.2770 Y-0.3625
G01 X40.2978 Y-0.3712
G01 X40.3084 Y-0.3751
G01 X40.3777 Y-0.3999
G01 X40.3990 Y-0.4069
G01 X40.4208 Y-0.4129
G01 X40.4922 Y-0.4308
G01 X40.5141 Y-0.4358
G01 X40.5363 Y-0.4396
G01 X40.6091 Y-0.4504
G01 X40.6315 Y-0.4532
G01 X40.6540 Y-0.4548
G01 X40.7387 Y-0.4589
G01 X41.2613 Y-0.4589
G01 X41.3460 Y-0.4548
G01 X41.3685 Y-0.4532
G01 X41.3909 Y-0.4504
G01 X41.4637 Y-0.4396
G01 X41.4859 Y-0.4358
G01 X41.5078 Y-0.4308
G01 X41.5792 Y-0.4129
G01 X41.6010 Y-0.4069
G01 X41.6223 Y-0.3999
G01 X41.6916 Y-0.3751
G01 X41.7127 Y-0.3670
G01 X41.7333 Y-0.3578
G01 X41.7998 Y-0.3264
G01 X41.8199 Y-0.3162
G01 X41.8395 Y-0.3051
G01 X41.9027 Y-0.2673
G01 X41.9217 Y-0.2552
G01 X41.9401 Y-0.2423
G01 X41.9992 Y-0.1984
G01 X42.0170 Y-0.1846
G01 X42.0340 Y-0.1699
G01 X42.0886 Y-0.1204
G01 X42.1049 Y-0.1049
G01 X42.1204 Y-0.0886
G01 X42.1699 Y-0.0340
G01 X42.1846 Y-0.0170
G01 X42.1984 Y0.0008
G01 X42.2423 Y0.0599
G01 X42.2552 Y0.0783
G01 X42.2673 Y0.0973
G01 X42.3051 Y0.1605
G01 X42.3162 Y0.1801
G01 X42.3264 Y0.2002
G01 X42.3578 Y0.2667
G01 X42.3670 Y0.2873
G01 X42.3751 Y0.3084
G01 X42.3999 Y0.3777
G01 X42.4069 Y0.3990
G01 X42.4129 Y0.4208
G01 X42.4308 Y0.4922
G01 X42.4358 Y0.5141
G01 X42.4396 Y0.5363
G01 X42.4504 Y0.6091
G01 X42.4532 Y0.6315
G01 X42.4548 Y0.6540
G01 X42.4584 Y0.7275
G01 X42.4590 Y0.7500
G01 X42.4589 Y0.7613
G01 X42.4548 Y0.8460
G01 X42.4532 Y0.8685
G01 X42.4504 Y0.8909
G01 X42.4396 Y0.9637
G01 X42.4358 Y0.9859
G01 X42.4308 Y1.0078
G01 X42.4129 Y1.0792
G01 X42.4069 Y1.1010
G01 X42.3999 Y1.1223
G01 X42.3751 Y1.1916
G01 X42.3670 Y1.2127
G01 X42.3578 Y1.2333
G01 X42.3264 Y1.2998
G01 X42.3162 Y1.3199
G01 X42.3051 Y1.3395
G01 X42.2673 Y1.4027
G01 X42.2552 Y1.4217
G01 X42.2423 Y1.4401
G01 X42.1984 Y1.4992
G01 X42.1846 Y1.5170
G01 X42.1699 Y1.5340
G01 X42.1204 Y1.5886
G01 X42.1049 Y1.6049
G01 X42.0886 Y1.6204
G01 X42.0340 Y1.6699
G01 X42.0170 Y1.6846
G01 X41.9992 Y1.6984
G01 X41.9401 Y1.7423
G01 X41.9217 Y1.7552
G01 X41.9027 Y1.7673
G01 X41.8395 Y1.8051
G01 X41.8199 Y1.8162
G01 X41.7998 Y1.8264
G01 X41.7333 Y1.8578
G01 X41.7127 Y1.8670
G01 X41.6916 Y1.8751
G01 X41.6223 Y1.8999
G01 X41.6010 Y1.9069
G01 X41.5792 Y1.9129
G01 X41.5078 Y1.9308
G01 X41.4859 Y1.9358
G01 X41.4637 Y1.9396
G01 X41.3909 Y1.9504
G01 X41.3685 Y1.9532
G01 X41.3460 Y1.9548
G01 X41.2613 Y1.9589
G01 X40.7387 Y1.9589
G01 X40.6540 Y1.9548
G01 X40.6315 Y1.9532
G01 X40.6091 Y1.9504
G01 X40.5363 Y1.9396
G01 X40.5141 Y1.9358
G01 X40.4922 Y1.9308
G01 X40.4208 Y1.9129
G01 X40.3990 Y1.9069
G01 X40.3777 Y1.8999
G01 X40.3084 Y1.8751
G01 X40.2978 Y1.8712
G01 X40.2770 Y1.8625
G01 X40.1901 Y1.8214
G01 X40.1702 Y1.8108
G01 X40.1605 Y1.8051
G01 X40.0973 Y1.7673
G01 X40.0783 Y1.7552
G01 X40.0599 Y1.7423
G01 X40.0154 Y1.7092
G01 X1.9846 Y1.7092
G01 X1.9401 Y1.7423
G01 X1.9217 Y1.7552
G01 X1.9027 Y1.7673
G01 X1.8395 Y1.8051
G01 X1.8199 Y1.8162
G01 X1.8099 Y1.8214
G01 X1.7230 Y1.8625
G01 X1.7022 Y1.8712
G01 X1.6916 Y1.8751
G01 X1.6223 Y1.8999
G01 X1.6010 Y1.9069
G01 X1.5792 Y1.9129
G01 X1.5078 Y1.9308
G01 X1.4859 Y1.9358
G01 X1.4637 Y1.9396
G01 X1.3909 Y1.9504
G01 X1.3685 Y1.9532
G01 X1.3460 Y1.9548
G01 X1.2613 Y1.9589
G01 X0.7387 Y1.9589
G01 X0.6540 Y1.9548
G01 X0.6315 Y1.9532
G01 X0.6091 Y1.9504
G01 X0.5363 Y1.9396
G01 X0.5141 Y1.9358
G01 X0.4922 Y1.9308
G01 X0.4208 Y1.9129
G01 X0.3990 Y1.9069
G01 X0.3777 Y1.8999
G01 X0.3084 Y1.8751
G01 X0.2873 Y1.8670
G01 X0.2667 Y1.8578
G01 X0.2002 Y1.8264
G01 X0.1801 Y1.8162
G01 X0.1605 Y1.8051
G01 X0.0973 Y1.7673
G01 X0.0783 Y1.7552
G01 X0.0599 Y1.7423
G01 X0.0008 Y1.6984
G01 X-0.0170 Y1.6846
G01 X-0.0340 Y1.6699
G01 X-0.0886 Y1.6204
G01 X-0.1049 Y1.6049
G01 X-0.1204 Y1.5886
G01 X-0.1699 Y1.5340
G01 X-0.1846 Y1.5170
G01 X-0.1984 Y1.4992
G01 X-0.2423 Y1.4401
G01 X-0.2552 Y1.4217
G01 X-0.2673 Y1.4027
G01 X-0.3051 Y1.3395
G01 X-0.3162 Y1.3199
G01 X-0.3264 Y1.2998
G01 X-0.3578 Y1.2333
G01 X-0.3670 Y1.2127
G01 X-0.3751 Y1.1916
G01 X-0.3999 Y1.1223
G01 X-0.4069 Y1.1010
G01 X-0.4129 Y1.0792
G01 X-0.4308 Y1.0078
G01 X-0.4358 Y0.9859
G01 X-0.4396 Y0.9637
G01 X-0.4504 Y0.8909
G01 X-0.4532 Y0.8685
G01 X-0.4548 Y0.8460
G01 X-0.4584 Y0.7725
G01 X-0.4590 Y0.7500
G01 X-0.4584 Y0.7275
G01 X-0.4548 Y0.6540
G01 X-0.4532 Y0.6315
G01 X-0.4504 Y0.6091
G01 X-0.4396 Y0.5363
G01 X-0.4358 Y0.5141
G01 X-0.4308 Y0.4922
G01 X-0.4129 Y0.4208
G01 X-0.4069 Y0.3990
G01 X-0.3999 Y0.3777
G01 X-0.3751 Y0.3084
G01 X-0.3670 Y0.2873
G01 X-0.3578 Y0.2667
G01 X-0.3264 Y0.2002
G01 X-0.3162 Y0.1801
G01 X-0.3051 Y0.1605
G01 X-0.2673 Y0.0973
G01 X-0.2552 Y0.0783
G01 X-0.2423 Y0.0599
G01 X-0.1984 Y0.0008
G01 X-0.1846 Y-0.0170
G01 X-0.1699 Y-0.0340
G01 X-0.1204 Y-0.0886
G01 X-0.1049 Y-0.1049
G01 X-0.0886 Y-0.1204
G01 X-0.0340 Y-0.1699
G01 X-0.0170 Y-0.1846
G01 X0.0008 Y-0.1984
G01 X0.0599 Y-0.2423
G01 X0.0783 Y-0.2552
G01 X0.0973 Y-0.2673
G01 X0.1605 Y-0.3051
G01 X0.1801 Y-0.3162
G01 X0.2002 Y-0.3264
G01 X0.2667 Y-0.3578
G01 X0.2873 Y-0.3670
G01 X0.3084 Y-0.3751
G01 X0.3777 Y-0.3999
G01 X0.3990 Y-0.4069
G01 X0.4208 Y-0.4129
G01 X0.4922 Y-0.4308
G01 X0.5141 Y-0.4358
G01 X0.5363 Y-0.4396
G01 X0.6091 Y-0.4504
G01 X0.6315 Y-0.4532
G01 X0.6540 Y-0.4548
G01 X0.7275 Y-0.4584
G01 X0.7500 Y-0.4590
G00 Z1.0000
G00 X0.7500 Y-0.6210
G01 F60.00
G01 Z-0.1985
G01 F60.00
G01 X1.2652 Y-0.6208
G01 X1.3540 Y-0.6166
G01 X1.3844 Y-0.6144
G01 X1.4146 Y-0.6107
G01 X1.4874 Y-0.5999
G01 X1.5175 Y-0.5947
G01 X1.5472 Y-0.5880
G01 X1.6186 Y-0.5701
G01 X1.6480 Y-0.5620
G01 X1.6769 Y-0.5524
G01 X1.7462 Y-0.5276
G01 X1.7747 Y-0.5166
G01 X1.7887 Y-0.5106
G01 X1.8691 Y-0.4728
G01 X1.8828 Y-0.4661
G01 X1.9096 Y-0.4518
G01 X1.9989 Y-0.3983
G01 X2.0243 Y-0.3813
G01 X2.0381 Y-0.3713
G01 X39.9619 Y-0.3713
G01 X39.9757 Y-0.3813
G01 X40.0011 Y-0.3983
G01 X40.0904 Y-0.4518
G01 X40.1037 Y-0.4591
G01 X40.1309 Y-0.4728
G01 X40.1975 Y-0.5043
G01 X40.2253 Y-0.5166
G01 X40.2538 Y-0.5276
G01 X40.3231 Y-0.5524
G01 X40.3520 Y-0.5620
G01 X40.3667 Y-0.5662
G01 X40.4676 Y-0.5915
G01 X40.4825 Y-0.5947
G01 X40.5126 Y-0.5999
G01 X40.5854 Y-0.6107
G01 X40.6156 Y-0.6144
G01 X40.6460 Y-0.6166
G01 X40.7348 Y-0.6208
G01 X41.2500 Y-0.6210
G01 X41.2805 Y-0.6203
G01 X41.3540 Y-0.6166
G01 X41.3844 Y-0.6144
G01 X41.4146 Y-0.6107
G01 X41.4874 Y-0.5999
G01 X41.5025 Y-0.5974
G01 X41.5324 Y-0.5915
G01 X41.6186 Y-0.5701
G01 X41.6480 Y-0.5620
G01 X41.6769 Y-0.5524
G01 X41.7462 Y-0.5276
G01 X41.7747 Y-0.5166
G01 X41.8025 Y-0.5043
G01 X41.8691 Y-0.4728
G01 X41.8963 Y-0.4591
G01 X41.9228 Y-0.4441
G01 X41.9859 Y-0.4063
G01 X42.0117 Y-0.3899
G01 X42.0366 Y-0.3724
G01 X42.0957 Y-0.3285
G01 X42.1079 Y-0.3193
G01 X42.1314 Y-0.3000
G01 X42.1974 Y-0.2405
G01 X42.2194 Y-0.2194
G01 X42.2405 Y-0.1974
G01 X42.2899 Y-0.1428
G01 X42.3098 Y-0.1198
G01 X42.3285 Y-0.0957
G01 X42.3724 Y-0.0366
G01 X42.3899 Y-0.0117
G01 X42.3983 Y0.0011
G01 X42.4441 Y0.0772
G01 X42.4591 Y0.1037
G01 X42.4728 Y0.1309
G01 X42.5043 Y0.1975
G01 X42.5166 Y0.2253
G01 X42.5276 Y0.2538
G01 X42.5524 Y0.3231
G01 X42.5620 Y0.3520
G01 X42.5701 Y0.3814
G01 X42.5915 Y0.4676
G01 X42.5974 Y0.4975
G01 X42.6107 Y0.5854
G01 X42.6144 Y0.6156
G01 X42.6166 Y0.6460
G01 X42.6203 Y0.7195
G01 X42.6210 Y0.7500
G01 X42.6203 Y0.7805
G01 X42.6166 Y0.8540
G01 X42.6144 Y0.8844
G01 X42.6107 Y0.9146
G01 X42.5999 Y0.9874
G01 X42.5974 Y1.0025
G01 X42.5915 Y1.0324
G01 X42.5701 Y1.1186
G01 X42.5620 Y1.1480
G01 X42.5524 Y1.1769
G01 X42.5276 Y1.2462
G01 X42.5166 Y1.2747
G01 X42.5043 Y1.3025
G01 X42.4728 Y1.3691
G01 X42.4591 Y1.3963
G01 X42.4441 Y1.4228
G01 X42.4063 Y1.4859
G01 X42.3899 Y1.5117
G01 X42.3724 Y1.5366
G01 X42.3285 Y1.5957
G01 X42.3098 Y1.6198
G01 X42.2899 Y1.6428
G01 X42.2405 Y1.6974
G01 X42.2194 Y1.7194
G01 X42.1974 Y1.7405
G01 X42.1428 Y1.7899
G01 X42.1198 Y1.8098
G01 X42.1079 Y1.8193
G01 X42.0366 Y1.8724
G01 X42.0117 Y1.8899
G01 X41.9859 Y1.9063
G01 X41.9096 Y1.9518
G01 X41.8828 Y1.9661
G01 X41.8025 Y2.0043
G01 X41.7887 Y2.0106
G01 X41.7663 Y2.0200
G01 X41.7887 Y2.0294
G01 X41.8025 Y2.0357
G01 X41.8828 Y2.0739
G01 X41.9096 Y2.0882
G01 X41.9859 Y2.1337
G01 X41.9989 Y2.1417
G01 X42.0243 Y2.1587
G01 X42.0957 Y2.2115
G01 X42.1198 Y2.2302
G01 X42.1428 Y2.2501
G01 X42.1974 Y2.2995
G01 X42.2194 Y2.3206
G01 X42.2405 Y2.3426
G01 X42.2899 Y2.3972
G01 X42.3098 Y2.4202
G01 X42.3285 Y2.4443
G01 X42.3724 Y2.5034
G01 X42.3899 Y2.5283
G01 X42.4063 Y2.5541
G01 X42.4441 Y2.6172
G01 X42.4591 Y2.6437
G01 X42.4728 Y2.6709
G01 X42.5043 Y2.7375
G01 X42.5166 Y2.7653
G01 X42.5276 Y2.7938
G01 X42.5524 Y2.8631
G01 X42.5620 Y2.8920
G01 X42.5701 Y2.9214
G01 X42.5880 Y2.9928
G01 X42.5947 Y3.0225
G01 X42.5999 Y3.0526
G01 X42.6107 Y3.1254
G01 X42.6144 Y3.1556
G01 X42.6166 Y3.1860
G01 X42.6208 Y3.2748
G01 X42.6210 Y3.2900
G01 X42.6203 Y3.3205
G01 X42.6166 Y3.3940
G01 X42.6144 Y3.4244
G01 X42.6107 Y3.4546
G01 X42.5999 Y3.5274
G01 X42.5947 Y3.5575
G01 X42.5880 Y3.5872
G01 X42.5662 Y3.6733
G01 X42.5620 Y3.6880
G01 X42.5524 Y3.7169
G01 X42.5276 Y3.7862
G01 X42.5166 Y3.8147
G01 X42.5043 Y3.8425
G01 X42.4728 Y3.9091
G01 X42.4591 Y3.9363
G01 X42.4518 Y3.9496
G01 X42.3983 Y4.0389
G01 X42.3899 Y4.0517
G01 X42.3724 Y4.0766
G01 X42.3285 Y4.1357
G01 X42.3098 Y4.1598
G01 X42.2899 Y4.1828
G01 X42.2301 Y4.2485
G01 X42.2194 Y4.2594
G01 X42.1974 Y4.2805
G01 X42.1428 Y4.3299
G01 X42.1198 Y4.3498
G01 X42.0957 Y4.3685
G01 X42.0366 Y4.4124
G01 X42.0117 Y4.4299
G01 X41.9989 Y4.4383
G01 X41.9228 Y4.4841
G01 X41.8963 Y4.4991
G01 X41.8691 Y4.5128
G01 X41.8025 Y4.5443
G01 X41.7887 Y4.5506
G01 X41.7663 Y4.5600
G01 X41.7887 Y4.5694
G01 X41.8025 Y4.5757
G01 X41.8828 Y4.6139
G01 X41.9096 Y4.6282
G01 X41.9859 Y4.6737
G01 X41.9989 Y4.6817
G01 X42.0243 Y4.6987
G01 X42.0957 Y4.7515
G01 X42.1198 Y4.7702
G01 X42.1428 Y4.7901
G01 X42.1974 Y4.8395
G01 X42.2194 Y4.8606
G01 X42.2405 Y4.8826
G01 X42.2899 Y4.9372
G01 X42.3098 Y4.9602
G01 X42.3285 Y4.9843
G01 X42.3724 Y5.0434
G01 X42.3899 Y5.0683
G01 X42.4063 Y5.0941
G01 X42.4518 Y5.1704
G01 X42.4661 Y5.1972
G01 X42.5043 Y5.2775
G01 X42.5166 Y5.3053
G01 X42.5276 Y5.3338
G01 X42.5574 Y5.4175
G01 X42.5662 Y5.4467
G01 X42.5880 Y5.5328
G01 X42.5947 Y5.5625
G01 X42.5974 Y5.5775
G01 X42.6107 Y5.6654
G01 X42.6144 Y5.6956
G01 X42.6166 Y5.7260
G01 X42.6203 Y5.7995
G01 X42.6210 Y5.8300
G01 X42.6203 Y5.8605
G01 X42.6166 Y5.9340
G01 X42.6144 Y5.9644
G01 X42.6107 Y5.9946
G01 X42.5999 Y6.0674
G01 X42.5974 Y6.0825
G01 X42.5915 Y6.1124
G01 X42.5701 Y6.1986
G01 X42.5620 Y6.2280
G01 X42.5524 Y6.2569
G01 X42.5223 Y6.3405
G01 X42.5106 Y6.3687
G01 X42.4728 Y6.4491
G01 X42.4591 Y6.4763
G01 X42.4518 Y6.4896
G01 X42.4063 Y6.5659
G01 X42.3899 Y6.5917
G01 X42.3724 Y6.6166
G01 X42.3285 Y6.6757
G01 X42.3098 Y6.6998
G01 X42.2899 Y6.7228
G01 X42.2405 Y6.7774
G01 X42.2194 Y6.7994
G01 X42.1974 Y6.8205
G01 X42.1314 Y6.8800
G01 X42.1198 Y6.8898
G01 X42.0957 Y6.9085
G01 X42.0243 Y6.9613
G01 X41.9989 Y6.9783
G01 X41.9228 Y7.0241
G01 X41.8963 Y7.0391
G01 X41.8828 Y7.0461
G01 X41.8025 Y7.0843
G01 X41.7747 Y7.0966
G01 X41.7462 Y7.1076
G01 X41.6769 Y7.1324
G01 X41.6480 Y7.1420
G01 X41.6186 Y7.1501
G01 X41.5472 Y7.1680
G01 X41.5175 Y7.1747
G01 X41.4874 Y7.1799
G01 X41.4146 Y7.1907
G01 X41.3844 Y7.1944
G01 X41.3540 Y7.1966
G01 X41.2652 Y7.2008
G01 X40.7348 Y7.2008
G01 X40.6460 Y7.1966
G01 X40.6156 Y7.1944
G01 X40.5854 Y7.1907
G01 X40.5126 Y7.1799
G01 X40.4825 Y7.1747
G01 X40.4528 Y7.1680
G01 X40.3814 Y7.1501
G01 X40.3520 Y7.1420
G01 X40.3231 Y7.1324
G01 X40.2538 Y7.1076
G01 X40.2253 Y7.0966
G01 X40.2113 Y7.0906
G01 X40.1309 Y7.0528
G01 X40.1037 Y7.0391
G01 X40.0904 Y7.0318
G01 X40.0011 Y6.9783
G01 X39.9757 Y6.9613
G01 X39.9619 Y6.9512
G01 X2.0381 Y6.9512
G01 X2.0243 Y6.9613
G01 X1.9989 Y6.9783
G01 X1.9096 Y7.0318
G01 X1.8963 Y7.0391
G01 X1.8691 Y7.0528
G01 X1.8025 Y7.0843
G01 X1.7747 Y7.0966
G01 X1.7462 Y7.1076
G01 X1.6769 Y7.1324
G01 X1.6625 Y7.1374
G01 X1.6333 Y7.1462
G01 X1.5324 Y7.1715
G01 X1.5175 Y7.1747
G01 X1.4874 Y7.1799
G01 X1.4146 Y7.1907
G01 X1.3844 Y7.1944
G01 X1.3540 Y7.1966
G01 X1.2652 Y7.2008
G01 X0.7500 Y7.2010
G01 X0.7195 Y7.2003
G01 X0.6460 Y7.1966
G01 X0.6156 Y7.1944
G01 X0.5854 Y7.1907
G01 X0.5126 Y7.1799
G01 X0.4825 Y7.1747
G01 X0.4676 Y7.1715
G01 X0.3814 Y7.1501
G01 X0.3520 Y7.1420
G01 X0.3231 Y7.1324
G01 X0.2538 Y7.1076
G01 X0.2253 Y7.0966
G01 X0.1975 Y7.0843
G01 X0.1309 Y7.0528
G01 X0.1037 Y7.0391
G01 X0.0772 Y7.0241
G01 X0.0141 Y6.9863
G01 X-0.0117 Y6.9699
G01 X-0.0366 Y6.9524
G01 X-0.0957 Y6.9085
G01 X-0.1079 Y6.8993
G01 X-0.1314 Y6.8800
G01 X-0.1974 Y6.8205
G01 X-0.2194 Y6.7994
G01 X-0.2405 Y6.7774
G01 X-0.2899 Y6.7228
G01 X-0.3098 Y6.6998
G01 X-0.3285 Y6.6757
G01 X-0.3724 Y6.6166
G01 X-0.3899 Y6.5917
G01 X-0.3983 Y6.5789
G01 X-0.4441 Y6.5028
G01 X-0.4591 Y6.4763
G01 X-0.4728 Y6.4491
G01 X-0.5043 Y6.3825
G01 X-0.5166 Y6.3547
G01 X-0.5276 Y6.3262
G01 X-0.5524 Y6.2569
G01 X-0.5620 Y6.2280
G01 X-0.5701 Y6.1986
G01 X-0.5915 Y6.1124
G01 X-0.5974 Y6.0825
G01 X-0.6107 Y5.9946
G01 X-0.6144 Y5.9644
G01 X-0.6166 Y5.9340
G01 X-0.6203 Y5.8605
G01 X-0.6210 Y5.8300
G01 X-0.6203 Y5.7995
G01 X-0.6166 Y5.7260
G01 X-0.6144 Y5.6956
G01 X-0.6107 Y5.6654
G01 X-0.5999 Y5.5926
G01 X-0.5947 Y5.5625
G01 X-0.5915 Y5.5476
G01 X-0.5701 Y5.4614
G01 X-0.5620 Y5.4320
G01 X-0.5524 Y5.4031
G01 X-0.5276 Y5.3338
G01 X-0.5166 Y5.3053
G01 X-0.5043 Y5.2775
G01 X-0.4728 Y5.2109
G01 X-0.4591 Y5.1837
G01 X-0.4441 Y5.1572
G01 X-0.4063 Y5.0941
G01 X-0.3899 Y5.0683
G01 X-0.3724 Y5.0434
G01 X-0.3285 Y4.9843
G01 X-0.3098 Y4.9602
G01 X-0.2899 Y4.9372
G01 X-0.2405 Y4.8826
G01 X-0.2194 Y4.8606
G01 X-0.1974 Y4.8395
G01 X-0.1428 Y4.7901
G01 X-0.1314 Y4.7800
G01 X-0.1079 Y4.7607
G01 X-0.0366 Y4.7076
G01 X-0.0117 Y4.6901
G01 X0.0141 Y4.6737
G01 X0.0904 Y4.6282
G01 X0.1172 Y4.6139
G01 X0.1975 Y4.5757
G01 X0.2113 Y4.5694
G01 X0.2337 Y4.5600
G01 X0.2113 Y4.5506
G01 X0.1975 Y4.5443
G01 X0.1172 Y4.5061
G01 X0.0904 Y4.4918
G01 X0.0141 Y4.4463
G01 X0.0011 Y4.4383
G01 X-0.0243 Y4.4213
G01 X-0.0957 Y4.3685
G01 X-0.1198 Y4.3498
G01 X-0.1428 Y4.3299
G01 X-0.1974 Y4.2805
G01 X-0.2194 Y4.2594
G01 X-0.2405 Y4.2374
G01 X-0.2899 Y4.1828
G01 X-0.3098 Y4.1598
G01 X-0.3285 Y4.1357
G01 X-0.3724 Y4.0766
G01 X-0.3899 Y4.0517
G01 X-0.4063 Y4.0259
G01 X-0.4441 Y3.9628
G01 X-0.4591 Y3.9363
G01 X-0.4728 Y3.9091
G01 X-0.5043 Y3.8425
G01 X-0.5166 Y3.8147
G01 X-0.5276 Y3.7862
G01 X-0.5524 Y3.7169
G01 X-0.5620 Y3.6880
G01 X-0.5701 Y3.6586
G01 X-0.5880 Y3.5872
G01 X-0.5947 Y3.5575
G01 X-0.5999 Y3.5274
G01 X-0.6107 Y3.4546
G01 X-0.6144 Y3.4244
G01 X-0.6166 Y3.3940
G01 X-0.6208 Y3.3052
G01 X-0.6208 Y3.2748
G01 X-0.6203 Y3.2595
G01 X-0.6166 Y3.1860
G01 X-0.6144 Y3.1556
G01 X-0.6107 Y3.1254
G01 X-0.5999 Y3.0526
G01 X-0.5947 Y3.0225
G01 X-0.5880 Y2.9928
G01 X-0.5662 Y2.9067
G01 X-0.5620 Y2.8920
G01 X-0.5524 Y2.8631
G01 X-0.5276 Y2.7938
G01 X-0.5166 Y2.7653
G01 X-0.5043 Y2.7375
G01 X-0.4728 Y2.6709
G01 X-0.4591 Y2.6437
G01 X-0.4518 Y2.6304
G01 X-0.3983 Y2.5411
G01 X-0.3899 Y2.5283
G01 X-0.3724 Y2.5034
G01 X-0.3285 Y2.4443
G01 X-0.3098 Y2.4202
G01 X-0.2899 Y2.3972
G01 X-0.2301 Y2.3315
G01 X-0.2194 Y2.3206
G01 X-0.1974 Y2.2995
G01 X-0.1428 Y2.2501
G01 X-0.1198 Y2.2302
G01 X-0.0957 Y2.2115
G01 X-0.0366 Y2.1676
G01 X-0.0243 Y2.1587
G01 X0.0011 Y2.1417
G01 X0.0772 Y2.0959
G01 X0.1037 Y2.0809
G01 X0.1309 Y2.0672
G01 X0.1975 Y2.0357
G01 X0.2113 Y2.0294
G01 X0.2337 Y2.0200
G01 X0.2113 Y2.0106
G01 X0.1975 Y2.0043
G01 X0.1309 Y1.9728
G01 X0.1037 Y1.9591
G01 X0.0772 Y1.9441
G01 X0.0141 Y1.9063
G01 X-0.0117 Y1.8899
G01 X-0.0366 Y1.8724
G01 X-0.0957 Y1.8285
G01 X-0.1198 Y1.8098
G01 X-0.1428 Y1.7899
G01 X-0.2085 Y1.7301
G01 X-0.2301 Y1.7085
G01 X-0.2405 Y1.6974
G01 X-0.2899 Y1.6428
G01 X-0.3098 Y1.6198
G01 X-0.3285 Y1.5957
G01 X-0.3724 Y1.5366
G01 X-0.3899 Y1.5117
G01 X-0.4063 Y1.4859
G01 X-0.4518 Y1.4096
G01 X-0.4591 Y1.3963
G01 X-0.4728 Y1.3691
G01 X-0.5043 Y1.3025
G01 X-0.5166 Y1.2747
G01 X-0.5276 Y1.2462
G01 X-0.5524 Y1.1769
G01 X-0.5620 Y1.1480
G01 X-0.5701 Y1.1186
G01 X-0.5880 Y1.0472
G01 X-0.5947 Y1.0175
G01 X-0.5999 Y0.9874
G01 X-0.6107 Y0.9146
G01 X-0.6144 Y0.8844
G01 X-0.6166 Y0.8540
G01 X-0.6208 Y0.7652
G01 X-0.6208 Y0.7348
G01 X-0.6166 Y0.6460
G01 X-0.6144 Y0.6156
G01 X-0.6107 Y0.5854
G01 X-0.5999 Y0.5126
G01 X-0.5947 Y0.4825
G01 X-0.5880 Y0.4528
G01 X-0.5701 Y0.3814
G01 X-0.5620 Y0.3520
G01 X-0.5524 Y0.3231
G01 X-0.5276 Y0.2538
G01 X-0.5166 Y0.2253
G01 X-0.5043 Y0.1975
G01 X-0.4728 Y0.1309
G01 X-0.4591 Y0.1037
G01 X-0.4441 Y0.0772
G01 X-0.4063 Y0.0141
G01 X-0.3899 Y-0.0117
G01 X-0.3724 Y-0.0366
G01 X-0.3285 Y-0.0957
G01 X-0.3098 Y-0.1198
G01 X-0.2899 Y-0.1428
G01 X-0.2405 Y-0.1974
G01 X-0.2194 Y-0.2194
G01 X-0.1974 Y-0.2405
G01 X-0.1428 Y-0.2899
G01 X-0.1198 Y-0.3098
G01 X-0.0957 Y-0.3285
G01 X-0.0366 Y-0.3724
G01 X-0.0117 Y-0.3899
G01 X0.0141 Y-0.4063
G01 X0.0772 Y-0.4441
G01 X0.1037 Y-0.4591
G01 X0.1309 Y-0.4728
G01 X0.1975 Y-0.5043
G01 X0.2253 Y-0.5166
G01 X0.2538 Y-0.5276
G01 X0.3231 Y-0.5524
G01 X0.3520 Y-0.5620
G01 X0.3814 Y-0.5701
G01 X0.4528 Y-0.5880
G01 X0.4825 Y-0.5947
G01 X0.5126 Y-0.5999
G01 X0.5854 Y-0.6107
G01 X0.6156 Y-0.6144
G01 X0.6460 Y-0.6166
G01 X0.7195 Y-0.6203
G01 X0.7500 Y-0.6210
G00 Z1.0000
G00 X0.7500 Y2.0810
G01 F60.00
G01 Z-0.1985
G01 F60.00
G01 X1.2613 Y2.0811
G01 X1.3460 Y2.0852
G01 X1.3685 Y2.0868
G01 X1.3909 Y2.0896
G01 X1.4637 Y2.1004
G01 X1.4859 Y2.1042
G01 X1.5078 Y2.1092
G01 X1.5792 Y2.1271
G01 X1.6010 Y2.1331
G01 X1.6223 Y2.1401
G01 X1.6916 Y2.1649
G01 X1.7127 Y2.1730
G01 X1.7230 Y2.1775
G01 X1.8099 Y2.2186
G01 X1.8298 Y2.2292
G01 X1.8395 Y2.2349
G01 X1.9027 Y2.2727
G01 X1.9217 Y2.2848
G01 X1.9401 Y2.2977
G01 X1.9846 Y2.3307
G01 X40.0154 Y2.3307
G01 X40.0599 Y2.2977
G01 X40.0783 Y2.2848
G01 X40.0973 Y2.2727
G01 X40.1605 Y2.2349
G01 X40.1702 Y2.2292
G01 X40.1901 Y2.2186
G01 X40.2770 Y2.1775
G01 X40.2978 Y2.1688
G01 X40.3084 Y2.1649
G01 X40.3777 Y2.1401
G01 X40.3990 Y2.1331
G01 X40.4208 Y2.1271
G01 X40.4922 Y2.1092
G01 X40.5141 Y2.1042
G01 X40.5363 Y2.1004
G01 X40.6091 Y2.0896
G01 X40.6315 Y2.0868
G01 X40.6540 Y2.0852
G01 X40.7387 Y2.0811
G01 X41.2613 Y2.0811
G01 X41.3460 Y2.0852
G01 X41.3685 Y2.0868
G01 X41.3909 Y2.0896
G01 X41.4637 Y2.1004
G01 X41.4859 Y2.1042
G01 X41.5078 Y2.1092
G01 X41.5792 Y2.1271
G01 X41.6010 Y2.1331
G01 X41.6223 Y2.1401
G01 X41.6916 Y2.1649
G01 X41.7127 Y2.1730
G01 X41.7333 Y2.1822
G01 X41.7998 Y2.2136
G01 X41.8199 Y2.2238
G01 X41.8395 Y2.2349
G01 X41.9027 Y2.2727
G01 X41.9217 Y2.2848
G01 X41.9401 Y2.2977
G01 X41.9992 Y2.3416
G01 X42.0170 Y2.3554
G01 X42.0340 Y2.3701
G01 X42.0886 Y2.4196
G01 X42.1049 Y2.4351
G01 X42.1204 Y2.4514
G01 X42.1699 Y2.5060
G01 X42.1846 Y2.5230
G01 X42.1984 Y2.5408
G01 X42.2423 Y2.5999
G01 X42.2552 Y2.6183
G01 X42.2673 Y2.6373
G01 X42.3051 Y2.7005
G01 X42.3162 Y2.7201
G01 X42.3264 Y2.7402
G01 X42.3578 Y2.8067
G01 X42.3670 Y2.8273
G01 X42.3751 Y2.8484
G01 X42.3999 Y2.9177
G01 X42.4069 Y2.9390
G01 X42.4129 Y2.9608
G01 X42.4308 Y3.0322
G01 X42.4358 Y3.0541
G01 X42.4396 Y3.0763
G01 X42.4504 Y3.1491
G01 X42.4532 Y3.1715
G01 X42.4548 Y3.1940
G01 X42.4584 Y3.2675
G01 X42.4590 Y3.2900
G01 X42.4589 Y3.3013
G01 X42.4548 Y3.3860
G01 X42.4532 Y3.4085
G01 X42.4504 Y3.4309
G01 X42.4396 Y3.5037
G01 X42.4358 Y3.5259
G01 X42.4308 Y3.5478
G01 X42.4129 Y3.6192
G01 X42.4069 Y3.6410
G01 X42.3999 Y3.6623
G01 X42.3751 Y3.7316
G01 X42.3670 Y3.7527
G01 X42.3578 Y3.7733
G01 X42.3264 Y3.8398
G01 X42.3162 Y3.8599
G01 X42.3051 Y3.8795
G01 X42.2673 Y3.9427
G01 X42.2552 Y3.9617
G01 X42.2423 Y3.9801
G01 X42.1984 Y4.0392
G01 X42.1846 Y4.0570
G01 X42.1699 Y4.0740
G01 X42.1204 Y4.1286
G01 X42.1049 Y4.1449
G01 X42.0886 Y4.1604
G01 X42.0340 Y4.2099
G01 X42.0170 Y4.2246
G01 X41.9992 Y4.2384
G01 X41.9401 Y4.2823
G01 X41.9217 Y4.2952
G01 X41.9027 Y4.3073
G01 X41.8395 Y4.3451
G01 X41.8199 Y4.3562
G01 X41.7998 Y4.3664
G01 X41.7333 Y4.3978
G01 X41.7127 Y4.4070
G01 X41.6916 Y4.4151
G01 X41.6223 Y4.4399
G01 X41.6010 Y4.4469
G01 X41.5792 Y4.4529
G01 X41.5078 Y4.4708
G01 X41.4859 Y4.4758
G01 X41.4637 Y4.4796
G01 X41.3909 Y4.4904
G01 X41.3685 Y4.4932
G01 X41.3460 Y4.4948
G01 X41.2613 Y4.4989
G01 X40.7387 Y4.4989
G01 X40.6540 Y4.4948
G01 X40.6315 Y4.4932
G01 X40.6091 Y4.4904
G01 X40.5363 Y4.4796
G01 X40.5141 Y4.4758
G01 X40.4922 Y4.4708
G01 X40.4208 Y4.4529
G01 X40.3990 Y4.4469
G01 X40.3777 Y4.4399
G01 X40.3084 Y4.4151
G01 X40.2978 Y4.4112
G01 X40.2770 Y4.4025
G01 X40.1901 Y4.3614
G01 X40.1702 Y4.3508
G01 X40.1605 Y4.3451
G01 X40.0973 Y4.3073
G01 X40.0783 Y4.2952
G01 X40.0599 Y4.2823
G01 X40.0154 Y4.2492
G01 X1.9846 Y4.2492
G01 X1.9401 Y4.2823
G01 X1.9217 Y4.2952
G01 X1.9027 Y4.3073
G01 X1.8395 Y4.3451
G01 X1.8199 Y4.3562
G01 X1.8099 Y4.3614
G01 X1.7230 Y4.4025
G01 X1.7022 Y4.4112
G01 X1.6916 Y4.4151
G01 X1.6223 Y4.4399
G01 X1.6010 Y4.4469
G01 X1.5792 Y4.4529
G01 X1.5078 Y4.4708
G01 X1.4859 Y4.4758
G01 X1.4637 Y4.4796
G01 X1.3909 Y4.4904
G01 X1.3685 Y4.4932
G01 X1.3460 Y4.4948
G01 X1.2613 Y4.4989
G01 X0.7387 Y4.4989
G01 X0.6540 Y4.4948
G01 X0.6315 Y4.4932
G01 X0.6091 Y4.4904
G01 X0.5363 Y4.4796
G01 X0.5141 Y4.4758
G01 X0.4922 Y4.4708
G01 X0.4208 Y4.4529
G01 X0.3990 Y4.4469
G01 X0.3777 Y4.4399
G01 X0.3084 Y4.4151
G01 X0.2873 Y4.4070
G01 X0.2667 Y4.3978
G01 X0.2002 Y4.3664
G01 X0.1801 Y4.3562
G01 X0.1605 Y4.3451
G01 X0.0973 Y4.3073
G01 X0.0783 Y4.2952
G01 X0.0599 Y4.2823
G01 X0.0008 Y4.2384
G01 X-0.0170 Y4.2246
G01 X-0.0340 Y4.2099
G01 X-0.0886 Y4.1604
G01 X-0.1049 Y4.1449
G01 X-0.1204 Y4.1286
G01 X-0.1699 Y4.0740
G01 X-0.1846 Y4.0570
G01 X-0.1984 Y4.0392
G01 X-0.2423 Y3.9801
G01 X-0.2552 Y3.9617
G01 X-0.2673 Y3.9427
G01 X-0.3051 Y3.8795
G01 X-0.3162 Y3.8599
G01 X-0.3264 Y3.8398
G01 X-0.3578 Y3.7733
G01 X-0.3670 Y3.7527
G01 X-0.3751 Y3.7316
G01 X-0.3999 Y3.6623
G01 X-0.4069 Y3.6410
G01 X-0.4129 Y3.6192
G01 X-0.4308 Y3.5478
G01 X-0.4358 Y3.5259
G01 X-0.4396 Y3.5037
G01 X-0.4504 Y3.4309
G01 X-0.4532 Y3.4085
G01 X-0.4548 Y3.3860
G01 X-0.4584 Y3.3125
G01 X-0.4590 Y3.2900
G01 X-0.4584 Y3.2675
G01 X-0.4548 Y3.1940
G01 X-0.4532 Y3.1715
G01 X-0.4504 Y3.1491
G01 X-0.4396 Y3.0763
G01 X-0.4358 Y3.0541
G01 X-0.4308 Y3.0322
G01 X-0.4129 Y2.9608
G01 X-0.4069 Y2.9390
G01 X-0.3999 Y2.9177
G01 X-0.3751 Y2.8484
G01 X-0.3670 Y2.8273
G01 X-0.3578 Y2.8067
G01 X-0.3264 Y2.7402
G01 X-0.3162 Y2.7201
G01 X-0.3051 Y2.7005
G01 X-0.2673 Y2.6373
G01 X-0.2552 Y2.6183
G01 X-0.2423 Y2.5999
G01 X-0.1984 Y2.5408
G01 X-0.1846 Y2.5230
G01 X-0.1699 Y2.5060
G01 X-0.1204 Y2.4514
G01 X-0.1049 Y2.4351
G01 X-0.0886 Y2.4196
G01 X-0.0340 Y2.3701
G01 X-0.0170 Y2.3554
G01 X0.0008 Y2.3416
G01 X0.0599 Y2.2977
G01 X0.0783 Y2.2848
G01 X0.0973 Y2.2727
G01 X0.1605 Y2.2349
G01 X0.1801 Y2.2238
G01 X0.2002 Y2.2136
G01 X0.2667 Y2.1822
G01 X0.2873 Y2.1730
G01 X0.3084 Y2.1649
G01 X0.3777 Y2.1401
G01 X0.3990 Y2.1331
G01 X0.4208 Y2.1271
G01 X0.4922 Y2.1092
G01 X0.5141 Y2.1042
G01 X0.5363 Y2.1004
G01 X0.6091 Y2.0896
G01 X0.6315 Y2.0868
G01 X0.6540 Y2.0852
G01 X0.7275 Y2.0816
G01 X0.7500 Y2.0810
G00 Z1.0000
G00 X0.7500 Y2.2430
G01 F60.00
G01 Z-0.1985
G01 F60.00
G01 X1.2573 Y2.2431
G01 X1.3381 Y2.2470
G01 X1.3526 Y2.2480
G01 X1.3671 Y2.2498
G01 X1.4399 Y2.2606
G01 X1.4614 Y2.2646
G01 X1.5399 Y2.2842
G01 X1.5539 Y2.2881
G01 X1.5678 Y2.2927
G01 X1.6371 Y2.3175
G01 X1.6507 Y2.3227
G01 X1.6640 Y2.3286
G01 X1.7371 Y2.3633
G01 X1.7562 Y2.3738
G01 X1.8194 Y2.4117
G01 X1.8317 Y2.4195
G01 X1.8436 Y2.4278
G01 X1.9027 Y2.4717
G01 X1.9142 Y2.4807
G01 X1.9281 Y2.4927
G01 X40.0719 Y2.4927
G01 X40.0858 Y2.4807
G01 X40.0973 Y2.4717
G01 X40.1564 Y2.4278
G01 X40.1683 Y2.4195
G01 X40.1806 Y2.4117
G01 X40.2438 Y2.3738
G01 X40.2564 Y2.3666
G01 X40.2695 Y2.3601
G01 X40.3360 Y2.3286
G01 X40.3493 Y2.3227
G01 X40.3629 Y2.3175
G01 X40.4322 Y2.2927
G01 X40.4461 Y2.2881
G01 X40.4601 Y2.2842
G01 X40.5315 Y2.2663
G01 X40.5457 Y2.2631
G01 X40.5601 Y2.2606
G01 X40.6329 Y2.2498
G01 X40.6474 Y2.2480
G01 X40.6619 Y2.2470
G01 X40.7427 Y2.2431
G01 X41.2573 Y2.2431
G01 X41.3381 Y2.2470
G01 X41.3526 Y2.2480
G01 X41.3671 Y2.2498
G01 X41.4399 Y2.2606
G01 X41.4543 Y2.2631
G01 X41.4685 Y2.2663
G01 X41.5399 Y2.2842
G01 X41.5539 Y2.2881
G01 X41.5678 Y2.2927
G01 X41.6371 Y2.3175
G01 X41.6507 Y2.3227
G01 X41.6640 Y2.3286
G01 X41.7305 Y2.3601
G01 X41.7436 Y2.3666
G01 X41.7562 Y2.3738
G01 X41.8194 Y2.4117
G01 X41.8317 Y2.4195
G01 X41.8436 Y2.4278
G01 X41.9027 Y2.4717
G01 X41.9142 Y2.4807
G01 X41.9252 Y2.4902
G01 X41.9798 Y2.5396
G01 X41.9903 Y2.5497
G01 X42.0004 Y2.5602
G01 X42.0498 Y2.6148
G01 X42.0593 Y2.6258
G01 X42.0683 Y2.6373
G01 X42.1122 Y2.6964
G01 X42.1205 Y2.7083
G01 X42.1283 Y2.7206
G01 X42.1662 Y2.7838
G01 X42.1734 Y2.7964
G01 X42.1799 Y2.8095
G01 X42.2114 Y2.8760
G01 X42.2173 Y2.8893
G01 X42.2225 Y2.9029
G01 X42.2473 Y2.9722
G01 X42.2519 Y2.9861
G01 X42.2558 Y3.0001
G01 X42.2737 Y3.0715
G01 X42.2769 Y3.0857
G01 X42.2794 Y3.1001
G01 X42.2902 Y3.1729
G01 X42.2920 Y3.1874
G01 X42.2930 Y3.2019
G01 X42.2966 Y3.2754
G01 X42.2969 Y3.2973
G01 X42.2930 Y3.3781
G01 X42.2920 Y3.3926
G01 X42.2902 Y3.4071
G01 X42.2794 Y3.4799
G01 X42.2769 Y3.4943
G01 X42.2737 Y3.5085
G01 X42.2558 Y3.5799
G01 X42.2519 Y3.5939
G01 X42.2473 Y3.6078
G01 X42.2225 Y3.6771
G01 X42.2173 Y3.6907
G01 X42.2114 Y3.7040
G01 X42.1799 Y3.7705
G01 X42.1734 Y3.7836
G01 X42.1662 Y3.7962
G01 X42.1283 Y3.8594
G01 X42.1205 Y3.8717
G01 X42.1122 Y3.8836
G01 X42.0683 Y3.9427
G01 X42.0593 Y3.9542
G01 X42.0498 Y3.9652
G01 X42.0004 Y4.0198
G01 X41.9903 Y4.0303
G01 X41.9798 Y4.0404
G01 X41.9252 Y4.0898
G01 X41.9142 Y4.0993
G01 X41.9027 Y4.1083
G01 X41.8436 Y4.1522
G01 X41.8317 Y4.1605
G01 X41.8194 Y4.1683
G01 X41.7562 Y4.2062
G01 X41.7436 Y4.2134
G01 X41.7305 Y4.2199
G01 X41.6640 Y4.2514
G01 X41.6507 Y4.2573
G01 X41.6371 Y4.2625
G01 X41.5678 Y4.2873
G01 X41.5539 Y4.2919
G01 X41.5399 Y4.2958
G01 X41.4685 Y4.3137
G01 X41.4543 Y4.3169
G01 X41.4399 Y4.3194
G01 X41.3671 Y4.3302
G01 X41.3526 Y4.3320
G01 X41.3381 Y4.3330
G01 X41.2573 Y4.3369
G01 X40.7427 Y4.3369
G01 X40.6619 Y4.3330
G01 X40.6474 Y4.3320
G01 X40.6329 Y4.3302
G01 X40.5601 Y4.3194
G01 X40.5457 Y4.3169
G01 X40.5315 Y4.3137
G01 X40.4601 Y4.2958
G01 X40.4461 Y4.2919
G01 X40.4322 Y4.2873
G01 X40.3629 Y4.2625
G01 X40.3493 Y4.2573
G01 X40.3360 Y4.2514
G01 X40.2695 Y4.2199
G01 X40.2564 Y4.2134
G01 X40.2438 Y4.2062
G01 X40.1806 Y4.1683
G01 X40.1683 Y4.1605
G01 X40.1564 Y4.1522
G01 X40.0973 Y4.1083
G01 X40.0858 Y4.0993
G01 X40.0719 Y4.0872
G01 X1.9281 Y4.0872
G01 X1.9142 Y4.0993
G01 X1.9027 Y4.1083
G01 X1.8436 Y4.1522
G01 X1.8317 Y4.1605
G01 X1.8194 Y4.1683
G01 X1.7562 Y4.2062
G01 X1.7436 Y4.2134
G01 X1.7305 Y4.2199
G01 X1.6640 Y4.2514
G01 X1.6507 Y4.2573
G01 X1.6371 Y4.2625
G01 X1.5678 Y4.2873
G01 X1.5539 Y4.2919
G01 X1.5399 Y4.2958
G01 X1.4685 Y4.3137
G01 X1.4543 Y4.3169
G01 X1.4399 Y4.3194
G01 X1.3671 Y4.3302
G01 X1.3526 Y4.3320
G01 X1.3381 Y4.3330
G01 X1.2573 Y4.3369
G01 X0.7427 Y4.3369
G01 X0.6619 Y4.3330
G01 X0.6474 Y4.3320
G01 X0.6329 Y4.3302
G01 X0.5601 Y4.3194
G01 X0.5457 Y4.3169
G01 X0.5315 Y4.3137
G01 X0.4601 Y4.2958
G01 X0.4461 Y4.2919
G01 X0.4322 Y4.2873
G01 X0.3629 Y4.2625
G01 X0.3493 Y4.2573
G01 X0.3360 Y4.2514
G01 X0.2695 Y4.2199
G01 X0.2564 Y4.2134
G01 X0.2438 Y4.2062
G01 X0.1806 Y4.1683
G01 X0.1683 Y4.1605
G01 X0.1564 Y4.1522
G01 X0.0973 Y4.1083
G01 X0.0858 Y4.0993
G01 X0.0748 Y4.0898
G01 X0.0202 Y4.0404
G01 X0.0097 Y4.0303
G01 X-0.0004 Y4.0198
G01 X-0.0498 Y3.9652
G01 X-0.0593 Y3.9542
G01 X-0.0683 Y3.9427
G01 X-0.1122 Y3.8836
G01 X-0.1205 Y3.8717
G01 X-0.1283 Y3.8594
G01 X-0.1662 Y3.7962
G01 X-0.1734 Y3.7836
G01 X-0.1799 Y3.7705
G01 X-0.2114 Y3.7040
G01 X-0.2173 Y3.6907
G01 X-0.2225 Y3.6771
G01 X-0.2473 Y3.6078
G01 X-0.2519 Y3.5939
G01 X-0.2558 Y3.5799
G01 X-0.2737 Y3.5085
G01 X-0.2769 Y3.4943
G01 X-0.2794 Y3.4799
G01 X-0.2902 Y3.4071
G01 X-0.2920 Y3.3926
G01 X-0.2930 Y3.3781
G01 X-0.2966 Y3.3046
G01 X-0.2970 Y3.2900
G01 X-0.2966 Y3.2754
G01 X-0.2930 Y3.2019
G01 X-0.2920 Y3.1874
G01 X-0.2902 Y3.1729
G01 X-0.2794 Y3.1001
G01 X-0.2769 Y3.0857
G01 X-0.2737 Y3.0715
G01 X-0.2558 Y3.0001
G01 X-0.2519 Y2.9861
G01 X-0.2473 Y2.9722
G01 X-0.2225 Y2.9029
G01 X-0.2173 Y2.8893
G01 X-0.2114 Y2.8760
G01 X-0.1799 Y2.8095
G01 X-0.1734 Y2.7964
G01 X-0.1662 Y2.7838
G01 X-0.1283 Y2.7206
G01 X-0.1205 Y2.7083
G01 X-0.1122 Y2.6964
G01 X-0.0683 Y2.6373
G01 X-0.0593 Y2.6258
G01 X-0.0498 Y2.6148
G01 X-0.0004 Y2.5602
G01 X0.0097 Y2.5497
G01 X0.0202 Y2.5396
G01 X0.0748 Y2.4902
G01 X0.0858 Y2.4807
G01 X0.0973 Y2.4717
G01 X0.1564 Y2.4278
G01 X0.1683 Y2.4195
G01 X0.1806 Y2.4117
G01 X0.2438 Y2.3738
G01 X0.2564 Y2.3666
G01 X0.2695 Y2.3601
G01 X0.3360 Y2.3286
G01 X0.3493 Y2.3227
G01 X0.3629 Y2.3175
G01 X0.4322 Y2.2927
G01 X0.4461 Y2.2881
G01 X0.4601 Y2.2842
G01 X0.5315 Y2.2663
G01 X0.5457 Y2.2631
G01 X0.5601 Y2.2606
G01 X0.6329 Y2.2498
G01 X0.6474 Y2.2480
G01 X0.6619 Y2.2470
G01 X0.7354 Y2.2434
G01 X0.7500 Y2.2430
G00 Z1.0000
G00 X0.7500 Y2.4050
G01 F60.00
G01 Z-0.1985
G01 F60.00
G01 X1.2533 Y2.4050
G01 X1.3367 Y2.4093
G01 X1.4161 Y2.4209
G01 X1.4259 Y2.4227
G01 X1.5069 Y2.4431
G01 X1.5825 Y2.4700
G01 X1.5947 Y2.4751
G01 X1.6672 Y2.5095
G01 X1.7361 Y2.5506
G01 X1.7471 Y2.5580
G01 X1.8114 Y2.6059
G01 X1.8656 Y2.6547
G01 X40.1344 Y2.6547
G01 X40.1886 Y2.6059
G01 X40.2529 Y2.5580
G01 X40.2639 Y2.5506
G01 X40.3328 Y2.5095
G01 X40.4053 Y2.4751
G01 X40.4175 Y2.4700
G01 X40.4931 Y2.4431
G01 X40.5741 Y2.4227
G01 X40.5839 Y2.4209
G01 X40.6633 Y2.4093
G01 X40.7467 Y2.4050
G01 X41.2533 Y2.4050
G01 X41.3367 Y2.4093
G01 X41.4227 Y2.4220
G01 X41.5069 Y2.4431
G01 X41.5887 Y2.4724
G01 X41.6672 Y2.5095
G01 X41.7417 Y2.5541
G01 X41.8114 Y2.6059
G01 X41.8758 Y2.6642
G01 X41.9341 Y2.7286
G01 X41.9859 Y2.7983
G01 X42.0305 Y2.8728
G01 X42.0676 Y2.9513
G01 X42.0969 Y3.0331
G01 X42.1180 Y3.1173
G01 X42.1307 Y3.2033
G01 X42.1348 Y3.2834
G01 X42.1350 Y3.2933
G01 X42.1307 Y3.3767
G01 X42.1180 Y3.4627
G01 X42.0969 Y3.5469
G01 X42.0676 Y3.6287
G01 X42.0305 Y3.7072
G01 X41.9859 Y3.7817
G01 X41.9341 Y3.8514
G01 X41.8758 Y3.9158
G01 X41.8114 Y3.9741
G01 X41.7417 Y4.0259
G01 X41.6672 Y4.0705
G01 X41.5887 Y4.1076
G01 X41.5069 Y4.1369
G01 X41.4227 Y4.1580
G01 X41.3367 Y4.1707
G01 X41.2533 Y4.1750
G01 X40.7467 Y4.1750
G01 X40.6633 Y4.1707
G01 X40.5839 Y4.1591
G01 X40.5741 Y4.1573
G01 X40.4931 Y4.1369
G01 X40.4175 Y4.1100
G01 X40.4053 Y4.1049
G01 X40.3328 Y4.0705
G01 X40.2639 Y4.0294
G01 X40.2529 Y4.0220
G01 X40.1886 Y3.9741
G01 X40.1344 Y3.9252
G01 X1.8656 Y3.9252
G01 X1.8114 Y3.9741
G01 X1.7471 Y4.0220
G01 X1.7361 Y4.0294
G01 X1.6672 Y4.0705
G01 X1.5947 Y4.1049
G01 X1.5825 Y4.1100
G01 X1.5069 Y4.1369
G01 X1.4259 Y4.1573
G01 X1.4161 Y4.1591
G01 X1.3367 Y4.1707
G01 X1.2533 Y4.1750
G01 X0.7467 Y4.1750
G01 X0.6633 Y4.1707
G01 X0.5773 Y4.1580
G01 X0.4931 Y4.1369
G01 X0.4113 Y4.1076
G01 X0.3328 Y4.0705
G01 X0.2583 Y4.0259
G01 X0.1886 Y3.9741
G01 X0.1242 Y3.9158
G01 X0.0659 Y3.8514
G01 X0.0141 Y3.7817
G01 X-0.0305 Y3.7072
G01 X-0.0676 Y3.6287
G01 X-0.0969 Y3.5469
G01 X-0.1180 Y3.4627
G01 X-0.1307 Y3.3767
G01 X-0.1350 Y3.2900
G01 X-0.1307 Y3.2033
G01 X-0.1180 Y3.1173
G01 X-0.0969 Y3.0331
G01 X-0.0676 Y2.9513
G01 X-0.0305 Y2.8728
G01 X0.0141 Y2.7983
G01 X0.0659 Y2.7286
G01 X0.1242 Y2.6642
G01 X0.1886 Y2.6059
G01 X0.2583 Y2.5541
G01 X0.3328 Y2.5095
G01 X0.4113 Y2.4724
G01 X0.4931 Y2.4431
G01 X0.5773 Y2.4220
G01 X0.6633 Y2.4093
G01 X0.7500 Y2.4050
G00 Z1.0000
G00 X1.7663 Y2.0200
G01 F60.00
G01 Z-0.1985
G01 F60.00
G01 X1.7887 Y2.0106
G01 X1.8025 Y2.0043
G01 X1.8691 Y1.9728
G01 X1.8963 Y1.9591
G01 X1.9228 Y1.9441
G01 X1.9989 Y1.8983
G01 X2.0243 Y1.8813
G01 X2.0381 Y1.8712
G01 X39.9619 Y1.8712
G01 X39.9757 Y1.8813
G01 X40.0011 Y1.8983
G01 X40.0772 Y1.9441
G01 X40.1037 Y1.9591
G01 X40.1309 Y1.9728
G01 X40.1975 Y2.0043
G01 X40.2113 Y2.0106
G01 X40.2337 Y2.0200
G01 X40.2113 Y2.0294
G01 X40.1975 Y2.0357
G01 X40.1309 Y2.0672
G01 X40.1037 Y2.0809
G01 X40.0772 Y2.0959
G01 X40.0011 Y2.1417
G01 X39.9757 Y2.1587
G01 X39.9619 Y2.1687
G01 X2.0381 Y2.1687
G01 X2.0243 Y2.1587
G01 X1.9989 Y2.1417
G01 X1.9228 Y2.0959
G01 X1.8963 Y2.0809
G01 X1.8691 Y2.0672
G01 X1.8025 Y2.0357
G01 X1.7887 Y2.0294
G01 X1.7663 Y2.0200
G00 Z1.0000
G00 X1.7663 Y4.5600
G01 F60.00
G01 Z-0.1985
G01 F60.00
G01 X1.7887 Y4.5506
G01 X1.8025 Y4.5443
G01 X1.8691 Y4.5128
G01 X1.8963 Y4.4991
G01 X1.9228 Y4.4841
G01 X1.9989 Y4.4383
G01 X2.0243 Y4.4213
G01 X2.0381 Y4.4112
G01 X39.9619 Y4.4112
G01 X39.9757 Y4.4213
G01 X40.0011 Y4.4383
G01 X40.0772 Y4.4841
G01 X40.1037 Y4.4991
G01 X40.1309 Y4.5128
G01 X40.1975 Y4.5443
G01 X40.2113 Y4.5506
G01 X40.2337 Y4.5600
G01 X40.2113 Y4.5694
G01 X40.1975 Y4.5757
G01 X40.1309 Y4.6072
G01 X40.1037 Y4.6209
G01 X40.0772 Y4.6359
G01 X40.0011 Y4.6817
G01 X39.9757 Y4.6987
G01 X39.9619 Y4.7087
G01 X2.0381 Y4.7087
G01 X2.0243 Y4.6987
G01 X1.9989 Y4.6817
G01 X1.9228 Y4.6359
G01 X1.8963 Y4.6209
G01 X1.8691 Y4.6072
G01 X1.8025 Y4.5757
G01 X1.7887 Y4.5694
G01 X1.7663 Y4.5600
G00 Z1.0000
G00 X0.7500 Y4.6210
G01 F60.00
G01 Z-0.1985
G01 F60.00
G01 X1.2613 Y4.6211
G01 X1.3460 Y4.6252
G01 X1.3685 Y4.6268
G01 X1.3909 Y4.6296
G01 X1.4637 Y4.6404
G01 X1.4859 Y4.6442
G01 X1.5078 Y4.6492
G01 X1.5792 Y4.6671
G01 X1.6010 Y4.6731
G01 X1.6223 Y4.6801
G01 X1.6916 Y4.7049
G01 X1.7022 Y4.7088
G01 X1.7230 Y4.7175
G01 X1.8099 Y4.7586
G01 X1.8298 Y4.7692
G01 X1.8395 Y4.7749
G01 X1.9027 Y4.8127
G01 X1.9217 Y4.8248
G01 X1.9401 Y4.8377
G01 X1.9846 Y4.8707
G01 X40.0154 Y4.8707
G01 X40.0599 Y4.8377
G01 X40.0783 Y4.8248
G01 X40.0973 Y4.8127
G01 X40.1605 Y4.7749
G01 X40.1702 Y4.7692
G01 X40.1901 Y4.7586
G01 X40.2770 Y4.7175
G01 X40.2978 Y4.7088
G01 X40.3084 Y4.7049
G01 X40.3777 Y4.6801
G01 X40.3990 Y4.6731
G01 X40.4208 Y4.6671
G01 X40.4922 Y4.6492
G01 X40.5141 Y4.6442
G01 X40.5363 Y4.6404
G01 X40.6091 Y4.6296
G01 X40.6315 Y4.6268
G01 X40.6540 Y4.6252
G01 X40.7387 Y4.6211
G01 X41.2613 Y4.6211
G01 X41.3460 Y4.6252
G01 X41.3685 Y4.6268
G01 X41.3909 Y4.6296
G01 X41.4637 Y4.6404
G01 X41.4859 Y4.6442
G01 X41.5078 Y4.6492
G01 X41.5792 Y4.6671
G01 X41.6010 Y4.6731
G01 X41.6223 Y4.6801
G01 X41.6916 Y4.7049
G01 X41.7127 Y4.7130
G01 X41.7333 Y4.7222
G01 X41.7998 Y4.7536
G01 X41.8199 Y4.7638
G01 X41.8395 Y4.7749
G01 X41.9027 Y4.8127
G01 X41.9217 Y4.8248
G01 X41.9401 Y4.8377
G01 X41.9992 Y4.8816
G01 X42.0170 Y4.8954
G01 X42.0340 Y4.9101
G01 X42.0886 Y4.9596
G01 X42.1049 Y4.9751
G01 X42.1204 Y4.9914
G01 X42.1699 Y5.0460
G01 X42.1846 Y5.0630
G01 X42.1984 Y5.0808
G01 X42.2423 Y5.1399
G01 X42.2552 Y5.1583
G01 X42.2673 Y5.1773
G01 X42.3051 Y5.2405
G01 X42.3162 Y5.2601
G01 X42.3264 Y5.2802
G01 X42.3578 Y5.3467
G01 X42.3670 Y5.3673
G01 X42.3751 Y5.3884
G01 X42.3999 Y5.4577
G01 X42.4069 Y5.4790
G01 X42.4129 Y5.5008
G01 X42.4308 Y5.5722
G01 X42.4358 Y5.5941
G01 X42.4396 Y5.6163
G01 X42.4504 Y5.6891
G01 X42.4532 Y5.7115
G01 X42.4548 Y5.7340
G01 X42.4584 Y5.8075
G01 X42.4590 Y5.8300
G01 X42.4589 Y5.8413
G01 X42.4548 Y5.9260
G01 X42.4532 Y5.9485
G01 X42.4504 Y5.9709
G01 X42.4396 Y6.0437
G01 X42.4358 Y6.0659
G01 X42.4308 Y6.0878
G01 X42.4129 Y6.1592
G01 X42.4069 Y6.1810
G01 X42.3999 Y6.2023
G01 X42.3751 Y6.2716
G01 X42.3670 Y6.2927
G01 X42.3578 Y6.3133
G01 X42.3264 Y6.3798
G01 X42.3162 Y6.3999
G01 X42.3051 Y6.4195
G01 X42.2673 Y6.4827
G01 X42.2552 Y6.5017
G01 X42.2423 Y6.5201
G01 X42.1984 Y6.5792
G01 X42.1846 Y6.5970
G01 X42.1699 Y6.6140
G01 X42.1204 Y6.6686
G01 X42.1049 Y6.6849
G01 X42.0886 Y6.7004
G01 X42.0340 Y6.7499
G01 X42.0170 Y6.7646
G01 X41.9992 Y6.7784
G01 X41.9401 Y6.8223
G01 X41.9217 Y6.8352
G01 X41.9027 Y6.8473
G01 X41.8395 Y6.8851
G01 X41.8199 Y6.8962
G01 X41.7998 Y6.9064
G01 X41.7333 Y6.9378
G01 X41.7127 Y6.9470
G01 X41.6916 Y6.9551
G01 X41.6223 Y6.9799
G01 X41.6010 Y6.9869
G01 X41.5792 Y6.9929
G01 X41.5078 Y7.0108
G01 X41.4859 Y7.0158
G01 X41.4637 Y7.0196
G01 X41.3909 Y7.0304
G01 X41.3685 Y7.0332
G01 X41.3460 Y7.0348
G01 X41.2613 Y7.0389
G01 X40.7387 Y7.0389
G01 X40.6540 Y7.0348
G01 X40.6315 Y7.0332
G01 X40.6091 Y7.0304
G01 X40.5363 Y7.0196
G01 X40.5141 Y7.0158
G01 X40.4922 Y7.0108
G01 X40.4208 Y6.9929
G01 X40.3990 Y6.9869
G01 X40.3777 Y6.9799
G01 X40.3084 Y6.9551
G01 X40.2978 Y6.9512
G01 X40.2770 Y6.9425
G01 X40.1901 Y6.9014
G01 X40.1702 Y6.8908
G01 X40.1605 Y6.8851
G01 X40.0973 Y6.8473
G01 X40.0783 Y6.8352
G01 X40.0599 Y6.8223
G01 X40.0154 Y6.7892
G01 X1.9846 Y6.7892
G01 X1.9401 Y6.8223
G01 X1.9217 Y6.8352
G01 X1.9027 Y6.8473
G01 X1.8395 Y6.8851
G01 X1.8199 Y6.8962
G01 X1.8099 Y6.9014
G01 X1.7230 Y6.9425
G01 X1.7022 Y6.9512
G01 X1.6916 Y6.9551
G01 X1.6223 Y6.9799
G01 X1.6010 Y6.9869
G01 X1.5792 Y6.9929
G01 X1.5078 Y7.0108
G01 X1.4859 Y7.0158
G01 X1.4637 Y7.0196
G01 X1.3909 Y7.0304
G01 X1.3685 Y7.0332
G01 X1.3460 Y7.0348
G01 X1.2613 Y7.0389
G01 X0.7387 Y7.0389
G01 X0.6540 Y7.0348
G01 X0.6315 Y7.0332
G01 X0.6091 Y7.0304
G01 X0.5363 Y7.0196
G01 X0.5141 Y7.0158
G01 X0.4922 Y7.0108
G01 X0.4208 Y6.9929
G01 X0.3990 Y6.9869
G01 X0.3777 Y6.9799
G01 X0.3084 Y6.9551
G01 X0.2873 Y6.9470
G01 X0.2667 Y6.9378
G01 X0.2002 Y6.9064
G01 X0.1801 Y6.8962
G01 X0.1605 Y6.8851
G01 X0.0973 Y6.8473
G01 X0.0783 Y6.8352
G01 X0.0599 Y6.8223
G01 X0.0008 Y6.7784
G01 X-0.0170 Y6.7646
G01 X-0.0340 Y6.7499
G01 X-0.0886 Y6.7004
G01 X-0.1049 Y6.6849
G01 X-0.1204 Y6.6686
G01 X-0.1699 Y6.6140
G01 X-0.1846 Y6.5970
G01 X-0.1984 Y6.5792
G01 X-0.2423 Y6.5201
G01 X-0.2552 Y6.5017
G01 X-0.2673 Y6.4827
G01 X-0.3051 Y6.4195
G01 X-0.3162 Y6.3999
G01 X-0.3264 Y6.3798
G01 X-0.3578 Y6.3133
G01 X-0.3670 Y6.2927
G01 X-0.3751 Y6.2716
G01 X-0.3999 Y6.2023
G01 X-0.4069 Y6.1810
G01 X-0.4129 Y6.1592
G01 X-0.4308 Y6.0878
G01 X-0.4358 Y6.0659
G01 X-0.4396 Y6.0437
G01 X-0.4504 Y5.9709
G01 X-0.4532 Y5.9485
G01 X-0.4548 Y5.9260
G01 X-0.4584 Y5.8525
G01 X-0.4590 Y5.8300
G01 X-0.4584 Y5.8075
G01 X-0.4548 Y5.7340
G01 X-0.4532 Y5.7115
G01 X-0.4504 Y5.6891
G01 X-0.4396 Y5.6163
G01 X-0.4358 Y5.5941
G01 X-0.4308 Y5.5722
G01 X-0.4129 Y5.5008
G01 X-0.4069 Y5.4790
G01 X-0.3999 Y5.4577
G01 X-0.3751 Y5.3884
G01 X-0.3670 Y5.3673
G01 X-0.3578 Y5.3467
G01 X-0.3264 Y5.2802
G01 X-0.3162 Y5.2601
G01 X-0.3051 Y5.2405
G01 X-0.2673 Y5.1773
G01 X-0.2552 Y5.1583
G01 X-0.2423 Y5.1399
G01 X-0.1984 Y5.0808
G01 X-0.1846 Y5.0630
G01 X-0.1699 Y5.0460
G01 X-0.1204 Y4.9914
G01 X-0.1049 Y4.9751
G01 X-0.0886 Y4.9596
G01 X-0.0340 Y4.9101
G01 X-0.0170 Y4.8954
G01 X0.0008 Y4.8816
G01 X0.0599 Y4.8377
G01 X0.0783 Y4.8248
G01 X0.0973 Y4.8127
G01 X0.1605 Y4.7749
G01 X0.1801 Y4.7638
G01 X0.2002 Y4.7536
G01 X0.2667 Y4.7222
G01 X0.2873 Y4.7130
G01 X0.3084 Y4.7049
G01 X0.3777 Y4.6801
G01 X0.3990 Y4.6731
G01 X0.4208 Y4.6671
G01 X0.4922 Y4.6492
G01 X0.5141 Y4.6442
G01 X0.5363 Y4.6404
G01 X0.6091 Y4.6296
G01 X0.6315 Y4.6268
G01 X0.6540 Y4.6252
G01 X0.7275 Y4.6216
G01 X0.7500 Y4.6210
G00 Z1.0000
G00 X0.7500 Y4.7830
G01 F60.00
G01 Z-0.1985
G01 F60.00
G01 X1.2573 Y4.7831
G01 X1.3381 Y4.7870
G01 X1.3526 Y4.7880
G01 X1.3671 Y4.7898
G01 X1.4399 Y4.8006
G01 X1.4614 Y4.8046
G01 X1.5399 Y4.8242
G01 X1.5539 Y4.8281
G01 X1.5678 Y4.8327
G01 X1.6371 Y4.8575
G01 X1.6507 Y4.8627
G01 X1.6640 Y4.8686
G01 X1.7371 Y4.9033
G01 X1.7562 Y4.9138
G01 X1.8194 Y4.9517
G01 X1.8317 Y4.9595
G01 X1.8436 Y4.9678
G01 X1.9027 Y5.0117
G01 X1.9142 Y5.0207
G01 X1.9281 Y5.0327
G01 X40.0719 Y5.0327
G01 X40.0858 Y5.0207
G01 X40.0973 Y5.0117
G01 X40.1564 Y4.9678
G01 X40.1683 Y4.9595
G01 X40.1806 Y4.9517
G01 X40.2438 Y4.9138
G01 X40.2564 Y4.9066
G01 X40.2695 Y4.9001
G01 X40.3360 Y4.8686
G01 X40.3493 Y4.8627
G01 X40.3629 Y4.8575
G01 X40.4322 Y4.8327
G01 X40.4461 Y4.8281
G01 X40.4601 Y4.8242
G01 X40.5315 Y4.8063
G01 X40.5457 Y4.8031
G01 X40.5601 Y4.8006
G01 X40.6329 Y4.7898
G01 X40.6474 Y4.7880
G01 X40.6619 Y4.7870
G01 X40.7427 Y4.7831
G01 X41.2573 Y4.7831
G01 X41.3381 Y4.7870
G01 X41.3526 Y4.7880
G01 X41.3671 Y4.7898
G01 X41.4399 Y4.8006
G01 X41.4543 Y4.8031
G01 X41.4685 Y4.8063
G01 X41.5399 Y4.8242
G01 X41.5539 Y4.8281
G01 X41.5678 Y4.8327
G01 X41.6371 Y4.8575
G01 X41.6507 Y4.8627
G01 X41.6640 Y4.8686
G01 X41.7305 Y4.9001
G01 X41.7436 Y4.9066
G01 X41.7562 Y4.9138
G01 X41.8194 Y4.9517
G01 X41.8317 Y4.9595
G01 X41.8436 Y4.9678
G01 X41.9027 Y5.0117
G01 X41.9142 Y5.0207
G01 X41.9252 Y5.0302
G01 X41.9798 Y5.0796
G01 X41.9903 Y5.0897
G01 X42.0004 Y5.1002
G01 X42.0498 Y5.1548
G01 X42.0593 Y5.1658
G01 X42.0683 Y5.1773
G01 X42.1122 Y5.2364
G01 X42.1205 Y5.2483
G01 X42.1283 Y5.2606
G01 X42.1662 Y5.3238
G01 X42.1734 Y5.3364
G01 X42.1799 Y5.3495
G01 X42.2114 Y5.4160
G01 X42.2173 Y5.4293
G01 X42.2225 Y5.4429
G01 X42.2473 Y5.5122
G01 X42.2519 Y5.5261
G01 X42.2558 Y5.5401
G01 X42.2737 Y5.6115
G01 X42.2769 Y5.6257
G01 X42.2794 Y5.6401
G01 X42.2902 Y5.7129
G01 X42.2920 Y5.7274
G01 X42.2930 Y5.7419
G01 X42.2966 Y5.8154
G01 X42.2969 Y5.8373
G01 X42.2930 Y5.9181
G01 X42.2920 Y5.9326
G01 X42.2902 Y5.9471
G01 X42.2794 Y6.0199
G01 X42.2769 Y6.0343
G01 X42.2737 Y6.0485
G01 X42.2558 Y6.1199
G01 X42.2519 Y6.1339
G01 X42.2473 Y6.1478
G01 X42.2225 Y6.2171
G01 X42.2173 Y6.2307
G01 X42.2114 Y6.2440
G01 X42.1799 Y6.3105
G01 X42.1734 Y6.3236
G01 X42.1662 Y6.3362
G01 X42.1283 Y6.3994
G01 X42.1205 Y6.4117
G01 X42.1122 Y6.4236
G01 X42.0683 Y6.4827
G01 X42.0593 Y6.4942
G01 X42.0498 Y6.5052
G01 X42.0004 Y6.5598
G01 X41.9903 Y6.5703
G01 X41.9798 Y6.5804
G01 X41.9252 Y6.6298
G01 X41.9142 Y6.6393
G01 X41.9027 Y6.6483
G01 X41.8436 Y6.6922
G01 X41.8317 Y6.7005
G01 X41.8194 Y6.7083
G01 X41.7562 Y6.7462
G01 X41.7436 Y6.7534
G01 X41.7305 Y6.7599
G01 X41.6640 Y6.7914
G01 X41.6507 Y6.7973
G01 X41.6371 Y6.8025
G01 X41.5678 Y6.8273
G01 X41.5539 Y6.8319
G01 X41.5399 Y6.8358
G01 X41.4685 Y6.8537
G01 X41.4543 Y6.8569
G01 X41.4399 Y6.8594
G01 X41.3671 Y6.8702
G01 X41.3526 Y6.8720
G01 X41.3381 Y6.8730
G01 X41.2573 Y6.8769
G01 X40.7427 Y6.8769
G01 X40.6619 Y6.8730
G01 X40.6474 Y6.8720
G01 X40.6329 Y6.8702
G01 X40.5601 Y6.8594
G01 X40.5457 Y6.8569
G01 X40.5315 Y6.8537
G01 X40.4601 Y6.8358
G01 X40.4461 Y6.8319
G01 X40.4322 Y6.8273
G01 X40.3629 Y6.8025
G01 X40.3493 Y6.7973
G01 X40.3360 Y6.7914
G01 X40.2695 Y6.7599
G01 X40.2564 Y6.7534
G01 X40.2438 Y6.7462
G01 X40.1806 Y6.7083
G01 X40.1683 Y6.7005
G01 X40.1564 Y6.6922
G01 X40.0973 Y6.6483
G01 X40.0858 Y6.6393
G01 X40.0719 Y6.6272
G01 X1.9281 Y6.6272
G01 X1.9142 Y6.6393
G01 X1.9027 Y6.6483
G01 X1.8436 Y6.6922
G01 X1.8317 Y6.7005
G01 X1.8194 Y6.7083
G01 X1.7562 Y6.7462
G01 X1.7436 Y6.7534
G01 X1.7305 Y6.7599
G01 X1.6640 Y6.7914
G01 X1.6507 Y6.7973
G01 X1.6371 Y6.8025
G01 X1.5678 Y6.8273
G01 X1.5539 Y6.8319
G01 X1.5399 Y6.8358
G01 X1.4685 Y6.8537
G01 X1.4543 Y6.8569
G01 X1.4399 Y6.8594
G01 X1.3671 Y6.8702
G01 X1.3526 Y6.8720
G01 X1.3381 Y6.8730
G01 X1.2573 Y6.8769
G01 X0.7427 Y6.8769
G01 X0.6619 Y6.8730
G01 X0.6474 Y6.8720
G01 X0.6329 Y6.8702
G01 X0.5601 Y6.8594
G01 X0.5457 Y6.8569
G01 X0.5315 Y6.8537
G01 X0.4601 Y6.8358
G01 X0.4461 Y6.8319
G01 X0.4322 Y6.8273
G01 X0.3629 Y6.8025
G01 X0.3493 Y6.7973
G01 X0.3360 Y6.7914
G01 X0.2695 Y6.7599
G01 X0.2564 Y6.7534
G01 X0.2438 Y6.7462
G01 X0.1806 Y6.7083
G01 X0.1683 Y6.7005
G01 X0.1564 Y6.6922
G01 X0.0973 Y6.6483
G01 X0.0858 Y6.6393
G01 X0.0748 Y6.6298
G01 X0.0202 Y6.5804
G01 X0.0097 Y6.5703
G01 X-0.0004 Y6.5598
G01 X-0.0498 Y6.5052
G01 X-0.0593 Y6.4942
G01 X-0.0683 Y6.4827
G01 X-0.1122 Y6.4236
G01 X-0.1205 Y6.4117
G01 X-0.1283 Y6.3994
G01 X-0.1662 Y6.3362
G01 X-0.1734 Y6.3236
G01 X-0.1799 Y6.3105
G01 X-0.2114 Y6.2440
G01 X-0.2173 Y6.2307
G01 X-0.2225 Y6.2171
G01 X-0.2473 Y6.1478
G01 X-0.2519 Y6.1339
G01 X-0.2558 Y6.1199
G01 X-0.2737 Y6.0485
G01 X-0.2769 Y6.0343
G01 X-0.2794 Y6.0199
G01 X-0.2902 Y5.9471
G01 X-0.2920 Y5.9326
G01 X-0.2930 Y5.9181
G01 X-0.2966 Y5.8446
G01 X-0.2970 Y5.8300
G01 X-0.2966 Y5.8154
G01 X-0.2930 Y5.7419
G01 X-0.2920 Y5.7274
G01 X-0.2902 Y5.7129
G01 X-0.2794 Y5.6401
G01 X-0.2769 Y5.6257
G01 X-0.2737 Y5.6115
G01 X-0.2558 Y5.5401
G01 X-0.2519 Y5.5261
G01 X-0.2473 Y5.5122
G01 X-0.2225 Y5.4429
G01 X-0.2173 Y5.4293
G01 X-0.2114 Y5.4160
G01 X-0.1799 Y5.3495
G01 X-0.1734 Y5.3364
G01 X-0.1662 Y5.3238
G01 X-0.1283 Y5.2606
G01 X-0.1205 Y5.2483
G01 X-0.1122 Y5.2364
G01 X-0.0683 Y5.1773
G01 X-0.0593 Y5.1658
G01 X-0.0498 Y5.1548
G01 X-0.0004 Y5.1002
G01 X0.0097 Y5.0897
G01 X0.0202 Y5.0796
G01 X0.0748 Y5.0302
G01 X0.0858 Y5.0207
G01 X0.0973 Y5.0117
G01 X0.1564 Y4.9678
G01 X0.1683 Y4.9595
G01 X0.1806 Y4.9517
G01 X0.2438 Y4.9138
G01 X0.2564 Y4.9066
G01 X0.2695 Y4.9001
G01 X0.3360 Y4.8686
G01 X0.3493 Y4.8627
G01 X0.3629 Y4.8575
G01 X0.4322 Y4.8327
G01 X0.4461 Y4.8281
G01 X0.4601 Y4.8242
G01 X0.5315 Y4.8063
G01 X0.5457 Y4.8031
G01 X0.5601 Y4.8006
G01 X0.6329 Y4.7898
G01 X0.6474 Y4.7880
G01 X0.6619 Y4.7870
G01 X0.7354 Y4.7834
G01 X0.7500 Y4.7830
G00 Z1.0000
G00 X0.7500 Y4.9450
G01 F60.00
G01 Z-0.1985
G01 F60.00
G01 X1.2533 Y4.9450
G01 X1.3367 Y4.9493
G01 X1.4161 Y4.9609
G01 X1.4259 Y4.9627
G01 X1.5069 Y4.9831
G01 X1.5825 Y5.0100
G01 X1.5947 Y5.0151
G01 X1.6672 Y5.0495
G01 X1.7361 Y5.0906
G01 X1.7471 Y5.0980
G01 X1.8114 Y5.1459
G01 X1.8656 Y5.1947
G01 X40.1344 Y5.1947
G01 X40.1886 Y5.1459
G01 X40.2529 Y5.0980
G01 X40.2639 Y5.0906
G01 X40.3328 Y5.0495
G01 X40.4053 Y5.0151
G01 X40.4175 Y5.0100
G01 X40.4931 Y4.9831
G01 X40.5741 Y4.9627
G01 X40.5839 Y4.9609
G01 X40.6633 Y4.9493
G01 X40.7467 Y4.9450
G01 X41.2533 Y4.9450
G01 X41.3367 Y4.9493
G01 X41.4227 Y4.9620
G01 X41.5069 Y4.9831
G01 X41.5887 Y5.0124
G01 X41.6672 Y5.0495
G01 X41.7417 Y5.0941
G01 X41.8114 Y5.1459
G01 X41.8758 Y5.2042
G01 X41.9341 Y5.2686
G01 X41.9859 Y5.3383
G01 X42.0305 Y5.4128
G01 X42.0676 Y5.4913
G01 X42.0969 Y5.5731
G01 X42.1180 Y5.6573
G01 X42.1307 Y5.7433
G01 X42.1348 Y5.8234
G01 X42.1350 Y5.8333
G01 X42.1307 Y5.9167
G01 X42.1180 Y6.0027
G01 X42.0969 Y6.0869
G01 X42.0676 Y6.1687
G01 X42.0305 Y6.2472
G01 X41.9859 Y6.3217
G01 X41.9341 Y6.3914
G01 X41.8758 Y6.4558
G01 X41.8114 Y6.5141
G01 X41.7417 Y6.5659
G01 X41.6672 Y6.6105
G01 X41.5887 Y6.6476
G01 X41.5069 Y6.6769
G01 X41.4227 Y6.6980
G01 X41.3367 Y6.7107
G01 X41.2533 Y6.7150
G01 X40.7467 Y6.7150
G01 X40.6633 Y6.7107
G01 X40.5839 Y6.6991
G01 X40.5741 Y6.6973
G01 X40.4931 Y6.6769
G01 X40.4175 Y6.6500
G01 X40.4053 Y6.6449
G01 X40.3328 Y6.6105
G01 X40.2639 Y6.5694
G01 X40.2529 Y6.5620
G01 X40.1886 Y6.5141
G01 X40.1344 Y6.4652
G01 X1.8656 Y6.4652
G01 X1.8114 Y6.5141
G01 X1.7471 Y6.5620
G01 X1.7361 Y6.5694
G01 X1.6672 Y6.6105
G01 X1.5947 Y6.6449
G01 X1.5825 Y6.6500
G01 X1.5069 Y6.6769
G01 X1.4259 Y6.6973
G01 X1.4161 Y6.6991
G01 X1.3367 Y6.7107
G01 X1.2533 Y6.7150
G01 X0.7467 Y6.7150
G01 X0.6633 Y6.7107
G01 X0.5773 Y6.6980
G01 X0.4931 Y6.6769
G01 X0.4113 Y6.6476
G01 X0.3328 Y6.6105
G01 X0.2583 Y6.5659
G01 X0.1886 Y6.5141
G01 X0.1242 Y6.4558
G01 X0.0659 Y6.3914
G01 X0.0141 Y6.3217
G01 X-0.0305 Y6.2472
G01 X-0.0676 Y6.1687
G01 X-0.0969 Y6.0869
G01 X-0.1180 Y6.0027
G01 X-0.1307 Y5.9167
G01 X-0.1350 Y5.8300
G01 X-0.1307 Y5.7433
G01 X-0.1180 Y5.6573
G01 X-0.0969 Y5.5731
G01 X-0.0676 Y5.4913
G01 X-0.0305 Y5.4128
G01 X0.0141 Y5.3383
G01 X0.0659 Y5.2686
G01 X0.1242 Y5.2042
G01 X0.1886 Y5.1459
G01 X0.2583 Y5.0941
G01 X0.3328 Y5.0495
G01 X0.4113 Y5.0124
G01 X0.4931 Y4.9831
G01 X0.5773 Y4.9620
G01 X0.6633 Y4.9493
G01 X0.7500 Y4.9450
G00 Z1.0000
M05
G00 Z1.0000
G00 Z15.00


