(G-CODE GENERATED BY FLATCAM v8.994 - www.flatcam.org - Version Date: 2020/11/7)

(Name: condicionamento_BIA_v01-B_Cu.gbr_iso_combined_cnc)
(Type: G-code from Geometry)
(Units: MM)

(Created on quarta, 26 julho 2023 at 12:06)


G01 F60.00

M5
G00 Z1.0000
G00 X0.0000 Y0.0000
(T1)
(M6  )  
(MSG, Change to Tool Dia = 0.25000)
(M0)
G00 Z1.0000

M03 S1000.0
G01 F60.00
G00 X2.8653 Y3.9251
G01 F60.00
G01 Z-0.1418
G01 F60.00
G01 X2.5400 Y3.9251
G01 X2.5277 Y3.9245
G01 X2.5126 Y3.9221
G01 X2.5037 Y3.9197
G01 X2.4950 Y3.9167
G01 X2.4866 Y3.9131
G01 X2.4784 Y3.9089
G01 X2.4655 Y3.9005
G01 X2.4584 Y3.8948
G01 X2.4516 Y3.8885
G01 X2.4453 Y3.8818
G01 X2.4396 Y3.8746
G01 X2.4344 Y3.8670
G01 X2.4298 Y3.8590
G01 X2.4257 Y3.8508
G01 X2.4223 Y3.8422
G01 X2.4195 Y3.8335
G01 X2.4174 Y3.8245
G01 X2.4156 Y3.8124
G01 X2.4150 Y3.8001
G01 X2.4150 Y1.8001
G01 X2.4153 Y1.7909
G01 X2.4164 Y1.7818
G01 X2.4180 Y1.7727
G01 X2.4213 Y1.7609
G01 X2.4257 Y1.7495
G01 X2.4298 Y1.7412
G01 X2.4361 Y1.7307
G01 X2.4415 Y1.7232
G01 X2.4516 Y1.7117
G01 X2.4607 Y1.7035
G01 X2.4731 Y1.6945
G01 X2.4866 Y1.6871
G01 X2.5008 Y1.6814
G01 X2.5126 Y1.6782
G01 X2.5277 Y1.6757
G01 X2.5400 Y1.6751
G01 X4.5400 Y1.6751
G01 X4.5492 Y1.6755
G01 X4.5583 Y1.6765
G01 X4.5704 Y1.6789
G01 X4.5792 Y1.6814
G01 X4.5878 Y1.6846
G01 X4.5962 Y1.6885
G01 X4.6043 Y1.6929
G01 X4.6145 Y1.6997
G01 X4.6239 Y1.7075
G01 X4.6347 Y1.7185
G01 X4.6439 Y1.7307
G01 X4.6517 Y1.7439
G01 X4.6566 Y1.7551
G01 X4.6613 Y1.7697
G01 X4.6636 Y1.7818
G01 X4.6650 Y1.7971
G01 X4.6650 Y3.6249
G01 X6.7174 Y5.6773
G01 X6.7589 Y5.6753
G01 X6.7681 Y5.6752
G01 X6.8722 Y5.6803
G01 X6.8814 Y5.6813
G01 X6.9815 Y5.6962
G01 X6.9905 Y5.6981
G01 X7.0916 Y5.7236
G01 X7.1898 Y5.7585
G01 X7.1983 Y5.7620
G01 X7.2898 Y5.8052
G01 X7.3007 Y5.8110
G01 X7.3900 Y5.8647
G01 X7.4739 Y5.9267
G01 X7.4833 Y5.9345
G01 X7.5605 Y6.0046
G01 X7.6306 Y6.0818
G01 X7.6366 Y6.0888
G01 X7.7004 Y6.1751
G01 X7.7541 Y6.2645
G01 X7.7599 Y6.2753
G01 X7.8019 Y6.3640
G01 X7.8066 Y6.3753
G01 X7.8416 Y6.4735
G01 X7.8684 Y6.5806
G01 X7.8846 Y6.6898
G01 X7.8898 Y6.7940
G01 X7.8898 Y6.8063
G01 X7.8850 Y6.9043
G01 X7.8838 Y6.9165
G01 X7.8684 Y7.0196
G01 X7.8416 Y7.1267
G01 X7.8044 Y7.2306
G01 X7.7599 Y7.3250
G01 X7.7541 Y7.3358
G01 X7.7037 Y7.4200
G01 X7.6969 Y7.4302
G01 X7.6346 Y7.5138
G01 X7.5605 Y7.5956
G01 X7.4787 Y7.6698
G01 X7.3900 Y7.7355
G01 X7.2953 Y7.7923
G01 X7.1955 Y7.8395
G01 X7.0916 Y7.8767
G01 X6.9845 Y7.9035
G01 X6.8753 Y7.9197
G01 X6.7650 Y7.9251
G01 X6.6547 Y7.9197
G01 X6.5455 Y7.9035
G01 X6.4384 Y7.8767
G01 X6.3345 Y7.8395
G01 X6.2347 Y7.7923
G01 X6.1452 Y7.7388
G01 X6.1350 Y7.7320
G01 X6.0513 Y7.6698
G01 X5.9739 Y7.5998
G01 X5.9653 Y7.5912
G01 X5.8994 Y7.5185
G01 X5.8916 Y7.5090
G01 X5.8296 Y7.4251
G01 X5.7759 Y7.3358
G01 X5.7714 Y7.3277
G01 X5.7281 Y7.2362
G01 X5.7234 Y7.2249
G01 X5.6884 Y7.1267
G01 X5.6623 Y7.0226
G01 X5.6606 Y7.0135
G01 X5.6462 Y6.9165
G01 X5.6452 Y6.9073
G01 X5.6400 Y6.8032
G01 X5.6402 Y6.7940
G01 X5.6422 Y6.7526
G01 X3.0024 Y4.1127
G01 X2.9523 Y4.0575
G01 X2.9114 Y4.0025
G01 X2.9045 Y3.9923
G01 X2.8725 Y3.9389
G01 X2.8653 Y3.9251
G00 Z1.0000
G00 X2.8501 Y3.9501
G01 F60.00
G01 Z-0.1418
G01 F60.00
G01 X2.5363 Y3.9501
G01 X2.5290 Y3.9497
G01 X2.5180 Y3.9485
G01 X2.5071 Y3.9465
G01 X2.5000 Y3.9447
G01 X2.4895 Y3.9413
G01 X2.4792 Y3.9372
G01 X2.4693 Y3.9324
G01 X2.4629 Y3.9288
G01 X2.4536 Y3.9228
G01 X2.4448 Y3.9161
G01 X2.4366 Y3.9088
G01 X2.4314 Y3.9035
G01 X2.4240 Y3.8953
G01 X2.4174 Y3.8865
G01 X2.4113 Y3.8772
G01 X2.4060 Y3.8676
G01 X2.4014 Y3.8575
G01 X2.3976 Y3.8472
G01 X2.3954 Y3.8401
G01 X2.3929 Y3.8294
G01 X2.3907 Y3.8148
G01 X2.3900 Y3.8001
G01 X2.3900 Y1.7964
G01 X2.3907 Y1.7854
G01 X2.3922 Y1.7745
G01 X2.3954 Y1.7601
G01 X2.3988 Y1.7496
G01 X2.4029 Y1.7393
G01 X2.4095 Y1.7262
G01 X2.4153 Y1.7168
G01 X2.4217 Y1.7078
G01 X2.4314 Y1.6967
G01 X2.4393 Y1.6890
G01 X2.4448 Y1.6842
G01 X2.4567 Y1.6754
G01 X2.4629 Y1.6715
G01 X2.4726 Y1.6661
G01 X2.4826 Y1.6615
G01 X2.4895 Y1.6589
G01 X2.5036 Y1.6546
G01 X2.5180 Y1.6517
G01 X2.5290 Y1.6505
G01 X2.5363 Y1.6502
G01 X4.5437 Y1.6502
G01 X4.5547 Y1.6508
G01 X4.5656 Y1.6523
G01 X4.5764 Y1.6546
G01 X4.5871 Y1.6577
G01 X4.5974 Y1.6615
G01 X4.6074 Y1.6661
G01 X4.6171 Y1.6715
G01 X4.6264 Y1.6775
G01 X4.6380 Y1.6865
G01 X4.6461 Y1.6941
G01 X4.6511 Y1.6994
G01 X4.6583 Y1.7078
G01 X4.6626 Y1.7137
G01 X4.6687 Y1.7230
G01 X4.6723 Y1.7294
G01 X4.6771 Y1.7393
G01 X4.6799 Y1.7461
G01 X4.6846 Y1.7601
G01 X4.6864 Y1.7673
G01 X4.6884 Y1.7781
G01 X4.6896 Y1.7891
G01 X4.6900 Y1.7964
G01 X4.6900 Y3.6145
G01 X6.7273 Y5.6518
G01 X6.7576 Y5.6503
G01 X6.7687 Y5.6502
G01 X6.8741 Y5.6553
G01 X6.8850 Y5.6566
G01 X6.9857 Y5.6715
G01 X6.9965 Y5.6738
G01 X7.0988 Y5.6996
G01 X7.1982 Y5.7350
G01 X7.2085 Y5.7391
G01 X7.3005 Y5.7826
G01 X7.3135 Y5.7895
G01 X7.4039 Y5.8439
G01 X7.4887 Y5.9066
G01 X7.5001 Y5.9160
G01 X7.5782 Y5.9869
G01 X7.6492 Y6.0650
G01 X7.6563 Y6.0734
G01 X7.7212 Y6.1612
G01 X7.7756 Y6.2516
G01 X7.7825 Y6.2646
G01 X7.8245 Y6.3533
G01 X7.8301 Y6.3669
G01 X7.8655 Y6.4663
G01 X7.8929 Y6.5758
G01 X7.9095 Y6.6874
G01 X7.9148 Y6.7928
G01 X7.9148 Y6.8075
G01 X7.9100 Y6.9055
G01 X7.9086 Y6.9201
G01 X7.8929 Y7.0245
G01 X7.8655 Y7.1339
G01 X7.8275 Y7.2402
G01 X7.7825 Y7.3356
G01 X7.7756 Y7.3486
G01 X7.7251 Y7.4328
G01 X7.7191 Y7.4421
G01 X7.6540 Y7.5297
G01 X7.5782 Y7.6133
G01 X7.4946 Y7.6891
G01 X7.4039 Y7.7563
G01 X7.3071 Y7.8143
G01 X7.2051 Y7.8626
G01 X7.0988 Y7.9006
G01 X6.9894 Y7.9280
G01 X6.8777 Y7.9446
G01 X6.7650 Y7.9501
G01 X6.6523 Y7.9446
G01 X6.5406 Y7.9280
G01 X6.4312 Y7.9006
G01 X6.3249 Y7.8626
G01 X6.2229 Y7.8143
G01 X6.1323 Y7.7602
G01 X6.1231 Y7.7542
G01 X6.0413 Y7.6936
G01 X6.0299 Y7.6843
G01 X5.9518 Y7.6133
G01 X5.8808 Y7.5352
G01 X5.8715 Y7.5239
G01 X5.8088 Y7.4390
G01 X5.7544 Y7.3486
G01 X5.7491 Y7.3390
G01 X5.7055 Y7.2469
G01 X5.6999 Y7.2333
G01 X5.6645 Y7.1339
G01 X5.6379 Y7.0281
G01 X5.6358 Y7.0172
G01 X5.6214 Y6.9201
G01 X5.6202 Y6.9092
G01 X5.6150 Y6.8038
G01 X5.6152 Y6.7928
G01 X5.6167 Y6.7624
G01 X2.9847 Y4.1304
G01 X2.9378 Y4.0789
G01 X2.9284 Y4.0675
G01 X2.8870 Y4.0114
G01 X2.8501 Y3.9501
G00 Z1.0000
G00 X2.8359 Y3.9751
G01 F60.00
G01 Z-0.1418
G01 F60.00
G01 X2.5357 Y3.9751
G01 X2.5228 Y3.9743
G01 X2.5143 Y3.9732
G01 X2.5017 Y3.9709
G01 X2.4892 Y3.9676
G01 X2.4770 Y3.9634
G01 X2.4691 Y3.9601
G01 X2.4575 Y3.9545
G01 X2.4464 Y3.9480
G01 X2.4358 Y3.9407
G01 X2.4257 Y3.9326
G01 X2.4163 Y3.9239
G01 X2.4103 Y3.9176
G01 X2.4020 Y3.9078
G01 X2.3969 Y3.9009
G01 X2.3899 Y3.8901
G01 X2.3837 Y3.8788
G01 X2.3800 Y3.8710
G01 X2.3752 Y3.8591
G01 X2.3713 Y3.8468
G01 X2.3684 Y3.8343
G01 X2.3658 Y3.8173
G01 X2.3650 Y3.8001
G01 X2.3651 Y1.7958
G01 X2.3658 Y1.7830
G01 X2.3676 Y1.7702
G01 X2.3713 Y1.7534
G01 X2.3752 Y1.7412
G01 X2.3800 Y1.7292
G01 X2.3857 Y1.7176
G01 X2.3945 Y1.7029
G01 X2.4020 Y1.6925
G01 X2.4103 Y1.6826
G01 X2.4163 Y1.6764
G01 X2.4290 Y1.6648
G01 X2.4358 Y1.6596
G01 X2.4464 Y1.6523
G01 X2.4613 Y1.6438
G01 X2.4691 Y1.6401
G01 X2.4810 Y1.6353
G01 X2.4975 Y1.6304
G01 X2.5143 Y1.6270
G01 X2.5271 Y1.6256
G01 X2.5357 Y1.6252
G01 X4.5443 Y1.6252
G01 X4.5572 Y1.6260
G01 X4.5699 Y1.6277
G01 X4.5825 Y1.6304
G01 X4.5949 Y1.6340
G01 X4.6070 Y1.6384
G01 X4.6187 Y1.6438
G01 X4.6300 Y1.6500
G01 X4.6408 Y1.6570
G01 X4.6477 Y1.6622
G01 X4.6575 Y1.6705
G01 X4.6697 Y1.6826
G01 X4.6753 Y1.6891
G01 X4.6831 Y1.6994
G01 X4.6923 Y1.7139
G01 X4.6963 Y1.7214
G01 X4.7017 Y1.7331
G01 X4.7075 Y1.7493
G01 X4.7107 Y1.7618
G01 X4.7124 Y1.7702
G01 X4.7142 Y1.7830
G01 X4.7148 Y1.7915
G01 X4.7150 Y3.6042
G01 X6.7371 Y5.6263
G01 X6.7607 Y5.6252
G01 X6.7693 Y5.6252
G01 X6.8759 Y5.6304
G01 X6.8887 Y5.6318
G01 X6.9942 Y5.6477
G01 X7.1061 Y5.6757
G01 X7.2066 Y5.7115
G01 X7.2225 Y5.7180
G01 X7.3189 Y5.7639
G01 X7.4105 Y5.8185
G01 X7.4248 Y5.8281
G01 X7.5036 Y5.8865
G01 X7.5169 Y5.8974
G01 X7.5959 Y5.9693
G01 X7.6677 Y6.0482
G01 X7.6760 Y6.0581
G01 X7.7420 Y6.1473
G01 X7.7970 Y6.2388
G01 X7.8051 Y6.2539
G01 X7.8471 Y6.3426
G01 X7.8536 Y6.3585
G01 X7.8894 Y6.4590
G01 X7.9174 Y6.5709
G01 X7.9343 Y6.6849
G01 X7.9398 Y6.7915
G01 X7.9398 Y6.8087
G01 X7.9350 Y6.9067
G01 X7.9333 Y6.9238
G01 X7.9174 Y7.0293
G01 X7.8894 Y7.1412
G01 X7.8506 Y7.2498
G01 X7.8051 Y7.3463
G01 X7.7970 Y7.3615
G01 X7.7466 Y7.4457
G01 X7.7395 Y7.4565
G01 X7.6733 Y7.5455
G01 X7.5959 Y7.6310
G01 X7.5104 Y7.7084
G01 X7.4178 Y7.7771
G01 X7.3189 Y7.8364
G01 X7.2147 Y7.8857
G01 X7.1061 Y7.9245
G01 X6.9942 Y7.9525
G01 X6.8802 Y7.9695
G01 X6.7650 Y7.9751
G01 X6.6498 Y7.9695
G01 X6.5358 Y7.9525
G01 X6.4239 Y7.9245
G01 X6.3153 Y7.8857
G01 X6.2111 Y7.8364
G01 X6.1195 Y7.7817
G01 X6.1087 Y7.7747
G01 X6.0264 Y7.7137
G01 X6.0131 Y7.7028
G01 X5.9341 Y7.6310
G01 X5.8623 Y7.5520
G01 X5.8514 Y7.5388
G01 X5.7880 Y7.4529
G01 X5.7330 Y7.3615
G01 X5.7268 Y7.3502
G01 X5.6829 Y7.2576
G01 X5.6764 Y7.2418
G01 X5.6406 Y7.1412
G01 X5.6135 Y7.0336
G01 X5.6111 Y7.0209
G01 X5.5967 Y6.9238
G01 X5.5953 Y6.9110
G01 X5.5901 Y6.8044
G01 X5.5901 Y6.7958
G01 X5.5912 Y6.7722
G01 X2.9670 Y4.1481
G01 X2.9192 Y4.0957
G01 X2.9083 Y4.0824
G01 X2.8662 Y4.0253
G01 X2.8359 Y3.9751
G00 Z1.0000
G00 X2.8154 Y10.1758
G01 F60.00
G01 Z-0.1418
G01 F60.00
G01 X2.7933 Y10.1957
G01 X2.7863 Y10.2017
G01 X2.7025 Y10.2638
G01 X2.6948 Y10.2688
G01 X2.6080 Y10.3208
G01 X2.5998 Y10.3250
G01 X2.5055 Y10.3695
G01 X2.4045 Y10.4057
G01 X2.3957 Y10.4083
G01 X2.2945 Y10.4335
G01 X2.1853 Y10.4497
G01 X2.0750 Y10.4551
G01 X1.9678 Y10.4500
G01 X1.9586 Y10.4489
G01 X1.8555 Y10.4335
G01 X1.7484 Y10.4067
G01 X1.6445 Y10.3695
G01 X1.5447 Y10.3223
G01 X1.4500 Y10.2655
G01 X1.3613 Y10.1998
G01 X1.2795 Y10.1256
G01 X1.2073 Y10.0462
G01 X1.2016 Y10.0390
G01 X1.1396 Y9.9551
G01 X1.0828 Y9.8604
G01 X1.0356 Y9.7606
G01 X0.9984 Y9.6567
G01 X0.9716 Y9.5496
G01 X0.9554 Y9.4404
G01 X0.9500 Y9.3301
G01 X0.9554 Y9.2198
G01 X0.9716 Y9.1106
G01 X0.9984 Y9.0035
G01 X1.0356 Y8.8996
G01 X1.0828 Y8.7998
G01 X1.1396 Y8.7051
G01 X1.2054 Y8.6164
G01 X1.2795 Y8.5346
G01 X1.3590 Y8.4625
G01 X1.3661 Y8.4567
G01 X1.4500 Y8.3947
G01 X1.5447 Y8.3380
G01 X1.6445 Y8.2908
G01 X1.7484 Y8.2536
G01 X1.8555 Y8.2267
G01 X1.9647 Y8.2105
G01 X2.0750 Y8.2051
G01 X2.1792 Y8.2101
G01 X2.1883 Y8.2109
G01 X2.2945 Y8.2267
G01 X2.4016 Y8.2536
G01 X2.5055 Y8.2908
G01 X2.6026 Y8.3365
G01 X2.6107 Y8.3410
G01 X2.7000 Y8.3947
G01 X2.7863 Y8.4586
G01 X2.7933 Y8.4645
G01 X2.8683 Y8.5325
G01 X2.8747 Y8.5391
G01 X2.9026 Y8.5698
G01 X3.0481 Y8.5698
G01 X3.1134 Y8.5730
G01 X3.1256 Y8.5742
G01 X3.1873 Y8.5834
G01 X3.1963 Y8.5850
G01 X3.2657 Y8.6025
G01 X3.3360 Y8.6277
G01 X3.4034 Y8.6596
G01 X3.4622 Y8.6947
G01 X3.4699 Y8.6997
G01 X3.5273 Y8.7424
G01 X3.5826 Y8.7925
G01 X7.4526 Y12.6625
G01 X7.5027 Y12.7178
G01 X7.5454 Y12.7752
G01 X7.5505 Y12.7829
G01 X7.5825 Y12.8364
G01 X7.5883 Y12.8472
G01 X7.6174 Y12.9092
G01 X7.6426 Y12.9794
G01 X7.6594 Y13.0458
G01 X7.6618 Y13.0578
G01 X7.6717 Y13.1256
G01 X7.6753 Y13.1970
G01 X7.6753 Y17.7552
G01 X9.3474 Y19.4273
G01 X9.3950 Y19.4251
G01 X9.4426 Y19.4273
G01 X12.5047 Y16.3652
G01 X12.5047 Y14.3001
G01 X12.5081 Y14.2286
G01 X12.5091 Y14.2195
G01 X12.5182 Y14.1578
G01 X12.5206 Y14.1458
G01 X12.5374 Y14.0794
G01 X12.5626 Y14.0092
G01 X12.5945 Y13.9417
G01 X12.6295 Y13.8829
G01 X12.6364 Y13.8727
G01 X12.6773 Y13.8178
G01 X12.7274 Y13.7625
G01 X19.0447 Y7.4452
G01 X19.0447 Y4.0261
G01 X19.0376 Y4.0165
G01 X19.0326 Y4.0088
G01 X18.9922 Y3.9415
G01 X18.9865 Y3.9307
G01 X18.9504 Y3.8541
G01 X18.9198 Y3.7686
G01 X18.8991 Y3.6866
G01 X18.8967 Y3.6745
G01 X18.8845 Y3.5908
G01 X18.8800 Y3.5001
G01 X18.8800 Y3.0970
G01 X18.8845 Y3.0095
G01 X18.8972 Y2.9227
G01 X18.8991 Y2.9137
G01 X18.9198 Y2.8316
G01 X18.9504 Y2.7461
G01 X18.9892 Y2.6641
G01 X19.0359 Y2.5862
G01 X19.0862 Y2.5181
G01 X19.0940 Y2.5087
G01 X19.1509 Y2.4460
G01 X19.2182 Y2.3851
G01 X19.2861 Y2.3345
G01 X19.2963 Y2.3277
G01 X19.3690 Y2.2843
G01 X19.4454 Y2.2480
G01 X19.4567 Y2.2433
G01 X19.5365 Y2.2149
G01 X19.6186 Y2.1942
G01 X19.6306 Y2.1918
G01 X19.7143 Y2.1796
G01 X19.7989 Y2.1753
G01 X19.8111 Y2.1753
G01 X19.8957 Y2.1796
G01 X19.9794 Y2.1918
G01 X19.9914 Y2.1942
G01 X20.0735 Y2.2149
G01 X20.1533 Y2.2433
G01 X20.1646 Y2.2480
G01 X20.2410 Y2.2843
G01 X20.3137 Y2.3277
G01 X20.3239 Y2.3345
G01 X20.3918 Y2.3851
G01 X20.4546 Y2.4418
G01 X20.4633 Y2.4505
G01 X20.5200 Y2.5133
G01 X20.5706 Y2.5812
G01 X20.5774 Y2.5914
G01 X20.6208 Y2.6641
G01 X20.6596 Y2.7461
G01 X20.6882 Y2.8258
G01 X20.6918 Y2.8375
G01 X20.7122 Y2.9197
G01 X20.7255 Y3.0095
G01 X20.7300 Y3.1001
G01 X20.7300 Y3.5032
G01 X20.7255 Y3.5908
G01 X20.7133 Y3.6745
G01 X20.7109 Y3.6866
G01 X20.6902 Y3.7686
G01 X20.6596 Y3.8541
G01 X20.6235 Y3.9307
G01 X20.6178 Y3.9415
G01 X20.5774 Y4.0088
G01 X20.5724 Y4.0165
G01 X20.5653 Y4.0261
G01 X20.5653 Y7.4463
G01 X20.6027 Y7.4878
G01 X20.6472 Y7.5477
G01 X20.6855 Y7.6117
G01 X20.7162 Y7.6763
G01 X20.7196 Y7.6849
G01 X20.7426 Y7.7494
G01 X20.7594 Y7.8158
G01 X20.7618 Y7.8278
G01 X20.7709 Y7.8895
G01 X20.7721 Y7.9017
G01 X20.7753 Y7.9701
G01 X20.7753 Y11.2225
G01 X20.8061 Y11.2504
G01 X20.8126 Y11.2568
G01 X20.8806 Y11.3318
G01 X20.8866 Y11.3388
G01 X20.9504 Y11.4251
G01 X21.0041 Y11.5145
G01 X21.0086 Y11.5225
G01 X21.0544 Y11.6196
G01 X21.0916 Y11.7235
G01 X21.1184 Y11.8306
G01 X21.1338 Y11.9338
G01 X21.1348 Y11.9429
G01 X21.1400 Y12.0501
G01 X21.1350 Y12.1543
G01 X21.1338 Y12.1665
G01 X21.1184 Y12.2696
G01 X21.0916 Y12.3767
G01 X21.0566 Y12.4749
G01 X21.0519 Y12.4862
G01 X21.0099 Y12.5750
G01 X21.0057 Y12.5831
G01 X20.9504 Y12.6751
G01 X20.8884 Y12.7590
G01 X20.8806 Y12.7685
G01 X20.8105 Y12.8456
G01 X20.7333 Y12.9157
G01 X20.7239 Y12.9235
G01 X20.6400 Y12.9855
G01 X20.5507 Y13.0393
G01 X20.5398 Y13.0450
G01 X20.4455 Y13.0895
G01 X20.3474 Y13.1248
G01 X20.3357 Y13.1283
G01 X20.2345 Y13.1535
G01 X20.1314 Y13.1689
G01 X20.1192 Y13.1702
G01 X20.0150 Y13.1751
G01 X19.9108 Y13.1702
G01 X19.8986 Y13.1689
G01 X19.7955 Y13.1535
G01 X19.6884 Y13.1267
G01 X19.5902 Y13.0917
G01 X19.5789 Y13.0870
G01 X19.4847 Y13.0423
G01 X19.3952 Y12.9888
G01 X19.3850 Y12.9820
G01 X19.3013 Y12.9198
G01 X19.2239 Y12.8498
G01 X19.2153 Y12.8412
G01 X19.1454 Y12.7638
G01 X19.0831 Y12.6802
G01 X19.0763 Y12.6700
G01 X19.0228 Y12.5804
G01 X18.9781 Y12.4862
G01 X18.9734 Y12.4749
G01 X18.9384 Y12.3767
G01 X18.9116 Y12.2696
G01 X18.8962 Y12.1665
G01 X18.8950 Y12.1543
G01 X18.8900 Y12.0501
G01 X18.8952 Y11.9429
G01 X18.8962 Y11.9338
G01 X18.9116 Y11.8306
G01 X18.9384 Y11.7235
G01 X18.9756 Y11.6196
G01 X19.0214 Y11.5225
G01 X19.0259 Y11.5145
G01 X19.0796 Y11.4251
G01 X19.1434 Y11.3388
G01 X19.1494 Y11.3318
G01 X19.2174 Y11.2568
G01 X19.2239 Y11.2504
G01 X19.2547 Y11.2225
G01 X19.2547 Y9.3857
G01 X14.0253 Y14.6151
G01 X14.0253 Y16.6801
G01 X14.0221 Y16.7485
G01 X14.0209 Y16.7607
G01 X14.0107 Y16.8284
G01 X13.9942 Y16.8949
G01 X13.9907 Y16.9067
G01 X13.9696 Y16.9654
G01 X13.9650 Y16.9767
G01 X13.9355 Y17.0385
G01 X13.9005 Y17.0973
G01 X13.8936 Y17.1075
G01 X13.8527 Y17.1625
G01 X13.8026 Y17.2177
G01 X10.5178 Y20.5026
G01 X10.5198 Y20.5440
G01 X10.5200 Y20.5532
G01 X10.5150 Y20.6543
G01 X10.5142 Y20.6634
G01 X10.4984 Y20.7696
G01 X10.4724 Y20.8737
G01 X10.4696 Y20.8825
G01 X10.4366 Y20.9749
G01 X10.4319 Y20.9862
G01 X10.3872 Y21.0804
G01 X10.3321 Y21.1726
G01 X10.3269 Y21.1802
G01 X10.2684 Y21.2590
G01 X10.2606 Y21.2685
G01 X10.1905 Y21.3456
G01 X10.1087 Y21.4198
G01 X10.0250 Y21.4820
G01 X10.0148 Y21.4888
G01 X9.9253 Y21.5423
G01 X9.8255 Y21.5895
G01 X9.7274 Y21.6248
G01 X9.7157 Y21.6283
G01 X9.6145 Y21.6535
G01 X9.5053 Y21.6697
G01 X9.4011 Y21.6750
G01 X9.3889 Y21.6750
G01 X9.2847 Y21.6697
G01 X9.1816 Y21.6545
G01 X9.1695 Y21.6522
G01 X9.0684 Y21.6267
G01 X8.9702 Y21.5917
G01 X8.9589 Y21.5870
G01 X8.8647 Y21.5423
G01 X8.7752 Y21.4888
G01 X8.7650 Y21.4820
G01 X8.6861 Y21.4235
G01 X8.6790 Y21.4178
G01 X8.6039 Y21.3498
G01 X8.5953 Y21.3412
G01 X8.5254 Y21.2638
G01 X8.4631 Y21.1802
G01 X8.4563 Y21.1700
G01 X8.4028 Y21.0804
G01 X8.3568 Y20.9835
G01 X8.3534 Y20.9749
G01 X8.3184 Y20.8767
G01 X8.2930 Y20.7756
G01 X8.2911 Y20.7666
G01 X8.2762 Y20.6665
G01 X8.2752 Y20.6573
G01 X8.2700 Y20.5532
G01 X8.2702 Y20.5440
G01 X8.2722 Y20.5026
G01 X6.3774 Y18.6077
G01 X6.3273 Y18.5525
G01 X6.2864 Y18.4975
G01 X6.2795 Y18.4873
G01 X6.2445 Y18.4285
G01 X6.2150 Y18.3667
G01 X6.2104 Y18.3554
G01 X6.1874 Y18.2908
G01 X6.1706 Y18.2244
G01 X6.1682 Y18.2124
G01 X6.1583 Y18.1446
G01 X6.1547 Y18.0732
G01 X6.1547 Y13.5151
G01 X2.8154 Y10.1758
G00 Z1.0000
G00 X2.8145 Y10.2103
G01 F60.00
G01 Z-0.1418
G01 F60.00
G01 X2.8074 Y10.2167
G01 X2.7987 Y10.2236
G01 X2.7139 Y10.2863
G01 X2.6171 Y10.3443
G01 X2.5151 Y10.3926
G01 X2.4088 Y10.4306
G01 X2.2994 Y10.4580
G01 X2.1877 Y10.4746
G01 X2.0750 Y10.4801
G01 X1.9623 Y10.4746
G01 X1.8506 Y10.4580
G01 X1.7412 Y10.4306
G01 X1.6349 Y10.3926
G01 X1.5329 Y10.3443
G01 X1.4361 Y10.2863
G01 X1.3454 Y10.2191
G01 X1.2618 Y10.1433
G01 X1.1860 Y10.0597
G01 X1.1188 Y9.9690
G01 X1.0608 Y9.8722
G01 X1.0125 Y9.7702
G01 X0.9745 Y9.6639
G01 X0.9471 Y9.5545
G01 X0.9305 Y9.4428
G01 X0.9250 Y9.3301
G01 X0.9305 Y9.2174
G01 X0.9471 Y9.1058
G01 X0.9745 Y8.9963
G01 X1.0125 Y8.8900
G01 X1.0608 Y8.7880
G01 X1.1188 Y8.6912
G01 X1.1860 Y8.6006
G01 X1.2618 Y8.5169
G01 X1.3454 Y8.4412
G01 X1.4361 Y8.3739
G01 X1.5329 Y8.3159
G01 X1.6349 Y8.2677
G01 X1.7412 Y8.2296
G01 X1.8506 Y8.2022
G01 X1.9623 Y8.1857
G01 X2.0750 Y8.1801
G01 X2.1804 Y8.1851
G01 X2.1914 Y8.1861
G01 X2.2994 Y8.2022
G01 X2.4088 Y8.2296
G01 X2.5151 Y8.2677
G01 X2.6138 Y8.3142
G01 X2.6235 Y8.3195
G01 X2.7139 Y8.3739
G01 X2.8017 Y8.4389
G01 X2.8101 Y8.4460
G01 X2.8855 Y8.5144
G01 X2.8932 Y8.5223
G01 X2.9137 Y8.5448
G01 X3.0487 Y8.5448
G01 X3.1146 Y8.5480
G01 X3.1293 Y8.5495
G01 X3.1910 Y8.5586
G01 X3.2018 Y8.5607
G01 X3.2730 Y8.5786
G01 X3.3455 Y8.6046
G01 X3.4152 Y8.6375
G01 X3.4751 Y8.6732
G01 X3.4843 Y8.6792
G01 X3.5432 Y8.7231
G01 X3.6003 Y8.7748
G01 X7.4703 Y12.6448
G01 X7.5221 Y12.7019
G01 X7.5659 Y12.7608
G01 X7.5719 Y12.7700
G01 X7.6040 Y12.8235
G01 X7.6109 Y12.8365
G01 X7.6405 Y12.8996
G01 X7.6665 Y12.9722
G01 X7.6836 Y13.0397
G01 X7.6865 Y13.0542
G01 X7.6965 Y13.1231
G01 X7.7003 Y13.1964
G01 X7.7003 Y17.7448
G01 X9.3573 Y19.4018
G01 X9.3950 Y19.4001
G01 X9.4327 Y19.4018
G01 X12.4797 Y16.3548
G01 X12.4797 Y14.3001
G01 X12.4831 Y14.2268
G01 X12.4844 Y14.2158
G01 X12.4935 Y14.1542
G01 X12.4964 Y14.1397
G01 X12.5135 Y14.0722
G01 X12.5395 Y13.9996
G01 X12.5724 Y13.9299
G01 X12.6081 Y13.8700
G01 X12.6163 Y13.8578
G01 X12.6579 Y13.8019
G01 X12.7097 Y13.7448
G01 X19.0197 Y7.4348
G01 X19.0197 Y4.0344
G01 X19.0112 Y4.0217
G01 X18.9708 Y3.9544
G01 X18.9639 Y3.9414
G01 X18.9273 Y3.8637
G01 X18.8959 Y3.7759
G01 X18.8749 Y3.6926
G01 X18.8720 Y3.6782
G01 X18.8596 Y3.5932
G01 X18.8550 Y3.5001
G01 X18.8550 Y3.0964
G01 X18.8596 Y3.0070
G01 X18.8726 Y2.9184
G01 X18.8749 Y2.9076
G01 X18.8959 Y2.8243
G01 X18.9273 Y2.7366
G01 X18.9672 Y2.6523
G01 X19.0151 Y2.5723
G01 X19.0661 Y2.5032
G01 X19.0754 Y2.4919
G01 X19.1332 Y2.4284
G01 X19.2023 Y2.3658
G01 X19.2712 Y2.3145
G01 X19.2834 Y2.3063
G01 X19.3572 Y2.2623
G01 X19.4347 Y2.2254
G01 X19.4483 Y2.2198
G01 X19.5292 Y2.1910
G01 X19.6125 Y2.1700
G01 X19.6269 Y2.1671
G01 X19.7119 Y2.1547
G01 X19.7976 Y2.1503
G01 X19.8124 Y2.1503
G01 X19.8981 Y2.1547
G01 X19.9831 Y2.1671
G01 X19.9975 Y2.1700
G01 X20.0808 Y2.1910
G01 X20.1617 Y2.2198
G01 X20.1753 Y2.2254
G01 X20.2528 Y2.2623
G01 X20.3266 Y2.3063
G01 X20.3388 Y2.3145
G01 X20.4077 Y2.3658
G01 X20.4714 Y2.4233
G01 X20.4818 Y2.4337
G01 X20.5394 Y2.4974
G01 X20.5907 Y2.5663
G01 X20.5988 Y2.5785
G01 X20.6428 Y2.6523
G01 X20.6827 Y2.7366
G01 X20.7118 Y2.8174
G01 X20.7161 Y2.8314
G01 X20.7367 Y2.9148
G01 X20.7504 Y3.0070
G01 X20.7550 Y3.1001
G01 X20.7550 Y3.5038
G01 X20.7504 Y3.5932
G01 X20.7380 Y3.6782
G01 X20.7351 Y3.6926
G01 X20.7141 Y3.7759
G01 X20.6827 Y3.8637
G01 X20.6461 Y3.9414
G01 X20.6392 Y3.9544
G01 X20.5988 Y4.0217
G01 X20.5903 Y4.0344
G01 X20.5903 Y7.4366
G01 X20.6172 Y7.4663
G01 X20.6244 Y7.4748
G01 X20.6637 Y7.5278
G01 X20.6700 Y7.5369
G01 X20.7076 Y7.5999
G01 X20.7391 Y7.6662
G01 X20.7432 Y7.6765
G01 X20.7665 Y7.7422
G01 X20.7836 Y7.8097
G01 X20.7865 Y7.8242
G01 X20.7956 Y7.8858
G01 X20.7971 Y7.9005
G01 X20.8003 Y7.9701
G01 X20.8003 Y11.2115
G01 X20.8228 Y11.2319
G01 X20.8307 Y11.2396
G01 X20.8992 Y11.3150
G01 X20.9063 Y11.3234
G01 X20.9712 Y11.4112
G01 X21.0256 Y11.5016
G01 X21.0309 Y11.5113
G01 X21.0775 Y11.6100
G01 X21.1155 Y11.7163
G01 X21.1429 Y11.8258
G01 X21.1586 Y11.9301
G01 X21.1598 Y11.9411
G01 X21.1650 Y12.0501
G01 X21.1600 Y12.1555
G01 X21.1586 Y12.1701
G01 X21.1429 Y12.2745
G01 X21.1155 Y12.3839
G01 X21.0801 Y12.4833
G01 X21.0745 Y12.4969
G01 X21.0325 Y12.5856
G01 X21.0274 Y12.5954
G01 X20.9712 Y12.6890
G01 X20.9085 Y12.7739
G01 X20.8992 Y12.7852
G01 X20.8282 Y12.8633
G01 X20.7501 Y12.9343
G01 X20.7387 Y12.9436
G01 X20.6539 Y13.0063
G01 X20.5635 Y13.0607
G01 X20.5505 Y13.0676
G01 X20.4551 Y13.1126
G01 X20.3558 Y13.1483
G01 X20.3417 Y13.1526
G01 X20.2394 Y13.1780
G01 X20.1350 Y13.1937
G01 X20.1204 Y13.1951
G01 X20.0150 Y13.2001
G01 X19.9096 Y13.1951
G01 X19.8950 Y13.1937
G01 X19.7906 Y13.1780
G01 X19.6883 Y13.1526
G01 X19.6742 Y13.1483
G01 X19.5749 Y13.1126
G01 X19.4795 Y13.0676
G01 X19.4665 Y13.0607
G01 X19.3761 Y13.0063
G01 X19.2913 Y12.9436
G01 X19.2799 Y12.9343
G01 X19.2018 Y12.8633
G01 X19.1308 Y12.7852
G01 X19.1215 Y12.7739
G01 X19.0588 Y12.6890
G01 X19.0026 Y12.5954
G01 X18.9975 Y12.5856
G01 X18.9555 Y12.4969
G01 X18.9499 Y12.4833
G01 X18.9145 Y12.3839
G01 X18.8871 Y12.2745
G01 X18.8714 Y12.1701
G01 X18.8700 Y12.1555
G01 X18.8650 Y12.0501
G01 X18.8702 Y11.9411
G01 X18.8714 Y11.9301
G01 X18.8871 Y11.8258
G01 X18.9145 Y11.7163
G01 X18.9525 Y11.6100
G01 X18.9991 Y11.5113
G01 X19.0044 Y11.5016
G01 X19.0588 Y11.4112
G01 X19.1237 Y11.3234
G01 X19.1308 Y11.3150
G01 X19.1993 Y11.2396
G01 X19.2072 Y11.2319
G01 X19.2297 Y11.2115
G01 X19.2297 Y9.4460
G01 X14.0503 Y14.6254
G01 X14.0503 Y16.6801
G01 X14.0471 Y16.7497
G01 X14.0456 Y16.7644
G01 X14.0352 Y16.8333
G01 X14.0185 Y16.9010
G01 X14.0142 Y16.9151
G01 X13.9932 Y16.9738
G01 X13.9876 Y16.9874
G01 X13.9576 Y17.0503
G01 X13.9219 Y17.1102
G01 X13.9137 Y17.1224
G01 X13.8721 Y17.1783
G01 X13.8203 Y17.2354
G01 X10.5433 Y20.5124
G01 X10.5448 Y20.5428
G01 X10.5450 Y20.5538
G01 X10.5400 Y20.6555
G01 X10.5391 Y20.6665
G01 X10.5229 Y20.7745
G01 X10.4965 Y20.8804
G01 X10.4932 Y20.8909
G01 X10.4601 Y20.9833
G01 X10.4545 Y20.9969
G01 X10.4092 Y21.0922
G01 X10.3532 Y21.1859
G01 X10.3470 Y21.1950
G01 X10.2885 Y21.2739
G01 X10.2792 Y21.2852
G01 X10.2082 Y21.3633
G01 X10.1246 Y21.4391
G01 X10.0399 Y21.5021
G01 X10.0277 Y21.5102
G01 X9.9371 Y21.5643
G01 X9.8351 Y21.6126
G01 X9.7358 Y21.6483
G01 X9.7217 Y21.6526
G01 X9.6194 Y21.6780
G01 X9.5077 Y21.6946
G01 X9.4024 Y21.6999
G01 X9.3876 Y21.6999
G01 X9.2823 Y21.6946
G01 X9.1779 Y21.6793
G01 X9.1635 Y21.6764
G01 X9.0612 Y21.6506
G01 X8.9618 Y21.6152
G01 X8.9482 Y21.6096
G01 X8.8529 Y21.5643
G01 X8.7623 Y21.5102
G01 X8.7501 Y21.5021
G01 X8.6713 Y21.4436
G01 X8.6626 Y21.4367
G01 X8.5872 Y21.3684
G01 X8.5768 Y21.3580
G01 X8.5060 Y21.2797
G01 X8.4430 Y21.1950
G01 X8.4349 Y21.1828
G01 X8.3808 Y21.0922
G01 X8.3340 Y20.9936
G01 X8.3299 Y20.9833
G01 X8.2945 Y20.8839
G01 X8.2687 Y20.7817
G01 X8.2664 Y20.7709
G01 X8.2514 Y20.6701
G01 X8.2502 Y20.6592
G01 X8.2450 Y20.5538
G01 X8.2452 Y20.5428
G01 X8.2467 Y20.5124
G01 X6.3597 Y18.6254
G01 X6.3079 Y18.5683
G01 X6.2663 Y18.5124
G01 X6.2581 Y18.5002
G01 X6.2224 Y18.4403
G01 X6.1924 Y18.3774
G01 X6.1868 Y18.3638
G01 X6.1635 Y18.2981
G01 X6.1464 Y18.2305
G01 X6.1435 Y18.2161
G01 X6.1335 Y18.1471
G01 X6.1297 Y18.0738
G01 X6.1297 Y13.5254
G01 X2.8145 Y10.2103
G00 Z1.0000
G00 X2.8130 Y10.2441
G01 F60.00
G01 Z-0.1418
G01 F60.00
G01 X2.7278 Y10.3071
G01 X2.6289 Y10.3664
G01 X2.5247 Y10.4157
G01 X2.4161 Y10.4545
G01 X2.3042 Y10.4825
G01 X2.1902 Y10.4995
G01 X2.0750 Y10.5051
G01 X1.9598 Y10.4995
G01 X1.8458 Y10.4825
G01 X1.7339 Y10.4545
G01 X1.6253 Y10.4157
G01 X1.5211 Y10.3664
G01 X1.4222 Y10.3071
G01 X1.3296 Y10.2384
G01 X1.2441 Y10.1610
G01 X1.1667 Y10.0755
G01 X1.0980 Y9.9829
G01 X1.0387 Y9.8840
G01 X0.9894 Y9.7798
G01 X0.9506 Y9.6712
G01 X0.9226 Y9.5593
G01 X0.9057 Y9.4453
G01 X0.9000 Y9.3301
G01 X0.9057 Y9.2149
G01 X0.9226 Y9.1009
G01 X0.9506 Y8.9890
G01 X0.9894 Y8.8805
G01 X1.0387 Y8.7762
G01 X1.0980 Y8.6773
G01 X1.1667 Y8.5847
G01 X1.2441 Y8.4993
G01 X1.3296 Y8.4218
G01 X1.4222 Y8.3531
G01 X1.5211 Y8.2939
G01 X1.6253 Y8.2446
G01 X1.7339 Y8.2057
G01 X1.8458 Y8.1777
G01 X1.9598 Y8.1608
G01 X2.0750 Y8.1551
G01 X2.1902 Y8.1608
G01 X2.3042 Y8.1777
G01 X2.4161 Y8.2057
G01 X2.5247 Y8.2446
G01 X2.6251 Y8.2919
G01 X2.6364 Y8.2981
G01 X2.7278 Y8.3531
G01 X2.8136 Y8.4165
G01 X2.8269 Y8.4274
G01 X2.9028 Y8.4963
G01 X2.9088 Y8.5023
G01 X2.9247 Y8.5198
G01 X3.0493 Y8.5199
G01 X3.1159 Y8.5231
G01 X3.1329 Y8.5248
G01 X3.1946 Y8.5339
G01 X3.2115 Y8.5373
G01 X3.2802 Y8.5547
G01 X3.3551 Y8.5815
G01 X3.4270 Y8.6155
G01 X3.4879 Y8.6518
G01 X3.4987 Y8.6588
G01 X3.5591 Y8.7037
G01 X3.6180 Y8.7571
G01 X7.4880 Y12.6271
G01 X7.5414 Y12.6861
G01 X7.5838 Y12.7429
G01 X7.5933 Y12.7572
G01 X7.6254 Y12.8107
G01 X7.6335 Y12.8258
G01 X7.6636 Y12.8900
G01 X7.6904 Y12.9649
G01 X7.7079 Y13.0337
G01 X7.7112 Y13.0505
G01 X7.7214 Y13.1207
G01 X7.7253 Y13.1958
G01 X7.7253 Y17.7345
G01 X9.3671 Y19.3763
G01 X9.3950 Y19.3751
G01 X9.4229 Y19.3763
G01 X12.4547 Y16.3445
G01 X12.4547 Y14.3001
G01 X12.4582 Y14.2250
G01 X12.4596 Y14.2122
G01 X12.4688 Y14.1505
G01 X12.4721 Y14.1337
G01 X12.4896 Y14.0649
G01 X12.5164 Y13.9900
G01 X12.5504 Y13.9181
G01 X12.5867 Y13.8572
G01 X12.5962 Y13.8429
G01 X12.6386 Y13.7861
G01 X12.6920 Y13.7271
G01 X18.9947 Y7.4245
G01 X18.9947 Y4.0423
G01 X18.9494 Y3.9672
G01 X18.9413 Y3.9521
G01 X18.9042 Y3.8732
G01 X18.8720 Y3.7831
G01 X18.8506 Y3.6987
G01 X18.8473 Y3.6819
G01 X18.8347 Y3.5957
G01 X18.8300 Y3.5001
G01 X18.8301 Y3.0958
G01 X18.8347 Y3.0046
G01 X18.8479 Y2.9141
G01 X18.8506 Y2.9015
G01 X18.8720 Y2.8171
G01 X18.9042 Y2.7270
G01 X18.9451 Y2.6405
G01 X18.9943 Y2.5584
G01 X19.0460 Y2.4884
G01 X19.0569 Y2.4751
G01 X19.1156 Y2.4107
G01 X19.1865 Y2.3464
G01 X19.2563 Y2.2944
G01 X19.2706 Y2.2848
G01 X19.3454 Y2.2402
G01 X19.4240 Y2.2028
G01 X19.4399 Y2.1962
G01 X19.5220 Y2.1671
G01 X19.6064 Y2.1457
G01 X19.6232 Y2.1424
G01 X19.7094 Y2.1298
G01 X19.7964 Y2.1253
G01 X19.8136 Y2.1253
G01 X19.9006 Y2.1298
G01 X19.9867 Y2.1424
G01 X20.0036 Y2.1457
G01 X20.0880 Y2.1671
G01 X20.1701 Y2.1962
G01 X20.1860 Y2.2028
G01 X20.2646 Y2.2402
G01 X20.3394 Y2.2848
G01 X20.3537 Y2.2944
G01 X20.4235 Y2.3464
G01 X20.4882 Y2.4048
G01 X20.5004 Y2.4169
G01 X20.5587 Y2.4816
G01 X20.6107 Y2.5514
G01 X20.6203 Y2.5657
G01 X20.6649 Y2.6405
G01 X20.7058 Y2.7270
G01 X20.7353 Y2.8089
G01 X20.7403 Y2.8254
G01 X20.7613 Y2.9099
G01 X20.7753 Y3.0046
G01 X20.7800 Y3.1001
G01 X20.7799 Y3.5044
G01 X20.7753 Y3.5957
G01 X20.7627 Y3.6819
G01 X20.7594 Y3.6987
G01 X20.7380 Y3.7831
G01 X20.7058 Y3.8732
G01 X20.6687 Y3.9521
G01 X20.6606 Y3.9672
G01 X20.6153 Y4.0423
G01 X20.6153 Y7.4270
G01 X20.6358 Y7.4496
G01 X20.6441 Y7.4594
G01 X20.6838 Y7.5129
G01 X20.6911 Y7.5235
G01 X20.7296 Y7.5881
G01 X20.7619 Y7.6561
G01 X20.7667 Y7.6680
G01 X20.7904 Y7.7349
G01 X20.8079 Y7.8037
G01 X20.8112 Y7.8205
G01 X20.8204 Y7.8822
G01 X20.8220 Y7.8993
G01 X20.8253 Y7.9701
G01 X20.8253 Y11.2004
G01 X20.8428 Y11.2163
G01 X20.8488 Y11.2223
G01 X20.9177 Y11.2982
G01 X20.9286 Y11.3115
G01 X20.9920 Y11.3973
G01 X21.0470 Y11.4888
G01 X21.0551 Y11.5039
G01 X21.1006 Y11.6005
G01 X21.1394 Y11.7090
G01 X21.1674 Y11.8209
G01 X21.1833 Y11.9264
G01 X21.1847 Y11.9392
G01 X21.1900 Y12.0501
G01 X21.1850 Y12.1567
G01 X21.1833 Y12.1738
G01 X21.1674 Y12.2793
G01 X21.1394 Y12.3912
G01 X21.1036 Y12.4918
G01 X21.0971 Y12.5076
G01 X21.0551 Y12.5963
G01 X21.0492 Y12.6078
G01 X20.9920 Y12.7029
G01 X20.9286 Y12.7888
G01 X20.9177 Y12.8020
G01 X20.8459 Y12.8810
G01 X20.7669 Y12.9528
G01 X20.7536 Y12.9637
G01 X20.6678 Y13.0271
G01 X20.5764 Y13.0821
G01 X20.5612 Y13.0902
G01 X20.4647 Y13.1357
G01 X20.3642 Y13.1718
G01 X20.3478 Y13.1768
G01 X20.2442 Y13.2025
G01 X20.1387 Y13.2184
G01 X20.1216 Y13.2201
G01 X20.0150 Y13.2251
G01 X19.9084 Y13.2201
G01 X19.8913 Y13.2184
G01 X19.7858 Y13.2025
G01 X19.6822 Y13.1768
G01 X19.6658 Y13.1718
G01 X19.5653 Y13.1357
G01 X19.4688 Y13.0902
G01 X19.4536 Y13.0821
G01 X19.3622 Y13.0271
G01 X19.2764 Y12.9637
G01 X19.2631 Y12.9528
G01 X19.1841 Y12.8810
G01 X19.1123 Y12.8020
G01 X19.1014 Y12.7888
G01 X19.0380 Y12.7029
G01 X18.9830 Y12.6115
G01 X18.9749 Y12.5963
G01 X18.9329 Y12.5076
G01 X18.9264 Y12.4918
G01 X18.8906 Y12.3912
G01 X18.8626 Y12.2793
G01 X18.8467 Y12.1738
G01 X18.8450 Y12.1567
G01 X18.8400 Y12.0501
G01 X18.8453 Y11.9392
G01 X18.8467 Y11.9264
G01 X18.8626 Y11.8209
G01 X18.8906 Y11.7090
G01 X18.9294 Y11.6005
G01 X18.9749 Y11.5039
G01 X18.9830 Y11.4888
G01 X19.0380 Y11.3973
G01 X19.1014 Y11.3115
G01 X19.1123 Y11.2982
G01 X19.1811 Y11.2223
G01 X19.1872 Y11.2163
G01 X19.2047 Y11.2004
G01 X19.2047 Y9.5064
G01 X14.0753 Y14.6358
G01 X14.0753 Y16.6801
G01 X14.0720 Y16.7510
G01 X14.0704 Y16.7681
G01 X14.0597 Y16.8382
G01 X14.0427 Y16.9071
G01 X14.0377 Y16.9235
G01 X14.0167 Y16.9822
G01 X14.0102 Y16.9981
G01 X13.9796 Y17.0621
G01 X13.9433 Y17.1230
G01 X13.9338 Y17.1373
G01 X13.8914 Y17.1942
G01 X13.8380 Y17.2531
G01 X10.5688 Y20.5222
G01 X10.5699 Y20.5458
G01 X10.5699 Y20.5544
G01 X10.5650 Y20.6567
G01 X10.5639 Y20.6696
G01 X10.5474 Y20.7793
G01 X10.5206 Y20.8871
G01 X10.5167 Y20.8994
G01 X10.4836 Y20.9918
G01 X10.4771 Y21.0076
G01 X10.4313 Y21.1040
G01 X10.3743 Y21.1993
G01 X10.3670 Y21.2099
G01 X10.3086 Y21.2888
G01 X10.2977 Y21.3020
G01 X10.2259 Y21.3810
G01 X10.1404 Y21.4584
G01 X10.0548 Y21.5221
G01 X10.0405 Y21.5317
G01 X9.9489 Y21.5864
G01 X9.8447 Y21.6357
G01 X9.7442 Y21.6718
G01 X9.7278 Y21.6768
G01 X9.6242 Y21.7025
G01 X9.5102 Y21.7195
G01 X9.4036 Y21.7249
G01 X9.3864 Y21.7249
G01 X9.2798 Y21.7195
G01 X9.1742 Y21.7040
G01 X9.1574 Y21.7007
G01 X9.0539 Y21.6745
G01 X8.9534 Y21.6388
G01 X8.9375 Y21.6322
G01 X8.8411 Y21.5864
G01 X8.7495 Y21.5317
G01 X8.7352 Y21.5221
G01 X8.6564 Y21.4637
G01 X8.6463 Y21.4556
G01 X8.5704 Y21.3869
G01 X8.5582 Y21.3747
G01 X8.4867 Y21.2955
G01 X8.4230 Y21.2099
G01 X8.4134 Y21.1957
G01 X8.3587 Y21.1040
G01 X8.3111 Y21.0037
G01 X8.3064 Y20.9918
G01 X8.2706 Y20.8912
G01 X8.2426 Y20.7793
G01 X8.2267 Y20.6738
G01 X8.2253 Y20.6610
G01 X8.2201 Y20.5544
G01 X8.2201 Y20.5458
G01 X8.2212 Y20.5222
G01 X6.3420 Y18.6431
G01 X6.2886 Y18.5842
G01 X6.2462 Y18.5273
G01 X6.2389 Y18.5167
G01 X6.2004 Y18.4521
G01 X6.1698 Y18.3881
G01 X6.1633 Y18.3722
G01 X6.1396 Y18.3053
G01 X6.1221 Y18.2366
G01 X6.1188 Y18.2197
G01 X6.1086 Y18.1495
G01 X6.1047 Y18.0744
G01 X6.1047 Y13.5358
G01 X2.8130 Y10.2441
G00 Z1.0000
G00 X3.1938 Y11.7538
G01 F60.00
G01 Z-0.1418
G01 F60.00
G01 X3.1950 Y11.7660
G01 X3.2000 Y11.8701
G01 X3.1946 Y11.9804
G01 X3.1784 Y12.0896
G01 X3.1516 Y12.1967
G01 X3.1144 Y12.3006
G01 X3.0672 Y12.4004
G01 X3.0104 Y12.4951
G01 X2.9446 Y12.5838
G01 X2.8705 Y12.6656
G01 X2.7887 Y12.7398
G01 X2.7000 Y12.8055
G01 X2.6053 Y12.8623
G01 X2.5055 Y12.9095
G01 X2.4016 Y12.9467
G01 X2.2945 Y12.9735
G01 X2.1853 Y12.9897
G01 X2.0750 Y12.9951
G01 X1.9647 Y12.9897
G01 X1.8555 Y12.9735
G01 X1.7484 Y12.9467
G01 X1.6445 Y12.9095
G01 X1.5447 Y12.8623
G01 X1.4500 Y12.8055
G01 X1.3613 Y12.7398
G01 X1.2795 Y12.6656
G01 X1.2054 Y12.5838
G01 X1.1396 Y12.4951
G01 X1.0828 Y12.4004
G01 X1.0356 Y12.3006
G01 X0.9984 Y12.1967
G01 X0.9716 Y12.0896
G01 X0.9554 Y11.9804
G01 X0.9500 Y11.8701
G01 X0.9554 Y11.7598
G01 X0.9716 Y11.6506
G01 X0.9984 Y11.5435
G01 X1.0356 Y11.4396
G01 X1.0828 Y11.3398
G01 X1.1396 Y11.2451
G01 X1.2054 Y11.1564
G01 X1.2795 Y11.0746
G01 X1.3613 Y11.0005
G01 X1.4500 Y10.9347
G01 X1.5447 Y10.8780
G01 X1.6445 Y10.8308
G01 X1.7484 Y10.7936
G01 X1.8555 Y10.7667
G01 X1.9647 Y10.7505
G01 X2.0750 Y10.7451
G01 X2.1853 Y10.7505
G01 X2.2945 Y10.7667
G01 X2.4016 Y10.7936
G01 X2.5055 Y10.8308
G01 X2.6053 Y10.8780
G01 X2.7000 Y10.9347
G01 X2.7887 Y11.0005
G01 X2.8705 Y11.0746
G01 X2.9446 Y11.1564
G01 X3.0104 Y11.2451
G01 X3.0672 Y11.3398
G01 X3.1144 Y11.4396
G01 X3.1516 Y11.5435
G01 X3.1784 Y11.6506
G01 X3.1938 Y11.7538
G00 Z1.0000
G00 X3.2186 Y11.7501
G01 F60.00
G01 Z-0.1418
G01 F60.00
G01 X3.2200 Y11.7647
G01 X3.2250 Y11.8701
G01 X3.2195 Y11.9828
G01 X3.2029 Y12.0945
G01 X3.1755 Y12.2039
G01 X3.1375 Y12.3102
G01 X3.0892 Y12.4122
G01 X3.0312 Y12.5090
G01 X2.9640 Y12.5997
G01 X2.8882 Y12.6833
G01 X2.8046 Y12.7591
G01 X2.7139 Y12.8263
G01 X2.6171 Y12.8843
G01 X2.5151 Y12.9326
G01 X2.4088 Y12.9706
G01 X2.2994 Y12.9980
G01 X2.1877 Y13.0146
G01 X2.0750 Y13.0201
G01 X1.9623 Y13.0146
G01 X1.8506 Y12.9980
G01 X1.7412 Y12.9706
G01 X1.6349 Y12.9326
G01 X1.5329 Y12.8843
G01 X1.4361 Y12.8263
G01 X1.3454 Y12.7591
G01 X1.2618 Y12.6833
G01 X1.1860 Y12.5997
G01 X1.1188 Y12.5090
G01 X1.0608 Y12.4122
G01 X1.0125 Y12.3102
G01 X0.9745 Y12.2039
G01 X0.9471 Y12.0945
G01 X0.9305 Y11.9828
G01 X0.9250 Y11.8701
G01 X0.9305 Y11.7574
G01 X0.9471 Y11.6458
G01 X0.9745 Y11.5363
G01 X1.0125 Y11.4300
G01 X1.0608 Y11.3280
G01 X1.1188 Y11.2312
G01 X1.1860 Y11.1406
G01 X1.2618 Y11.0569
G01 X1.3454 Y10.9812
G01 X1.4361 Y10.9139
G01 X1.5329 Y10.8559
G01 X1.6349 Y10.8077
G01 X1.7412 Y10.7696
G01 X1.8506 Y10.7422
G01 X1.9623 Y10.7257
G01 X2.0750 Y10.7201
G01 X2.1877 Y10.7257
G01 X2.2994 Y10.7422
G01 X2.4088 Y10.7696
G01 X2.5151 Y10.8077
G01 X2.6171 Y10.8559
G01 X2.7139 Y10.9139
G01 X2.8046 Y10.9812
G01 X2.8882 Y11.0569
G01 X2.9640 Y11.1406
G01 X3.0312 Y11.2312
G01 X3.0892 Y11.3280
G01 X3.1375 Y11.4300
G01 X3.1755 Y11.5363
G01 X3.2029 Y11.6458
G01 X3.2186 Y11.7501
G00 Z1.0000
G00 X3.2433 Y11.7464
G01 F60.00
G01 Z-0.1418
G01 F60.00
G01 X3.2450 Y11.7635
G01 X3.2500 Y11.8701
G01 X3.2443 Y11.9853
G01 X3.2274 Y12.0993
G01 X3.1994 Y12.2112
G01 X3.1606 Y12.3198
G01 X3.1113 Y12.4240
G01 X3.0520 Y12.5229
G01 X2.9833 Y12.6155
G01 X2.9059 Y12.7010
G01 X2.8204 Y12.7784
G01 X2.7278 Y12.8471
G01 X2.6289 Y12.9064
G01 X2.5247 Y12.9557
G01 X2.4161 Y12.9945
G01 X2.3042 Y13.0225
G01 X2.1902 Y13.0395
G01 X2.0750 Y13.0451
G01 X1.9598 Y13.0395
G01 X1.8458 Y13.0225
G01 X1.7339 Y12.9945
G01 X1.6253 Y12.9557
G01 X1.5211 Y12.9064
G01 X1.4222 Y12.8471
G01 X1.3296 Y12.7784
G01 X1.2441 Y12.7010
G01 X1.1667 Y12.6155
G01 X1.0980 Y12.5229
G01 X1.0387 Y12.4240
G01 X0.9894 Y12.3198
G01 X0.9506 Y12.2112
G01 X0.9226 Y12.0993
G01 X0.9057 Y11.9853
G01 X0.9000 Y11.8701
G01 X0.9057 Y11.7549
G01 X0.9226 Y11.6409
G01 X0.9506 Y11.5290
G01 X0.9894 Y11.4205
G01 X1.0387 Y11.3162
G01 X1.0980 Y11.2173
G01 X1.1667 Y11.1247
G01 X1.2441 Y11.0393
G01 X1.3296 Y10.9618
G01 X1.4222 Y10.8931
G01 X1.5211 Y10.8339
G01 X1.6253 Y10.7846
G01 X1.7339 Y10.7457
G01 X1.8458 Y10.7177
G01 X1.9598 Y10.7008
G01 X2.0750 Y10.6951
G01 X2.1902 Y10.7008
G01 X2.3042 Y10.7177
G01 X2.4161 Y10.7457
G01 X2.5247 Y10.7846
G01 X2.6289 Y10.8339
G01 X2.7278 Y10.8931
G01 X2.8204 Y10.9618
G01 X2.9059 Y11.0393
G01 X2.9833 Y11.1247
G01 X3.0520 Y11.2173
G01 X3.1113 Y11.3162
G01 X3.1606 Y11.4205
G01 X3.1994 Y11.5290
G01 X3.2274 Y11.6409
G01 X3.2433 Y11.7464
G00 Z1.0000
G00 X3.2433 Y14.2864
G01 F60.00
G01 Z-0.1418
G01 F60.00
G01 X3.2450 Y14.3035
G01 X3.2500 Y14.4101
G01 X3.2443 Y14.5253
G01 X3.2274 Y14.6393
G01 X3.1994 Y14.7512
G01 X3.1606 Y14.8598
G01 X3.1113 Y14.9640
G01 X3.0520 Y15.0629
G01 X2.9833 Y15.1555
G01 X2.9059 Y15.2410
G01 X2.8204 Y15.3184
G01 X2.7278 Y15.3871
G01 X2.6289 Y15.4464
G01 X2.5247 Y15.4957
G01 X2.4161 Y15.5345
G01 X2.3042 Y15.5625
G01 X2.1902 Y15.5795
G01 X2.0750 Y15.5851
G01 X1.9598 Y15.5795
G01 X1.8458 Y15.5625
G01 X1.7339 Y15.5345
G01 X1.6253 Y15.4957
G01 X1.5211 Y15.4464
G01 X1.4222 Y15.3871
G01 X1.3296 Y15.3184
G01 X1.2441 Y15.2410
G01 X1.1667 Y15.1555
G01 X1.0980 Y15.0629
G01 X1.0387 Y14.9640
G01 X0.9894 Y14.8598
G01 X0.9506 Y14.7512
G01 X0.9226 Y14.6393
G01 X0.9057 Y14.5253
G01 X0.9000 Y14.4101
G01 X0.9057 Y14.2949
G01 X0.9226 Y14.1809
G01 X0.9506 Y14.0690
G01 X0.9894 Y13.9605
G01 X1.0387 Y13.8562
G01 X1.0980 Y13.7573
G01 X1.1667 Y13.6647
G01 X1.2441 Y13.5793
G01 X1.3296 Y13.5018
G01 X1.4222 Y13.4331
G01 X1.5211 Y13.3739
G01 X1.6253 Y13.3246
G01 X1.7339 Y13.2857
G01 X1.8458 Y13.2577
G01 X1.9598 Y13.2408
G01 X2.0750 Y13.2351
G01 X2.1902 Y13.2408
G01 X2.3042 Y13.2577
G01 X2.4161 Y13.2857
G01 X2.5247 Y13.3246
G01 X2.6289 Y13.3739
G01 X2.7278 Y13.4331
G01 X2.8204 Y13.5018
G01 X2.9059 Y13.5793
G01 X2.9833 Y13.6647
G01 X3.0520 Y13.7573
G01 X3.1113 Y13.8562
G01 X3.1606 Y13.9605
G01 X3.1994 Y14.0690
G01 X3.2274 Y14.1809
G01 X3.2433 Y14.2864
G00 Z1.0000
G00 X3.2186 Y14.2901
G01 F60.00
G01 Z-0.1418
G01 F60.00
G01 X3.2200 Y14.3047
G01 X3.2250 Y14.4101
G01 X3.2195 Y14.5228
G01 X3.2029 Y14.6345
G01 X3.1755 Y14.7439
G01 X3.1375 Y14.8502
G01 X3.0892 Y14.9522
G01 X3.0312 Y15.0490
G01 X2.9640 Y15.1397
G01 X2.8882 Y15.2233
G01 X2.8046 Y15.2991
G01 X2.7139 Y15.3663
G01 X2.6171 Y15.4243
G01 X2.5151 Y15.4726
G01 X2.4088 Y15.5106
G01 X2.2994 Y15.5380
G01 X2.1877 Y15.5546
G01 X2.0750 Y15.5601
G01 X1.9623 Y15.5546
G01 X1.8506 Y15.5380
G01 X1.7412 Y15.5106
G01 X1.6349 Y15.4726
G01 X1.5329 Y15.4243
G01 X1.4361 Y15.3663
G01 X1.3454 Y15.2991
G01 X1.2618 Y15.2233
G01 X1.1860 Y15.1397
G01 X1.1188 Y15.0490
G01 X1.0608 Y14.9522
G01 X1.0125 Y14.8502
G01 X0.9745 Y14.7439
G01 X0.9471 Y14.6345
G01 X0.9305 Y14.5228
G01 X0.9250 Y14.4101
G01 X0.9305 Y14.2974
G01 X0.9471 Y14.1858
G01 X0.9745 Y14.0763
G01 X1.0125 Y13.9700
G01 X1.0608 Y13.8680
G01 X1.1188 Y13.7712
G01 X1.1860 Y13.6806
G01 X1.2618 Y13.5969
G01 X1.3454 Y13.5212
G01 X1.4361 Y13.4539
G01 X1.5329 Y13.3959
G01 X1.6349 Y13.3477
G01 X1.7412 Y13.3096
G01 X1.8506 Y13.2822
G01 X1.9623 Y13.2657
G01 X2.0750 Y13.2601
G01 X2.1877 Y13.2657
G01 X2.2994 Y13.2822
G01 X2.4088 Y13.3096
G01 X2.5151 Y13.3477
G01 X2.6171 Y13.3959
G01 X2.7139 Y13.4539
G01 X2.8046 Y13.5212
G01 X2.8882 Y13.5969
G01 X2.9640 Y13.6806
G01 X3.0312 Y13.7712
G01 X3.0892 Y13.8680
G01 X3.1375 Y13.9700
G01 X3.1755 Y14.0763
G01 X3.2029 Y14.1858
G01 X3.2186 Y14.2901
G00 Z1.0000
G00 X3.1938 Y14.2938
G01 F60.00
G01 Z-0.1418
G01 F60.00
G01 X3.1950 Y14.3060
G01 X3.2000 Y14.4101
G01 X3.1946 Y14.5204
G01 X3.1784 Y14.6296
G01 X3.1516 Y14.7367
G01 X3.1144 Y14.8406
G01 X3.0672 Y14.9404
G01 X3.0104 Y15.0351
G01 X2.9446 Y15.1238
G01 X2.8705 Y15.2056
G01 X2.7887 Y15.2798
G01 X2.7000 Y15.3455
G01 X2.6053 Y15.4023
G01 X2.5055 Y15.4495
G01 X2.4016 Y15.4867
G01 X2.2945 Y15.5135
G01 X2.1853 Y15.5297
G01 X2.0750 Y15.5351
G01 X1.9647 Y15.5297
G01 X1.8555 Y15.5135
G01 X1.7484 Y15.4867
G01 X1.6445 Y15.4495
G01 X1.5447 Y15.4023
G01 X1.4500 Y15.3455
G01 X1.3613 Y15.2798
G01 X1.2795 Y15.2056
G01 X1.2054 Y15.1238
G01 X1.1396 Y15.0351
G01 X1.0828 Y14.9404
G01 X1.0356 Y14.8406
G01 X0.9984 Y14.7367
G01 X0.9716 Y14.6296
G01 X0.9554 Y14.5204
G01 X0.9500 Y14.4101
G01 X0.9554 Y14.2998
G01 X0.9716 Y14.1906
G01 X0.9984 Y14.0835
G01 X1.0356 Y13.9796
G01 X1.0828 Y13.8798
G01 X1.1396 Y13.7851
G01 X1.2054 Y13.6964
G01 X1.2795 Y13.6146
G01 X1.3613 Y13.5405
G01 X1.4500 Y13.4747
G01 X1.5447 Y13.4180
G01 X1.6445 Y13.3708
G01 X1.7484 Y13.3336
G01 X1.8555 Y13.3067
G01 X1.9647 Y13.2905
G01 X2.0750 Y13.2851
G01 X2.1853 Y13.2905
G01 X2.2945 Y13.3067
G01 X2.4016 Y13.3336
G01 X2.5055 Y13.3708
G01 X2.6053 Y13.4180
G01 X2.7000 Y13.4747
G01 X2.7887 Y13.5405
G01 X2.8705 Y13.6146
G01 X2.9446 Y13.6964
G01 X3.0104 Y13.7851
G01 X3.0672 Y13.8798
G01 X3.1144 Y13.9796
G01 X3.1516 Y14.0835
G01 X3.1784 Y14.1906
G01 X3.1938 Y14.2938
G00 Z1.0000
G00 X3.2433 Y16.8264
G01 F60.00
G01 Z-0.1418
G01 F60.00
G01 X3.2450 Y16.8435
G01 X3.2500 Y16.9501
G01 X3.2443 Y17.0653
G01 X3.2274 Y17.1793
G01 X3.1994 Y17.2912
G01 X3.1606 Y17.3998
G01 X3.1113 Y17.5040
G01 X3.0520 Y17.6029
G01 X2.9833 Y17.6955
G01 X2.9059 Y17.7810
G01 X2.8204 Y17.8584
G01 X2.7278 Y17.9271
G01 X2.6289 Y17.9864
G01 X2.5247 Y18.0357
G01 X2.4161 Y18.0745
G01 X2.3042 Y18.1025
G01 X2.1902 Y18.1195
G01 X2.0750 Y18.1251
G01 X1.9598 Y18.1195
G01 X1.8458 Y18.1025
G01 X1.7339 Y18.0745
G01 X1.6253 Y18.0357
G01 X1.5211 Y17.9864
G01 X1.4222 Y17.9271
G01 X1.3296 Y17.8584
G01 X1.2441 Y17.7810
G01 X1.1667 Y17.6955
G01 X1.0980 Y17.6029
G01 X1.0387 Y17.5040
G01 X0.9894 Y17.3998
G01 X0.9506 Y17.2912
G01 X0.9226 Y17.1793
G01 X0.9057 Y17.0653
G01 X0.9000 Y16.9501
G01 X0.9057 Y16.8349
G01 X0.9226 Y16.7209
G01 X0.9506 Y16.6090
G01 X0.9894 Y16.5005
G01 X1.0387 Y16.3962
G01 X1.0980 Y16.2973
G01 X1.1667 Y16.2047
G01 X1.2441 Y16.1193
G01 X1.3296 Y16.0418
G01 X1.4222 Y15.9731
G01 X1.5211 Y15.9139
G01 X1.6253 Y15.8646
G01 X1.7339 Y15.8257
G01 X1.8458 Y15.7977
G01 X1.9598 Y15.7808
G01 X2.0750 Y15.7751
G01 X2.1902 Y15.7808
G01 X2.3042 Y15.7977
G01 X2.4161 Y15.8257
G01 X2.5247 Y15.8646
G01 X2.6289 Y15.9139
G01 X2.7278 Y15.9731
G01 X2.8204 Y16.0418
G01 X2.9059 Y16.1193
G01 X2.9833 Y16.2047
G01 X3.0520 Y16.2973
G01 X3.1113 Y16.3962
G01 X3.1606 Y16.5005
G01 X3.1994 Y16.6090
G01 X3.2274 Y16.7209
G01 X3.2433 Y16.8264
G00 Z1.0000
G00 X3.2186 Y16.8301
G01 F60.00
G01 Z-0.1418
G01 F60.00
G01 X3.2200 Y16.8447
G01 X3.2250 Y16.9501
G01 X3.2195 Y17.0628
G01 X3.2029 Y17.1745
G01 X3.1755 Y17.2839
G01 X3.1375 Y17.3902
G01 X3.0892 Y17.4922
G01 X3.0312 Y17.5890
G01 X2.9640 Y17.6797
G01 X2.8882 Y17.7633
G01 X2.8046 Y17.8391
G01 X2.7139 Y17.9063
G01 X2.6171 Y17.9643
G01 X2.5151 Y18.0126
G01 X2.4088 Y18.0506
G01 X2.2994 Y18.0780
G01 X2.1877 Y18.0946
G01 X2.0750 Y18.1001
G01 X1.9623 Y18.0946
G01 X1.8506 Y18.0780
G01 X1.7412 Y18.0506
G01 X1.6349 Y18.0126
G01 X1.5329 Y17.9643
G01 X1.4361 Y17.9063
G01 X1.3454 Y17.8391
G01 X1.2618 Y17.7633
G01 X1.1860 Y17.6797
G01 X1.1188 Y17.5890
G01 X1.0608 Y17.4922
G01 X1.0125 Y17.3902
G01 X0.9745 Y17.2839
G01 X0.9471 Y17.1745
G01 X0.9305 Y17.0628
G01 X0.9250 Y16.9501
G01 X0.9305 Y16.8374
G01 X0.9471 Y16.7258
G01 X0.9745 Y16.6163
G01 X1.0125 Y16.5100
G01 X1.0608 Y16.4080
G01 X1.1188 Y16.3112
G01 X1.1860 Y16.2206
G01 X1.2618 Y16.1369
G01 X1.3454 Y16.0612
G01 X1.4361 Y15.9939
G01 X1.5329 Y15.9359
G01 X1.6349 Y15.8877
G01 X1.7412 Y15.8496
G01 X1.8506 Y15.8222
G01 X1.9623 Y15.8057
G01 X2.0750 Y15.8001
G01 X2.1877 Y15.8057
G01 X2.2994 Y15.8222
G01 X2.4088 Y15.8496
G01 X2.5151 Y15.8877
G01 X2.6171 Y15.9359
G01 X2.7139 Y15.9939
G01 X2.8046 Y16.0612
G01 X2.8882 Y16.1369
G01 X2.9640 Y16.2206
G01 X3.0312 Y16.3112
G01 X3.0892 Y16.4080
G01 X3.1375 Y16.5100
G01 X3.1755 Y16.6163
G01 X3.2029 Y16.7258
G01 X3.2186 Y16.8301
G00 Z1.0000
G00 X3.1938 Y16.8338
G01 F60.00
G01 Z-0.1418
G01 F60.00
G01 X3.1950 Y16.8460
G01 X3.2000 Y16.9501
G01 X3.1946 Y17.0604
G01 X3.1784 Y17.1696
G01 X3.1516 Y17.2767
G01 X3.1144 Y17.3806
G01 X3.0672 Y17.4804
G01 X3.0104 Y17.5751
G01 X2.9446 Y17.6638
G01 X2.8705 Y17.7456
G01 X2.7887 Y17.8198
G01 X2.7000 Y17.8855
G01 X2.6053 Y17.9423
G01 X2.5055 Y17.9895
G01 X2.4016 Y18.0267
G01 X2.2945 Y18.0535
G01 X2.1853 Y18.0697
G01 X2.0750 Y18.0751
G01 X1.9647 Y18.0697
G01 X1.8555 Y18.0535
G01 X1.7484 Y18.0267
G01 X1.6445 Y17.9895
G01 X1.5447 Y17.9423
G01 X1.4500 Y17.8855
G01 X1.3613 Y17.8198
G01 X1.2795 Y17.7456
G01 X1.2054 Y17.6638
G01 X1.1396 Y17.5751
G01 X1.0828 Y17.4804
G01 X1.0356 Y17.3806
G01 X0.9984 Y17.2767
G01 X0.9716 Y17.1696
G01 X0.9554 Y17.0604
G01 X0.9500 Y16.9501
G01 X0.9554 Y16.8398
G01 X0.9716 Y16.7306
G01 X0.9984 Y16.6235
G01 X1.0356 Y16.5196
G01 X1.0828 Y16.4198
G01 X1.1396 Y16.3251
G01 X1.2054 Y16.2364
G01 X1.2795 Y16.1546
G01 X1.3613 Y16.0805
G01 X1.4500 Y16.0147
G01 X1.5447 Y15.9580
G01 X1.6445 Y15.9108
G01 X1.7484 Y15.8736
G01 X1.8555 Y15.8467
G01 X1.9647 Y15.8305
G01 X2.0750 Y15.8251
G01 X2.1853 Y15.8305
G01 X2.2945 Y15.8467
G01 X2.4016 Y15.8736
G01 X2.5055 Y15.9108
G01 X2.6053 Y15.9580
G01 X2.7000 Y16.0147
G01 X2.7887 Y16.0805
G01 X2.8705 Y16.1546
G01 X2.9446 Y16.2364
G01 X3.0104 Y16.3251
G01 X3.0672 Y16.4198
G01 X3.1144 Y16.5196
G01 X3.1516 Y16.6235
G01 X3.1784 Y16.7306
G01 X3.1938 Y16.8338
G00 Z1.0000
G00 X3.2433 Y19.3664
G01 F60.00
G01 Z-0.1418
G01 F60.00
G01 X3.2450 Y19.3835
G01 X3.2500 Y19.4901
G01 X3.2443 Y19.6053
G01 X3.2274 Y19.7193
G01 X3.1994 Y19.8312
G01 X3.1606 Y19.9398
G01 X3.1113 Y20.0440
G01 X3.0520 Y20.1429
G01 X2.9833 Y20.2355
G01 X2.9059 Y20.3210
G01 X2.8204 Y20.3984
G01 X2.7278 Y20.4671
G01 X2.6289 Y20.5264
G01 X2.5247 Y20.5757
G01 X2.4161 Y20.6145
G01 X2.3042 Y20.6425
G01 X2.1902 Y20.6595
G01 X2.0750 Y20.6651
G01 X1.9598 Y20.6595
G01 X1.8458 Y20.6425
G01 X1.7339 Y20.6145
G01 X1.6253 Y20.5757
G01 X1.5211 Y20.5264
G01 X1.4222 Y20.4671
G01 X1.3296 Y20.3984
G01 X1.2441 Y20.3210
G01 X1.1667 Y20.2355
G01 X1.0980 Y20.1429
G01 X1.0387 Y20.0440
G01 X0.9894 Y19.9398
G01 X0.9506 Y19.8312
G01 X0.9226 Y19.7193
G01 X0.9057 Y19.6053
G01 X0.9000 Y19.4901
G01 X0.9057 Y19.3749
G01 X0.9226 Y19.2609
G01 X0.9506 Y19.1490
G01 X0.9894 Y19.0405
G01 X1.0387 Y18.9362
G01 X1.0980 Y18.8373
G01 X1.1667 Y18.7447
G01 X1.2441 Y18.6593
G01 X1.3296 Y18.5818
G01 X1.4222 Y18.5131
G01 X1.5211 Y18.4539
G01 X1.6253 Y18.4046
G01 X1.7339 Y18.3657
G01 X1.8458 Y18.3377
G01 X1.9598 Y18.3208
G01 X2.0750 Y18.3151
G01 X2.1902 Y18.3208
G01 X2.3042 Y18.3377
G01 X2.4161 Y18.3657
G01 X2.5247 Y18.4046
G01 X2.6289 Y18.4539
G01 X2.7278 Y18.5131
G01 X2.8204 Y18.5818
G01 X2.9059 Y18.6593
G01 X2.9833 Y18.7447
G01 X3.0520 Y18.8373
G01 X3.1113 Y18.9362
G01 X3.1606 Y19.0405
G01 X3.1994 Y19.1490
G01 X3.2274 Y19.2609
G01 X3.2433 Y19.3664
G00 Z1.0000
G00 X3.2186 Y19.3701
G01 F60.00
G01 Z-0.1418
G01 F60.00
G01 X3.2200 Y19.3847
G01 X3.2250 Y19.4901
G01 X3.2195 Y19.6028
G01 X3.2029 Y19.7145
G01 X3.1755 Y19.8239
G01 X3.1375 Y19.9302
G01 X3.0892 Y20.0322
G01 X3.0312 Y20.1290
G01 X2.9640 Y20.2197
G01 X2.8882 Y20.3033
G01 X2.8046 Y20.3791
G01 X2.7139 Y20.4463
G01 X2.6171 Y20.5043
G01 X2.5151 Y20.5526
G01 X2.4088 Y20.5906
G01 X2.2994 Y20.6180
G01 X2.1877 Y20.6346
G01 X2.0750 Y20.6401
G01 X1.9623 Y20.6346
G01 X1.8506 Y20.6180
G01 X1.7412 Y20.5906
G01 X1.6349 Y20.5526
G01 X1.5329 Y20.5043
G01 X1.4361 Y20.4463
G01 X1.3454 Y20.3791
G01 X1.2618 Y20.3033
G01 X1.1860 Y20.2197
G01 X1.1188 Y20.1290
G01 X1.0608 Y20.0322
G01 X1.0125 Y19.9302
G01 X0.9745 Y19.8239
G01 X0.9471 Y19.7145
G01 X0.9305 Y19.6028
G01 X0.9250 Y19.4901
G01 X0.9305 Y19.3774
G01 X0.9471 Y19.2658
G01 X0.9745 Y19.1563
G01 X1.0125 Y19.0500
G01 X1.0608 Y18.9480
G01 X1.1188 Y18.8512
G01 X1.1860 Y18.7606
G01 X1.2618 Y18.6769
G01 X1.3454 Y18.6012
G01 X1.4361 Y18.5339
G01 X1.5329 Y18.4759
G01 X1.6349 Y18.4277
G01 X1.7412 Y18.3896
G01 X1.8506 Y18.3622
G01 X1.9623 Y18.3457
G01 X2.0750 Y18.3401
G01 X2.1877 Y18.3457
G01 X2.2994 Y18.3622
G01 X2.4088 Y18.3896
G01 X2.5151 Y18.4277
G01 X2.6171 Y18.4759
G01 X2.7139 Y18.5339
G01 X2.8046 Y18.6012
G01 X2.8882 Y18.6769
G01 X2.9640 Y18.7606
G01 X3.0312 Y18.8512
G01 X3.0892 Y18.9480
G01 X3.1375 Y19.0500
G01 X3.1755 Y19.1563
G01 X3.2029 Y19.2658
G01 X3.2186 Y19.3701
G00 Z1.0000
G00 X3.1938 Y19.3738
G01 F60.00
G01 Z-0.1418
G01 F60.00
G01 X3.1950 Y19.3860
G01 X3.2000 Y19.4901
G01 X3.1946 Y19.6004
G01 X3.1784 Y19.7096
G01 X3.1516 Y19.8167
G01 X3.1144 Y19.9206
G01 X3.0672 Y20.0204
G01 X3.0104 Y20.1151
G01 X2.9446 Y20.2038
G01 X2.8705 Y20.2856
G01 X2.7887 Y20.3598
G01 X2.7000 Y20.4255
G01 X2.6053 Y20.4823
G01 X2.5055 Y20.5295
G01 X2.4016 Y20.5667
G01 X2.2945 Y20.5935
G01 X2.1853 Y20.6097
G01 X2.0750 Y20.6151
G01 X1.9647 Y20.6097
G01 X1.8555 Y20.5935
G01 X1.7484 Y20.5667
G01 X1.6445 Y20.5295
G01 X1.5447 Y20.4823
G01 X1.4500 Y20.4255
G01 X1.3613 Y20.3598
G01 X1.2795 Y20.2856
G01 X1.2054 Y20.2038
G01 X1.1396 Y20.1151
G01 X1.0828 Y20.0204
G01 X1.0356 Y19.9206
G01 X0.9984 Y19.8167
G01 X0.9716 Y19.7096
G01 X0.9554 Y19.6004
G01 X0.9500 Y19.4901
G01 X0.9554 Y19.3798
G01 X0.9716 Y19.2706
G01 X0.9984 Y19.1635
G01 X1.0356 Y19.0596
G01 X1.0828 Y18.9598
G01 X1.1396 Y18.8651
G01 X1.2054 Y18.7764
G01 X1.2795 Y18.6946
G01 X1.3613 Y18.6205
G01 X1.4500 Y18.5547
G01 X1.5447 Y18.4980
G01 X1.6445 Y18.4508
G01 X1.7484 Y18.4136
G01 X1.8555 Y18.3867
G01 X1.9647 Y18.3705
G01 X2.0750 Y18.3651
G01 X2.1853 Y18.3705
G01 X2.2945 Y18.3867
G01 X2.4016 Y18.4136
G01 X2.5055 Y18.4508
G01 X2.6053 Y18.4980
G01 X2.7000 Y18.5547
G01 X2.7887 Y18.6205
G01 X2.8705 Y18.6946
G01 X2.9446 Y18.7764
G01 X3.0104 Y18.8651
G01 X3.0672 Y18.9598
G01 X3.1144 Y19.0596
G01 X3.1516 Y19.1635
G01 X3.1784 Y19.2706
G01 X3.1938 Y19.3738
G00 Z1.0000
G00 X3.2433 Y21.9064
G01 F60.00
G01 Z-0.1418
G01 F60.00
G01 X3.2450 Y21.9235
G01 X3.2500 Y22.0301
G01 X3.2443 Y22.1453
G01 X3.2274 Y22.2593
G01 X3.1994 Y22.3712
G01 X3.1606 Y22.4798
G01 X3.1113 Y22.5840
G01 X3.0520 Y22.6829
G01 X2.9833 Y22.7755
G01 X2.9059 Y22.8610
G01 X2.8204 Y22.9384
G01 X2.7278 Y23.0071
G01 X2.6289 Y23.0664
G01 X2.5247 Y23.1157
G01 X2.4161 Y23.1545
G01 X2.3042 Y23.1825
G01 X2.1902 Y23.1995
G01 X2.0750 Y23.2051
G01 X1.9598 Y23.1995
G01 X1.8458 Y23.1825
G01 X1.7339 Y23.1545
G01 X1.6253 Y23.1157
G01 X1.5211 Y23.0664
G01 X1.4222 Y23.0071
G01 X1.3296 Y22.9384
G01 X1.2441 Y22.8610
G01 X1.1667 Y22.7755
G01 X1.0980 Y22.6829
G01 X1.0387 Y22.5840
G01 X0.9894 Y22.4798
G01 X0.9506 Y22.3712
G01 X0.9226 Y22.2593
G01 X0.9057 Y22.1453
G01 X0.9000 Y22.0301
G01 X0.9057 Y21.9149
G01 X0.9226 Y21.8009
G01 X0.9506 Y21.6890
G01 X0.9894 Y21.5805
G01 X1.0387 Y21.4762
G01 X1.0980 Y21.3773
G01 X1.1667 Y21.2847
G01 X1.2441 Y21.1993
G01 X1.3296 Y21.1218
G01 X1.4222 Y21.0531
G01 X1.5211 Y20.9939
G01 X1.6253 Y20.9446
G01 X1.7339 Y20.9057
G01 X1.8458 Y20.8777
G01 X1.9598 Y20.8608
G01 X2.0750 Y20.8551
G01 X2.1902 Y20.8608
G01 X2.3042 Y20.8777
G01 X2.4161 Y20.9057
G01 X2.5247 Y20.9446
G01 X2.6289 Y20.9939
G01 X2.7278 Y21.0531
G01 X2.8204 Y21.1218
G01 X2.9059 Y21.1993
G01 X2.9833 Y21.2847
G01 X3.0520 Y21.3773
G01 X3.1113 Y21.4762
G01 X3.1606 Y21.5805
G01 X3.1994 Y21.6890
G01 X3.2274 Y21.8009
G01 X3.2433 Y21.9064
G00 Z1.0000
G00 X3.2186 Y21.9101
G01 F60.00
G01 Z-0.1418
G01 F60.00
G01 X3.2200 Y21.9247
G01 X3.2250 Y22.0301
G01 X3.2195 Y22.1428
G01 X3.2029 Y22.2545
G01 X3.1755 Y22.3639
G01 X3.1375 Y22.4702
G01 X3.0892 Y22.5722
G01 X3.0312 Y22.6690
G01 X2.9640 Y22.7597
G01 X2.8882 Y22.8433
G01 X2.8046 Y22.9191
G01 X2.7139 Y22.9863
G01 X2.6171 Y23.0443
G01 X2.5151 Y23.0926
G01 X2.4088 Y23.1306
G01 X2.2994 Y23.1580
G01 X2.1877 Y23.1746
G01 X2.0750 Y23.1801
G01 X1.9623 Y23.1746
G01 X1.8506 Y23.1580
G01 X1.7412 Y23.1306
G01 X1.6349 Y23.0926
G01 X1.5329 Y23.0443
G01 X1.4361 Y22.9863
G01 X1.3454 Y22.9191
G01 X1.2618 Y22.8433
G01 X1.1860 Y22.7597
G01 X1.1188 Y22.6690
G01 X1.0608 Y22.5722
G01 X1.0125 Y22.4702
G01 X0.9745 Y22.3639
G01 X0.9471 Y22.2545
G01 X0.9305 Y22.1428
G01 X0.9250 Y22.0301
G01 X0.9305 Y21.9174
G01 X0.9471 Y21.8058
G01 X0.9745 Y21.6963
G01 X1.0125 Y21.5900
G01 X1.0608 Y21.4880
G01 X1.1188 Y21.3912
G01 X1.1860 Y21.3006
G01 X1.2618 Y21.2169
G01 X1.3454 Y21.1412
G01 X1.4361 Y21.0739
G01 X1.5329 Y21.0159
G01 X1.6349 Y20.9677
G01 X1.7412 Y20.9296
G01 X1.8506 Y20.9022
G01 X1.9623 Y20.8857
G01 X2.0750 Y20.8801
G01 X2.1877 Y20.8857
G01 X2.2994 Y20.9022
G01 X2.4088 Y20.9296
G01 X2.5151 Y20.9677
G01 X2.6171 Y21.0159
G01 X2.7139 Y21.0739
G01 X2.8046 Y21.1412
G01 X2.8882 Y21.2169
G01 X2.9640 Y21.3006
G01 X3.0312 Y21.3912
G01 X3.0892 Y21.4880
G01 X3.1375 Y21.5900
G01 X3.1755 Y21.6963
G01 X3.2029 Y21.8058
G01 X3.2186 Y21.9101
G00 Z1.0000
G00 X3.1938 Y21.9138
G01 F60.00
G01 Z-0.1418
G01 F60.00
G01 X3.1950 Y21.9260
G01 X3.2000 Y22.0301
G01 X3.1946 Y22.1404
G01 X3.1784 Y22.2496
G01 X3.1516 Y22.3567
G01 X3.1144 Y22.4606
G01 X3.0672 Y22.5604
G01 X3.0104 Y22.6551
G01 X2.9446 Y22.7438
G01 X2.8705 Y22.8256
G01 X2.7887 Y22.8998
G01 X2.7000 Y22.9655
G01 X2.6053 Y23.0223
G01 X2.5055 Y23.0695
G01 X2.4016 Y23.1067
G01 X2.2945 Y23.1335
G01 X2.1853 Y23.1497
G01 X2.0750 Y23.1551
G01 X1.9647 Y23.1497
G01 X1.8555 Y23.1335
G01 X1.7484 Y23.1067
G01 X1.6445 Y23.0695
G01 X1.5447 Y23.0223
G01 X1.4500 Y22.9655
G01 X1.3613 Y22.8998
G01 X1.2795 Y22.8256
G01 X1.2054 Y22.7438
G01 X1.1396 Y22.6551
G01 X1.0828 Y22.5604
G01 X1.0356 Y22.4606
G01 X0.9984 Y22.3567
G01 X0.9716 Y22.2496
G01 X0.9554 Y22.1404
G01 X0.9500 Y22.0301
G01 X0.9554 Y21.9198
G01 X0.9716 Y21.8106
G01 X0.9984 Y21.7035
G01 X1.0356 Y21.5996
G01 X1.0828 Y21.4998
G01 X1.1396 Y21.4051
G01 X1.2054 Y21.3164
G01 X1.2795 Y21.2346
G01 X1.3613 Y21.1605
G01 X1.4500 Y21.0947
G01 X1.5447 Y21.0380
G01 X1.6445 Y20.9908
G01 X1.7484 Y20.9536
G01 X1.8555 Y20.9267
G01 X1.9647 Y20.9105
G01 X2.0750 Y20.9051
G01 X2.1853 Y20.9105
G01 X2.2945 Y20.9267
G01 X2.4016 Y20.9536
G01 X2.5055 Y20.9908
G01 X2.6053 Y21.0380
G01 X2.7000 Y21.0947
G01 X2.7887 Y21.1605
G01 X2.8705 Y21.2346
G01 X2.9446 Y21.3164
G01 X3.0104 Y21.4051
G01 X3.0672 Y21.4998
G01 X3.1144 Y21.5996
G01 X3.1516 Y21.7035
G01 X3.1784 Y21.8106
G01 X3.1938 Y21.9138
G00 Z1.0000
G00 X3.2433 Y24.4464
G01 F60.00
G01 Z-0.1418
G01 F60.00
G01 X3.2450 Y24.4635
G01 X3.2500 Y24.5701
G01 X3.2443 Y24.6853
G01 X3.2274 Y24.7993
G01 X3.1994 Y24.9112
G01 X3.1606 Y25.0198
G01 X3.1113 Y25.1240
G01 X3.0520 Y25.2229
G01 X2.9833 Y25.3155
G01 X2.9059 Y25.4010
G01 X2.8204 Y25.4784
G01 X2.7278 Y25.5471
G01 X2.6289 Y25.6064
G01 X2.5247 Y25.6557
G01 X2.4161 Y25.6945
G01 X2.3042 Y25.7225
G01 X2.1902 Y25.7395
G01 X2.0750 Y25.7451
G01 X1.9598 Y25.7395
G01 X1.8458 Y25.7225
G01 X1.7339 Y25.6945
G01 X1.6253 Y25.6557
G01 X1.5211 Y25.6064
G01 X1.4222 Y25.5471
G01 X1.3296 Y25.4784
G01 X1.2441 Y25.4010
G01 X1.1667 Y25.3155
G01 X1.0980 Y25.2229
G01 X1.0387 Y25.1240
G01 X0.9894 Y25.0198
G01 X0.9506 Y24.9112
G01 X0.9226 Y24.7993
G01 X0.9057 Y24.6853
G01 X0.9000 Y24.5701
G01 X0.9057 Y24.4549
G01 X0.9226 Y24.3409
G01 X0.9506 Y24.2290
G01 X0.9894 Y24.1205
G01 X1.0387 Y24.0162
G01 X1.0980 Y23.9173
G01 X1.1667 Y23.8247
G01 X1.2441 Y23.7393
G01 X1.3296 Y23.6618
G01 X1.4222 Y23.5931
G01 X1.5211 Y23.5339
G01 X1.6253 Y23.4846
G01 X1.7339 Y23.4457
G01 X1.8458 Y23.4177
G01 X1.9598 Y23.4008
G01 X2.0750 Y23.3951
G01 X2.1902 Y23.4008
G01 X2.3042 Y23.4177
G01 X2.4161 Y23.4457
G01 X2.5247 Y23.4846
G01 X2.6289 Y23.5339
G01 X2.7278 Y23.5931
G01 X2.8204 Y23.6618
G01 X2.9059 Y23.7393
G01 X2.9833 Y23.8247
G01 X3.0520 Y23.9173
G01 X3.1113 Y24.0162
G01 X3.1606 Y24.1205
G01 X3.1994 Y24.2290
G01 X3.2274 Y24.3409
G01 X3.2433 Y24.4464
G00 Z1.0000
G00 X3.2186 Y24.4501
G01 F60.00
G01 Z-0.1418
G01 F60.00
G01 X3.2200 Y24.4647
G01 X3.2250 Y24.5701
G01 X3.2195 Y24.6828
G01 X3.2029 Y24.7945
G01 X3.1755 Y24.9039
G01 X3.1375 Y25.0102
G01 X3.0892 Y25.1122
G01 X3.0312 Y25.2090
G01 X2.9640 Y25.2997
G01 X2.8882 Y25.3833
G01 X2.8046 Y25.4591
G01 X2.7139 Y25.5263
G01 X2.6171 Y25.5843
G01 X2.5151 Y25.6326
G01 X2.4088 Y25.6706
G01 X2.2994 Y25.6980
G01 X2.1877 Y25.7146
G01 X2.0750 Y25.7201
G01 X1.9623 Y25.7146
G01 X1.8506 Y25.6980
G01 X1.7412 Y25.6706
G01 X1.6349 Y25.6326
G01 X1.5329 Y25.5843
G01 X1.4361 Y25.5263
G01 X1.3454 Y25.4591
G01 X1.2618 Y25.3833
G01 X1.1860 Y25.2997
G01 X1.1188 Y25.2090
G01 X1.0608 Y25.1122
G01 X1.0125 Y25.0102
G01 X0.9745 Y24.9039
G01 X0.9471 Y24.7945
G01 X0.9305 Y24.6828
G01 X0.9250 Y24.5701
G01 X0.9305 Y24.4574
G01 X0.9471 Y24.3458
G01 X0.9745 Y24.2363
G01 X1.0125 Y24.1300
G01 X1.0608 Y24.0280
G01 X1.1188 Y23.9312
G01 X1.1860 Y23.8406
G01 X1.2618 Y23.7569
G01 X1.3454 Y23.6812
G01 X1.4361 Y23.6139
G01 X1.5329 Y23.5559
G01 X1.6349 Y23.5077
G01 X1.7412 Y23.4696
G01 X1.8506 Y23.4422
G01 X1.9623 Y23.4257
G01 X2.0750 Y23.4201
G01 X2.1877 Y23.4257
G01 X2.2994 Y23.4422
G01 X2.4088 Y23.4696
G01 X2.5151 Y23.5077
G01 X2.6171 Y23.5559
G01 X2.7139 Y23.6139
G01 X2.8046 Y23.6812
G01 X2.8882 Y23.7569
G01 X2.9640 Y23.8406
G01 X3.0312 Y23.9312
G01 X3.0892 Y24.0280
G01 X3.1375 Y24.1300
G01 X3.1755 Y24.2363
G01 X3.2029 Y24.3458
G01 X3.2186 Y24.4501
G00 Z1.0000
G00 X3.1938 Y24.4538
G01 F60.00
G01 Z-0.1418
G01 F60.00
G01 X3.1950 Y24.4660
G01 X3.2000 Y24.5701
G01 X3.1946 Y24.6804
G01 X3.1784 Y24.7896
G01 X3.1516 Y24.8967
G01 X3.1144 Y25.0006
G01 X3.0672 Y25.1004
G01 X3.0104 Y25.1951
G01 X2.9446 Y25.2838
G01 X2.8705 Y25.3656
G01 X2.7887 Y25.4398
G01 X2.7000 Y25.5055
G01 X2.6053 Y25.5623
G01 X2.5055 Y25.6095
G01 X2.4016 Y25.6467
G01 X2.2945 Y25.6735
G01 X2.1853 Y25.6897
G01 X2.0750 Y25.6951
G01 X1.9647 Y25.6897
G01 X1.8555 Y25.6735
G01 X1.7484 Y25.6467
G01 X1.6445 Y25.6095
G01 X1.5447 Y25.5623
G01 X1.4500 Y25.5055
G01 X1.3613 Y25.4398
G01 X1.2795 Y25.3656
G01 X1.2054 Y25.2838
G01 X1.1396 Y25.1951
G01 X1.0828 Y25.1004
G01 X1.0356 Y25.0006
G01 X0.9984 Y24.8967
G01 X0.9716 Y24.7896
G01 X0.9554 Y24.6804
G01 X0.9500 Y24.5701
G01 X0.9554 Y24.4598
G01 X0.9716 Y24.3506
G01 X0.9984 Y24.2435
G01 X1.0356 Y24.1396
G01 X1.0828 Y24.0398
G01 X1.1396 Y23.9451
G01 X1.2054 Y23.8564
G01 X1.2795 Y23.7746
G01 X1.3613 Y23.7005
G01 X1.4500 Y23.6347
G01 X1.5447 Y23.5780
G01 X1.6445 Y23.5308
G01 X1.7484 Y23.4936
G01 X1.8555 Y23.4667
G01 X1.9647 Y23.4505
G01 X2.0750 Y23.4451
G01 X2.1853 Y23.4505
G01 X2.2945 Y23.4667
G01 X2.4016 Y23.4936
G01 X2.5055 Y23.5308
G01 X2.6053 Y23.5780
G01 X2.7000 Y23.6347
G01 X2.7887 Y23.7005
G01 X2.8705 Y23.7746
G01 X2.9446 Y23.8564
G01 X3.0104 Y23.9451
G01 X3.0672 Y24.0398
G01 X3.1144 Y24.1396
G01 X3.1516 Y24.2435
G01 X3.1784 Y24.3506
G01 X3.1938 Y24.4538
G00 Z1.0000
G00 X3.2433 Y26.9864
G01 F60.00
G01 Z-0.1418
G01 F60.00
G01 X3.2450 Y27.0035
G01 X3.2500 Y27.1101
G01 X3.2443 Y27.2253
G01 X3.2274 Y27.3393
G01 X3.1994 Y27.4512
G01 X3.1606 Y27.5598
G01 X3.1113 Y27.6640
G01 X3.0520 Y27.7629
G01 X2.9833 Y27.8555
G01 X2.9059 Y27.9410
G01 X2.8204 Y28.0184
G01 X2.7278 Y28.0871
G01 X2.6289 Y28.1464
G01 X2.5247 Y28.1957
G01 X2.4161 Y28.2345
G01 X2.3042 Y28.2625
G01 X2.1902 Y28.2795
G01 X2.0750 Y28.2851
G01 X1.9598 Y28.2795
G01 X1.8458 Y28.2625
G01 X1.7339 Y28.2345
G01 X1.6253 Y28.1957
G01 X1.5211 Y28.1464
G01 X1.4222 Y28.0871
G01 X1.3296 Y28.0184
G01 X1.2441 Y27.9410
G01 X1.1667 Y27.8555
G01 X1.0980 Y27.7629
G01 X1.0387 Y27.6640
G01 X0.9894 Y27.5598
G01 X0.9506 Y27.4512
G01 X0.9226 Y27.3393
G01 X0.9057 Y27.2253
G01 X0.9000 Y27.1101
G01 X0.9057 Y26.9949
G01 X0.9226 Y26.8809
G01 X0.9506 Y26.7690
G01 X0.9894 Y26.6605
G01 X1.0387 Y26.5562
G01 X1.0980 Y26.4573
G01 X1.1667 Y26.3647
G01 X1.2441 Y26.2793
G01 X1.3296 Y26.2018
G01 X1.4222 Y26.1331
G01 X1.5211 Y26.0739
G01 X1.6253 Y26.0246
G01 X1.7339 Y25.9857
G01 X1.8458 Y25.9577
G01 X1.9598 Y25.9408
G01 X2.0750 Y25.9351
G01 X2.1902 Y25.9408
G01 X2.3042 Y25.9577
G01 X2.4161 Y25.9857
G01 X2.5247 Y26.0246
G01 X2.6289 Y26.0739
G01 X2.7278 Y26.1331
G01 X2.8204 Y26.2018
G01 X2.9059 Y26.2793
G01 X2.9833 Y26.3647
G01 X3.0520 Y26.4573
G01 X3.1113 Y26.5562
G01 X3.1606 Y26.6605
G01 X3.1994 Y26.7690
G01 X3.2274 Y26.8809
G01 X3.2433 Y26.9864
G00 Z1.0000
G00 X3.2186 Y26.9901
G01 F60.00
G01 Z-0.1418
G01 F60.00
G01 X3.2200 Y27.0047
G01 X3.2250 Y27.1101
G01 X3.2195 Y27.2228
G01 X3.2029 Y27.3345
G01 X3.1755 Y27.4439
G01 X3.1375 Y27.5502
G01 X3.0892 Y27.6522
G01 X3.0312 Y27.7490
G01 X2.9640 Y27.8397
G01 X2.8882 Y27.9233
G01 X2.8046 Y27.9991
G01 X2.7139 Y28.0663
G01 X2.6171 Y28.1243
G01 X2.5151 Y28.1726
G01 X2.4088 Y28.2106
G01 X2.2994 Y28.2380
G01 X2.1877 Y28.2546
G01 X2.0750 Y28.2601
G01 X1.9623 Y28.2546
G01 X1.8506 Y28.2380
G01 X1.7412 Y28.2106
G01 X1.6349 Y28.1726
G01 X1.5329 Y28.1243
G01 X1.4361 Y28.0663
G01 X1.3454 Y27.9991
G01 X1.2618 Y27.9233
G01 X1.1860 Y27.8397
G01 X1.1188 Y27.7490
G01 X1.0608 Y27.6522
G01 X1.0125 Y27.5502
G01 X0.9745 Y27.4439
G01 X0.9471 Y27.3345
G01 X0.9305 Y27.2228
G01 X0.9250 Y27.1101
G01 X0.9305 Y26.9974
G01 X0.9471 Y26.8858
G01 X0.9745 Y26.7763
G01 X1.0125 Y26.6700
G01 X1.0608 Y26.5680
G01 X1.1188 Y26.4712
G01 X1.1860 Y26.3806
G01 X1.2618 Y26.2969
G01 X1.3454 Y26.2212
G01 X1.4361 Y26.1539
G01 X1.5329 Y26.0959
G01 X1.6349 Y26.0477
G01 X1.7412 Y26.0096
G01 X1.8506 Y25.9822
G01 X1.9623 Y25.9657
G01 X2.0750 Y25.9601
G01 X2.1877 Y25.9657
G01 X2.2994 Y25.9822
G01 X2.4088 Y26.0096
G01 X2.5151 Y26.0477
G01 X2.6171 Y26.0959
G01 X2.7139 Y26.1539
G01 X2.8046 Y26.2212
G01 X2.8882 Y26.2969
G01 X2.9640 Y26.3806
G01 X3.0312 Y26.4712
G01 X3.0892 Y26.5680
G01 X3.1375 Y26.6700
G01 X3.1755 Y26.7763
G01 X3.2029 Y26.8858
G01 X3.2186 Y26.9901
G00 Z1.0000
G00 X3.1938 Y26.9938
G01 F60.00
G01 Z-0.1418
G01 F60.00
G01 X3.1950 Y27.0060
G01 X3.2000 Y27.1101
G01 X3.1946 Y27.2204
G01 X3.1784 Y27.3296
G01 X3.1516 Y27.4367
G01 X3.1144 Y27.5406
G01 X3.0672 Y27.6404
G01 X3.0104 Y27.7351
G01 X2.9446 Y27.8238
G01 X2.8705 Y27.9056
G01 X2.7887 Y27.9798
G01 X2.7000 Y28.0455
G01 X2.6053 Y28.1023
G01 X2.5055 Y28.1495
G01 X2.4016 Y28.1867
G01 X2.2945 Y28.2135
G01 X2.1853 Y28.2297
G01 X2.0750 Y28.2351
G01 X1.9647 Y28.2297
G01 X1.8555 Y28.2135
G01 X1.7484 Y28.1867
G01 X1.6445 Y28.1495
G01 X1.5447 Y28.1023
G01 X1.4500 Y28.0455
G01 X1.3613 Y27.9798
G01 X1.2795 Y27.9056
G01 X1.2054 Y27.8238
G01 X1.1396 Y27.7351
G01 X1.0828 Y27.6404
G01 X1.0356 Y27.5406
G01 X0.9984 Y27.4367
G01 X0.9716 Y27.3296
G01 X0.9554 Y27.2204
G01 X0.9500 Y27.1101
G01 X0.9554 Y26.9998
G01 X0.9716 Y26.8906
G01 X0.9984 Y26.7835
G01 X1.0356 Y26.6796
G01 X1.0828 Y26.5798
G01 X1.1396 Y26.4851
G01 X1.2054 Y26.3964
G01 X1.2795 Y26.3146
G01 X1.3613 Y26.2405
G01 X1.4500 Y26.1747
G01 X1.5447 Y26.1180
G01 X1.6445 Y26.0708
G01 X1.7484 Y26.0336
G01 X1.8555 Y26.0067
G01 X1.9647 Y25.9905
G01 X2.0750 Y25.9851
G01 X2.1853 Y25.9905
G01 X2.2945 Y26.0067
G01 X2.4016 Y26.0336
G01 X2.5055 Y26.0708
G01 X2.6053 Y26.1180
G01 X2.7000 Y26.1747
G01 X2.7887 Y26.2405
G01 X2.8705 Y26.3146
G01 X2.9446 Y26.3964
G01 X3.0104 Y26.4851
G01 X3.0672 Y26.5798
G01 X3.1144 Y26.6796
G01 X3.1516 Y26.7835
G01 X3.1784 Y26.8906
G01 X3.1938 Y26.9938
G00 Z1.0000
G00 X3.2433 Y29.5264
G01 F60.00
G01 Z-0.1418
G01 F60.00
G01 X3.2450 Y29.5435
G01 X3.2500 Y29.6501
G01 X3.2443 Y29.7653
G01 X3.2274 Y29.8793
G01 X3.1994 Y29.9912
G01 X3.1606 Y30.0998
G01 X3.1113 Y30.2040
G01 X3.0520 Y30.3029
G01 X2.9833 Y30.3955
G01 X2.9059 Y30.4810
G01 X2.8204 Y30.5584
G01 X2.7278 Y30.6271
G01 X2.6289 Y30.6864
G01 X2.5247 Y30.7357
G01 X2.4161 Y30.7745
G01 X2.3042 Y30.8025
G01 X2.1902 Y30.8195
G01 X2.0750 Y30.8251
G01 X1.9598 Y30.8195
G01 X1.8458 Y30.8025
G01 X1.7339 Y30.7745
G01 X1.6253 Y30.7357
G01 X1.5211 Y30.6864
G01 X1.4222 Y30.6271
G01 X1.3296 Y30.5584
G01 X1.2441 Y30.4810
G01 X1.1667 Y30.3955
G01 X1.0980 Y30.3029
G01 X1.0387 Y30.2040
G01 X0.9894 Y30.0998
G01 X0.9506 Y29.9912
G01 X0.9226 Y29.8793
G01 X0.9057 Y29.7653
G01 X0.9000 Y29.6501
G01 X0.9057 Y29.5349
G01 X0.9226 Y29.4209
G01 X0.9506 Y29.3090
G01 X0.9894 Y29.2005
G01 X1.0387 Y29.0962
G01 X1.0980 Y28.9973
G01 X1.1667 Y28.9047
G01 X1.2441 Y28.8193
G01 X1.3296 Y28.7418
G01 X1.4222 Y28.6731
G01 X1.5211 Y28.6139
G01 X1.6253 Y28.5646
G01 X1.7339 Y28.5257
G01 X1.8458 Y28.4977
G01 X1.9598 Y28.4808
G01 X2.0750 Y28.4751
G01 X2.1902 Y28.4808
G01 X2.3042 Y28.4977
G01 X2.4161 Y28.5257
G01 X2.5247 Y28.5646
G01 X2.6289 Y28.6139
G01 X2.7278 Y28.6731
G01 X2.8204 Y28.7418
G01 X2.9059 Y28.8193
G01 X2.9833 Y28.9047
G01 X3.0520 Y28.9973
G01 X3.1113 Y29.0962
G01 X3.1606 Y29.2005
G01 X3.1994 Y29.3090
G01 X3.2274 Y29.4209
G01 X3.2433 Y29.5264
G00 Z1.0000
G00 X3.2186 Y29.5301
G01 F60.00
G01 Z-0.1418
G01 F60.00
G01 X3.2200 Y29.5447
G01 X3.2250 Y29.6501
G01 X3.2195 Y29.7628
G01 X3.2029 Y29.8745
G01 X3.1755 Y29.9839
G01 X3.1375 Y30.0902
G01 X3.0892 Y30.1922
G01 X3.0312 Y30.2890
G01 X2.9640 Y30.3797
G01 X2.8882 Y30.4633
G01 X2.8046 Y30.5391
G01 X2.7139 Y30.6063
G01 X2.6171 Y30.6643
G01 X2.5151 Y30.7126
G01 X2.4088 Y30.7506
G01 X2.2994 Y30.7780
G01 X2.1877 Y30.7946
G01 X2.0750 Y30.8001
G01 X1.9623 Y30.7946
G01 X1.8506 Y30.7780
G01 X1.7412 Y30.7506
G01 X1.6349 Y30.7126
G01 X1.5329 Y30.6643
G01 X1.4361 Y30.6063
G01 X1.3454 Y30.5391
G01 X1.2618 Y30.4633
G01 X1.1860 Y30.3797
G01 X1.1188 Y30.2890
G01 X1.0608 Y30.1922
G01 X1.0125 Y30.0902
G01 X0.9745 Y29.9839
G01 X0.9471 Y29.8745
G01 X0.9305 Y29.7628
G01 X0.9250 Y29.6501
G01 X0.9305 Y29.5374
G01 X0.9471 Y29.4258
G01 X0.9745 Y29.3163
G01 X1.0125 Y29.2100
G01 X1.0608 Y29.1080
G01 X1.1188 Y29.0112
G01 X1.1860 Y28.9206
G01 X1.2618 Y28.8369
G01 X1.3454 Y28.7612
G01 X1.4361 Y28.6939
G01 X1.5329 Y28.6359
G01 X1.6349 Y28.5877
G01 X1.7412 Y28.5496
G01 X1.8506 Y28.5222
G01 X1.9623 Y28.5057
G01 X2.0750 Y28.5001
G01 X2.1877 Y28.5057
G01 X2.2994 Y28.5222
G01 X2.4088 Y28.5496
G01 X2.5151 Y28.5877
G01 X2.6171 Y28.6359
G01 X2.7139 Y28.6939
G01 X2.8046 Y28.7612
G01 X2.8882 Y28.8369
G01 X2.9640 Y28.9206
G01 X3.0312 Y29.0112
G01 X3.0892 Y29.1080
G01 X3.1375 Y29.2100
G01 X3.1755 Y29.3163
G01 X3.2029 Y29.4258
G01 X3.2186 Y29.5301
G00 Z1.0000
G00 X3.1938 Y29.5338
G01 F60.00
G01 Z-0.1418
G01 F60.00
G01 X3.1950 Y29.5460
G01 X3.2000 Y29.6501
G01 X3.1946 Y29.7604
G01 X3.1784 Y29.8696
G01 X3.1516 Y29.9767
G01 X3.1144 Y30.0806
G01 X3.0672 Y30.1804
G01 X3.0104 Y30.2751
G01 X2.9446 Y30.3638
G01 X2.8705 Y30.4456
G01 X2.7887 Y30.5198
G01 X2.7000 Y30.5855
G01 X2.6053 Y30.6423
G01 X2.5055 Y30.6895
G01 X2.4016 Y30.7267
G01 X2.2945 Y30.7535
G01 X2.1853 Y30.7697
G01 X2.0750 Y30.7751
G01 X1.9647 Y30.7697
G01 X1.8555 Y30.7535
G01 X1.7484 Y30.7267
G01 X1.6445 Y30.6895
G01 X1.5447 Y30.6423
G01 X1.4500 Y30.5855
G01 X1.3613 Y30.5198
G01 X1.2795 Y30.4456
G01 X1.2054 Y30.3638
G01 X1.1396 Y30.2751
G01 X1.0828 Y30.1804
G01 X1.0356 Y30.0806
G01 X0.9984 Y29.9767
G01 X0.9716 Y29.8696
G01 X0.9554 Y29.7604
G01 X0.9500 Y29.6501
G01 X0.9554 Y29.5398
G01 X0.9716 Y29.4306
G01 X0.9984 Y29.3235
G01 X1.0356 Y29.2196
G01 X1.0828 Y29.1198
G01 X1.1396 Y29.0251
G01 X1.2054 Y28.9364
G01 X1.2795 Y28.8546
G01 X1.3613 Y28.7805
G01 X1.4500 Y28.7147
G01 X1.5447 Y28.6580
G01 X1.6445 Y28.6108
G01 X1.7484 Y28.5736
G01 X1.8555 Y28.5467
G01 X1.9647 Y28.5305
G01 X2.0750 Y28.5251
G01 X2.1853 Y28.5305
G01 X2.2945 Y28.5467
G01 X2.4016 Y28.5736
G01 X2.5055 Y28.6108
G01 X2.6053 Y28.6580
G01 X2.7000 Y28.7147
G01 X2.7887 Y28.7805
G01 X2.8705 Y28.8546
G01 X2.9446 Y28.9364
G01 X3.0104 Y29.0251
G01 X3.0672 Y29.1198
G01 X3.1144 Y29.2196
G01 X3.1516 Y29.3235
G01 X3.1784 Y29.4306
G01 X3.1938 Y29.5338
G00 Z1.0000
G00 X3.2433 Y32.0664
G01 F60.00
G01 Z-0.1418
G01 F60.00
G01 X3.2450 Y32.0835
G01 X3.2500 Y32.1901
G01 X3.2443 Y32.3053
G01 X3.2274 Y32.4193
G01 X3.1994 Y32.5312
G01 X3.1606 Y32.6398
G01 X3.1113 Y32.7440
G01 X3.0520 Y32.8429
G01 X2.9833 Y32.9355
G01 X2.9059 Y33.0210
G01 X2.8204 Y33.0984
G01 X2.7278 Y33.1671
G01 X2.6289 Y33.2264
G01 X2.5247 Y33.2757
G01 X2.4161 Y33.3145
G01 X2.3042 Y33.3425
G01 X2.1902 Y33.3595
G01 X2.0750 Y33.3651
G01 X1.9598 Y33.3595
G01 X1.8458 Y33.3425
G01 X1.7339 Y33.3145
G01 X1.6253 Y33.2757
G01 X1.5211 Y33.2264
G01 X1.4222 Y33.1671
G01 X1.3296 Y33.0984
G01 X1.2441 Y33.0210
G01 X1.1667 Y32.9355
G01 X1.0980 Y32.8429
G01 X1.0387 Y32.7440
G01 X0.9894 Y32.6398
G01 X0.9506 Y32.5312
G01 X0.9226 Y32.4193
G01 X0.9057 Y32.3053
G01 X0.9000 Y32.1901
G01 X0.9057 Y32.0749
G01 X0.9226 Y31.9609
G01 X0.9506 Y31.8490
G01 X0.9894 Y31.7405
G01 X1.0387 Y31.6362
G01 X1.0980 Y31.5373
G01 X1.1667 Y31.4447
G01 X1.2441 Y31.3593
G01 X1.3296 Y31.2818
G01 X1.4222 Y31.2131
G01 X1.5211 Y31.1539
G01 X1.6253 Y31.1046
G01 X1.7339 Y31.0657
G01 X1.8458 Y31.0377
G01 X1.9598 Y31.0208
G01 X2.0750 Y31.0151
G01 X2.1902 Y31.0208
G01 X2.3042 Y31.0377
G01 X2.4161 Y31.0657
G01 X2.5247 Y31.1046
G01 X2.6289 Y31.1539
G01 X2.7278 Y31.2131
G01 X2.8204 Y31.2818
G01 X2.9059 Y31.3593
G01 X2.9833 Y31.4447
G01 X3.0520 Y31.5373
G01 X3.1113 Y31.6362
G01 X3.1606 Y31.7405
G01 X3.1994 Y31.8490
G01 X3.2274 Y31.9609
G01 X3.2433 Y32.0664
G00 Z1.0000
G00 X3.2186 Y32.0701
G01 F60.00
G01 Z-0.1418
G01 F60.00
G01 X3.2200 Y32.0847
G01 X3.2250 Y32.1901
G01 X3.2195 Y32.3028
G01 X3.2029 Y32.4145
G01 X3.1755 Y32.5239
G01 X3.1375 Y32.6302
G01 X3.0892 Y32.7322
G01 X3.0312 Y32.8290
G01 X2.9640 Y32.9197
G01 X2.8882 Y33.0033
G01 X2.8046 Y33.0791
G01 X2.7139 Y33.1463
G01 X2.6171 Y33.2043
G01 X2.5151 Y33.2526
G01 X2.4088 Y33.2906
G01 X2.2994 Y33.3180
G01 X2.1877 Y33.3346
G01 X2.0750 Y33.3401
G01 X1.9623 Y33.3346
G01 X1.8506 Y33.3180
G01 X1.7412 Y33.2906
G01 X1.6349 Y33.2526
G01 X1.5329 Y33.2043
G01 X1.4361 Y33.1463
G01 X1.3454 Y33.0791
G01 X1.2618 Y33.0033
G01 X1.1860 Y32.9197
G01 X1.1188 Y32.8290
G01 X1.0608 Y32.7322
G01 X1.0125 Y32.6302
G01 X0.9745 Y32.5239
G01 X0.9471 Y32.4145
G01 X0.9305 Y32.3028
G01 X0.9250 Y32.1901
G01 X0.9305 Y32.0774
G01 X0.9471 Y31.9658
G01 X0.9745 Y31.8563
G01 X1.0125 Y31.7500
G01 X1.0608 Y31.6480
G01 X1.1188 Y31.5512
G01 X1.1860 Y31.4606
G01 X1.2618 Y31.3769
G01 X1.3454 Y31.3012
G01 X1.4361 Y31.2339
G01 X1.5329 Y31.1759
G01 X1.6349 Y31.1277
G01 X1.7412 Y31.0896
G01 X1.8506 Y31.0622
G01 X1.9623 Y31.0457
G01 X2.0750 Y31.0401
G01 X2.1877 Y31.0457
G01 X2.2994 Y31.0622
G01 X2.4088 Y31.0896
G01 X2.5151 Y31.1277
G01 X2.6171 Y31.1759
G01 X2.7139 Y31.2339
G01 X2.8046 Y31.3012
G01 X2.8882 Y31.3769
G01 X2.9640 Y31.4606
G01 X3.0312 Y31.5512
G01 X3.0892 Y31.6480
G01 X3.1375 Y31.7500
G01 X3.1755 Y31.8563
G01 X3.2029 Y31.9658
G01 X3.2186 Y32.0701
G00 Z1.0000
G00 X3.1938 Y32.0738
G01 F60.00
G01 Z-0.1418
G01 F60.00
G01 X3.1950 Y32.0860
G01 X3.2000 Y32.1901
G01 X3.1946 Y32.3004
G01 X3.1784 Y32.4096
G01 X3.1516 Y32.5167
G01 X3.1144 Y32.6206
G01 X3.0672 Y32.7204
G01 X3.0104 Y32.8151
G01 X2.9446 Y32.9038
G01 X2.8705 Y32.9856
G01 X2.7887 Y33.0598
G01 X2.7000 Y33.1255
G01 X2.6053 Y33.1823
G01 X2.5055 Y33.2295
G01 X2.4016 Y33.2667
G01 X2.2945 Y33.2935
G01 X2.1853 Y33.3097
G01 X2.0750 Y33.3151
G01 X1.9647 Y33.3097
G01 X1.8555 Y33.2935
G01 X1.7484 Y33.2667
G01 X1.6445 Y33.2295
G01 X1.5447 Y33.1823
G01 X1.4500 Y33.1255
G01 X1.3613 Y33.0598
G01 X1.2795 Y32.9856
G01 X1.2054 Y32.9038
G01 X1.1396 Y32.8151
G01 X1.0828 Y32.7204
G01 X1.0356 Y32.6206
G01 X0.9984 Y32.5167
G01 X0.9716 Y32.4096
G01 X0.9554 Y32.3004
G01 X0.9500 Y32.1901
G01 X0.9554 Y32.0798
G01 X0.9716 Y31.9706
G01 X0.9984 Y31.8635
G01 X1.0356 Y31.7596
G01 X1.0828 Y31.6598
G01 X1.1396 Y31.5651
G01 X1.2054 Y31.4764
G01 X1.2795 Y31.3946
G01 X1.3613 Y31.3205
G01 X1.4500 Y31.2547
G01 X1.5447 Y31.1980
G01 X1.6445 Y31.1508
G01 X1.7484 Y31.1136
G01 X1.8555 Y31.0867
G01 X1.9647 Y31.0705
G01 X2.0750 Y31.0651
G01 X2.1853 Y31.0705
G01 X2.2945 Y31.0867
G01 X2.4016 Y31.1136
G01 X2.5055 Y31.1508
G01 X2.6053 Y31.1980
G01 X2.7000 Y31.2547
G01 X2.7887 Y31.3205
G01 X2.8705 Y31.3946
G01 X2.9446 Y31.4764
G01 X3.0104 Y31.5651
G01 X3.0672 Y31.6598
G01 X3.1144 Y31.7596
G01 X3.1516 Y31.8635
G01 X3.1784 Y31.9706
G01 X3.1938 Y32.0738
G00 Z1.0000
G00 X3.2433 Y34.6064
G01 F60.00
G01 Z-0.1418
G01 F60.00
G01 X3.2450 Y34.6235
G01 X3.2500 Y34.7301
G01 X3.2443 Y34.8453
G01 X3.2274 Y34.9593
G01 X3.1994 Y35.0712
G01 X3.1606 Y35.1798
G01 X3.1113 Y35.2840
G01 X3.0520 Y35.3829
G01 X2.9833 Y35.4755
G01 X2.9059 Y35.5610
G01 X2.8204 Y35.6384
G01 X2.7278 Y35.7071
G01 X2.6289 Y35.7664
G01 X2.5247 Y35.8157
G01 X2.4161 Y35.8545
G01 X2.3042 Y35.8825
G01 X2.1902 Y35.8995
G01 X2.0750 Y35.9051
G01 X1.9598 Y35.8995
G01 X1.8458 Y35.8825
G01 X1.7339 Y35.8545
G01 X1.6253 Y35.8157
G01 X1.5211 Y35.7664
G01 X1.4222 Y35.7071
G01 X1.3296 Y35.6384
G01 X1.2441 Y35.5610
G01 X1.1667 Y35.4755
G01 X1.0980 Y35.3829
G01 X1.0387 Y35.2840
G01 X0.9894 Y35.1798
G01 X0.9506 Y35.0712
G01 X0.9226 Y34.9593
G01 X0.9057 Y34.8453
G01 X0.9000 Y34.7301
G01 X0.9057 Y34.6149
G01 X0.9226 Y34.5009
G01 X0.9506 Y34.3890
G01 X0.9894 Y34.2805
G01 X1.0387 Y34.1762
G01 X1.0980 Y34.0773
G01 X1.1667 Y33.9847
G01 X1.2441 Y33.8993
G01 X1.3296 Y33.8218
G01 X1.4222 Y33.7531
G01 X1.5211 Y33.6939
G01 X1.6253 Y33.6446
G01 X1.7339 Y33.6057
G01 X1.8458 Y33.5777
G01 X1.9598 Y33.5608
G01 X2.0750 Y33.5551
G01 X2.1902 Y33.5608
G01 X2.3042 Y33.5777
G01 X2.4161 Y33.6057
G01 X2.5247 Y33.6446
G01 X2.6289 Y33.6939
G01 X2.7278 Y33.7531
G01 X2.8204 Y33.8218
G01 X2.9059 Y33.8993
G01 X2.9833 Y33.9847
G01 X3.0520 Y34.0773
G01 X3.1113 Y34.1762
G01 X3.1606 Y34.2805
G01 X3.1994 Y34.3890
G01 X3.2274 Y34.5009
G01 X3.2433 Y34.6064
G00 Z1.0000
G00 X3.2186 Y34.6101
G01 F60.00
G01 Z-0.1418
G01 F60.00
G01 X3.2200 Y34.6247
G01 X3.2250 Y34.7301
G01 X3.2195 Y34.8428
G01 X3.2029 Y34.9545
G01 X3.1755 Y35.0639
G01 X3.1375 Y35.1702
G01 X3.0892 Y35.2722
G01 X3.0312 Y35.3690
G01 X2.9640 Y35.4597
G01 X2.8882 Y35.5433
G01 X2.8046 Y35.6191
G01 X2.7139 Y35.6863
G01 X2.6171 Y35.7443
G01 X2.5151 Y35.7926
G01 X2.4088 Y35.8306
G01 X2.2994 Y35.8580
G01 X2.1877 Y35.8746
G01 X2.0750 Y35.8801
G01 X1.9623 Y35.8746
G01 X1.8506 Y35.8580
G01 X1.7412 Y35.8306
G01 X1.6349 Y35.7926
G01 X1.5329 Y35.7443
G01 X1.4361 Y35.6863
G01 X1.3454 Y35.6191
G01 X1.2618 Y35.5433
G01 X1.1860 Y35.4597
G01 X1.1188 Y35.3690
G01 X1.0608 Y35.2722
G01 X1.0125 Y35.1702
G01 X0.9745 Y35.0639
G01 X0.9471 Y34.9545
G01 X0.9305 Y34.8428
G01 X0.9250 Y34.7301
G01 X0.9305 Y34.6174
G01 X0.9471 Y34.5058
G01 X0.9745 Y34.3963
G01 X1.0125 Y34.2900
G01 X1.0608 Y34.1880
G01 X1.1188 Y34.0912
G01 X1.1860 Y34.0006
G01 X1.2618 Y33.9169
G01 X1.3454 Y33.8412
G01 X1.4361 Y33.7739
G01 X1.5329 Y33.7159
G01 X1.6349 Y33.6677
G01 X1.7412 Y33.6296
G01 X1.8506 Y33.6022
G01 X1.9623 Y33.5857
G01 X2.0750 Y33.5801
G01 X2.1877 Y33.5857
G01 X2.2994 Y33.6022
G01 X2.4088 Y33.6296
G01 X2.5151 Y33.6677
G01 X2.6171 Y33.7159
G01 X2.7139 Y33.7739
G01 X2.8046 Y33.8412
G01 X2.8882 Y33.9169
G01 X2.9640 Y34.0006
G01 X3.0312 Y34.0912
G01 X3.0892 Y34.1880
G01 X3.1375 Y34.2900
G01 X3.1755 Y34.3963
G01 X3.2029 Y34.5058
G01 X3.2186 Y34.6101
G00 Z1.0000
G00 X3.1938 Y34.6138
G01 F60.00
G01 Z-0.1418
G01 F60.00
G01 X3.1950 Y34.6260
G01 X3.2000 Y34.7301
G01 X3.1946 Y34.8404
G01 X3.1784 Y34.9496
G01 X3.1516 Y35.0567
G01 X3.1144 Y35.1606
G01 X3.0672 Y35.2604
G01 X3.0104 Y35.3551
G01 X2.9446 Y35.4438
G01 X2.8705 Y35.5256
G01 X2.7887 Y35.5998
G01 X2.7000 Y35.6655
G01 X2.6053 Y35.7223
G01 X2.5055 Y35.7695
G01 X2.4016 Y35.8067
G01 X2.2945 Y35.8335
G01 X2.1853 Y35.8497
G01 X2.0750 Y35.8551
G01 X1.9647 Y35.8497
G01 X1.8555 Y35.8335
G01 X1.7484 Y35.8067
G01 X1.6445 Y35.7695
G01 X1.5447 Y35.7223
G01 X1.4500 Y35.6655
G01 X1.3613 Y35.5998
G01 X1.2795 Y35.5256
G01 X1.2054 Y35.4438
G01 X1.1396 Y35.3551
G01 X1.0828 Y35.2604
G01 X1.0356 Y35.1606
G01 X0.9984 Y35.0567
G01 X0.9716 Y34.9496
G01 X0.9554 Y34.8404
G01 X0.9500 Y34.7301
G01 X0.9554 Y34.6198
G01 X0.9716 Y34.5106
G01 X0.9984 Y34.4035
G01 X1.0356 Y34.2996
G01 X1.0828 Y34.1998
G01 X1.1396 Y34.1051
G01 X1.2054 Y34.0164
G01 X1.2795 Y33.9346
G01 X1.3613 Y33.8605
G01 X1.4500 Y33.7947
G01 X1.5447 Y33.7380
G01 X1.6445 Y33.6908
G01 X1.7484 Y33.6536
G01 X1.8555 Y33.6267
G01 X1.9647 Y33.6105
G01 X2.0750 Y33.6051
G01 X2.1853 Y33.6105
G01 X2.2945 Y33.6267
G01 X2.4016 Y33.6536
G01 X2.5055 Y33.6908
G01 X2.6053 Y33.7380
G01 X2.7000 Y33.7947
G01 X2.7887 Y33.8605
G01 X2.8705 Y33.9346
G01 X2.9446 Y34.0164
G01 X3.0104 Y34.1051
G01 X3.0672 Y34.1998
G01 X3.1144 Y34.2996
G01 X3.1516 Y34.4035
G01 X3.1784 Y34.5106
G01 X3.1938 Y34.6138
G00 Z1.0000
G00 X3.2433 Y37.1464
G01 F60.00
G01 Z-0.1418
G01 F60.00
G01 X3.2450 Y37.1635
G01 X3.2500 Y37.2701
G01 X3.2443 Y37.3853
G01 X3.2274 Y37.4993
G01 X3.1994 Y37.6112
G01 X3.1606 Y37.7198
G01 X3.1113 Y37.8240
G01 X3.0520 Y37.9229
G01 X2.9833 Y38.0155
G01 X2.9059 Y38.1010
G01 X2.8204 Y38.1784
G01 X2.7278 Y38.2471
G01 X2.6289 Y38.3064
G01 X2.5247 Y38.3557
G01 X2.4161 Y38.3945
G01 X2.3042 Y38.4225
G01 X2.1902 Y38.4395
G01 X2.0750 Y38.4451
G01 X1.9598 Y38.4395
G01 X1.8458 Y38.4225
G01 X1.7339 Y38.3945
G01 X1.6253 Y38.3557
G01 X1.5211 Y38.3064
G01 X1.4222 Y38.2471
G01 X1.3296 Y38.1784
G01 X1.2441 Y38.1010
G01 X1.1667 Y38.0155
G01 X1.0980 Y37.9229
G01 X1.0387 Y37.8240
G01 X0.9894 Y37.7198
G01 X0.9506 Y37.6112
G01 X0.9226 Y37.4993
G01 X0.9057 Y37.3853
G01 X0.9000 Y37.2701
G01 X0.9057 Y37.1549
G01 X0.9226 Y37.0409
G01 X0.9506 Y36.9290
G01 X0.9894 Y36.8205
G01 X1.0387 Y36.7162
G01 X1.0980 Y36.6173
G01 X1.1667 Y36.5247
G01 X1.2441 Y36.4393
G01 X1.3296 Y36.3618
G01 X1.4222 Y36.2931
G01 X1.5211 Y36.2339
G01 X1.6253 Y36.1846
G01 X1.7339 Y36.1457
G01 X1.8458 Y36.1177
G01 X1.9598 Y36.1008
G01 X2.0750 Y36.0951
G01 X2.1902 Y36.1008
G01 X2.3042 Y36.1177
G01 X2.4161 Y36.1457
G01 X2.5247 Y36.1846
G01 X2.6289 Y36.2339
G01 X2.7278 Y36.2931
G01 X2.8204 Y36.3618
G01 X2.9059 Y36.4393
G01 X2.9833 Y36.5247
G01 X3.0520 Y36.6173
G01 X3.1113 Y36.7162
G01 X3.1606 Y36.8205
G01 X3.1994 Y36.9290
G01 X3.2274 Y37.0409
G01 X3.2433 Y37.1464
G00 Z1.0000
G00 X3.2186 Y37.1501
G01 F60.00
G01 Z-0.1418
G01 F60.00
G01 X3.2200 Y37.1647
G01 X3.2250 Y37.2701
G01 X3.2195 Y37.3828
G01 X3.2029 Y37.4945
G01 X3.1755 Y37.6039
G01 X3.1375 Y37.7102
G01 X3.0892 Y37.8122
G01 X3.0312 Y37.9090
G01 X2.9640 Y37.9997
G01 X2.8882 Y38.0833
G01 X2.8046 Y38.1591
G01 X2.7139 Y38.2263
G01 X2.6171 Y38.2843
G01 X2.5151 Y38.3326
G01 X2.4088 Y38.3706
G01 X2.2994 Y38.3980
G01 X2.1877 Y38.4146
G01 X2.0750 Y38.4201
G01 X1.9623 Y38.4146
G01 X1.8506 Y38.3980
G01 X1.7412 Y38.3706
G01 X1.6349 Y38.3326
G01 X1.5329 Y38.2843
G01 X1.4361 Y38.2263
G01 X1.3454 Y38.1591
G01 X1.2618 Y38.0833
G01 X1.1860 Y37.9997
G01 X1.1188 Y37.9090
G01 X1.0608 Y37.8122
G01 X1.0125 Y37.7102
G01 X0.9745 Y37.6039
G01 X0.9471 Y37.4945
G01 X0.9305 Y37.3828
G01 X0.9250 Y37.2701
G01 X0.9305 Y37.1574
G01 X0.9471 Y37.0458
G01 X0.9745 Y36.9363
G01 X1.0125 Y36.8300
G01 X1.0608 Y36.7280
G01 X1.1188 Y36.6312
G01 X1.1860 Y36.5406
G01 X1.2618 Y36.4569
G01 X1.3454 Y36.3812
G01 X1.4361 Y36.3139
G01 X1.5329 Y36.2559
G01 X1.6349 Y36.2077
G01 X1.7412 Y36.1696
G01 X1.8506 Y36.1422
G01 X1.9623 Y36.1257
G01 X2.0750 Y36.1201
G01 X2.1877 Y36.1257
G01 X2.2994 Y36.1422
G01 X2.4088 Y36.1696
G01 X2.5151 Y36.2077
G01 X2.6171 Y36.2559
G01 X2.7139 Y36.3139
G01 X2.8046 Y36.3812
G01 X2.8882 Y36.4569
G01 X2.9640 Y36.5406
G01 X3.0312 Y36.6312
G01 X3.0892 Y36.7280
G01 X3.1375 Y36.8300
G01 X3.1755 Y36.9363
G01 X3.2029 Y37.0458
G01 X3.2186 Y37.1501
G00 Z1.0000
G00 X3.1938 Y37.1538
G01 F60.00
G01 Z-0.1418
G01 F60.00
G01 X3.1950 Y37.1660
G01 X3.2000 Y37.2701
G01 X3.1946 Y37.3804
G01 X3.1784 Y37.4896
G01 X3.1516 Y37.5967
G01 X3.1144 Y37.7006
G01 X3.0672 Y37.8004
G01 X3.0104 Y37.8951
G01 X2.9446 Y37.9838
G01 X2.8705 Y38.0656
G01 X2.7887 Y38.1398
G01 X2.7000 Y38.2055
G01 X2.6053 Y38.2623
G01 X2.5055 Y38.3095
G01 X2.4016 Y38.3467
G01 X2.2945 Y38.3735
G01 X2.1853 Y38.3897
G01 X2.0750 Y38.3951
G01 X1.9647 Y38.3897
G01 X1.8555 Y38.3735
G01 X1.7484 Y38.3467
G01 X1.6445 Y38.3095
G01 X1.5447 Y38.2623
G01 X1.4500 Y38.2055
G01 X1.3613 Y38.1398
G01 X1.2795 Y38.0656
G01 X1.2054 Y37.9838
G01 X1.1396 Y37.8951
G01 X1.0828 Y37.8004
G01 X1.0356 Y37.7006
G01 X0.9984 Y37.5967
G01 X0.9716 Y37.4896
G01 X0.9554 Y37.3804
G01 X0.9500 Y37.2701
G01 X0.9554 Y37.1598
G01 X0.9716 Y37.0506
G01 X0.9984 Y36.9435
G01 X1.0356 Y36.8396
G01 X1.0828 Y36.7398
G01 X1.1396 Y36.6451
G01 X1.2054 Y36.5564
G01 X1.2795 Y36.4746
G01 X1.3613 Y36.4005
G01 X1.4500 Y36.3347
G01 X1.5447 Y36.2780
G01 X1.6445 Y36.2308
G01 X1.7484 Y36.1936
G01 X1.8555 Y36.1667
G01 X1.9647 Y36.1505
G01 X2.0750 Y36.1451
G01 X2.1853 Y36.1505
G01 X2.2945 Y36.1667
G01 X2.4016 Y36.1936
G01 X2.5055 Y36.2308
G01 X2.6053 Y36.2780
G01 X2.7000 Y36.3347
G01 X2.7887 Y36.4005
G01 X2.8705 Y36.4746
G01 X2.9446 Y36.5564
G01 X3.0104 Y36.6451
G01 X3.0672 Y36.7398
G01 X3.1144 Y36.8396
G01 X3.1516 Y36.9435
G01 X3.1784 Y37.0506
G01 X3.1938 Y37.1538
G00 Z1.0000
G00 X3.2433 Y39.6864
G01 F60.00
G01 Z-0.1418
G01 F60.00
G01 X3.2450 Y39.7035
G01 X3.2500 Y39.8101
G01 X3.2443 Y39.9253
G01 X3.2274 Y40.0393
G01 X3.1994 Y40.1512
G01 X3.1606 Y40.2598
G01 X3.1113 Y40.3640
G01 X3.0520 Y40.4629
G01 X2.9833 Y40.5555
G01 X2.9059 Y40.6410
G01 X2.8204 Y40.7184
G01 X2.7278 Y40.7871
G01 X2.6289 Y40.8464
G01 X2.5247 Y40.8957
G01 X2.4161 Y40.9345
G01 X2.3042 Y40.9625
G01 X2.1902 Y40.9795
G01 X2.0750 Y40.9851
G01 X1.9598 Y40.9795
G01 X1.8458 Y40.9625
G01 X1.7339 Y40.9345
G01 X1.6253 Y40.8957
G01 X1.5211 Y40.8464
G01 X1.4222 Y40.7871
G01 X1.3296 Y40.7184
G01 X1.2441 Y40.6410
G01 X1.1667 Y40.5555
G01 X1.0980 Y40.4629
G01 X1.0387 Y40.3640
G01 X0.9894 Y40.2598
G01 X0.9506 Y40.1512
G01 X0.9226 Y40.0393
G01 X0.9057 Y39.9253
G01 X0.9000 Y39.8101
G01 X0.9057 Y39.6949
G01 X0.9226 Y39.5809
G01 X0.9506 Y39.4690
G01 X0.9894 Y39.3605
G01 X1.0387 Y39.2562
G01 X1.0980 Y39.1573
G01 X1.1667 Y39.0647
G01 X1.2441 Y38.9793
G01 X1.3296 Y38.9018
G01 X1.4222 Y38.8331
G01 X1.5211 Y38.7739
G01 X1.6253 Y38.7246
G01 X1.7339 Y38.6857
G01 X1.8458 Y38.6577
G01 X1.9598 Y38.6408
G01 X2.0750 Y38.6351
G01 X2.1902 Y38.6408
G01 X2.3042 Y38.6577
G01 X2.4161 Y38.6857
G01 X2.5247 Y38.7246
G01 X2.6289 Y38.7739
G01 X2.7278 Y38.8331
G01 X2.8204 Y38.9018
G01 X2.9059 Y38.9793
G01 X2.9833 Y39.0647
G01 X3.0520 Y39.1573
G01 X3.1113 Y39.2562
G01 X3.1606 Y39.3605
G01 X3.1994 Y39.4690
G01 X3.2274 Y39.5809
G01 X3.2433 Y39.6864
G00 Z1.0000
G00 X3.2186 Y39.6901
G01 F60.00
G01 Z-0.1418
G01 F60.00
G01 X3.2200 Y39.7047
G01 X3.2250 Y39.8101
G01 X3.2195 Y39.9228
G01 X3.2029 Y40.0345
G01 X3.1755 Y40.1439
G01 X3.1375 Y40.2502
G01 X3.0892 Y40.3522
G01 X3.0312 Y40.4490
G01 X2.9640 Y40.5397
G01 X2.8882 Y40.6233
G01 X2.8046 Y40.6991
G01 X2.7139 Y40.7663
G01 X2.6171 Y40.8243
G01 X2.5151 Y40.8726
G01 X2.4088 Y40.9106
G01 X2.2994 Y40.9380
G01 X2.1877 Y40.9546
G01 X2.0750 Y40.9601
G01 X1.9623 Y40.9546
G01 X1.8506 Y40.9380
G01 X1.7412 Y40.9106
G01 X1.6349 Y40.8726
G01 X1.5329 Y40.8243
G01 X1.4361 Y40.7663
G01 X1.3454 Y40.6991
G01 X1.2618 Y40.6233
G01 X1.1860 Y40.5397
G01 X1.1188 Y40.4490
G01 X1.0608 Y40.3522
G01 X1.0125 Y40.2502
G01 X0.9745 Y40.1439
G01 X0.9471 Y40.0345
G01 X0.9305 Y39.9228
G01 X0.9250 Y39.8101
G01 X0.9305 Y39.6974
G01 X0.9471 Y39.5858
G01 X0.9745 Y39.4763
G01 X1.0125 Y39.3700
G01 X1.0608 Y39.2680
G01 X1.1188 Y39.1712
G01 X1.1860 Y39.0806
G01 X1.2618 Y38.9969
G01 X1.3454 Y38.9212
G01 X1.4361 Y38.8539
G01 X1.5329 Y38.7959
G01 X1.6349 Y38.7477
G01 X1.7412 Y38.7096
G01 X1.8506 Y38.6822
G01 X1.9623 Y38.6657
G01 X2.0750 Y38.6601
G01 X2.1877 Y38.6657
G01 X2.2994 Y38.6822
G01 X2.4088 Y38.7096
G01 X2.5151 Y38.7477
G01 X2.6171 Y38.7959
G01 X2.7139 Y38.8539
G01 X2.8046 Y38.9212
G01 X2.8882 Y38.9969
G01 X2.9640 Y39.0806
G01 X3.0312 Y39.1712
G01 X3.0892 Y39.2680
G01 X3.1375 Y39.3700
G01 X3.1755 Y39.4763
G01 X3.2029 Y39.5858
G01 X3.2186 Y39.6901
G00 Z1.0000
G00 X3.1938 Y39.6938
G01 F60.00
G01 Z-0.1418
G01 F60.00
G01 X3.1950 Y39.7060
G01 X3.2000 Y39.8101
G01 X3.1946 Y39.9204
G01 X3.1784 Y40.0296
G01 X3.1516 Y40.1367
G01 X3.1144 Y40.2406
G01 X3.0672 Y40.3404
G01 X3.0104 Y40.4351
G01 X2.9446 Y40.5238
G01 X2.8705 Y40.6056
G01 X2.7887 Y40.6798
G01 X2.7000 Y40.7455
G01 X2.6053 Y40.8023
G01 X2.5055 Y40.8495
G01 X2.4016 Y40.8867
G01 X2.2945 Y40.9135
G01 X2.1853 Y40.9297
G01 X2.0750 Y40.9351
G01 X1.9647 Y40.9297
G01 X1.8555 Y40.9135
G01 X1.7484 Y40.8867
G01 X1.6445 Y40.8495
G01 X1.5447 Y40.8023
G01 X1.4500 Y40.7455
G01 X1.3613 Y40.6798
G01 X1.2795 Y40.6056
G01 X1.2054 Y40.5238
G01 X1.1396 Y40.4351
G01 X1.0828 Y40.3404
G01 X1.0356 Y40.2406
G01 X0.9984 Y40.1367
G01 X0.9716 Y40.0296
G01 X0.9554 Y39.9204
G01 X0.9500 Y39.8101
G01 X0.9554 Y39.6998
G01 X0.9716 Y39.5906
G01 X0.9984 Y39.4835
G01 X1.0356 Y39.3796
G01 X1.0828 Y39.2798
G01 X1.1396 Y39.1851
G01 X1.2054 Y39.0964
G01 X1.2795 Y39.0146
G01 X1.3613 Y38.9405
G01 X1.4500 Y38.8747
G01 X1.5447 Y38.8180
G01 X1.6445 Y38.7708
G01 X1.7484 Y38.7336
G01 X1.8555 Y38.7067
G01 X1.9647 Y38.6905
G01 X2.0750 Y38.6851
G01 X2.1853 Y38.6905
G01 X2.2945 Y38.7067
G01 X2.4016 Y38.7336
G01 X2.5055 Y38.7708
G01 X2.6053 Y38.8180
G01 X2.7000 Y38.8747
G01 X2.7887 Y38.9405
G01 X2.8705 Y39.0146
G01 X2.9446 Y39.0964
G01 X3.0104 Y39.1851
G01 X3.0672 Y39.2798
G01 X3.1144 Y39.3796
G01 X3.1516 Y39.4835
G01 X3.1784 Y39.5906
G01 X3.1938 Y39.6938
G00 Z1.0000
G00 X3.2433 Y42.2264
G01 F60.00
G01 Z-0.1418
G01 F60.00
G01 X3.2450 Y42.2435
G01 X3.2500 Y42.3501
G01 X3.2443 Y42.4653
G01 X3.2274 Y42.5793
G01 X3.1994 Y42.6912
G01 X3.1606 Y42.7998
G01 X3.1113 Y42.9040
G01 X3.0520 Y43.0029
G01 X2.9833 Y43.0955
G01 X2.9059 Y43.1810
G01 X2.8204 Y43.2584
G01 X2.7278 Y43.3271
G01 X2.6289 Y43.3864
G01 X2.5247 Y43.4357
G01 X2.4161 Y43.4745
G01 X2.3042 Y43.5025
G01 X2.1902 Y43.5195
G01 X2.0750 Y43.5251
G01 X1.9598 Y43.5195
G01 X1.8458 Y43.5025
G01 X1.7339 Y43.4745
G01 X1.6253 Y43.4357
G01 X1.5211 Y43.3864
G01 X1.4222 Y43.3271
G01 X1.3296 Y43.2584
G01 X1.2441 Y43.1810
G01 X1.1667 Y43.0955
G01 X1.0980 Y43.0029
G01 X1.0387 Y42.9040
G01 X0.9894 Y42.7998
G01 X0.9506 Y42.6912
G01 X0.9226 Y42.5793
G01 X0.9057 Y42.4653
G01 X0.9000 Y42.3501
G01 X0.9057 Y42.2349
G01 X0.9226 Y42.1209
G01 X0.9506 Y42.0090
G01 X0.9894 Y41.9005
G01 X1.0387 Y41.7962
G01 X1.0980 Y41.6973
G01 X1.1667 Y41.6047
G01 X1.2441 Y41.5193
G01 X1.3296 Y41.4418
G01 X1.4222 Y41.3731
G01 X1.5211 Y41.3139
G01 X1.6253 Y41.2646
G01 X1.7339 Y41.2257
G01 X1.8458 Y41.1977
G01 X1.9598 Y41.1808
G01 X2.0750 Y41.1751
G01 X2.1902 Y41.1808
G01 X2.3042 Y41.1977
G01 X2.4161 Y41.2257
G01 X2.5247 Y41.2646
G01 X2.6289 Y41.3139
G01 X2.7278 Y41.3731
G01 X2.8204 Y41.4418
G01 X2.9059 Y41.5193
G01 X2.9833 Y41.6047
G01 X3.0520 Y41.6973
G01 X3.1113 Y41.7962
G01 X3.1606 Y41.9005
G01 X3.1994 Y42.0090
G01 X3.2274 Y42.1209
G01 X3.2433 Y42.2264
G00 Z1.0000
G00 X3.2186 Y42.2301
G01 F60.00
G01 Z-0.1418
G01 F60.00
G01 X3.2200 Y42.2447
G01 X3.2250 Y42.3501
G01 X3.2195 Y42.4628
G01 X3.2029 Y42.5745
G01 X3.1755 Y42.6839
G01 X3.1375 Y42.7902
G01 X3.0892 Y42.8922
G01 X3.0312 Y42.9890
G01 X2.9640 Y43.0797
G01 X2.8882 Y43.1633
G01 X2.8046 Y43.2391
G01 X2.7139 Y43.3063
G01 X2.6171 Y43.3643
G01 X2.5151 Y43.4126
G01 X2.4088 Y43.4506
G01 X2.2994 Y43.4780
G01 X2.1877 Y43.4946
G01 X2.0750 Y43.5001
G01 X1.9623 Y43.4946
G01 X1.8506 Y43.4780
G01 X1.7412 Y43.4506
G01 X1.6349 Y43.4126
G01 X1.5329 Y43.3643
G01 X1.4361 Y43.3063
G01 X1.3454 Y43.2391
G01 X1.2618 Y43.1633
G01 X1.1860 Y43.0797
G01 X1.1188 Y42.9890
G01 X1.0608 Y42.8922
G01 X1.0125 Y42.7902
G01 X0.9745 Y42.6839
G01 X0.9471 Y42.5745
G01 X0.9305 Y42.4628
G01 X0.9250 Y42.3501
G01 X0.9305 Y42.2374
G01 X0.9471 Y42.1258
G01 X0.9745 Y42.0163
G01 X1.0125 Y41.9100
G01 X1.0608 Y41.8080
G01 X1.1188 Y41.7112
G01 X1.1860 Y41.6206
G01 X1.2618 Y41.5369
G01 X1.3454 Y41.4612
G01 X1.4361 Y41.3939
G01 X1.5329 Y41.3359
G01 X1.6349 Y41.2877
G01 X1.7412 Y41.2496
G01 X1.8506 Y41.2222
G01 X1.9623 Y41.2057
G01 X2.0750 Y41.2001
G01 X2.1877 Y41.2057
G01 X2.2994 Y41.2222
G01 X2.4088 Y41.2496
G01 X2.5151 Y41.2877
G01 X2.6171 Y41.3359
G01 X2.7139 Y41.3939
G01 X2.8046 Y41.4612
G01 X2.8882 Y41.5369
G01 X2.9640 Y41.6206
G01 X3.0312 Y41.7112
G01 X3.0892 Y41.8080
G01 X3.1375 Y41.9100
G01 X3.1755 Y42.0163
G01 X3.2029 Y42.1258
G01 X3.2186 Y42.2301
G00 Z1.0000
G00 X3.1938 Y42.2338
G01 F60.00
G01 Z-0.1418
G01 F60.00
G01 X3.1950 Y42.2460
G01 X3.2000 Y42.3501
G01 X3.1946 Y42.4604
G01 X3.1784 Y42.5696
G01 X3.1516 Y42.6767
G01 X3.1144 Y42.7806
G01 X3.0672 Y42.8804
G01 X3.0104 Y42.9751
G01 X2.9446 Y43.0638
G01 X2.8705 Y43.1456
G01 X2.7887 Y43.2198
G01 X2.7000 Y43.2855
G01 X2.6053 Y43.3423
G01 X2.5055 Y43.3895
G01 X2.4016 Y43.4267
G01 X2.2945 Y43.4535
G01 X2.1853 Y43.4697
G01 X2.0750 Y43.4751
G01 X1.9647 Y43.4697
G01 X1.8555 Y43.4535
G01 X1.7484 Y43.4267
G01 X1.6445 Y43.3895
G01 X1.5447 Y43.3423
G01 X1.4500 Y43.2855
G01 X1.3613 Y43.2198
G01 X1.2795 Y43.1456
G01 X1.2054 Y43.0638
G01 X1.1396 Y42.9751
G01 X1.0828 Y42.8804
G01 X1.0356 Y42.7806
G01 X0.9984 Y42.6767
G01 X0.9716 Y42.5696
G01 X0.9554 Y42.4604
G01 X0.9500 Y42.3501
G01 X0.9554 Y42.2398
G01 X0.9716 Y42.1306
G01 X0.9984 Y42.0235
G01 X1.0356 Y41.9196
G01 X1.0828 Y41.8198
G01 X1.1396 Y41.7251
G01 X1.2054 Y41.6364
G01 X1.2795 Y41.5546
G01 X1.3613 Y41.4805
G01 X1.4500 Y41.4147
G01 X1.5447 Y41.3580
G01 X1.6445 Y41.3108
G01 X1.7484 Y41.2736
G01 X1.8555 Y41.2467
G01 X1.9647 Y41.2305
G01 X2.0750 Y41.2251
G01 X2.1853 Y41.2305
G01 X2.2945 Y41.2467
G01 X2.4016 Y41.2736
G01 X2.5055 Y41.3108
G01 X2.6053 Y41.3580
G01 X2.7000 Y41.4147
G01 X2.7887 Y41.4805
G01 X2.8705 Y41.5546
G01 X2.9446 Y41.6364
G01 X3.0104 Y41.7251
G01 X3.0672 Y41.8198
G01 X3.1144 Y41.9196
G01 X3.1516 Y42.0235
G01 X3.1784 Y42.1306
G01 X3.1938 Y42.2338
G00 Z1.0000
G00 X3.2433 Y44.7664
G01 F60.00
G01 Z-0.1418
G01 F60.00
G01 X3.2450 Y44.7835
G01 X3.2500 Y44.8901
G01 X3.2443 Y45.0053
G01 X3.2274 Y45.1193
G01 X3.1994 Y45.2312
G01 X3.1606 Y45.3398
G01 X3.1113 Y45.4440
G01 X3.0520 Y45.5429
G01 X2.9833 Y45.6355
G01 X2.9059 Y45.7210
G01 X2.8204 Y45.7984
G01 X2.7278 Y45.8671
G01 X2.6289 Y45.9264
G01 X2.5247 Y45.9757
G01 X2.4161 Y46.0145
G01 X2.3042 Y46.0425
G01 X2.1902 Y46.0595
G01 X2.0750 Y46.0651
G01 X1.9598 Y46.0595
G01 X1.8458 Y46.0425
G01 X1.7339 Y46.0145
G01 X1.6253 Y45.9757
G01 X1.5211 Y45.9264
G01 X1.4222 Y45.8671
G01 X1.3296 Y45.7984
G01 X1.2441 Y45.7210
G01 X1.1667 Y45.6355
G01 X1.0980 Y45.5429
G01 X1.0387 Y45.4440
G01 X0.9894 Y45.3398
G01 X0.9506 Y45.2312
G01 X0.9226 Y45.1193
G01 X0.9057 Y45.0053
G01 X0.9000 Y44.8901
G01 X0.9057 Y44.7749
G01 X0.9226 Y44.6609
G01 X0.9506 Y44.5490
G01 X0.9894 Y44.4405
G01 X1.0387 Y44.3362
G01 X1.0980 Y44.2373
G01 X1.1667 Y44.1447
G01 X1.2441 Y44.0593
G01 X1.3296 Y43.9818
G01 X1.4222 Y43.9131
G01 X1.5211 Y43.8539
G01 X1.6253 Y43.8046
G01 X1.7339 Y43.7657
G01 X1.8458 Y43.7377
G01 X1.9598 Y43.7208
G01 X2.0750 Y43.7151
G01 X2.1902 Y43.7208
G01 X2.3042 Y43.7377
G01 X2.4161 Y43.7657
G01 X2.5247 Y43.8046
G01 X2.6289 Y43.8539
G01 X2.7278 Y43.9131
G01 X2.8204 Y43.9818
G01 X2.9059 Y44.0593
G01 X2.9833 Y44.1447
G01 X3.0520 Y44.2373
G01 X3.1113 Y44.3362
G01 X3.1606 Y44.4405
G01 X3.1994 Y44.5490
G01 X3.2274 Y44.6609
G01 X3.2433 Y44.7664
G00 Z1.0000
G00 X3.2186 Y44.7701
G01 F60.00
G01 Z-0.1418
G01 F60.00
G01 X3.2200 Y44.7847
G01 X3.2250 Y44.8901
G01 X3.2195 Y45.0028
G01 X3.2029 Y45.1145
G01 X3.1755 Y45.2239
G01 X3.1375 Y45.3302
G01 X3.0892 Y45.4322
G01 X3.0312 Y45.5290
G01 X2.9640 Y45.6197
G01 X2.8882 Y45.7033
G01 X2.8046 Y45.7791
G01 X2.7139 Y45.8463
G01 X2.6171 Y45.9043
G01 X2.5151 Y45.9526
G01 X2.4088 Y45.9906
G01 X2.2994 Y46.0180
G01 X2.1877 Y46.0346
G01 X2.0750 Y46.0401
G01 X1.9623 Y46.0346
G01 X1.8506 Y46.0180
G01 X1.7412 Y45.9906
G01 X1.6349 Y45.9526
G01 X1.5329 Y45.9043
G01 X1.4361 Y45.8463
G01 X1.3454 Y45.7791
G01 X1.2618 Y45.7033
G01 X1.1860 Y45.6197
G01 X1.1188 Y45.5290
G01 X1.0608 Y45.4322
G01 X1.0125 Y45.3302
G01 X0.9745 Y45.2239
G01 X0.9471 Y45.1145
G01 X0.9305 Y45.0028
G01 X0.9250 Y44.8901
G01 X0.9305 Y44.7774
G01 X0.9471 Y44.6658
G01 X0.9745 Y44.5563
G01 X1.0125 Y44.4500
G01 X1.0608 Y44.3480
G01 X1.1188 Y44.2512
G01 X1.1860 Y44.1606
G01 X1.2618 Y44.0769
G01 X1.3454 Y44.0012
G01 X1.4361 Y43.9339
G01 X1.5329 Y43.8759
G01 X1.6349 Y43.8277
G01 X1.7412 Y43.7896
G01 X1.8506 Y43.7622
G01 X1.9623 Y43.7457
G01 X2.0750 Y43.7401
G01 X2.1877 Y43.7457
G01 X2.2994 Y43.7622
G01 X2.4088 Y43.7896
G01 X2.5151 Y43.8277
G01 X2.6171 Y43.8759
G01 X2.7139 Y43.9339
G01 X2.8046 Y44.0012
G01 X2.8882 Y44.0769
G01 X2.9640 Y44.1606
G01 X3.0312 Y44.2512
G01 X3.0892 Y44.3480
G01 X3.1375 Y44.4500
G01 X3.1755 Y44.5563
G01 X3.2029 Y44.6658
G01 X3.2186 Y44.7701
G00 Z1.0000
G00 X3.1938 Y44.7738
G01 F60.00
G01 Z-0.1418
G01 F60.00
G01 X3.1950 Y44.7860
G01 X3.2000 Y44.8901
G01 X3.1946 Y45.0004
G01 X3.1784 Y45.1096
G01 X3.1516 Y45.2167
G01 X3.1144 Y45.3206
G01 X3.0672 Y45.4204
G01 X3.0104 Y45.5151
G01 X2.9446 Y45.6038
G01 X2.8705 Y45.6856
G01 X2.7887 Y45.7598
G01 X2.7000 Y45.8255
G01 X2.6053 Y45.8823
G01 X2.5055 Y45.9295
G01 X2.4016 Y45.9667
G01 X2.2945 Y45.9935
G01 X2.1853 Y46.0097
G01 X2.0750 Y46.0151
G01 X1.9647 Y46.0097
G01 X1.8555 Y45.9935
G01 X1.7484 Y45.9667
G01 X1.6445 Y45.9295
G01 X1.5447 Y45.8823
G01 X1.4500 Y45.8255
G01 X1.3613 Y45.7598
G01 X1.2795 Y45.6856
G01 X1.2054 Y45.6038
G01 X1.1396 Y45.5151
G01 X1.0828 Y45.4204
G01 X1.0356 Y45.3206
G01 X0.9984 Y45.2167
G01 X0.9716 Y45.1096
G01 X0.9554 Y45.0004
G01 X0.9500 Y44.8901
G01 X0.9554 Y44.7798
G01 X0.9716 Y44.6706
G01 X0.9984 Y44.5635
G01 X1.0356 Y44.4596
G01 X1.0828 Y44.3598
G01 X1.1396 Y44.2651
G01 X1.2054 Y44.1764
G01 X1.2795 Y44.0946
G01 X1.3613 Y44.0205
G01 X1.4500 Y43.9547
G01 X1.5447 Y43.8980
G01 X1.6445 Y43.8508
G01 X1.7484 Y43.8136
G01 X1.8555 Y43.7867
G01 X1.9647 Y43.7705
G01 X2.0750 Y43.7651
G01 X2.1853 Y43.7705
G01 X2.2945 Y43.7867
G01 X2.4016 Y43.8136
G01 X2.5055 Y43.8508
G01 X2.6053 Y43.8980
G01 X2.7000 Y43.9547
G01 X2.7887 Y44.0205
G01 X2.8705 Y44.0946
G01 X2.9446 Y44.1764
G01 X3.0104 Y44.2651
G01 X3.0672 Y44.3598
G01 X3.1144 Y44.4596
G01 X3.1516 Y44.5635
G01 X3.1784 Y44.6706
G01 X3.1938 Y44.7738
G00 Z1.0000
G00 X3.2433 Y47.3064
G01 F60.00
G01 Z-0.1418
G01 F60.00
G01 X3.2450 Y47.3235
G01 X3.2500 Y47.4301
G01 X3.2443 Y47.5453
G01 X3.2274 Y47.6593
G01 X3.1994 Y47.7712
G01 X3.1606 Y47.8798
G01 X3.1113 Y47.9840
G01 X3.0520 Y48.0829
G01 X2.9833 Y48.1755
G01 X2.9059 Y48.2610
G01 X2.8204 Y48.3384
G01 X2.7278 Y48.4071
G01 X2.6289 Y48.4664
G01 X2.5247 Y48.5157
G01 X2.4161 Y48.5545
G01 X2.3042 Y48.5825
G01 X2.1902 Y48.5995
G01 X2.0750 Y48.6051
G01 X1.9598 Y48.5995
G01 X1.8458 Y48.5825
G01 X1.7339 Y48.5545
G01 X1.6253 Y48.5157
G01 X1.5211 Y48.4664
G01 X1.4222 Y48.4071
G01 X1.3296 Y48.3384
G01 X1.2441 Y48.2610
G01 X1.1667 Y48.1755
G01 X1.0980 Y48.0829
G01 X1.0387 Y47.9840
G01 X0.9894 Y47.8798
G01 X0.9506 Y47.7712
G01 X0.9226 Y47.6593
G01 X0.9057 Y47.5453
G01 X0.9000 Y47.4301
G01 X0.9057 Y47.3149
G01 X0.9226 Y47.2009
G01 X0.9506 Y47.0890
G01 X0.9894 Y46.9805
G01 X1.0387 Y46.8762
G01 X1.0980 Y46.7773
G01 X1.1667 Y46.6847
G01 X1.2441 Y46.5993
G01 X1.3296 Y46.5218
G01 X1.4222 Y46.4531
G01 X1.5211 Y46.3939
G01 X1.6253 Y46.3446
G01 X1.7339 Y46.3057
G01 X1.8458 Y46.2777
G01 X1.9598 Y46.2608
G01 X2.0750 Y46.2551
G01 X2.1902 Y46.2608
G01 X2.3042 Y46.2777
G01 X2.4161 Y46.3057
G01 X2.5247 Y46.3446
G01 X2.6289 Y46.3939
G01 X2.7278 Y46.4531
G01 X2.8204 Y46.5218
G01 X2.9059 Y46.5993
G01 X2.9833 Y46.6847
G01 X3.0520 Y46.7773
G01 X3.1113 Y46.8762
G01 X3.1606 Y46.9805
G01 X3.1994 Y47.0890
G01 X3.2274 Y47.2009
G01 X3.2433 Y47.3064
G00 Z1.0000
G00 X3.2186 Y47.3101
G01 F60.00
G01 Z-0.1418
G01 F60.00
G01 X3.2200 Y47.3247
G01 X3.2250 Y47.4301
G01 X3.2195 Y47.5428
G01 X3.2029 Y47.6545
G01 X3.1755 Y47.7639
G01 X3.1375 Y47.8702
G01 X3.0892 Y47.9722
G01 X3.0312 Y48.0690
G01 X2.9640 Y48.1597
G01 X2.8882 Y48.2433
G01 X2.8046 Y48.3191
G01 X2.7139 Y48.3863
G01 X2.6171 Y48.4443
G01 X2.5151 Y48.4926
G01 X2.4088 Y48.5306
G01 X2.2994 Y48.5580
G01 X2.1877 Y48.5746
G01 X2.0750 Y48.5801
G01 X1.9623 Y48.5746
G01 X1.8506 Y48.5580
G01 X1.7412 Y48.5306
G01 X1.6349 Y48.4926
G01 X1.5329 Y48.4443
G01 X1.4361 Y48.3863
G01 X1.3454 Y48.3191
G01 X1.2618 Y48.2433
G01 X1.1860 Y48.1597
G01 X1.1188 Y48.0690
G01 X1.0608 Y47.9722
G01 X1.0125 Y47.8702
G01 X0.9745 Y47.7639
G01 X0.9471 Y47.6545
G01 X0.9305 Y47.5428
G01 X0.9250 Y47.4301
G01 X0.9305 Y47.3174
G01 X0.9471 Y47.2058
G01 X0.9745 Y47.0963
G01 X1.0125 Y46.9900
G01 X1.0608 Y46.8880
G01 X1.1188 Y46.7912
G01 X1.1860 Y46.7006
G01 X1.2618 Y46.6169
G01 X1.3454 Y46.5412
G01 X1.4361 Y46.4739
G01 X1.5329 Y46.4159
G01 X1.6349 Y46.3677
G01 X1.7412 Y46.3296
G01 X1.8506 Y46.3022
G01 X1.9623 Y46.2857
G01 X2.0750 Y46.2801
G01 X2.1877 Y46.2857
G01 X2.2994 Y46.3022
G01 X2.4088 Y46.3296
G01 X2.5151 Y46.3677
G01 X2.6171 Y46.4159
G01 X2.7139 Y46.4739
G01 X2.8046 Y46.5412
G01 X2.8882 Y46.6169
G01 X2.9640 Y46.7006
G01 X3.0312 Y46.7912
G01 X3.0892 Y46.8880
G01 X3.1375 Y46.9900
G01 X3.1755 Y47.0963
G01 X3.2029 Y47.2058
G01 X3.2186 Y47.3101
G00 Z1.0000
G00 X3.1938 Y47.3138
G01 F60.00
G01 Z-0.1418
G01 F60.00
G01 X3.1950 Y47.3260
G01 X3.2000 Y47.4301
G01 X3.1946 Y47.5404
G01 X3.1784 Y47.6496
G01 X3.1516 Y47.7567
G01 X3.1144 Y47.8606
G01 X3.0672 Y47.9604
G01 X3.0104 Y48.0551
G01 X2.9446 Y48.1438
G01 X2.8705 Y48.2256
G01 X2.7887 Y48.2998
G01 X2.7000 Y48.3655
G01 X2.6053 Y48.4223
G01 X2.5055 Y48.4695
G01 X2.4016 Y48.5067
G01 X2.2945 Y48.5335
G01 X2.1853 Y48.5497
G01 X2.0750 Y48.5551
G01 X1.9647 Y48.5497
G01 X1.8555 Y48.5335
G01 X1.7484 Y48.5067
G01 X1.6445 Y48.4695
G01 X1.5447 Y48.4223
G01 X1.4500 Y48.3655
G01 X1.3613 Y48.2998
G01 X1.2795 Y48.2256
G01 X1.2054 Y48.1438
G01 X1.1396 Y48.0551
G01 X1.0828 Y47.9604
G01 X1.0356 Y47.8606
G01 X0.9984 Y47.7567
G01 X0.9716 Y47.6496
G01 X0.9554 Y47.5404
G01 X0.9500 Y47.4301
G01 X0.9554 Y47.3198
G01 X0.9716 Y47.2106
G01 X0.9984 Y47.1035
G01 X1.0356 Y46.9996
G01 X1.0828 Y46.8998
G01 X1.1396 Y46.8051
G01 X1.2054 Y46.7164
G01 X1.2795 Y46.6346
G01 X1.3613 Y46.5605
G01 X1.4500 Y46.4947
G01 X1.5447 Y46.4380
G01 X1.6445 Y46.3908
G01 X1.7484 Y46.3536
G01 X1.8555 Y46.3267
G01 X1.9647 Y46.3105
G01 X2.0750 Y46.3051
G01 X2.1853 Y46.3105
G01 X2.2945 Y46.3267
G01 X2.4016 Y46.3536
G01 X2.5055 Y46.3908
G01 X2.6053 Y46.4380
G01 X2.7000 Y46.4947
G01 X2.7887 Y46.5605
G01 X2.8705 Y46.6346
G01 X2.9446 Y46.7164
G01 X3.0104 Y46.8051
G01 X3.0672 Y46.8998
G01 X3.1144 Y46.9996
G01 X3.1516 Y47.1035
G01 X3.1784 Y47.2106
G01 X3.1938 Y47.3138
G00 Z1.0000
G00 X3.2433 Y49.8464
G01 F60.00
G01 Z-0.1418
G01 F60.00
G01 X3.2450 Y49.8635
G01 X3.2500 Y49.9701
G01 X3.2443 Y50.0853
G01 X3.2274 Y50.1993
G01 X3.1994 Y50.3112
G01 X3.1606 Y50.4198
G01 X3.1113 Y50.5240
G01 X3.0520 Y50.6229
G01 X2.9833 Y50.7155
G01 X2.9059 Y50.8010
G01 X2.8204 Y50.8784
G01 X2.7278 Y50.9471
G01 X2.6289 Y51.0064
G01 X2.5247 Y51.0557
G01 X2.4161 Y51.0945
G01 X2.3042 Y51.1225
G01 X2.1902 Y51.1395
G01 X2.0750 Y51.1451
G01 X1.9598 Y51.1395
G01 X1.8458 Y51.1225
G01 X1.7339 Y51.0945
G01 X1.6253 Y51.0557
G01 X1.5211 Y51.0064
G01 X1.4222 Y50.9471
G01 X1.3296 Y50.8784
G01 X1.2441 Y50.8010
G01 X1.1667 Y50.7155
G01 X1.0980 Y50.6229
G01 X1.0387 Y50.5240
G01 X0.9894 Y50.4198
G01 X0.9506 Y50.3112
G01 X0.9226 Y50.1993
G01 X0.9057 Y50.0853
G01 X0.9000 Y49.9701
G01 X0.9057 Y49.8549
G01 X0.9226 Y49.7409
G01 X0.9506 Y49.6290
G01 X0.9894 Y49.5205
G01 X1.0387 Y49.4162
G01 X1.0980 Y49.3173
G01 X1.1667 Y49.2247
G01 X1.2441 Y49.1393
G01 X1.3296 Y49.0618
G01 X1.4222 Y48.9931
G01 X1.5211 Y48.9339
G01 X1.6253 Y48.8846
G01 X1.7339 Y48.8457
G01 X1.8458 Y48.8177
G01 X1.9598 Y48.8008
G01 X2.0750 Y48.7951
G01 X2.1902 Y48.8008
G01 X2.3042 Y48.8177
G01 X2.4161 Y48.8457
G01 X2.5247 Y48.8846
G01 X2.6289 Y48.9339
G01 X2.7278 Y48.9931
G01 X2.8204 Y49.0618
G01 X2.9059 Y49.1393
G01 X2.9833 Y49.2247
G01 X3.0520 Y49.3173
G01 X3.1113 Y49.4162
G01 X3.1606 Y49.5205
G01 X3.1994 Y49.6290
G01 X3.2274 Y49.7409
G01 X3.2433 Y49.8464
G00 Z1.0000
G00 X3.2186 Y49.8501
G01 F60.00
G01 Z-0.1418
G01 F60.00
G01 X3.2200 Y49.8647
G01 X3.2250 Y49.9701
G01 X3.2195 Y50.0828
G01 X3.2029 Y50.1945
G01 X3.1755 Y50.3039
G01 X3.1375 Y50.4102
G01 X3.0892 Y50.5122
G01 X3.0312 Y50.6090
G01 X2.9640 Y50.6997
G01 X2.8882 Y50.7833
G01 X2.8046 Y50.8591
G01 X2.7139 Y50.9263
G01 X2.6171 Y50.9843
G01 X2.5151 Y51.0326
G01 X2.4088 Y51.0706
G01 X2.2994 Y51.0980
G01 X2.1877 Y51.1146
G01 X2.0750 Y51.1201
G01 X1.9623 Y51.1146
G01 X1.8506 Y51.0980
G01 X1.7412 Y51.0706
G01 X1.6349 Y51.0326
G01 X1.5329 Y50.9843
G01 X1.4361 Y50.9263
G01 X1.3454 Y50.8591
G01 X1.2618 Y50.7833
G01 X1.1860 Y50.6997
G01 X1.1188 Y50.6090
G01 X1.0608 Y50.5122
G01 X1.0125 Y50.4102
G01 X0.9745 Y50.3039
G01 X0.9471 Y50.1945
G01 X0.9305 Y50.0828
G01 X0.9250 Y49.9701
G01 X0.9305 Y49.8574
G01 X0.9471 Y49.7458
G01 X0.9745 Y49.6363
G01 X1.0125 Y49.5300
G01 X1.0608 Y49.4280
G01 X1.1188 Y49.3312
G01 X1.1860 Y49.2406
G01 X1.2618 Y49.1569
G01 X1.3454 Y49.0812
G01 X1.4361 Y49.0139
G01 X1.5329 Y48.9559
G01 X1.6349 Y48.9077
G01 X1.7412 Y48.8696
G01 X1.8506 Y48.8422
G01 X1.9623 Y48.8257
G01 X2.0750 Y48.8201
G01 X2.1877 Y48.8257
G01 X2.2994 Y48.8422
G01 X2.4088 Y48.8696
G01 X2.5151 Y48.9077
G01 X2.6171 Y48.9559
G01 X2.7139 Y49.0139
G01 X2.8046 Y49.0812
G01 X2.8882 Y49.1569
G01 X2.9640 Y49.2406
G01 X3.0312 Y49.3312
G01 X3.0892 Y49.4280
G01 X3.1375 Y49.5300
G01 X3.1755 Y49.6363
G01 X3.2029 Y49.7458
G01 X3.2186 Y49.8501
G00 Z1.0000
G00 X3.1938 Y49.8538
G01 F60.00
G01 Z-0.1418
G01 F60.00
G01 X3.1950 Y49.8660
G01 X3.2000 Y49.9701
G01 X3.1946 Y50.0804
G01 X3.1784 Y50.1896
G01 X3.1516 Y50.2967
G01 X3.1144 Y50.4006
G01 X3.0672 Y50.5004
G01 X3.0104 Y50.5951
G01 X2.9446 Y50.6838
G01 X2.8705 Y50.7656
G01 X2.7887 Y50.8398
G01 X2.7000 Y50.9055
G01 X2.6053 Y50.9623
G01 X2.5055 Y51.0095
G01 X2.4016 Y51.0467
G01 X2.2945 Y51.0735
G01 X2.1853 Y51.0897
G01 X2.0750 Y51.0951
G01 X1.9647 Y51.0897
G01 X1.8555 Y51.0735
G01 X1.7484 Y51.0467
G01 X1.6445 Y51.0095
G01 X1.5447 Y50.9623
G01 X1.4500 Y50.9055
G01 X1.3613 Y50.8398
G01 X1.2795 Y50.7656
G01 X1.2054 Y50.6838
G01 X1.1396 Y50.5951
G01 X1.0828 Y50.5004
G01 X1.0356 Y50.4006
G01 X0.9984 Y50.2967
G01 X0.9716 Y50.1896
G01 X0.9554 Y50.0804
G01 X0.9500 Y49.9701
G01 X0.9554 Y49.8598
G01 X0.9716 Y49.7506
G01 X0.9984 Y49.6435
G01 X1.0356 Y49.5396
G01 X1.0828 Y49.4398
G01 X1.1396 Y49.3451
G01 X1.2054 Y49.2564
G01 X1.2795 Y49.1746
G01 X1.3613 Y49.1005
G01 X1.4500 Y49.0347
G01 X1.5447 Y48.9780
G01 X1.6445 Y48.9308
G01 X1.7484 Y48.8936
G01 X1.8555 Y48.8667
G01 X1.9647 Y48.8505
G01 X2.0750 Y48.8451
G01 X2.1853 Y48.8505
G01 X2.2945 Y48.8667
G01 X2.4016 Y48.8936
G01 X2.5055 Y48.9308
G01 X2.6053 Y48.9780
G01 X2.7000 Y49.0347
G01 X2.7887 Y49.1005
G01 X2.8705 Y49.1746
G01 X2.9446 Y49.2564
G01 X3.0104 Y49.3451
G01 X3.0672 Y49.4398
G01 X3.1144 Y49.5396
G01 X3.1516 Y49.6435
G01 X3.1784 Y49.7506
G01 X3.1938 Y49.8538
G00 Z1.0000
G00 X3.2433 Y52.3864
G01 F60.00
G01 Z-0.1418
G01 F60.00
G01 X3.2450 Y52.4035
G01 X3.2500 Y52.5101
G01 X3.2443 Y52.6253
G01 X3.2274 Y52.7393
G01 X3.1994 Y52.8512
G01 X3.1606 Y52.9598
G01 X3.1113 Y53.0640
G01 X3.0520 Y53.1629
G01 X2.9833 Y53.2555
G01 X2.9059 Y53.3410
G01 X2.8204 Y53.4184
G01 X2.7278 Y53.4871
G01 X2.6289 Y53.5464
G01 X2.5247 Y53.5957
G01 X2.4161 Y53.6345
G01 X2.3042 Y53.6625
G01 X2.1902 Y53.6795
G01 X2.0750 Y53.6851
G01 X1.9598 Y53.6795
G01 X1.8458 Y53.6625
G01 X1.7339 Y53.6345
G01 X1.6253 Y53.5957
G01 X1.5211 Y53.5464
G01 X1.4222 Y53.4871
G01 X1.3296 Y53.4184
G01 X1.2441 Y53.3410
G01 X1.1667 Y53.2555
G01 X1.0980 Y53.1629
G01 X1.0387 Y53.0640
G01 X0.9894 Y52.9598
G01 X0.9506 Y52.8512
G01 X0.9226 Y52.7393
G01 X0.9057 Y52.6253
G01 X0.9000 Y52.5101
G01 X0.9057 Y52.3949
G01 X0.9226 Y52.2809
G01 X0.9506 Y52.1690
