(G-CODE GENERATED BY FLATCAM v8.994 - www.flatcam.org - Version Date: 2020/11/7)

(Name: condicionamento_BIA_v01-PTH.drl_mill_cnc)
(Type: G-code from Geometry)
(Units: MM)

(Created on quarta, 26 julho 2023 at 12:07)


G01 F120.00

M5
G00 Z1.0000
G00 X0.0000 Y0.0000
(T1)
(M6  )  
(MSG, Change to Tool Dia = 0.80000)
(M0)
G00 Z1.0000

M03 S1000.0
G01 F120.00
G00 X0.9994 Y3.0510
G01 F60.00
G01 Z-2.8000
G01 F120.00
G01 X0.9994 Y3.0510
G01 X0.9993 Y3.0510
G01 X0.9994 Y3.0511
G01 X0.9994 Y3.0510
G00 Z1.0000
G00 X3.5394 Y3.0510
G01 F60.00
G01 Z-2.8000
G01 F120.00
G01 X3.5394 Y3.0510
G01 X3.5393 Y3.0510
G01 X3.5394 Y3.0511
G01 X3.5394 Y3.0510
G00 Z1.0000
G00 X2.0738 Y7.0414
G01 F60.00
G01 Z-2.8000
G01 F120.00
G01 X2.0738 Y7.0413
G01 X2.0737 Y7.0414
G01 X2.0738 Y7.0414
G01 X2.0738 Y7.0414
G00 Z1.0000
G00 X2.0738 Y9.5814
G01 F60.00
G01 Z-2.8000
G01 F120.00
G01 X2.0738 Y9.5813
G01 X2.0737 Y9.5814
G01 X2.0738 Y9.5814
G01 X2.0738 Y9.5814
G00 Z1.0000
G00 X2.0738 Y12.1214
G01 F60.00
G01 Z-2.8000
G01 F120.00
G01 X2.0738 Y12.1213
G01 X2.0737 Y12.1214
G01 X2.0738 Y12.1214
G01 X2.0738 Y12.1214
G00 Z1.0000
G00 X2.0738 Y14.6614
G01 F60.00
G01 Z-2.8000
G01 F120.00
G01 X2.0738 Y14.6613
G01 X2.0737 Y14.6614
G01 X2.0738 Y14.6614
G01 X2.0738 Y14.6614
G00 Z1.0000
G00 X2.0738 Y17.2014
G01 F60.00
G01 Z-2.8000
G01 F120.00
G01 X2.0738 Y17.2013
G01 X2.0737 Y17.2014
G01 X2.0738 Y17.2014
G01 X2.0738 Y17.2014
G00 Z1.0000
G00 X2.0738 Y19.7414
G01 F60.00
G01 Z-2.8000
G01 F120.00
G01 X2.0738 Y19.7413
G01 X2.0737 Y19.7414
G01 X2.0738 Y19.7414
G01 X2.0738 Y19.7414
G00 Z1.0000
G00 X2.0738 Y22.2814
G01 F60.00
G01 Z-2.8000
G01 F120.00
G01 X2.0738 Y22.2813
G01 X2.0737 Y22.2814
G01 X2.0738 Y22.2814
G01 X2.0738 Y22.2814
G00 Z1.0000
G00 X2.0738 Y24.8214
G01 F60.00
G01 Z-2.8000
G01 F120.00
G01 X2.0738 Y24.8213
G01 X2.0737 Y24.8214
G01 X2.0738 Y24.8214
G01 X2.0738 Y24.8214
G00 Z1.0000
G00 X2.0738 Y27.3614
G01 F60.00
G01 Z-2.8000
G01 F120.00
G01 X2.0738 Y27.3613
G01 X2.0737 Y27.3614
G01 X2.0738 Y27.3614
G01 X2.0738 Y27.3614
G00 Z1.0000
G00 X2.0738 Y29.9014
G01 F60.00
G01 Z-2.8000
G01 F120.00
G01 X2.0738 Y29.9013
G01 X2.0737 Y29.9014
G01 X2.0738 Y29.9014
G01 X2.0738 Y29.9014
G00 Z1.0000
G00 X2.0738 Y32.4414
G01 F60.00
G01 Z-2.8000
G01 F120.00
G01 X2.0738 Y32.4413
G01 X2.0737 Y32.4414
G01 X2.0738 Y32.4414
G01 X2.0738 Y32.4414
G00 Z1.0000
G00 X2.0738 Y34.9814
G01 F60.00
G01 Z-2.8000
G01 F120.00
G01 X2.0738 Y34.9813
G01 X2.0737 Y34.9814
G01 X2.0738 Y34.9814
G01 X2.0738 Y34.9814
G00 Z1.0000
G00 X2.0738 Y37.5214
G01 F60.00
G01 Z-2.8000
G01 F120.00
G01 X2.0738 Y37.5213
G01 X2.0737 Y37.5214
G01 X2.0738 Y37.5214
G01 X2.0738 Y37.5214
G00 Z1.0000
G00 X2.0738 Y40.0614
G01 F60.00
G01 Z-2.8000
G01 F120.00
G01 X2.0738 Y40.0613
G01 X2.0737 Y40.0614
G01 X2.0738 Y40.0614
G01 X2.0738 Y40.0614
G00 Z1.0000
G00 X2.0738 Y42.6014
G01 F60.00
G01 Z-2.8000
G01 F120.00
G01 X2.0738 Y42.6013
G01 X2.0737 Y42.6014
G01 X2.0738 Y42.6014
G01 X2.0738 Y42.6014
G00 Z1.0000
G00 X2.0738 Y45.1414
G01 F60.00
G01 Z-2.8000
G01 F120.00
G01 X2.0738 Y45.1413
G01 X2.0737 Y45.1414
G01 X2.0738 Y45.1414
G01 X2.0738 Y45.1414
G00 Z1.0000
G00 X2.0738 Y47.6814
G01 F60.00
G01 Z-2.8000
G01 F120.00
G01 X2.0738 Y47.6813
G01 X2.0737 Y47.6814
G01 X2.0738 Y47.6814
G01 X2.0738 Y47.6814
G00 Z1.0000
G00 X2.0738 Y50.2214
G01 F60.00
G01 Z-2.8000
G01 F120.00
G01 X2.0738 Y50.2213
G01 X2.0737 Y50.2214
G01 X2.0738 Y50.2214
G01 X2.0738 Y50.2214
G00 Z1.0000
G00 X2.0738 Y52.7614
G01 F60.00
G01 Z-2.8000
G01 F120.00
G01 X2.0738 Y52.7613
G01 X2.0737 Y52.7614
G01 X2.0738 Y52.7614
G01 X2.0738 Y52.7614
G00 Z1.0000
G00 X2.0738 Y55.3014
G01 F60.00
G01 Z-2.8000
G01 F120.00
G01 X2.0738 Y55.3013
G01 X2.0737 Y55.3014
G01 X2.0738 Y55.3014
G01 X2.0738 Y55.3014
G00 Z1.0000
G00 X2.0738 Y57.8414
G01 F60.00
G01 Z-2.8000
G01 F120.00
G01 X2.0738 Y57.8413
G01 X2.0737 Y57.8414
G01 X2.0738 Y57.8414
G01 X2.0738 Y57.8414
G00 Z1.0000
G00 X2.0738 Y60.3814
G01 F60.00
G01 Z-2.8000
G01 F120.00
G01 X2.0738 Y60.3813
G01 X2.0737 Y60.3814
G01 X2.0738 Y60.3814
G01 X2.0738 Y60.3814
G00 Z1.0000
G00 X2.0738 Y62.9214
G01 F60.00
G01 Z-2.8000
G01 F120.00
G01 X2.0738 Y62.9213
G01 X2.0737 Y62.9214
G01 X2.0738 Y62.9214
G01 X2.0738 Y62.9214
G00 Z1.0000
G00 X2.0738 Y65.4614
G01 F60.00
G01 Z-2.8000
G01 F120.00
G01 X2.0738 Y65.4613
G01 X2.0737 Y65.4614
G01 X2.0738 Y65.4614
G01 X2.0738 Y65.4614
G00 Z1.0000
G00 X2.0738 Y68.0014
G01 F60.00
G01 Z-2.8000
G01 F120.00
G01 X2.0738 Y68.0013
G01 X2.0737 Y68.0014
G01 X2.0738 Y68.0014
G01 X2.0738 Y68.0014
G00 Z1.0000
G00 X2.0738 Y70.5414
G01 F60.00
G01 Z-2.8000
G01 F120.00
G01 X2.0738 Y70.5413
G01 X2.0737 Y70.5414
G01 X2.0738 Y70.5414
G01 X2.0738 Y70.5414
G00 Z1.0000
G00 X2.0738 Y73.0814
G01 F60.00
G01 Z-2.8000
G01 F120.00
G01 X2.0738 Y73.0813
G01 X2.0737 Y73.0814
G01 X2.0738 Y73.0814
G01 X2.0738 Y73.0814
G00 Z1.0000
G00 X2.0738 Y75.6214
G01 F60.00
G01 Z-2.8000
G01 F120.00
G01 X2.0738 Y75.6213
G01 X2.0737 Y75.6214
G01 X2.0738 Y75.6214
G01 X2.0738 Y75.6214
G00 Z1.0000
G00 X2.0738 Y78.1614
G01 F60.00
G01 Z-2.8000
G01 F120.00
G01 X2.0738 Y78.1613
G01 X2.0737 Y78.1614
G01 X2.0738 Y78.1614
G01 X2.0738 Y78.1614
G00 Z1.0000
G00 X2.0738 Y80.7014
G01 F60.00
G01 Z-2.8000
G01 F120.00
G01 X2.0738 Y80.7013
G01 X2.0737 Y80.7014
G01 X2.0738 Y80.7014
G01 X2.0738 Y80.7014
G00 Z1.0000
G00 X2.0738 Y83.2414
G01 F60.00
G01 Z-2.8000
G01 F120.00
G01 X2.0738 Y83.2413
G01 X2.0737 Y83.2414
G01 X2.0738 Y83.2414
G01 X2.0738 Y83.2414
G00 Z1.0000
G00 X2.0738 Y85.7814
G01 F60.00
G01 Z-2.8000
G01 F120.00
G01 X2.0738 Y85.7813
G01 X2.0737 Y85.7814
G01 X2.0738 Y85.7814
G01 X2.0738 Y85.7814
G00 Z1.0000
G00 X2.0738 Y88.3214
G01 F60.00
G01 Z-2.8000
G01 F120.00
G01 X2.0738 Y88.3213
G01 X2.0737 Y88.3214
G01 X2.0738 Y88.3214
G01 X2.0738 Y88.3214
G00 Z1.0000
G00 X2.0738 Y90.8614
G01 F60.00
G01 Z-2.8000
G01 F120.00
G01 X2.0738 Y90.8613
G01 X2.0737 Y90.8614
G01 X2.0738 Y90.8614
G01 X2.0738 Y90.8614
G00 Z1.0000
G00 X2.0738 Y93.4014
G01 F60.00
G01 Z-2.8000
G01 F120.00
G01 X2.0738 Y93.4013
G01 X2.0737 Y93.4014
G01 X2.0738 Y93.4014
G01 X2.0738 Y93.4014
G00 Z1.0000
G00 X6.7652 Y95.0498
G01 F60.00
G01 Z-2.8000
G01 F120.00
G01 X6.7652 Y95.0498
G01 X6.7651 Y95.0498
G01 X6.7652 Y95.0499
G01 X6.7652 Y95.0498
G00 Z1.0000
G00 X9.2646 Y95.0498
G01 F60.00
G01 Z-2.8000
G01 F120.00
G01 X9.2645 Y95.0498
G01 X9.2645 Y95.0498
G01 X9.2645 Y95.0499
G01 X9.2646 Y95.0498
G00 Z1.0000
G00 X15.2640 Y92.8705
G01 F60.00
G01 Z-2.8000
G01 F120.00
G01 X15.2640 Y92.8704
G01 X15.2639 Y92.8705
G01 X15.2640 Y92.8705
G01 X15.2640 Y92.8705
G00 Z1.0000
G00 X15.2640 Y90.3305
G01 F60.00
G01 Z-2.8000
G01 F120.00
G01 X15.2640 Y90.3304
G01 X15.2639 Y90.3305
G01 X15.2640 Y90.3305
G01 X15.2640 Y90.3305
G00 Z1.0000
G00 X15.2640 Y87.7905
G01 F60.00
G01 Z-2.8000
G01 F120.00
G01 X15.2640 Y87.7904
G01 X15.2639 Y87.7905
G01 X15.2640 Y87.7905
G01 X15.2640 Y87.7905
G00 Z1.0000
G00 X15.2640 Y85.2505
G01 F60.00
G01 Z-2.8000
G01 F120.00
G01 X15.2640 Y85.2504
G01 X15.2639 Y85.2505
G01 X15.2640 Y85.2505
G01 X15.2640 Y85.2505
G00 Z1.0000
G00 X15.2640 Y82.7105
G01 F60.00
G01 Z-2.8000
G01 F120.00
G01 X15.2640 Y82.7104
G01 X15.2639 Y82.7105
G01 X15.2640 Y82.7105
G01 X15.2640 Y82.7105
G00 Z1.0000
G00 X15.2640 Y80.1705
G01 F60.00
G01 Z-2.8000
G01 F120.00
G01 X15.2640 Y80.1704
G01 X15.2639 Y80.1705
G01 X15.2640 Y80.1705
G01 X15.2640 Y80.1705
G00 Z1.0000
G00 X15.2640 Y77.6305
G01 F60.00
G01 Z-2.8000
G01 F120.00
G01 X15.2640 Y77.6304
G01 X15.2639 Y77.6305
G01 X15.2640 Y77.6305
G01 X15.2640 Y77.6305
G00 Z1.0000
G00 X15.2640 Y75.0905
G01 F60.00
G01 Z-2.8000
G01 F120.00
G01 X15.2640 Y75.0904
G01 X15.2639 Y75.0905
G01 X15.2640 Y75.0905
G01 X15.2640 Y75.0905
G00 Z1.0000
G00 X15.2640 Y72.5505
G01 F60.00
G01 Z-2.8000
G01 F120.00
G01 X15.2640 Y72.5504
G01 X15.2639 Y72.5505
G01 X15.2640 Y72.5505
G01 X15.2640 Y72.5505
G00 Z1.0000
G00 X15.2640 Y70.0105
G01 F60.00
G01 Z-2.8000
G01 F120.00
G01 X15.2640 Y70.0104
G01 X15.2639 Y70.0105
G01 X15.2640 Y70.0105
G01 X15.2640 Y70.0105
G00 Z1.0000
G00 X15.2640 Y67.4705
G01 F60.00
G01 Z-2.8000
G01 F120.00
G01 X15.2640 Y67.4704
G01 X15.2639 Y67.4705
G01 X15.2640 Y67.4705
G01 X15.2640 Y67.4705
G00 Z1.0000
G00 X15.2640 Y64.9305
G01 F60.00
G01 Z-2.8000
G01 F120.00
G01 X15.2640 Y64.9304
G01 X15.2639 Y64.9305
G01 X15.2640 Y64.9305
G01 X15.2640 Y64.9305
G00 Z1.0000
G00 X15.2640 Y62.3905
G01 F60.00
G01 Z-2.8000
G01 F120.00
G01 X15.2640 Y62.3904
G01 X15.2639 Y62.3905
G01 X15.2640 Y62.3905
G01 X15.2640 Y62.3905
G00 Z1.0000
G00 X15.2640 Y59.8505
G01 F60.00
G01 Z-2.8000
G01 F120.00
G01 X15.2640 Y59.8504
G01 X15.2639 Y59.8505
G01 X15.2640 Y59.8505
G01 X15.2640 Y59.8505
G00 Z1.0000
G00 X15.2640 Y57.3105
G01 F60.00
G01 Z-2.8000
G01 F120.00
G01 X15.2640 Y57.3104
G01 X15.2639 Y57.3105
G01 X15.2640 Y57.3105
G01 X15.2640 Y57.3105
G00 Z1.0000
G00 X15.2640 Y54.7705
G01 F60.00
G01 Z-2.8000
G01 F120.00
G01 X15.2640 Y54.7704
G01 X15.2639 Y54.7705
G01 X15.2640 Y54.7705
G01 X15.2640 Y54.7705
G00 Z1.0000
G00 X15.2640 Y52.2305
G01 F60.00
G01 Z-2.8000
G01 F120.00
G01 X15.2640 Y52.2304
G01 X15.2639 Y52.2305
G01 X15.2640 Y52.2305
G01 X15.2640 Y52.2305
G00 Z1.0000
G00 X15.2640 Y49.6905
G01 F60.00
G01 Z-2.8000
G01 F120.00
G01 X15.2640 Y49.6904
G01 X15.2639 Y49.6905
G01 X15.2640 Y49.6905
G01 X15.2640 Y49.6905
G00 Z1.0000
G00 X15.2640 Y47.1505
G01 F60.00
G01 Z-2.8000
G01 F120.00
G01 X15.2640 Y47.1504
G01 X15.2639 Y47.1505
G01 X15.2640 Y47.1505
G01 X15.2640 Y47.1505
G00 Z1.0000
G00 X15.2640 Y44.6105
G01 F60.00
G01 Z-2.8000
G01 F120.00
G01 X15.2640 Y44.6104
G01 X15.2639 Y44.6105
G01 X15.2640 Y44.6105
G01 X15.2640 Y44.6105
G00 Z1.0000
G00 X21.6242 Y48.4205
G01 F60.00
G01 Z-2.8000
G01 F120.00
G01 X21.6242 Y48.4204
G01 X21.6241 Y48.4205
G01 X21.6242 Y48.4205
G01 X21.6242 Y48.4205
G00 Z1.0000
G00 X24.1642 Y48.4205
G01 F60.00
G01 Z-2.8000
G01 F120.00
G01 X24.1642 Y48.4204
G01 X24.1641 Y48.4205
G01 X24.1642 Y48.4205
G01 X24.1642 Y48.4205
G00 Z1.0000
G00 X30.5040 Y49.6905
G01 F60.00
G01 Z-2.8000
G01 F120.00
G01 X30.5040 Y49.6904
G01 X30.5039 Y49.6905
G01 X30.5040 Y49.6905
G01 X30.5040 Y49.6905
G00 Z1.0000
G00 X30.5040 Y47.1505
G01 F60.00
G01 Z-2.8000
G01 F120.00
G01 X30.5040 Y47.1504
G01 X30.5039 Y47.1505
G01 X30.5040 Y47.1505
G01 X30.5040 Y47.1505
G00 Z1.0000
G00 X30.5040 Y44.5597
G01 F60.00
G01 Z-2.8000
G01 F120.00
G01 X30.5040 Y44.5596
G01 X30.5039 Y44.5597
G01 X30.5040 Y44.5597
G01 X30.5040 Y44.5597
G00 Z1.0000
G00 X30.5040 Y52.2305
G01 F60.00
G01 Z-2.8000
G01 F120.00
G01 X30.5040 Y52.2304
G01 X30.5039 Y52.2305
G01 X30.5040 Y52.2305
G01 X30.5040 Y52.2305
G00 Z1.0000
G00 X30.5040 Y54.7705
G01 F60.00
G01 Z-2.8000
G01 F120.00
G01 X30.5040 Y54.7704
G01 X30.5039 Y54.7705
G01 X30.5040 Y54.7705
G01 X30.5040 Y54.7705
G00 Z1.0000
G00 X30.5040 Y57.3105
G01 F60.00
G01 Z-2.8000
G01 F120.00
G01 X30.5040 Y57.3104
G01 X30.5039 Y57.3105
G01 X30.5040 Y57.3105
G01 X30.5040 Y57.3105
G00 Z1.0000
G00 X30.5040 Y59.8505
G01 F60.00
G01 Z-2.8000
G01 F120.00
G01 X30.5040 Y59.8504
G01 X30.5039 Y59.8505
G01 X30.5040 Y59.8505
G01 X30.5040 Y59.8505
G00 Z1.0000
G00 X30.5040 Y62.3905
G01 F60.00
G01 Z-2.8000
G01 F120.00
G01 X30.5040 Y62.3904
G01 X30.5039 Y62.3905
G01 X30.5040 Y62.3905
G01 X30.5040 Y62.3905
G00 Z1.0000
G00 X30.5040 Y64.9305
G01 F60.00
G01 Z-2.8000
G01 F120.00
G01 X30.5040 Y64.9304
G01 X30.5039 Y64.9305
G01 X30.5040 Y64.9305
G01 X30.5040 Y64.9305
G00 Z1.0000
G00 X30.5040 Y67.4705
G01 F60.00
G01 Z-2.8000
G01 F120.00
G01 X30.5040 Y67.4704
G01 X30.5039 Y67.4705
G01 X30.5040 Y67.4705
G01 X30.5040 Y67.4705
G00 Z1.0000
G00 X30.5040 Y70.0105
G01 F60.00
G01 Z-2.8000
G01 F120.00
G01 X30.5040 Y70.0104
G01 X30.5039 Y70.0105
G01 X30.5040 Y70.0105
G01 X30.5040 Y70.0105
G00 Z1.0000
G00 X30.5040 Y72.5505
G01 F60.00
G01 Z-2.8000
G01 F120.00
G01 X30.5040 Y72.5504
G01 X30.5039 Y72.5505
G01 X30.5040 Y72.5505
G01 X30.5040 Y72.5505
G00 Z1.0000
G00 X30.5040 Y75.0905
G01 F60.00
G01 Z-2.8000
G01 F120.00
G01 X30.5040 Y75.0904
G01 X30.5039 Y75.0905
G01 X30.5040 Y75.0905
G01 X30.5040 Y75.0905
G00 Z1.0000
G00 X30.5040 Y77.6305
G01 F60.00
G01 Z-2.8000
G01 F120.00
G01 X30.5040 Y77.6304
G01 X30.5039 Y77.6305
G01 X30.5040 Y77.6305
G01 X30.5040 Y77.6305
G00 Z1.0000
G00 X30.5040 Y80.1705
G01 F60.00
G01 Z-2.8000
G01 F120.00
G01 X30.5040 Y80.1704
G01 X30.5039 Y80.1705
G01 X30.5040 Y80.1705
G01 X30.5040 Y80.1705
G00 Z1.0000
G00 X30.5040 Y82.7105
G01 F60.00
G01 Z-2.8000
G01 F120.00
G01 X30.5040 Y82.7104
G01 X30.5039 Y82.7105
G01 X30.5040 Y82.7105
G01 X30.5040 Y82.7105
G00 Z1.0000
G00 X30.5040 Y85.2505
G01 F60.00
G01 Z-2.8000
G01 F120.00
G01 X30.5040 Y85.2504
G01 X30.5039 Y85.2505
G01 X30.5040 Y85.2505
G01 X30.5040 Y85.2505
G00 Z1.0000
G00 X30.5040 Y87.7905
G01 F60.00
G01 Z-2.8000
G01 F120.00
G01 X30.5040 Y87.7904
G01 X30.5039 Y87.7905
G01 X30.5040 Y87.7905
G01 X30.5040 Y87.7905
G00 Z1.0000
G00 X30.5040 Y90.3305
G01 F60.00
G01 Z-2.8000
G01 F120.00
G01 X30.5040 Y90.3304
G01 X30.5039 Y90.3305
G01 X30.5040 Y90.3305
G01 X30.5040 Y90.3305
G00 Z1.0000
G00 X30.5040 Y92.8705
G01 F60.00
G01 Z-2.8000
G01 F120.00
G01 X30.5040 Y92.8704
G01 X30.5039 Y92.8705
G01 X30.5040 Y92.8705
G01 X30.5040 Y92.8705
G00 Z1.0000
G00 X33.1863 Y97.5492
G01 F60.00
G01 Z-2.8000
G01 F120.00
G01 X33.1862 Y97.5491
G01 X33.1862 Y97.5492
G01 X33.1862 Y97.5492
G01 X33.1863 Y97.5492
G00 Z1.0000
G00 X43.3463 Y97.5492
G01 F60.00
G01 Z-2.8000
G01 F120.00
G01 X43.3462 Y97.5491
G01 X43.3462 Y97.5492
G01 X43.3462 Y97.5492
G01 X43.3463 Y97.5492
G00 Z1.0000
G00 X47.0140 Y95.7991
G01 F60.00
G01 Z-2.8000
G01 F120.00
G01 X47.0140 Y95.7991
G01 X47.0139 Y95.7991
G01 X47.0140 Y95.7992
G01 X47.0140 Y95.7991
G00 Z1.0000
G00 X49.6353 Y91.6005
G01 F60.00
G01 Z-2.8000
G01 F120.00
G01 X49.6353 Y91.6004
G01 X49.6352 Y91.6005
G01 X49.6353 Y91.6005
G01 X49.6353 Y91.6005
G00 Z1.0000
G00 X49.6353 Y87.5492
G01 F60.00
G01 Z-2.8000
G01 F120.00
G01 X49.6353 Y87.5491
G01 X49.6352 Y87.5492
G01 X49.6353 Y87.5492
G01 X49.6353 Y87.5492
G00 Z1.0000
G00 X50.2652 Y83.0509
G01 F60.00
G01 Z-2.8000
G01 F120.00
G01 X50.2652 Y83.0508
G01 X50.2651 Y83.0509
G01 X50.2652 Y83.0509
G01 X50.2652 Y83.0509
G00 Z1.0000
G00 X50.2652 Y79.6295
G01 F60.00
G01 Z-2.8000
G01 F120.00
G01 X50.2652 Y79.6294
G01 X50.2651 Y79.6295
G01 X50.2652 Y79.6295
G01 X50.2652 Y79.6295
G00 Z1.0000
G00 X54.2048 Y79.5507
G01 F60.00
G01 Z-2.8000
G01 F120.00
G01 X54.2047 Y79.5507
G01 X54.2047 Y79.5507
G01 X54.2047 Y79.5508
G01 X54.2048 Y79.5507
G00 Z1.0000
G00 X54.2048 Y83.0509
G01 F60.00
G01 Z-2.8000
G01 F120.00
G01 X54.2047 Y83.0508
G01 X54.2047 Y83.0509
G01 X54.2047 Y83.0509
G01 X54.2048 Y83.0509
G00 Z1.0000
G00 X61.8248 Y83.0509
G01 F60.00
G01 Z-2.8000
G01 F120.00
G01 X61.8247 Y83.0508
G01 X61.8247 Y83.0509
G01 X61.8247 Y83.0509
G01 X61.8248 Y83.0509
G00 Z1.0000
G00 X61.8248 Y79.5507
G01 F60.00
G01 Z-2.8000
G01 F120.00
G01 X61.8247 Y79.5507
G01 X61.8247 Y79.5507
G01 X61.8247 Y79.5508
G01 X61.8248 Y79.5507
G00 Z1.0000
G00 X65.7643 Y79.3602
G01 F60.00
G01 Z-2.8000
G01 F120.00
G01 X65.7643 Y79.3602
G01 X65.7642 Y79.3602
G01 X65.7643 Y79.3603
G01 X65.7643 Y79.3602
G00 Z1.0000
G00 X70.4151 Y79.2561
G01 F60.00
G01 Z-2.8000
G01 F120.00
G01 X70.4150 Y79.2560
G01 X70.4150 Y79.2561
G01 X70.4150 Y79.2561
G01 X70.4151 Y79.2561
G00 Z1.0000
G00 X70.4151 Y81.7555
G01 F60.00
G01 Z-2.8000
G01 F120.00
G01 X70.4150 Y81.7554
G01 X70.4150 Y81.7555
G01 X70.4150 Y81.7555
G01 X70.4151 Y81.7555
G00 Z1.0000
G00 X67.6439 Y85.4308
G01 F60.00
G01 Z-2.8000
G01 F120.00
G01 X67.6439 Y85.4308
G01 X67.6438 Y85.4308
G01 X67.6439 Y85.4309
G01 X67.6439 Y85.4308
G00 Z1.0000
G00 X67.6439 Y87.9708
G01 F60.00
G01 Z-2.8000
G01 F120.00
G01 X67.6439 Y87.9708
G01 X67.6438 Y87.9708
G01 X67.6439 Y87.9709
G01 X67.6439 Y87.9708
G00 Z1.0000
G00 X67.6439 Y90.5108
G01 F60.00
G01 Z-2.8000
G01 F120.00
G01 X67.6439 Y90.5108
G01 X67.6438 Y90.5108
G01 X67.6439 Y90.5109
G01 X67.6439 Y90.5108
G00 Z1.0000
G00 X67.6439 Y93.0508
G01 F60.00
G01 Z-2.8000
G01 F120.00
G01 X67.6439 Y93.0508
G01 X67.6438 Y93.0508
G01 X67.6439 Y93.0509
G01 X67.6439 Y93.0508
G00 Z1.0000
G00 X64.0397 Y95.6747
G01 F60.00
G01 Z-2.8000
G01 F120.00
G01 X64.0396 Y95.6746
G01 X64.0396 Y95.6747
G01 X64.0396 Y95.6747
G01 X64.0397 Y95.6747
G00 Z1.0000
G00 X61.4997 Y95.6747
G01 F60.00
G01 Z-2.8000
G01 F120.00
G01 X61.4996 Y95.6746
G01 X61.4996 Y95.6747
G01 X61.4996 Y95.6747
G01 X61.4997 Y95.6747
G00 Z1.0000
G00 X61.1491 Y91.8012
G01 F60.00
G01 Z-2.8000
G01 F120.00
G01 X61.1491 Y91.8011
G01 X61.1490 Y91.8012
G01 X61.1491 Y91.8012
G01 X61.1491 Y91.8012
G00 Z1.0000
G00 X61.0145 Y88.0496
G01 F60.00
G01 Z-2.8000
G01 F120.00
G01 X61.0145 Y88.0495
G01 X61.0144 Y88.0496
G01 X61.0145 Y88.0496
G01 X61.0145 Y88.0496
G00 Z1.0000
G00 X63.5139 Y88.0496
G01 F60.00
G01 Z-2.8000
G01 F120.00
G01 X63.5138 Y88.0495
G01 X63.5138 Y88.0496
G01 X63.5138 Y88.0496
G01 X63.5139 Y88.0496
G00 Z1.0000
G00 X54.6315 Y91.8012
G01 F60.00
G01 Z-2.8000
G01 F120.00
G01 X54.6315 Y91.8011
G01 X54.6314 Y91.8012
G01 X54.6315 Y91.8012
G01 X54.6315 Y91.8012
G00 Z1.0000
G00 X54.6340 Y95.7991
G01 F60.00
G01 Z-2.8000
G01 F120.00
G01 X54.6340 Y95.7991
G01 X54.6339 Y95.7991
G01 X54.6340 Y95.7992
G01 X54.6340 Y95.7991
G00 Z1.0000
G00 X42.0153 Y91.6005
G01 F60.00
G01 Z-2.8000
G01 F120.00
G01 X42.0153 Y91.6004
G01 X42.0152 Y91.6005
G01 X42.0153 Y91.6005
G01 X42.0153 Y91.6005
G00 Z1.0000
G00 X42.0153 Y87.5492
G01 F60.00
G01 Z-2.8000
G01 F120.00
G01 X42.0153 Y87.5491
G01 X42.0152 Y87.5492
G01 X42.0153 Y87.5492
G01 X42.0153 Y87.5492
G00 Z1.0000
G00 X38.7641 Y88.6312
G01 F60.00
G01 Z-2.8000
G01 F120.00
G01 X38.7641 Y88.6312
G01 X38.7640 Y88.6312
G01 X38.7641 Y88.6313
G01 X38.7641 Y88.6312
G00 Z1.0000
G00 X44.2658 Y83.0509
G01 F60.00
G01 Z-2.8000
G01 F120.00
G01 X44.2657 Y83.0508
G01 X44.2657 Y83.0509
G01 X44.2657 Y83.0509
G01 X44.2658 Y83.0509
G00 Z1.0000
G00 X38.7641 Y78.4712
G01 F60.00
G01 Z-2.8000
G01 F120.00
G01 X38.7641 Y78.4712
G01 X38.7640 Y78.4712
G01 X38.7641 Y78.4713
G01 X38.7641 Y78.4712
G00 Z1.0000
G00 X40.4710 Y74.0491
G01 F60.00
G01 Z-2.8000
G01 F120.00
G01 X40.4710 Y74.0490
G01 X40.4709 Y74.0491
G01 X40.4710 Y74.0491
G01 X40.4710 Y74.0491
G00 Z1.0000
G00 X42.9704 Y74.0491
G01 F60.00
G01 Z-2.8000
G01 F120.00
G01 X42.9703 Y74.0490
G01 X42.9703 Y74.0491
G01 X42.9703 Y74.0491
G01 X42.9704 Y74.0491
G00 Z1.0000
G00 X50.2652 Y69.4695
G01 F60.00
G01 Z-2.8000
G01 F120.00
G01 X50.2652 Y69.4694
G01 X50.2651 Y69.4695
G01 X50.2652 Y69.4695
G01 X50.2652 Y69.4695
G00 Z1.0000
G00 X47.5144 Y65.5503
G01 F60.00
G01 Z-2.8000
G01 F120.00
G01 X47.5144 Y65.5502
G01 X47.5143 Y65.5503
G01 X47.5144 Y65.5503
G01 X47.5144 Y65.5503
G00 Z1.0000
G00 X47.5144 Y59.7997
G01 F60.00
G01 Z-2.8000
G01 F120.00
G01 X47.5144 Y59.7996
G01 X47.5143 Y59.7997
G01 X47.5144 Y59.7997
G01 X47.5144 Y59.7997
G00 Z1.0000
G00 X47.8446 Y54.5495
G01 F60.00
G01 Z-2.8000
G01 F120.00
G01 X47.8446 Y54.5495
G01 X47.8445 Y54.5495
G01 X47.8446 Y54.5496
G01 X47.8446 Y54.5495
G00 Z1.0000
G00 X45.0151 Y50.5490
G01 F60.00
G01 Z-2.8000
G01 F120.00
G01 X45.0150 Y50.5490
G01 X45.0150 Y50.5490
G01 X45.0150 Y50.5491
G01 X45.0151 Y50.5490
G00 Z1.0000
G00 X42.5157 Y44.3006
G01 F60.00
G01 Z-2.8000
G01 F120.00
G01 X42.5157 Y44.3006
G01 X42.5156 Y44.3006
G01 X42.5157 Y44.3007
G01 X42.5157 Y44.3006
G00 Z1.0000
G00 X40.3796 Y39.0504
G01 F60.00
G01 Z-2.8000
G01 F120.00
G01 X40.3795 Y39.0504
G01 X40.3795 Y39.0504
G01 X40.3795 Y39.0505
G01 X40.3796 Y39.0504
G00 Z1.0000
G00 X38.2663 Y35.5503
G01 F60.00
G01 Z-2.8000
G01 F120.00
G01 X38.2662 Y35.5503
G01 X38.2662 Y35.5503
G01 X38.2662 Y35.5504
G01 X38.2663 Y35.5503
G00 Z1.0000
G00 X42.5157 Y31.5498
G01 F60.00
G01 Z-2.8000
G01 F120.00
G01 X42.5157 Y31.5498
G01 X42.5156 Y31.5498
G01 X42.5157 Y31.5499
G01 X42.5157 Y31.5498
G00 Z1.0000
G00 X45.0151 Y33.4167
G01 F60.00
G01 Z-2.8000
G01 F120.00
G01 X45.0150 Y33.4167
G01 X45.0150 Y33.4167
G01 X45.0150 Y33.4168
G01 X45.0151 Y33.4167
G00 Z1.0000
G00 X45.2640 Y29.2994
G01 F60.00
G01 Z-2.8000
G01 F120.00
G01 X45.2639 Y29.2993
G01 X45.2639 Y29.2994
G01 X45.2639 Y29.2994
G01 X45.2640 Y29.2994
G00 Z1.0000
G00 X54.5248 Y30.1020
G01 F60.00
G01 Z-2.8000
G01 F120.00
G01 X54.5248 Y30.1020
G01 X54.5247 Y30.1020
G01 X54.5248 Y30.1021
G01 X54.5248 Y30.1020
G00 Z1.0000
G00 X54.5248 Y27.5620
G01 F60.00
G01 Z-2.8000
G01 F120.00
G01 X54.5248 Y27.5620
G01 X54.5247 Y27.5620
G01 X54.5248 Y27.5621
G01 X54.5248 Y27.5620
G00 Z1.0000
G00 X54.5248 Y25.0220
G01 F60.00
G01 Z-2.8000
G01 F120.00
G01 X54.5248 Y25.0220
G01 X54.5247 Y25.0220
G01 X54.5248 Y25.0221
G01 X54.5248 Y25.0220
G00 Z1.0000
G00 X54.5248 Y22.4820
G01 F60.00
G01 Z-2.8000
G01 F120.00
G01 X54.5248 Y22.4820
G01 X54.5247 Y22.4820
G01 X54.5248 Y22.4821
G01 X54.5248 Y22.4820
G00 Z1.0000
G00 X54.5248 Y19.9420
G01 F60.00
G01 Z-2.8000
G01 F120.00
G01 X54.5248 Y19.9420
G01 X54.5247 Y19.9420
G01 X54.5248 Y19.9421
G01 X54.5248 Y19.9420
G00 Z1.0000
G00 X54.5248 Y17.4020
G01 F60.00
G01 Z-2.8000
G01 F120.00
G01 X54.5248 Y17.4020
G01 X54.5247 Y17.4020
G01 X54.5248 Y17.4021
G01 X54.5248 Y17.4020
G00 Z1.0000
G00 X54.5248 Y14.8620
G01 F60.00
G01 Z-2.8000
G01 F120.00
G01 X54.5248 Y14.8620
G01 X54.5247 Y14.8620
G01 X54.5248 Y14.8621
G01 X54.5248 Y14.8620
G00 Z1.0000
G00 X54.5248 Y12.3220
G01 F60.00
G01 Z-2.8000
G01 F120.00
G01 X54.5248 Y12.3220
G01 X54.5247 Y12.3220
G01 X54.5248 Y12.3221
G01 X54.5248 Y12.3220
G00 Z1.0000
G00 X54.5248 Y9.7820
G01 F60.00
G01 Z-2.8000
G01 F120.00
G01 X54.5248 Y9.7820
G01 X54.5247 Y9.7820
G01 X54.5248 Y9.7821
G01 X54.5248 Y9.7820
G00 Z1.0000
G00 X54.5248 Y7.2420
G01 F60.00
G01 Z-2.8000
G01 F120.00
G01 X54.5248 Y7.2420
G01 X54.5247 Y7.2420
G01 X54.5248 Y7.2421
G01 X54.5248 Y7.2420
G00 Z1.0000
G00 X54.5248 Y4.7020
G01 F60.00
G01 Z-2.8000
G01 F120.00
G01 X54.5248 Y4.7020
G01 X54.5247 Y4.7020
G01 X54.5248 Y4.7021
G01 X54.5248 Y4.7020
G00 Z1.0000
G00 X49.1654 Y1.4508
G01 F60.00
G01 Z-2.8000
G01 F120.00
G01 X49.1654 Y1.4508
G01 X49.1653 Y1.4508
G01 X49.1654 Y1.4509
G01 X49.1654 Y1.4508
G00 Z1.0000
G00 X46.3359 Y1.7505
G01 F60.00
G01 Z-2.8000
G01 F120.00
G01 X46.3358 Y1.7505
G01 X46.3358 Y1.7505
G01 X46.3358 Y1.7506
G01 X46.3359 Y1.7505
G00 Z1.0000
G00 X43.7959 Y1.7505
G01 F60.00
G01 Z-2.8000
G01 F120.00
G01 X43.7958 Y1.7505
G01 X43.7958 Y1.7505
G01 X43.7958 Y1.7506
G01 X43.7959 Y1.7505
G00 Z1.0000
G00 X41.2559 Y1.7505
G01 F60.00
G01 Z-2.8000
G01 F120.00
G01 X41.2558 Y1.7505
G01 X41.2558 Y1.7505
G01 X41.2558 Y1.7506
G01 X41.2559 Y1.7505
G00 Z1.0000
G00 X38.7159 Y1.7505
G01 F60.00
G01 Z-2.8000
G01 F120.00
G01 X38.7158 Y1.7505
G01 X38.7158 Y1.7505
G01 X38.7158 Y1.7506
G01 X38.7159 Y1.7505
G00 Z1.0000
G00 X40.0138 Y7.8008
G01 F60.00
G01 Z-2.8000
G01 F120.00
G01 X40.0138 Y7.8008
G01 X40.0137 Y7.8008
G01 X40.0138 Y7.8009
G01 X40.0138 Y7.8008
G00 Z1.0000
G00 X36.5162 Y7.8008
G01 F60.00
G01 Z-2.8000
G01 F120.00
G01 X36.5162 Y7.8008
G01 X36.5161 Y7.8008
G01 X36.5162 Y7.8009
G01 X36.5162 Y7.8008
G00 Z1.0000
G00 X40.0138 Y16.2997
G01 F60.00
G01 Z-2.8000
G01 F120.00
G01 X40.0138 Y16.2996
G01 X40.0137 Y16.2997
G01 X40.0138 Y16.2997
G01 X40.0138 Y16.2997
G00 Z1.0000
G00 X47.7659 Y16.2997
G01 F60.00
G01 Z-2.8000
G01 F120.00
G01 X47.7658 Y16.2996
G01 X47.7658 Y16.2997
G01 X47.7658 Y16.2997
G01 X47.7659 Y16.2997
G00 Z1.0000
G00 X36.5162 Y24.5496
G01 F60.00
G01 Z-2.8000
G01 F120.00
G01 X36.5162 Y24.5495
G01 X36.5161 Y24.5496
G01 X36.5162 Y24.5496
G01 X36.5162 Y24.5496
G00 Z1.0000
G00 X23.5140 Y29.2994
G01 F60.00
G01 Z-2.8000
G01 F120.00
G01 X23.5139 Y29.2993
G01 X23.5139 Y29.2994
G01 X23.5139 Y29.2994
G01 X23.5140 Y29.2994
G00 Z1.0000
G00 X27.0141 Y36.0507
G01 F60.00
G01 Z-2.8000
G01 F120.00
G01 X27.0140 Y36.0506
G01 X27.0140 Y36.0507
G01 X27.0140 Y36.0507
G01 X27.0141 Y36.0507
G00 Z1.0000
G00 X18.0149 Y36.0507
G01 F60.00
G01 Z-2.8000
G01 F120.00
G01 X18.0148 Y36.0506
G01 X18.0148 Y36.0507
G01 X18.0148 Y36.0507
G01 X18.0149 Y36.0507
G00 Z1.0000
G00 X14.0144 Y30.3001
G01 F60.00
G01 Z-2.8000
G01 F120.00
G01 X14.0143 Y30.3001
G01 X14.0143 Y30.3001
G01 X14.0143 Y30.3002
G01 X14.0144 Y30.3001
G00 Z1.0000
G00 X13.0161 Y25.7993
G01 F60.00
G01 Z-2.8000
G01 F120.00
G01 X13.0161 Y25.7992
G01 X13.0160 Y25.7993
G01 X13.0161 Y25.7993
G01 X13.0161 Y25.7993
G00 Z1.0000
G00 X17.2656 Y24.5496
G01 F60.00
G01 Z-2.8000
G01 F120.00
G01 X17.2655 Y24.5495
G01 X17.2655 Y24.5496
G01 X17.2655 Y24.5496
G01 X17.2656 Y24.5496
G00 Z1.0000
G00 X17.0141 Y20.8005
G01 F60.00
G01 Z-2.8000
G01 F120.00
G01 X17.0141 Y20.8005
G01 X17.0140 Y20.8005
G01 X17.0141 Y20.8006
G01 X17.0141 Y20.8005
G00 Z1.0000
G00 X17.0141 Y16.7492
G01 F60.00
G01 Z-2.8000
G01 F120.00
G01 X17.0141 Y16.7492
G01 X17.0140 Y16.7492
G01 X17.0141 Y16.7493
G01 X17.0141 Y16.7492
G00 Z1.0000
G00 X20.0138 Y12.2992
G01 F60.00
G01 Z-2.8000
G01 F120.00
G01 X20.0138 Y12.2991
G01 X20.0137 Y12.2992
G01 X20.0138 Y12.2992
G01 X20.0138 Y12.2992
G00 Z1.0000
G00 X25.0151 Y12.2992
G01 F60.00
G01 Z-2.8000
G01 F120.00
G01 X25.0151 Y12.2991
G01 X25.0150 Y12.2992
G01 X25.0151 Y12.2992
G01 X25.0151 Y12.2992
G00 Z1.0000
G00 X24.8856 Y3.5489
G01 F60.00
G01 Z-2.8000
G01 F120.00
G01 X24.8855 Y3.5488
G01 X24.8855 Y3.5489
G01 X24.8855 Y3.5489
G01 X24.8856 Y3.5489
G00 Z1.0000
G00 X22.3456 Y3.5489
G01 F60.00
G01 Z-2.8000
G01 F120.00
G01 X22.3455 Y3.5488
G01 X22.3455 Y3.5489
G01 X22.3455 Y3.5489
G01 X22.3456 Y3.5489
G00 Z1.0000
G00 X19.8056 Y3.5489
G01 F60.00
G01 Z-2.8000
G01 F120.00
G01 X19.8055 Y3.5488
G01 X19.8055 Y3.5489
G01 X19.8055 Y3.5489
G01 X19.8056 Y3.5489
G00 Z1.0000
G00 X17.2656 Y3.5489
G01 F60.00
G01 Z-2.8000
G01 F120.00
G01 X17.2655 Y3.5488
G01 X17.2655 Y3.5489
G01 X17.2655 Y3.5489
G01 X17.2656 Y3.5489
G00 Z1.0000
G00 X13.0161 Y8.7990
G01 F60.00
G01 Z-2.8000
G01 F120.00
G01 X13.0161 Y8.7990
G01 X13.0160 Y8.7990
G01 X13.0161 Y8.7991
G01 X13.0161 Y8.7990
G00 Z1.0000
G00 X6.7652 Y7.0490
G01 F60.00
G01 Z-2.8000
G01 F120.00
G01 X6.7652 Y7.0489
G01 X6.7651 Y7.0490
G01 X6.7652 Y7.0490
G01 X6.7652 Y7.0490
G00 Z1.0000
G00 X9.3941 Y16.7492
G01 F60.00
G01 Z-2.8000
G01 F120.00
G01 X9.3941 Y16.7492
G01 X9.3940 Y16.7492
G01 X9.3941 Y16.7493
G01 X9.3941 Y16.7492
G00 Z1.0000
G00 X9.3941 Y20.8005
G01 F60.00
G01 Z-2.8000
G01 F120.00
G01 X9.3941 Y20.8005
G01 X9.3940 Y20.8005
G01 X9.3941 Y20.8006
G01 X9.3941 Y20.8005
G00 Z1.0000
G00 X6.7652 Y22.7995
G01 F60.00
G01 Z-2.8000
G01 F120.00
G01 X6.7652 Y22.7995
G01 X6.7651 Y22.7995
G01 X6.7652 Y22.7996
G01 X6.7652 Y22.7995
G00 Z1.0000
G00 X5.8813 Y30.3001
G01 F60.00
G01 Z-2.8000
G01 F120.00
G01 X5.8812 Y30.3001
G01 X5.8812 Y30.3001
G01 X5.8812 Y30.3002
G01 X5.8813 Y30.3001
G00 Z1.0000
G00 X10.0139 Y36.0507
G01 F60.00
G01 Z-2.8000
G01 F120.00
G01 X10.0138 Y36.0506
G01 X10.0138 Y36.0507
G01 X10.0138 Y36.0507
G01 X10.0139 Y36.0507
G00 Z1.0000
G00 X7.5069 Y39.0403
G01 F60.00
G01 Z-2.8000
G01 F120.00
G01 X7.5068 Y39.0402
G01 X7.5068 Y39.0403
G01 X7.5068 Y39.0403
G01 X7.5069 Y39.0403
G00 Z1.0000
G00 X37.7659 Y50.5490
G01 F60.00
G01 Z-2.8000
G01 F120.00
G01 X37.7659 Y50.5490
G01 X37.7658 Y50.5490
G01 X37.7659 Y50.5491
G01 X37.7659 Y50.5490
G00 Z1.0000
G00 X37.6846 Y54.5495
G01 F60.00
G01 Z-2.8000
G01 F120.00
G01 X37.6846 Y54.5495
G01 X37.6845 Y54.5495
G01 X37.6846 Y54.5496
G01 X37.6846 Y54.5495
G00 Z1.0000
G00 X54.5248 Y53.0128
G01 F60.00
G01 Z-2.8000
G01 F120.00
G01 X54.5248 Y53.0128
G01 X54.5247 Y53.0128
G01 X54.5248 Y53.0129
G01 X54.5248 Y53.0128
G00 Z1.0000
G00 X54.5248 Y50.4220
G01 F60.00
G01 Z-2.8000
G01 F120.00
G01 X54.5248 Y50.4220
G01 X54.5247 Y50.4220
G01 X54.5248 Y50.4221
G01 X54.5248 Y50.4220
G00 Z1.0000
G00 X54.5248 Y47.8820
G01 F60.00
G01 Z-2.8000
G01 F120.00
G01 X54.5248 Y47.8820
G01 X54.5247 Y47.8820
G01 X54.5248 Y47.8821
G01 X54.5248 Y47.8820
G00 Z1.0000
G00 X54.5248 Y45.3420
G01 F60.00
G01 Z-2.8000
G01 F120.00
G01 X54.5248 Y45.3420
G01 X54.5247 Y45.3420
G01 X54.5248 Y45.3421
G01 X54.5248 Y45.3420
G00 Z1.0000
G00 X54.5248 Y42.8020
G01 F60.00
G01 Z-2.8000
G01 F120.00
G01 X54.5248 Y42.8020
G01 X54.5247 Y42.8020
G01 X54.5248 Y42.8021
G01 X54.5248 Y42.8020
G00 Z1.0000
G00 X54.5248 Y40.2620
G01 F60.00
G01 Z-2.8000
G01 F120.00
G01 X54.5248 Y40.2620
G01 X54.5247 Y40.2620
G01 X54.5248 Y40.2621
G01 X54.5248 Y40.2620
G00 Z1.0000
G00 X54.5248 Y37.7220
G01 F60.00
G01 Z-2.8000
G01 F120.00
G01 X54.5248 Y37.7220
G01 X54.5247 Y37.7220
G01 X54.5248 Y37.7221
G01 X54.5248 Y37.7220
G00 Z1.0000
G00 X54.5248 Y35.1820
G01 F60.00
G01 Z-2.8000
G01 F120.00
G01 X54.5248 Y35.1820
G01 X54.5247 Y35.1820
G01 X54.5248 Y35.1821
G01 X54.5248 Y35.1820
G00 Z1.0000
G00 X54.5248 Y32.6420
G01 F60.00
G01 Z-2.8000
G01 F120.00
G01 X54.5248 Y32.6420
G01 X54.5247 Y32.6420
G01 X54.5248 Y32.6421
G01 X54.5248 Y32.6420
G00 Z1.0000
G00 X69.7648 Y32.6420
G01 F60.00
G01 Z-2.8000
G01 F120.00
G01 X69.7648 Y32.6420
G01 X69.7647 Y32.6420
G01 X69.7648 Y32.6421
G01 X69.7648 Y32.6420
G00 Z1.0000
G00 X69.7648 Y35.1820
G01 F60.00
G01 Z-2.8000
G01 F120.00
G01 X69.7648 Y35.1820
G01 X69.7647 Y35.1820
G01 X69.7648 Y35.1821
G01 X69.7648 Y35.1820
G00 Z1.0000
G00 X69.7648 Y37.7220
G01 F60.00
G01 Z-2.8000
G01 F120.00
G01 X69.7648 Y37.7220
G01 X69.7647 Y37.7220
G01 X69.7648 Y37.7221
G01 X69.7648 Y37.7220
G00 Z1.0000
G00 X69.7648 Y40.2620
G01 F60.00
G01 Z-2.8000
G01 F120.00
G01 X69.7648 Y40.2620
G01 X69.7647 Y40.2620
G01 X69.7648 Y40.2621
G01 X69.7648 Y40.2620
G00 Z1.0000
G00 X69.7648 Y42.8020
G01 F60.00
G01 Z-2.8000
G01 F120.00
G01 X69.7648 Y42.8020
G01 X69.7647 Y42.8020
G01 X69.7648 Y42.8021
G01 X69.7648 Y42.8020
G00 Z1.0000
G00 X69.7648 Y45.3420
G01 F60.00
G01 Z-2.8000
G01 F120.00
G01 X69.7648 Y45.3420
G01 X69.7647 Y45.3420
G01 X69.7648 Y45.3421
G01 X69.7648 Y45.3420
G00 Z1.0000
G00 X69.7648 Y47.8820
G01 F60.00
G01 Z-2.8000
G01 F120.00
G01 X69.7648 Y47.8820
G01 X69.7647 Y47.8820
G01 X69.7648 Y47.8821
G01 X69.7648 Y47.8820
G00 Z1.0000
G00 X69.7648 Y50.4220
G01 F60.00
G01 Z-2.8000
G01 F120.00
G01 X69.7648 Y50.4220
G01 X69.7647 Y50.4220
G01 X69.7648 Y50.4221
G01 X69.7648 Y50.4220
G00 Z1.0000
G00 X69.7648 Y52.9620
G01 F60.00
G01 Z-2.8000
G01 F120.00
G01 X69.7648 Y52.9620
G01 X69.7647 Y52.9620
G01 X69.7648 Y52.9621
G01 X69.7648 Y52.9620
G00 Z1.0000
G00 X63.4047 Y49.1520
G01 F60.00
G01 Z-2.8000
G01 F120.00
G01 X63.4046 Y49.1520
G01 X63.4046 Y49.1520
G01 X63.4046 Y49.1521
G01 X63.4047 Y49.1520
G00 Z1.0000
G00 X60.8647 Y49.1520
G01 F60.00
G01 Z-2.8000
G01 F120.00
G01 X60.8646 Y49.1520
G01 X60.8646 Y49.1520
G01 X60.8646 Y49.1521
G01 X60.8647 Y49.1520
G00 Z1.0000
G00 X60.2652 Y57.3003
G01 F60.00
G01 Z-2.8000
G01 F120.00
G01 X60.2652 Y57.3003
G01 X60.2651 Y57.3003
G01 X60.2652 Y57.3004
G01 X60.2652 Y57.3003
G00 Z1.0000
G00 X57.0140 Y69.5508
G01 F60.00
G01 Z-2.8000
G01 F120.00
G01 X57.0140 Y69.5507
G01 X57.0139 Y69.5508
G01 X57.0140 Y69.5508
G01 X57.0140 Y69.5508
G00 Z1.0000
G00 X57.0140 Y74.8009
G01 F60.00
G01 Z-2.8000
G01 F120.00
G01 X57.0140 Y74.8009
G01 X57.0139 Y74.8009
G01 X57.0140 Y74.8010
G01 X57.0140 Y74.8009
G00 Z1.0000
G00 X60.2652 Y74.5495
G01 F60.00
G01 Z-2.8000
G01 F120.00
G01 X60.2652 Y74.5494
G01 X60.2651 Y74.5495
G01 X60.2652 Y74.5495
G01 X60.2652 Y74.5495
G00 Z1.0000
G00 X65.7643 Y71.7402
G01 F60.00
G01 Z-2.8000
G01 F120.00
G01 X65.7643 Y71.7402
G01 X65.7642 Y71.7402
G01 X65.7643 Y71.7403
G01 X65.7643 Y71.7402
G00 Z1.0000
G00 X70.5141 Y71.1306
G01 F60.00
G01 Z-2.8000
G01 F120.00
G01 X70.5141 Y71.1306
G01 X70.5140 Y71.1306
G01 X70.5141 Y71.1307
G01 X70.5141 Y71.1306
G00 Z1.0000
G00 X70.5141 Y68.5906
G01 F60.00
G01 Z-2.8000
G01 F120.00
G01 X70.5141 Y68.5906
G01 X70.5140 Y68.5906
G01 X70.5141 Y68.5907
G01 X70.5141 Y68.5906
G00 Z1.0000
G00 X70.5141 Y66.0506
G01 F60.00
G01 Z-2.8000
G01 F120.00
G01 X70.5141 Y66.0506
G01 X70.5140 Y66.0506
G01 X70.5141 Y66.0507
G01 X70.5141 Y66.0506
G00 Z1.0000
G00 X82.0838 Y66.7314
G01 F60.00
G01 Z-2.8000
G01 F120.00
G01 X82.0838 Y66.7313
G01 X82.0837 Y66.7314
G01 X82.0838 Y66.7314
G01 X82.0838 Y66.7314
G00 Z1.0000
G00 X82.0838 Y64.1914
G01 F60.00
G01 Z-2.8000
G01 F120.00
G01 X82.0838 Y64.1913
G01 X82.0837 Y64.1914
G01 X82.0838 Y64.1914
G01 X82.0838 Y64.1914
G00 Z1.0000
G00 X82.0838 Y61.6514
G01 F60.00
G01 Z-2.8000
G01 F120.00
G01 X82.0838 Y61.6513
G01 X82.0837 Y61.6514
G01 X82.0838 Y61.6514
G01 X82.0838 Y61.6514
G00 Z1.0000
G00 X82.0838 Y59.1114
G01 F60.00
G01 Z-2.8000
G01 F120.00
G01 X82.0838 Y59.1113
G01 X82.0837 Y59.1114
G01 X82.0838 Y59.1114
G01 X82.0838 Y59.1114
G00 Z1.0000
G00 X82.0838 Y56.5714
G01 F60.00
G01 Z-2.8000
G01 F120.00
G01 X82.0838 Y56.5713
G01 X82.0837 Y56.5714
G01 X82.0838 Y56.5714
G01 X82.0838 Y56.5714
G00 Z1.0000
G00 X82.0838 Y54.0314
G01 F60.00
G01 Z-2.8000
G01 F120.00
G01 X82.0838 Y54.0313
G01 X82.0837 Y54.0314
G01 X82.0838 Y54.0314
G01 X82.0838 Y54.0314
G00 Z1.0000
G00 X82.0838 Y51.4914
G01 F60.00
G01 Z-2.8000
G01 F120.00
G01 X82.0838 Y51.4913
G01 X82.0837 Y51.4914
G01 X82.0838 Y51.4914
G01 X82.0838 Y51.4914
G00 Z1.0000
G00 X82.0838 Y48.9514
G01 F60.00
G01 Z-2.8000
G01 F120.00
G01 X82.0838 Y48.9513
G01 X82.0837 Y48.9514
G01 X82.0838 Y48.9514
G01 X82.0838 Y48.9514
G00 Z1.0000
G00 X82.0838 Y46.4114
G01 F60.00
G01 Z-2.8000
G01 F120.00
G01 X82.0838 Y46.4113
G01 X82.0837 Y46.4114
G01 X82.0838 Y46.4114
G01 X82.0838 Y46.4114
G00 Z1.0000
G00 X82.0838 Y43.8714
G01 F60.00
G01 Z-2.8000
G01 F120.00
G01 X82.0838 Y43.8713
G01 X82.0837 Y43.8714
G01 X82.0838 Y43.8714
G01 X82.0838 Y43.8714
G00 Z1.0000
G00 X82.0838 Y41.3314
G01 F60.00
G01 Z-2.8000
G01 F120.00
G01 X82.0838 Y41.3313
G01 X82.0837 Y41.3314
G01 X82.0838 Y41.3314
G01 X82.0838 Y41.3314
G00 Z1.0000
G00 X82.0838 Y38.7914
G01 F60.00
G01 Z-2.8000
G01 F120.00
G01 X82.0838 Y38.7913
G01 X82.0837 Y38.7914
G01 X82.0838 Y38.7914
G01 X82.0838 Y38.7914
G00 Z1.0000
G00 X82.0838 Y36.2514
G01 F60.00
G01 Z-2.8000
G01 F120.00
G01 X82.0838 Y36.2513
G01 X82.0837 Y36.2514
G01 X82.0838 Y36.2514
G01 X82.0838 Y36.2514
G00 Z1.0000
G00 X82.0838 Y33.7114
G01 F60.00
G01 Z-2.8000
G01 F120.00
G01 X82.0838 Y33.7113
G01 X82.0837 Y33.7114
G01 X82.0838 Y33.7114
G01 X82.0838 Y33.7114
G00 Z1.0000
G00 X82.0838 Y31.1714
G01 F60.00
G01 Z-2.8000
G01 F120.00
G01 X82.0838 Y31.1713
G01 X82.0837 Y31.1714
G01 X82.0838 Y31.1714
G01 X82.0838 Y31.1714
G00 Z1.0000
G00 X82.0838 Y28.6314
G01 F60.00
G01 Z-2.8000
G01 F120.00
G01 X82.0838 Y28.6313
G01 X82.0837 Y28.6314
G01 X82.0838 Y28.6314
G01 X82.0838 Y28.6314
G00 Z1.0000
G00 X82.0838 Y26.0914
G01 F60.00
G01 Z-2.8000
G01 F120.00
G01 X82.0838 Y26.0913
G01 X82.0837 Y26.0914
G01 X82.0838 Y26.0914
G01 X82.0838 Y26.0914
G00 Z1.0000
G00 X82.0838 Y23.5514
G01 F60.00
G01 Z-2.8000
G01 F120.00
G01 X82.0838 Y23.5513
G01 X82.0837 Y23.5514
G01 X82.0838 Y23.5514
G01 X82.0838 Y23.5514
G00 Z1.0000
G00 X82.0838 Y21.0114
G01 F60.00
G01 Z-2.8000
G01 F120.00
G01 X82.0838 Y21.0113
G01 X82.0837 Y21.0114
G01 X82.0838 Y21.0114
G01 X82.0838 Y21.0114
G00 Z1.0000
G00 X82.0838 Y18.4714
G01 F60.00
G01 Z-2.8000
G01 F120.00
G01 X82.0838 Y18.4713
G01 X82.0837 Y18.4714
G01 X82.0838 Y18.4714
G01 X82.0838 Y18.4714
G00 Z1.0000
G00 X82.0838 Y15.9314
G01 F60.00
G01 Z-2.8000
G01 F120.00
G01 X82.0838 Y15.9313
G01 X82.0837 Y15.9314
G01 X82.0838 Y15.9314
G01 X82.0838 Y15.9314
G00 Z1.0000
G00 X82.0838 Y13.3914
G01 F60.00
G01 Z-2.8000
G01 F120.00
G01 X82.0838 Y13.3913
G01 X82.0837 Y13.3914
G01 X82.0838 Y13.3914
G01 X82.0838 Y13.3914
G00 Z1.0000
G00 X82.0838 Y10.8514
G01 F60.00
G01 Z-2.8000
G01 F120.00
G01 X82.0838 Y10.8513
G01 X82.0837 Y10.8514
G01 X82.0838 Y10.8514
G01 X82.0838 Y10.8514
G00 Z1.0000
G00 X82.0838 Y8.3114
G01 F60.00
G01 Z-2.8000
G01 F120.00
G01 X82.0838 Y8.3113
G01 X82.0837 Y8.3114
G01 X82.0838 Y8.3114
G01 X82.0838 Y8.3114
G00 Z1.0000
G00 X82.0838 Y5.7714
G01 F60.00
G01 Z-2.8000
G01 F120.00
G01 X82.0838 Y5.7713
G01 X82.0837 Y5.7714
G01 X82.0838 Y5.7714
G01 X82.0838 Y5.7714
G00 Z1.0000
G00 X82.0838 Y3.2314
G01 F60.00
G01 Z-2.8000
G01 F120.00
G01 X82.0838 Y3.2313
G01 X82.0837 Y3.2314
G01 X82.0838 Y3.2314
G01 X82.0838 Y3.2314
G00 Z1.0000
G00 X75.2639 Y1.8013
G01 F60.00
G01 Z-2.8000
G01 F120.00
G01 X75.2639 Y1.8013
G01 X75.2638 Y1.8013
G01 X75.2639 Y1.8014
G01 X75.2639 Y1.8013
G00 Z1.0000
G00 X69.7648 Y4.7020
G01 F60.00
G01 Z-2.8000
G01 F120.00
G01 X69.7648 Y4.7020
G01 X69.7647 Y4.7020
G01 X69.7648 Y4.7021
G01 X69.7648 Y4.7020
G00 Z1.0000
G00 X69.7648 Y7.2420
G01 F60.00
G01 Z-2.8000
G01 F120.00
G01 X69.7648 Y7.2420
G01 X69.7647 Y7.2420
G01 X69.7648 Y7.2421
G01 X69.7648 Y7.2420
G00 Z1.0000
G00 X69.7648 Y9.7820
G01 F60.00
G01 Z-2.8000
G01 F120.00
G01 X69.7648 Y9.7820
G01 X69.7647 Y9.7820
G01 X69.7648 Y9.7821
G01 X69.7648 Y9.7820
G00 Z1.0000
G00 X69.7648 Y12.3220
G01 F60.00
G01 Z-2.8000
G01 F120.00
G01 X69.7648 Y12.3220
G01 X69.7647 Y12.3220
G01 X69.7648 Y12.3221
G01 X69.7648 Y12.3220
G00 Z1.0000
G00 X69.7648 Y14.8620
G01 F60.00
G01 Z-2.8000
G01 F120.00
G01 X69.7648 Y14.8620
G01 X69.7647 Y14.8620
G01 X69.7648 Y14.8621
G01 X69.7648 Y14.8620
G00 Z1.0000
G00 X69.7648 Y17.4020
G01 F60.00
G01 Z-2.8000
G01 F120.00
G01 X69.7648 Y17.4020
G01 X69.7647 Y17.4020
G01 X69.7648 Y17.4021
G01 X69.7648 Y17.4020
G00 Z1.0000
G00 X69.7648 Y19.9420
G01 F60.00
G01 Z-2.8000
G01 F120.00
G01 X69.7648 Y19.9420
G01 X69.7647 Y19.9420
G01 X69.7648 Y19.9421
G01 X69.7648 Y19.9420
G00 Z1.0000
G00 X69.7648 Y22.4820
G01 F60.00
G01 Z-2.8000
G01 F120.00
G01 X69.7648 Y22.4820
G01 X69.7647 Y22.4820
G01 X69.7648 Y22.4821
G01 X69.7648 Y22.4820
G00 Z1.0000
G00 X69.7648 Y25.0220
G01 F60.00
G01 Z-2.8000
G01 F120.00
G01 X69.7648 Y25.0220
G01 X69.7647 Y25.0220
G01 X69.7648 Y25.0221
G01 X69.7648 Y25.0220
G00 Z1.0000
G00 X69.7648 Y27.5620
G01 F60.00
G01 Z-2.8000
G01 F120.00
G01 X69.7648 Y27.5620
G01 X69.7647 Y27.5620
G01 X69.7648 Y27.5621
G01 X69.7648 Y27.5620
G00 Z1.0000
G00 X69.7648 Y30.1020
G01 F60.00
G01 Z-2.8000
G01 F120.00
G01 X69.7648 Y30.1020
G01 X69.7647 Y30.1020
G01 X69.7648 Y30.1021
G01 X69.7648 Y30.1020
G00 Z1.0000
G00 X75.0150 Y24.8010
G01 F60.00
G01 Z-2.8000
G01 F120.00
G01 X75.0150 Y24.8010
G01 X75.0149 Y24.8010
G01 X75.0150 Y24.8011
G01 X75.0150 Y24.8010
G00 Z1.0000
G00 X75.0048 Y19.5407
G01 F60.00
G01 Z-2.8000
G01 F120.00
G01 X75.0048 Y19.5406
G01 X75.0047 Y19.5407
G01 X75.0048 Y19.5407
G01 X75.0048 Y19.5407
G00 Z1.0000
G00 X82.0838 Y69.2714
G01 F60.00
G01 Z-2.8000
G01 F120.00
G01 X82.0838 Y69.2713
G01 X82.0837 Y69.2714
G01 X82.0838 Y69.2714
G01 X82.0838 Y69.2714
G00 Z1.0000
G00 X82.0838 Y75.6214
G01 F60.00
G01 Z-2.8000
G01 F120.00
G01 X82.0838 Y75.6213
G01 X82.0837 Y75.6214
G01 X82.0838 Y75.6214
G01 X82.0838 Y75.6214
G00 Z1.0000
G00 X82.0838 Y78.1614
G01 F60.00
G01 Z-2.8000
G01 F120.00
G01 X82.0838 Y78.1613
G01 X82.0837 Y78.1614
G01 X82.0838 Y78.1614
G01 X82.0838 Y78.1614
G00 Z1.0000
G00 X82.0838 Y80.7014
G01 F60.00
G01 Z-2.8000
G01 F120.00
G01 X82.0838 Y80.7013
G01 X82.0837 Y80.7014
G01 X82.0838 Y80.7014
G01 X82.0838 Y80.7014
G00 Z1.0000
G00 X82.0838 Y83.2414
G01 F60.00
G01 Z-2.8000
G01 F120.00
G01 X82.0838 Y83.2413
G01 X82.0837 Y83.2414
G01 X82.0838 Y83.2414
G01 X82.0838 Y83.2414
G00 Z1.0000
G00 X82.0838 Y85.7814
G01 F60.00
G01 Z-2.8000
G01 F120.00
G01 X82.0838 Y85.7813
G01 X82.0837 Y85.7814
G01 X82.0838 Y85.7814
G01 X82.0838 Y85.7814
G00 Z1.0000
G00 X82.0838 Y88.3214
G01 F60.00
G01 Z-2.8000
G01 F120.00
G01 X82.0838 Y88.3213
G01 X82.0837 Y88.3214
G01 X82.0838 Y88.3214
G01 X82.0838 Y88.3214
G00 Z1.0000
G00 X82.0838 Y90.8614
G01 F60.00
G01 Z-2.8000
G01 F120.00
G01 X82.0838 Y90.8613
G01 X82.0837 Y90.8614
G01 X82.0838 Y90.8614
G01 X82.0838 Y90.8614
G00 Z1.0000
G00 X82.0838 Y93.4014
G01 F60.00
G01 Z-2.8000
G01 F120.00
G01 X82.0838 Y93.4013
G01 X82.0837 Y93.4014
G01 X82.0838 Y93.4014
G01 X82.0838 Y93.4014
G00 Z1.0000
G00 X75.2639 Y93.0508
G01 F60.00
G01 Z-2.8000
G01 F120.00
G01 X75.2639 Y93.0508
G01 X75.2638 Y93.0508
G01 X75.2639 Y93.0509
G01 X75.2639 Y93.0508
G00 Z1.0000
G00 X75.2639 Y90.5108
G01 F60.00
G01 Z-2.8000
G01 F120.00
G01 X75.2639 Y90.5108
G01 X75.2638 Y90.5108
G01 X75.2639 Y90.5109
G01 X75.2639 Y90.5108
G00 Z1.0000
G00 X75.2639 Y87.9708
G01 F60.00
G01 Z-2.8000
G01 F120.00
G01 X75.2639 Y87.9708
G01 X75.2638 Y87.9708
G01 X75.2639 Y87.9709
G01 X75.2639 Y87.9708
G00 Z1.0000
G00 X75.2639 Y85.4308
G01 F60.00
G01 Z-2.8000
G01 F120.00
G01 X75.2639 Y85.4308
G01 X75.2638 Y85.4308
G01 X75.2639 Y85.4309
G01 X75.2639 Y85.4308
G00 Z1.0000
M05
G00 Z1.0000
G00 Z15.00


