(G-CODE GENERATED BY FLATCAM v8.994 - www.flatcam.org - Version Date: 2020/11/7)

(Name: Fonte_tensao_LM675_v03-B_Cu.gbr_iso_combined_cnc)
(Type: G-code from Geometry)
(Units: MM)

(Created on quinta, 22 junho 2023 at 18:57)

(This preprocessor is the default preprocessor used by FlatCAM.)
(It is made to work with MACH3 compatible motion controllers.)

(TOOL DIAMETER: 0.25 mm)
(Feedrate_XY: 60.0 mm/min)
(Feedrate_Z: 60.0 mm/min)
(Feedrate rapids 1500.0 mm/min)

(Z_Cut: -0.1418 mm)
(Z_Move: 2.0 mm)
(Z Start: None mm)
(Z End: 15.0 mm)
(X,Y End: None mm)
(Steps per circle: 64)
(Preprocessor Geometry: default)

(X range:    0.5927 ...   85.8400  mm)
(Y range:    0.3707 ...   97.4453  mm)

(Spindle Speed: 1000.0 RPM)
G21
G90
G94

G01 F60.00

M5
G00 Z5.0000
G00 X0.0000 Y0.0000
(T1)
(M6  )  
(MSG, Change to Tool Dia = 0.2500)
(M0)
G00 Z5.0000

M03 S1000.0
G01 F60.00
G00 X2.8615 Y6.3736
G01 F60.00
G01 Z-0.1418
G01 F60.00
G01 X2.8627 Y6.3858
G01 X2.8677 Y6.4900
G01 X2.8623 Y6.6003
G01 X2.8461 Y6.7095
G01 X2.8192 Y6.8166
G01 X2.7820 Y6.9205
G01 X2.7348 Y7.0203
G01 X2.6781 Y7.1150
G01 X2.6123 Y7.2037
G01 X2.5382 Y7.2855
G01 X2.4564 Y7.3596
G01 X2.3677 Y7.4254
G01 X2.2730 Y7.4822
G01 X2.1732 Y7.5294
G01 X2.0693 Y7.5666
G01 X1.9622 Y7.5934
G01 X1.8530 Y7.6096
G01 X1.7427 Y7.6150
G01 X1.6324 Y7.6096
G01 X1.5232 Y7.5934
G01 X1.4161 Y7.5666
G01 X1.3122 Y7.5294
G01 X1.2124 Y7.4822
G01 X1.1177 Y7.4254
G01 X1.0290 Y7.3596
G01 X0.9472 Y7.2855
G01 X0.8730 Y7.2037
G01 X0.8073 Y7.1150
G01 X0.7505 Y7.0203
G01 X0.7033 Y6.9205
G01 X0.6661 Y6.8166
G01 X0.6393 Y6.7095
G01 X0.6231 Y6.6003
G01 X0.6177 Y6.4900
G01 X0.6231 Y6.3797
G01 X0.6393 Y6.2705
G01 X0.6661 Y6.1634
G01 X0.7033 Y6.0595
G01 X0.7505 Y5.9597
G01 X0.8073 Y5.8650
G01 X0.8730 Y5.7763
G01 X0.9472 Y5.6945
G01 X1.0290 Y5.6204
G01 X1.1177 Y5.5546
G01 X1.2124 Y5.4978
G01 X1.3122 Y5.4506
G01 X1.4161 Y5.4134
G01 X1.5232 Y5.3866
G01 X1.6324 Y5.3704
G01 X1.7427 Y5.3650
G01 X1.8530 Y5.3704
G01 X1.9622 Y5.3866
G01 X2.0693 Y5.4134
G01 X2.1732 Y5.4506
G01 X2.2730 Y5.4978
G01 X2.3677 Y5.5546
G01 X2.4564 Y5.6204
G01 X2.5382 Y5.6945
G01 X2.6123 Y5.7763
G01 X2.6781 Y5.8650
G01 X2.7348 Y5.9597
G01 X2.7820 Y6.0595
G01 X2.8192 Y6.1634
G01 X2.8461 Y6.2705
G01 X2.8615 Y6.3736
G00 Z2.0000
G00 X2.8862 Y6.3700
G01 F60.00
G01 Z-0.1418
G01 F60.00
G01 X2.8877 Y6.3846
G01 X2.8927 Y6.4900
G01 X2.8871 Y6.6027
G01 X2.8706 Y6.7144
G01 X2.8432 Y6.8238
G01 X2.8051 Y6.9301
G01 X2.7569 Y7.0321
G01 X2.6989 Y7.1289
G01 X2.6316 Y7.2196
G01 X2.5559 Y7.3032
G01 X2.4722 Y7.3790
G01 X2.3816 Y7.4462
G01 X2.2848 Y7.5042
G01 X2.1828 Y7.5525
G01 X2.0765 Y7.5905
G01 X1.9670 Y7.6179
G01 X1.8554 Y7.6345
G01 X1.7427 Y7.6400
G01 X1.6300 Y7.6345
G01 X1.5183 Y7.6179
G01 X1.4089 Y7.5905
G01 X1.3026 Y7.5525
G01 X1.2006 Y7.5042
G01 X1.1038 Y7.4462
G01 X1.0131 Y7.3790
G01 X0.9295 Y7.3032
G01 X0.8537 Y7.2196
G01 X0.7865 Y7.1289
G01 X0.7285 Y7.0321
G01 X0.6802 Y6.9301
G01 X0.6422 Y6.8238
G01 X0.6148 Y6.7144
G01 X0.5982 Y6.6027
G01 X0.5927 Y6.4900
G01 X0.5982 Y6.3773
G01 X0.6148 Y6.2656
G01 X0.6422 Y6.1562
G01 X0.6802 Y6.0499
G01 X0.7285 Y5.9479
G01 X0.7865 Y5.8511
G01 X0.8537 Y5.7604
G01 X0.9295 Y5.6768
G01 X1.0131 Y5.6010
G01 X1.1038 Y5.5338
G01 X1.2006 Y5.4758
G01 X1.3026 Y5.4275
G01 X1.4089 Y5.3895
G01 X1.5183 Y5.3621
G01 X1.6300 Y5.3455
G01 X1.7427 Y5.3400
G01 X1.8554 Y5.3455
G01 X1.9670 Y5.3621
G01 X2.0765 Y5.3895
G01 X2.1828 Y5.4275
G01 X2.2848 Y5.4758
G01 X2.3816 Y5.5338
G01 X2.4722 Y5.6010
G01 X2.5559 Y5.6768
G01 X2.6316 Y5.7604
G01 X2.6989 Y5.8511
G01 X2.7569 Y5.9479
G01 X2.8051 Y6.0499
G01 X2.8432 Y6.1562
G01 X2.8706 Y6.2656
G01 X2.8862 Y6.3700
G00 Z2.0000
G00 X2.8862 Y8.9100
G01 F60.00
G01 Z-0.1418
G01 F60.00
G01 X2.8877 Y8.9246
G01 X2.8927 Y9.0300
G01 X2.8871 Y9.1427
G01 X2.8706 Y9.2544
G01 X2.8432 Y9.3638
G01 X2.8051 Y9.4701
G01 X2.7569 Y9.5721
G01 X2.6989 Y9.6689
G01 X2.6316 Y9.7596
G01 X2.5559 Y9.8432
G01 X2.4722 Y9.9190
G01 X2.3816 Y9.9862
G01 X2.2848 Y10.0442
G01 X2.1828 Y10.0925
G01 X2.0765 Y10.1305
G01 X1.9670 Y10.1579
G01 X1.8554 Y10.1745
G01 X1.7427 Y10.1800
G01 X1.6300 Y10.1745
G01 X1.5183 Y10.1579
G01 X1.4089 Y10.1305
G01 X1.3026 Y10.0925
G01 X1.2006 Y10.0442
G01 X1.1038 Y9.9862
G01 X1.0131 Y9.9190
G01 X0.9295 Y9.8432
G01 X0.8537 Y9.7596
G01 X0.7865 Y9.6689
G01 X0.7285 Y9.5721
G01 X0.6802 Y9.4701
G01 X0.6422 Y9.3638
G01 X0.6148 Y9.2544
G01 X0.5982 Y9.1427
G01 X0.5927 Y9.0300
G01 X0.5982 Y8.9173
G01 X0.6148 Y8.8056
G01 X0.6422 Y8.6962
G01 X0.6802 Y8.5899
G01 X0.7285 Y8.4879
G01 X0.7865 Y8.3911
G01 X0.8537 Y8.3004
G01 X0.9295 Y8.2168
G01 X1.0131 Y8.1410
G01 X1.1038 Y8.0738
G01 X1.2006 Y8.0158
G01 X1.3026 Y7.9675
G01 X1.4089 Y7.9295
G01 X1.5183 Y7.9021
G01 X1.6300 Y7.8855
G01 X1.7427 Y7.8800
G01 X1.8554 Y7.8855
G01 X1.9670 Y7.9021
G01 X2.0765 Y7.9295
G01 X2.1828 Y7.9675
G01 X2.2848 Y8.0158
G01 X2.3816 Y8.0738
G01 X2.4722 Y8.1410
G01 X2.5559 Y8.2168
G01 X2.6316 Y8.3004
G01 X2.6989 Y8.3911
G01 X2.7569 Y8.4879
G01 X2.8051 Y8.5899
G01 X2.8432 Y8.6962
G01 X2.8706 Y8.8056
G01 X2.8862 Y8.9100
G00 Z2.0000
G00 X2.8615 Y8.9136
G01 F60.00
G01 Z-0.1418
G01 F60.00
G01 X2.8627 Y8.9258
G01 X2.8677 Y9.0300
G01 X2.8623 Y9.1403
G01 X2.8461 Y9.2495
G01 X2.8192 Y9.3566
G01 X2.7820 Y9.4605
G01 X2.7348 Y9.5603
G01 X2.6781 Y9.6550
G01 X2.6123 Y9.7437
G01 X2.5382 Y9.8255
G01 X2.4564 Y9.8996
G01 X2.3677 Y9.9654
G01 X2.2730 Y10.0222
G01 X2.1732 Y10.0694
G01 X2.0693 Y10.1066
G01 X1.9622 Y10.1334
G01 X1.8530 Y10.1496
G01 X1.7427 Y10.1550
G01 X1.6324 Y10.1496
G01 X1.5232 Y10.1334
G01 X1.4161 Y10.1066
G01 X1.3122 Y10.0694
G01 X1.2124 Y10.0222
G01 X1.1177 Y9.9654
G01 X1.0290 Y9.8996
G01 X0.9472 Y9.8255
G01 X0.8730 Y9.7437
G01 X0.8073 Y9.6550
G01 X0.7505 Y9.5603
G01 X0.7033 Y9.4605
G01 X0.6661 Y9.3566
G01 X0.6393 Y9.2495
G01 X0.6231 Y9.1403
G01 X0.6177 Y9.0300
G01 X0.6231 Y8.9197
G01 X0.6393 Y8.8105
G01 X0.6661 Y8.7034
G01 X0.7033 Y8.5995
G01 X0.7505 Y8.4997
G01 X0.8073 Y8.4050
G01 X0.8730 Y8.3163
G01 X0.9472 Y8.2345
G01 X1.0290 Y8.1604
G01 X1.1177 Y8.0946
G01 X1.2124 Y8.0378
G01 X1.3122 Y7.9906
G01 X1.4161 Y7.9534
G01 X1.5232 Y7.9266
G01 X1.6324 Y7.9104
G01 X1.7427 Y7.9050
G01 X1.8530 Y7.9104
G01 X1.9622 Y7.9266
G01 X2.0693 Y7.9534
G01 X2.1732 Y7.9906
G01 X2.2730 Y8.0378
G01 X2.3677 Y8.0946
G01 X2.4564 Y8.1604
G01 X2.5382 Y8.2345
G01 X2.6123 Y8.3163
G01 X2.6781 Y8.4050
G01 X2.7348 Y8.4997
G01 X2.7820 Y8.5995
G01 X2.8192 Y8.7034
G01 X2.8461 Y8.8105
G01 X2.8615 Y8.9136
G00 Z2.0000
G00 X2.8862 Y11.4500
G01 F60.00
G01 Z-0.1418
G01 F60.00
G01 X2.8877 Y11.4646
G01 X2.8927 Y11.5700
G01 X2.8871 Y11.6827
G01 X2.8706 Y11.7944
G01 X2.8432 Y11.9038
G01 X2.8051 Y12.0101
G01 X2.7569 Y12.1121
G01 X2.6989 Y12.2089
G01 X2.6316 Y12.2996
G01 X2.5559 Y12.3832
G01 X2.4722 Y12.4590
G01 X2.3816 Y12.5262
G01 X2.2848 Y12.5842
G01 X2.1828 Y12.6325
G01 X2.0765 Y12.6705
G01 X1.9670 Y12.6979
G01 X1.8554 Y12.7145
G01 X1.7427 Y12.7200
G01 X1.6300 Y12.7145
G01 X1.5183 Y12.6979
G01 X1.4089 Y12.6705
G01 X1.3026 Y12.6325
G01 X1.2006 Y12.5842
G01 X1.1038 Y12.5262
G01 X1.0131 Y12.4590
G01 X0.9295 Y12.3832
G01 X0.8537 Y12.2996
G01 X0.7865 Y12.2089
G01 X0.7285 Y12.1121
G01 X0.6802 Y12.0101
G01 X0.6422 Y11.9038
G01 X0.6148 Y11.7944
G01 X0.5982 Y11.6827
G01 X0.5927 Y11.5700
G01 X0.5982 Y11.4573
G01 X0.6148 Y11.3456
G01 X0.6422 Y11.2362
G01 X0.6802 Y11.1299
G01 X0.7285 Y11.0279
G01 X0.7865 Y10.9311
G01 X0.8537 Y10.8404
G01 X0.9295 Y10.7568
G01 X1.0131 Y10.6810
G01 X1.1038 Y10.6138
G01 X1.2006 Y10.5558
G01 X1.3026 Y10.5075
G01 X1.4089 Y10.4695
G01 X1.5183 Y10.4421
G01 X1.6300 Y10.4255
G01 X1.7427 Y10.4200
G01 X1.8554 Y10.4255
G01 X1.9670 Y10.4421
G01 X2.0765 Y10.4695
G01 X2.1828 Y10.5075
G01 X2.2848 Y10.5558
G01 X2.3816 Y10.6138
G01 X2.4722 Y10.6810
G01 X2.5559 Y10.7568
G01 X2.6316 Y10.8404
G01 X2.6989 Y10.9311
G01 X2.7569 Y11.0279
G01 X2.8051 Y11.1299
G01 X2.8432 Y11.2362
G01 X2.8706 Y11.3456
G01 X2.8862 Y11.4500
G00 Z2.0000
G00 X2.8615 Y11.4536
G01 F60.00
G01 Z-0.1418
G01 F60.00
G01 X2.8627 Y11.4658
G01 X2.8677 Y11.5700
G01 X2.8623 Y11.6803
G01 X2.8461 Y11.7895
G01 X2.8192 Y11.8966
G01 X2.7820 Y12.0005
G01 X2.7348 Y12.1003
G01 X2.6781 Y12.1950
G01 X2.6123 Y12.2837
G01 X2.5382 Y12.3655
G01 X2.4564 Y12.4396
G01 X2.3677 Y12.5054
G01 X2.2730 Y12.5622
G01 X2.1732 Y12.6094
G01 X2.0693 Y12.6466
G01 X1.9622 Y12.6734
G01 X1.8530 Y12.6896
G01 X1.7427 Y12.6950
G01 X1.6324 Y12.6896
G01 X1.5232 Y12.6734
G01 X1.4161 Y12.6466
G01 X1.3122 Y12.6094
G01 X1.2124 Y12.5622
G01 X1.1177 Y12.5054
G01 X1.0290 Y12.4396
G01 X0.9472 Y12.3655
G01 X0.8730 Y12.2837
G01 X0.8073 Y12.1950
G01 X0.7505 Y12.1003
G01 X0.7033 Y12.0005
G01 X0.6661 Y11.8966
G01 X0.6393 Y11.7895
G01 X0.6231 Y11.6803
G01 X0.6177 Y11.5700
G01 X0.6231 Y11.4597
G01 X0.6393 Y11.3505
G01 X0.6661 Y11.2434
G01 X0.7033 Y11.1395
G01 X0.7505 Y11.0397
G01 X0.8073 Y10.9450
G01 X0.8730 Y10.8563
G01 X0.9472 Y10.7745
G01 X1.0290 Y10.7004
G01 X1.1177 Y10.6346
G01 X1.2124 Y10.5778
G01 X1.3122 Y10.5306
G01 X1.4161 Y10.4934
G01 X1.5232 Y10.4666
G01 X1.6324 Y10.4504
G01 X1.7427 Y10.4450
G01 X1.8530 Y10.4504
G01 X1.9622 Y10.4666
G01 X2.0693 Y10.4934
G01 X2.1732 Y10.5306
G01 X2.2730 Y10.5778
G01 X2.3677 Y10.6346
G01 X2.4564 Y10.7004
G01 X2.5382 Y10.7745
G01 X2.6123 Y10.8563
G01 X2.6781 Y10.9450
G01 X2.7348 Y11.0397
G01 X2.7820 Y11.1395
G01 X2.8192 Y11.2434
G01 X2.8461 Y11.3505
G01 X2.8615 Y11.4536
G00 Z2.0000
G00 X2.8862 Y13.9900
G01 F60.00
G01 Z-0.1418
G01 F60.00
G01 X2.8877 Y14.0046
G01 X2.8927 Y14.1100
G01 X2.8871 Y14.2227
G01 X2.8706 Y14.3344
G01 X2.8432 Y14.4438
G01 X2.8051 Y14.5501
G01 X2.7569 Y14.6521
G01 X2.6989 Y14.7489
G01 X2.6316 Y14.8396
G01 X2.5559 Y14.9232
G01 X2.4722 Y14.9990
G01 X2.3816 Y15.0662
G01 X2.2848 Y15.1242
G01 X2.1828 Y15.1725
G01 X2.0765 Y15.2105
G01 X1.9670 Y15.2379
G01 X1.8554 Y15.2545
G01 X1.7427 Y15.2600
G01 X1.6300 Y15.2545
G01 X1.5183 Y15.2379
G01 X1.4089 Y15.2105
G01 X1.3026 Y15.1725
G01 X1.2006 Y15.1242
G01 X1.1038 Y15.0662
G01 X1.0131 Y14.9990
G01 X0.9295 Y14.9232
G01 X0.8537 Y14.8396
G01 X0.7865 Y14.7489
G01 X0.7285 Y14.6521
G01 X0.6802 Y14.5501
G01 X0.6422 Y14.4438
G01 X0.6148 Y14.3344
G01 X0.5982 Y14.2227
G01 X0.5927 Y14.1100
G01 X0.5982 Y13.9973
G01 X0.6148 Y13.8856
G01 X0.6422 Y13.7762
G01 X0.6802 Y13.6699
G01 X0.7285 Y13.5679
G01 X0.7865 Y13.4711
G01 X0.8537 Y13.3804
G01 X0.9295 Y13.2968
G01 X1.0131 Y13.2210
G01 X1.1038 Y13.1538
G01 X1.2006 Y13.0958
G01 X1.3026 Y13.0475
G01 X1.4089 Y13.0095
G01 X1.5183 Y12.9821
G01 X1.6300 Y12.9655
G01 X1.7427 Y12.9600
G01 X1.8554 Y12.9655
G01 X1.9670 Y12.9821
G01 X2.0765 Y13.0095
G01 X2.1828 Y13.0475
G01 X2.2848 Y13.0958
G01 X2.3816 Y13.1538
G01 X2.4722 Y13.2210
G01 X2.5559 Y13.2968
G01 X2.6316 Y13.3804
G01 X2.6989 Y13.4711
G01 X2.7569 Y13.5679
G01 X2.8051 Y13.6699
G01 X2.8432 Y13.7762
G01 X2.8706 Y13.8856
G01 X2.8862 Y13.9900
G00 Z2.0000
G00 X2.8615 Y13.9936
G01 F60.00
G01 Z-0.1418
G01 F60.00
G01 X2.8627 Y14.0058
G01 X2.8677 Y14.1100
G01 X2.8623 Y14.2203
G01 X2.8461 Y14.3295
G01 X2.8192 Y14.4366
G01 X2.7820 Y14.5405
G01 X2.7348 Y14.6403
G01 X2.6781 Y14.7350
G01 X2.6123 Y14.8237
G01 X2.5382 Y14.9055
G01 X2.4564 Y14.9796
G01 X2.3677 Y15.0454
G01 X2.2730 Y15.1022
G01 X2.1732 Y15.1494
G01 X2.0693 Y15.1866
G01 X1.9622 Y15.2134
G01 X1.8530 Y15.2296
G01 X1.7427 Y15.2350
G01 X1.6324 Y15.2296
G01 X1.5232 Y15.2134
G01 X1.4161 Y15.1866
G01 X1.3122 Y15.1494
G01 X1.2124 Y15.1022
G01 X1.1177 Y15.0454
G01 X1.0290 Y14.9796
G01 X0.9472 Y14.9055
G01 X0.8730 Y14.8237
G01 X0.8073 Y14.7350
G01 X0.7505 Y14.6403
G01 X0.7033 Y14.5405
G01 X0.6661 Y14.4366
G01 X0.6393 Y14.3295
G01 X0.6231 Y14.2203
G01 X0.6177 Y14.1100
G01 X0.6231 Y13.9997
G01 X0.6393 Y13.8905
G01 X0.6661 Y13.7834
G01 X0.7033 Y13.6795
G01 X0.7505 Y13.5797
G01 X0.8073 Y13.4850
G01 X0.8730 Y13.3963
G01 X0.9472 Y13.3145
G01 X1.0290 Y13.2404
G01 X1.1177 Y13.1746
G01 X1.2124 Y13.1178
G01 X1.3122 Y13.0706
G01 X1.4161 Y13.0334
G01 X1.5232 Y13.0066
G01 X1.6324 Y12.9904
G01 X1.7427 Y12.9850
G01 X1.8530 Y12.9904
G01 X1.9622 Y13.0066
G01 X2.0693 Y13.0334
G01 X2.1732 Y13.0706
G01 X2.2730 Y13.1178
G01 X2.3677 Y13.1746
G01 X2.4564 Y13.2404
G01 X2.5382 Y13.3145
G01 X2.6123 Y13.3963
G01 X2.6781 Y13.4850
G01 X2.7348 Y13.5797
G01 X2.7820 Y13.6795
G01 X2.8192 Y13.7834
G01 X2.8461 Y13.8905
G01 X2.8615 Y13.9936
G00 Z2.0000
G00 X2.8862 Y16.5300
G01 F60.00
G01 Z-0.1418
G01 F60.00
G01 X2.8877 Y16.5446
G01 X2.8927 Y16.6500
G01 X2.8871 Y16.7627
G01 X2.8706 Y16.8744
G01 X2.8432 Y16.9838
G01 X2.8051 Y17.0901
G01 X2.7569 Y17.1921
G01 X2.6989 Y17.2889
G01 X2.6316 Y17.3796
G01 X2.5559 Y17.4632
G01 X2.4722 Y17.5390
G01 X2.3816 Y17.6062
G01 X2.2848 Y17.6642
G01 X2.1828 Y17.7125
G01 X2.0765 Y17.7505
G01 X1.9670 Y17.7779
G01 X1.8554 Y17.7945
G01 X1.7427 Y17.8000
G01 X1.6300 Y17.7945
G01 X1.5183 Y17.7779
G01 X1.4089 Y17.7505
G01 X1.3026 Y17.7125
G01 X1.2006 Y17.6642
G01 X1.1038 Y17.6062
G01 X1.0131 Y17.5390
G01 X0.9295 Y17.4632
G01 X0.8537 Y17.3796
G01 X0.7865 Y17.2889
G01 X0.7285 Y17.1921
G01 X0.6802 Y17.0901
G01 X0.6422 Y16.9838
G01 X0.6148 Y16.8744
G01 X0.5982 Y16.7627
G01 X0.5927 Y16.6500
G01 X0.5982 Y16.5373
G01 X0.6148 Y16.4256
G01 X0.6422 Y16.3162
G01 X0.6802 Y16.2099
G01 X0.7285 Y16.1079
G01 X0.7865 Y16.0111
G01 X0.8537 Y15.9204
G01 X0.9295 Y15.8368
G01 X1.0131 Y15.7610
G01 X1.1038 Y15.6938
G01 X1.2006 Y15.6358
G01 X1.3026 Y15.5875
G01 X1.4089 Y15.5495
G01 X1.5183 Y15.5221
G01 X1.6300 Y15.5055
G01 X1.7427 Y15.5000
G01 X1.8554 Y15.5055
G01 X1.9670 Y15.5221
G01 X2.0765 Y15.5495
G01 X2.1828 Y15.5875
G01 X2.2848 Y15.6358
G01 X2.3816 Y15.6938
G01 X2.4722 Y15.7610
G01 X2.5559 Y15.8368
G01 X2.6316 Y15.9204
G01 X2.6989 Y16.0111
G01 X2.7569 Y16.1079
G01 X2.8051 Y16.2099
G01 X2.8432 Y16.3162
G01 X2.8706 Y16.4256
G01 X2.8862 Y16.5300
G00 Z2.0000
G00 X2.8615 Y16.5336
G01 F60.00
G01 Z-0.1418
G01 F60.00
G01 X2.8627 Y16.5458
G01 X2.8677 Y16.6500
G01 X2.8623 Y16.7603
G01 X2.8461 Y16.8695
G01 X2.8192 Y16.9766
G01 X2.7820 Y17.0805
G01 X2.7348 Y17.1803
G01 X2.6781 Y17.2750
G01 X2.6123 Y17.3637
G01 X2.5382 Y17.4455
G01 X2.4564 Y17.5196
G01 X2.3677 Y17.5854
G01 X2.2730 Y17.6422
G01 X2.1732 Y17.6894
G01 X2.0693 Y17.7266
G01 X1.9622 Y17.7534
G01 X1.8530 Y17.7696
G01 X1.7427 Y17.7750
G01 X1.6324 Y17.7696
G01 X1.5232 Y17.7534
G01 X1.4161 Y17.7266
G01 X1.3122 Y17.6894
G01 X1.2124 Y17.6422
G01 X1.1177 Y17.5854
G01 X1.0290 Y17.5196
G01 X0.9472 Y17.4455
G01 X0.8730 Y17.3637
G01 X0.8073 Y17.2750
G01 X0.7505 Y17.1803
G01 X0.7033 Y17.0805
G01 X0.6661 Y16.9766
G01 X0.6393 Y16.8695
G01 X0.6231 Y16.7603
G01 X0.6177 Y16.6500
G01 X0.6231 Y16.5397
G01 X0.6393 Y16.4305
G01 X0.6661 Y16.3234
G01 X0.7033 Y16.2195
G01 X0.7505 Y16.1197
G01 X0.8073 Y16.0250
G01 X0.8730 Y15.9363
G01 X0.9472 Y15.8545
G01 X1.0290 Y15.7804
G01 X1.1177 Y15.7146
G01 X1.2124 Y15.6578
G01 X1.3122 Y15.6106
G01 X1.4161 Y15.5734
G01 X1.5232 Y15.5466
G01 X1.6324 Y15.5304
G01 X1.7427 Y15.5250
G01 X1.8530 Y15.5304
G01 X1.9622 Y15.5466
G01 X2.0693 Y15.5734
G01 X2.1732 Y15.6106
G01 X2.2730 Y15.6578
G01 X2.3677 Y15.7146
G01 X2.4564 Y15.7804
G01 X2.5382 Y15.8545
G01 X2.6123 Y15.9363
G01 X2.6781 Y16.0250
G01 X2.7348 Y16.1197
G01 X2.7820 Y16.2195
G01 X2.8192 Y16.3234
G01 X2.8461 Y16.4305
G01 X2.8615 Y16.5336
G00 Z2.0000
G00 X2.8862 Y19.0700
G01 F60.00
G01 Z-0.1418
G01 F60.00
G01 X2.8877 Y19.0846
G01 X2.8927 Y19.1900
G01 X2.8871 Y19.3027
G01 X2.8706 Y19.4144
G01 X2.8432 Y19.5238
G01 X2.8051 Y19.6301
G01 X2.7569 Y19.7321
G01 X2.6989 Y19.8289
G01 X2.6316 Y19.9196
G01 X2.5559 Y20.0032
G01 X2.4722 Y20.0790
G01 X2.3816 Y20.1462
G01 X2.2848 Y20.2042
G01 X2.1828 Y20.2525
G01 X2.0765 Y20.2905
G01 X1.9670 Y20.3179
G01 X1.8554 Y20.3345
G01 X1.7427 Y20.3400
G01 X1.6300 Y20.3345
G01 X1.5183 Y20.3179
G01 X1.4089 Y20.2905
G01 X1.3026 Y20.2525
G01 X1.2006 Y20.2042
G01 X1.1038 Y20.1462
G01 X1.0131 Y20.0790
G01 X0.9295 Y20.0032
G01 X0.8537 Y19.9196
G01 X0.7865 Y19.8289
G01 X0.7285 Y19.7321
G01 X0.6802 Y19.6301
G01 X0.6422 Y19.5238
G01 X0.6148 Y19.4144
G01 X0.5982 Y19.3027
G01 X0.5927 Y19.1900
G01 X0.5982 Y19.0773
G01 X0.6148 Y18.9656
G01 X0.6422 Y18.8562
G01 X0.6802 Y18.7499
G01 X0.7285 Y18.6479
G01 X0.7865 Y18.5511
G01 X0.8537 Y18.4604
G01 X0.9295 Y18.3768
G01 X1.0131 Y18.3010
G01 X1.1038 Y18.2338
G01 X1.2006 Y18.1758
G01 X1.3026 Y18.1275
G01 X1.4089 Y18.0895
G01 X1.5183 Y18.0621
G01 X1.6300 Y18.0455
G01 X1.7427 Y18.0400
G01 X1.8554 Y18.0455
G01 X1.9670 Y18.0621
G01 X2.0765 Y18.0895
G01 X2.1828 Y18.1275
G01 X2.2848 Y18.1758
G01 X2.3816 Y18.2338
G01 X2.4722 Y18.3010
G01 X2.5559 Y18.3768
G01 X2.6316 Y18.4604
G01 X2.6989 Y18.5511
G01 X2.7569 Y18.6479
G01 X2.8051 Y18.7499
G01 X2.8432 Y18.8562
G01 X2.8706 Y18.9656
G01 X2.8862 Y19.0700
G00 Z2.0000
G00 X2.8615 Y19.0736
G01 F60.00
G01 Z-0.1418
G01 F60.00
G01 X2.8627 Y19.0858
G01 X2.8677 Y19.1900
G01 X2.8623 Y19.3003
G01 X2.8461 Y19.4095
G01 X2.8192 Y19.5166
G01 X2.7820 Y19.6205
G01 X2.7348 Y19.7203
G01 X2.6781 Y19.8150
G01 X2.6123 Y19.9037
G01 X2.5382 Y19.9855
G01 X2.4564 Y20.0596
G01 X2.3677 Y20.1254
G01 X2.2730 Y20.1822
G01 X2.1732 Y20.2294
G01 X2.0693 Y20.2666
G01 X1.9622 Y20.2934
G01 X1.8530 Y20.3096
G01 X1.7427 Y20.3150
G01 X1.6324 Y20.3096
G01 X1.5232 Y20.2934
G01 X1.4161 Y20.2666
G01 X1.3122 Y20.2294
G01 X1.2124 Y20.1822
G01 X1.1177 Y20.1254
G01 X1.0290 Y20.0596
G01 X0.9472 Y19.9855
G01 X0.8730 Y19.9037
G01 X0.8073 Y19.8150
G01 X0.7505 Y19.7203
G01 X0.7033 Y19.6205
G01 X0.6661 Y19.5166
G01 X0.6393 Y19.4095
G01 X0.6231 Y19.3003
G01 X0.6177 Y19.1900
G01 X0.6231 Y19.0797
G01 X0.6393 Y18.9705
G01 X0.6661 Y18.8634
G01 X0.7033 Y18.7595
G01 X0.7505 Y18.6597
G01 X0.8073 Y18.5650
G01 X0.8730 Y18.4763
G01 X0.9472 Y18.3945
G01 X1.0290 Y18.3204
G01 X1.1177 Y18.2546
G01 X1.2124 Y18.1978
G01 X1.3122 Y18.1506
G01 X1.4161 Y18.1134
G01 X1.5232 Y18.0866
G01 X1.6324 Y18.0704
G01 X1.7427 Y18.0650
G01 X1.8530 Y18.0704
G01 X1.9622 Y18.0866
G01 X2.0693 Y18.1134
G01 X2.1732 Y18.1506
G01 X2.2730 Y18.1978
G01 X2.3677 Y18.2546
G01 X2.4564 Y18.3204
G01 X2.5382 Y18.3945
G01 X2.6123 Y18.4763
G01 X2.6781 Y18.5650
G01 X2.7348 Y18.6597
G01 X2.7820 Y18.7595
G01 X2.8192 Y18.8634
G01 X2.8461 Y18.9705
G01 X2.8615 Y19.0736
G00 Z2.0000
G00 X2.8862 Y21.6100
G01 F60.00
G01 Z-0.1418
G01 F60.00
G01 X2.8877 Y21.6246
G01 X2.8927 Y21.7300
G01 X2.8871 Y21.8427
G01 X2.8706 Y21.9544
G01 X2.8432 Y22.0638
G01 X2.8051 Y22.1701
G01 X2.7569 Y22.2721
G01 X2.6989 Y22.3689
G01 X2.6316 Y22.4596
G01 X2.5559 Y22.5432
G01 X2.4722 Y22.6190
G01 X2.3816 Y22.6862
G01 X2.2848 Y22.7442
G01 X2.1828 Y22.7925
G01 X2.0765 Y22.8305
G01 X1.9670 Y22.8579
G01 X1.8554 Y22.8745
G01 X1.7427 Y22.8800
G01 X1.6300 Y22.8745
G01 X1.5183 Y22.8579
G01 X1.4089 Y22.8305
G01 X1.3026 Y22.7925
G01 X1.2006 Y22.7442
G01 X1.1038 Y22.6862
G01 X1.0131 Y22.6190
G01 X0.9295 Y22.5432
G01 X0.8537 Y22.4596
G01 X0.7865 Y22.3689
G01 X0.7285 Y22.2721
G01 X0.6802 Y22.1701
G01 X0.6422 Y22.0638
G01 X0.6148 Y21.9544
G01 X0.5982 Y21.8427
G01 X0.5927 Y21.7300
G01 X0.5982 Y21.6173
G01 X0.6148 Y21.5056
G01 X0.6422 Y21.3962
G01 X0.6802 Y21.2899
G01 X0.7285 Y21.1879
G01 X0.7865 Y21.0911
G01 X0.8537 Y21.0004
G01 X0.9295 Y20.9168
G01 X1.0131 Y20.8410
G01 X1.1038 Y20.7738
G01 X1.2006 Y20.7158
G01 X1.3026 Y20.6675
G01 X1.4089 Y20.6295
G01 X1.5183 Y20.6021
G01 X1.6300 Y20.5855
G01 X1.7427 Y20.5800
G01 X1.8554 Y20.5855
G01 X1.9670 Y20.6021
G01 X2.0765 Y20.6295
G01 X2.1828 Y20.6675
G01 X2.2848 Y20.7158
G01 X2.3816 Y20.7738
G01 X2.4722 Y20.8410
G01 X2.5559 Y20.9168
G01 X2.6316 Y21.0004
G01 X2.6989 Y21.0911
G01 X2.7569 Y21.1879
G01 X2.8051 Y21.2899
G01 X2.8432 Y21.3962
G01 X2.8706 Y21.5056
G01 X2.8862 Y21.6100
G00 Z2.0000
G00 X2.8615 Y21.6136
G01 F60.00
G01 Z-0.1418
G01 F60.00
G01 X2.8627 Y21.6258
G01 X2.8677 Y21.7300
G01 X2.8623 Y21.8403
G01 X2.8461 Y21.9495
G01 X2.8192 Y22.0566
G01 X2.7820 Y22.1605
G01 X2.7348 Y22.2603
G01 X2.6781 Y22.3550
G01 X2.6123 Y22.4437
G01 X2.5382 Y22.5255
G01 X2.4564 Y22.5996
G01 X2.3677 Y22.6654
G01 X2.2730 Y22.7222
G01 X2.1732 Y22.7694
G01 X2.0693 Y22.8066
G01 X1.9622 Y22.8334
G01 X1.8530 Y22.8496
G01 X1.7427 Y22.8550
G01 X1.6324 Y22.8496
G01 X1.5232 Y22.8334
G01 X1.4161 Y22.8066
G01 X1.3122 Y22.7694
G01 X1.2124 Y22.7222
G01 X1.1177 Y22.6654
G01 X1.0290 Y22.5996
G01 X0.9472 Y22.5255
G01 X0.8730 Y22.4437
G01 X0.8073 Y22.3550
G01 X0.7505 Y22.2603
G01 X0.7033 Y22.1605
G01 X0.6661 Y22.0566
G01 X0.6393 Y21.9495
G01 X0.6231 Y21.8403
G01 X0.6177 Y21.7300
G01 X0.6231 Y21.6197
G01 X0.6393 Y21.5105
G01 X0.6661 Y21.4034
G01 X0.7033 Y21.2995
G01 X0.7505 Y21.1997
G01 X0.8073 Y21.1050
G01 X0.8730 Y21.0163
G01 X0.9472 Y20.9345
G01 X1.0290 Y20.8604
G01 X1.1177 Y20.7946
G01 X1.2124 Y20.7378
G01 X1.3122 Y20.6906
G01 X1.4161 Y20.6534
G01 X1.5232 Y20.6266
G01 X1.6324 Y20.6104
G01 X1.7427 Y20.6050
G01 X1.8530 Y20.6104
G01 X1.9622 Y20.6266
G01 X2.0693 Y20.6534
G01 X2.1732 Y20.6906
G01 X2.2730 Y20.7378
G01 X2.3677 Y20.7946
G01 X2.4564 Y20.8604
G01 X2.5382 Y20.9345
G01 X2.6123 Y21.0163
G01 X2.6781 Y21.1050
G01 X2.7348 Y21.1997
G01 X2.7820 Y21.2995
G01 X2.8192 Y21.4034
G01 X2.8461 Y21.5105
G01 X2.8615 Y21.6136
G00 Z2.0000
G00 X2.8862 Y24.1500
G01 F60.00
G01 Z-0.1418
G01 F60.00
G01 X2.8877 Y24.1646
G01 X2.8927 Y24.2700
G01 X2.8871 Y24.3827
G01 X2.8706 Y24.4944
G01 X2.8432 Y24.6038
G01 X2.8051 Y24.7101
G01 X2.7569 Y24.8121
G01 X2.6989 Y24.9089
G01 X2.6316 Y24.9996
G01 X2.5559 Y25.0832
G01 X2.4722 Y25.1590
G01 X2.3816 Y25.2262
G01 X2.2848 Y25.2842
G01 X2.1828 Y25.3325
G01 X2.0765 Y25.3705
G01 X1.9670 Y25.3979
G01 X1.8554 Y25.4145
G01 X1.7427 Y25.4200
G01 X1.6300 Y25.4145
G01 X1.5183 Y25.3979
G01 X1.4089 Y25.3705
G01 X1.3026 Y25.3325
G01 X1.2006 Y25.2842
G01 X1.1038 Y25.2262
G01 X1.0131 Y25.1590
G01 X0.9295 Y25.0832
G01 X0.8537 Y24.9996
G01 X0.7865 Y24.9089
G01 X0.7285 Y24.8121
G01 X0.6802 Y24.7101
G01 X0.6422 Y24.6038
G01 X0.6148 Y24.4944
G01 X0.5982 Y24.3827
G01 X0.5927 Y24.2700
G01 X0.5982 Y24.1573
G01 X0.6148 Y24.0456
G01 X0.6422 Y23.9362
G01 X0.6802 Y23.8299
G01 X0.7285 Y23.7279
G01 X0.7865 Y23.6311
G01 X0.8537 Y23.5404
G01 X0.9295 Y23.4568
G01 X1.0131 Y23.3810
G01 X1.1038 Y23.3138
G01 X1.2006 Y23.2558
G01 X1.3026 Y23.2075
G01 X1.4089 Y23.1695
G01 X1.5183 Y23.1421
G01 X1.6300 Y23.1255
G01 X1.7427 Y23.1200
G01 X1.8554 Y23.1255
G01 X1.9670 Y23.1421
G01 X2.0765 Y23.1695
G01 X2.1828 Y23.2075
G01 X2.2848 Y23.2558
G01 X2.3816 Y23.3138
G01 X2.4722 Y23.3810
G01 X2.5559 Y23.4568
G01 X2.6316 Y23.5404
G01 X2.6989 Y23.6311
G01 X2.7569 Y23.7279
G01 X2.8051 Y23.8299
G01 X2.8432 Y23.9362
G01 X2.8706 Y24.0456
G01 X2.8862 Y24.1500
G00 Z2.0000
G00 X2.8615 Y24.1536
G01 F60.00
G01 Z-0.1418
G01 F60.00
G01 X2.8627 Y24.1658
G01 X2.8677 Y24.2700
G01 X2.8623 Y24.3803
G01 X2.8461 Y24.4895
G01 X2.8192 Y24.5966
G01 X2.7820 Y24.7005
G01 X2.7348 Y24.8003
G01 X2.6781 Y24.8950
G01 X2.6123 Y24.9837
G01 X2.5382 Y25.0655
G01 X2.4564 Y25.1396
G01 X2.3677 Y25.2054
G01 X2.2730 Y25.2622
G01 X2.1732 Y25.3094
G01 X2.0693 Y25.3466
G01 X1.9622 Y25.3734
G01 X1.8530 Y25.3896
G01 X1.7427 Y25.3950
G01 X1.6324 Y25.3896
G01 X1.5232 Y25.3734
G01 X1.4161 Y25.3466
G01 X1.3122 Y25.3094
G01 X1.2124 Y25.2622
G01 X1.1177 Y25.2054
G01 X1.0290 Y25.1396
G01 X0.9472 Y25.0655
G01 X0.8730 Y24.9837
G01 X0.8073 Y24.8950
G01 X0.7505 Y24.8003
G01 X0.7033 Y24.7005
G01 X0.6661 Y24.5966
G01 X0.6393 Y24.4895
G01 X0.6231 Y24.3803
G01 X0.6177 Y24.2700
G01 X0.6231 Y24.1597
G01 X0.6393 Y24.0505
G01 X0.6661 Y23.9434
G01 X0.7033 Y23.8395
G01 X0.7505 Y23.7397
G01 X0.8073 Y23.6450
G01 X0.8730 Y23.5563
G01 X0.9472 Y23.4745
G01 X1.0290 Y23.4004
G01 X1.1177 Y23.3346
G01 X1.2124 Y23.2778
G01 X1.3122 Y23.2306
G01 X1.4161 Y23.1934
G01 X1.5232 Y23.1666
G01 X1.6324 Y23.1504
G01 X1.7427 Y23.1450
G01 X1.8530 Y23.1504
G01 X1.9622 Y23.1666
G01 X2.0693 Y23.1934
G01 X2.1732 Y23.2306
G01 X2.2730 Y23.2778
G01 X2.3677 Y23.3346
G01 X2.4564 Y23.4004
G01 X2.5382 Y23.4745
G01 X2.6123 Y23.5563
G01 X2.6781 Y23.6450
G01 X2.7348 Y23.7397
G01 X2.7820 Y23.8395
G01 X2.8192 Y23.9434
G01 X2.8461 Y24.0505
G01 X2.8615 Y24.1536
G00 Z2.0000
G00 X2.8862 Y26.6900
G01 F60.00
G01 Z-0.1418
G01 F60.00
G01 X2.8877 Y26.7046
G01 X2.8927 Y26.8100
G01 X2.8871 Y26.9227
G01 X2.8706 Y27.0344
G01 X2.8432 Y27.1438
G01 X2.8051 Y27.2501
G01 X2.7569 Y27.3521
G01 X2.6989 Y27.4489
G01 X2.6316 Y27.5396
G01 X2.5559 Y27.6232
G01 X2.4722 Y27.6990
G01 X2.3816 Y27.7662
G01 X2.2848 Y27.8242
G01 X2.1828 Y27.8725
G01 X2.0765 Y27.9105
G01 X1.9670 Y27.9379
G01 X1.8554 Y27.9545
G01 X1.7427 Y27.9600
G01 X1.6300 Y27.9545
G01 X1.5183 Y27.9379
G01 X1.4089 Y27.9105
G01 X1.3026 Y27.8725
G01 X1.2006 Y27.8242
G01 X1.1038 Y27.7662
G01 X1.0131 Y27.6990
G01 X0.9295 Y27.6232
G01 X0.8537 Y27.5396
G01 X0.7865 Y27.4489
G01 X0.7285 Y27.3521
G01 X0.6802 Y27.2501
G01 X0.6422 Y27.1438
G01 X0.6148 Y27.0344
G01 X0.5982 Y26.9227
G01 X0.5927 Y26.8100
G01 X0.5982 Y26.6973
G01 X0.6148 Y26.5856
G01 X0.6422 Y26.4762
G01 X0.6802 Y26.3699
G01 X0.7285 Y26.2679
G01 X0.7865 Y26.1711
G01 X0.8537 Y26.0804
G01 X0.9295 Y25.9968
G01 X1.0131 Y25.9210
G01 X1.1038 Y25.8538
G01 X1.2006 Y25.7958
G01 X1.3026 Y25.7475
G01 X1.4089 Y25.7095
G01 X1.5183 Y25.6821
G01 X1.6300 Y25.6655
G01 X1.7427 Y25.6600
G01 X1.8554 Y25.6655
G01 X1.9670 Y25.6821
G01 X2.0765 Y25.7095
G01 X2.1828 Y25.7475
G01 X2.2848 Y25.7958
G01 X2.3816 Y25.8538
G01 X2.4722 Y25.9210
G01 X2.5559 Y25.9968
G01 X2.6316 Y26.0804
G01 X2.6989 Y26.1711
G01 X2.7569 Y26.2679
G01 X2.8051 Y26.3699
G01 X2.8432 Y26.4762
G01 X2.8706 Y26.5856
G01 X2.8862 Y26.6900
G00 Z2.0000
G00 X2.8615 Y26.6936
G01 F60.00
G01 Z-0.1418
G01 F60.00
G01 X2.8627 Y26.7058
G01 X2.8677 Y26.8100
G01 X2.8623 Y26.9203
G01 X2.8461 Y27.0295
G01 X2.8192 Y27.1366
G01 X2.7820 Y27.2405
G01 X2.7348 Y27.3403
G01 X2.6781 Y27.4350
G01 X2.6123 Y27.5237
G01 X2.5382 Y27.6055
G01 X2.4564 Y27.6796
G01 X2.3677 Y27.7454
G01 X2.2730 Y27.8022
G01 X2.1732 Y27.8494
G01 X2.0693 Y27.8866
G01 X1.9622 Y27.9134
G01 X1.8530 Y27.9296
G01 X1.7427 Y27.9350
G01 X1.6324 Y27.9296
G01 X1.5232 Y27.9134
G01 X1.4161 Y27.8866
G01 X1.3122 Y27.8494
G01 X1.2124 Y27.8022
G01 X1.1177 Y27.7454
G01 X1.0290 Y27.6796
G01 X0.9472 Y27.6055
G01 X0.8730 Y27.5237
G01 X0.8073 Y27.4350
G01 X0.7505 Y27.3403
G01 X0.7033 Y27.2405
G01 X0.6661 Y27.1366
G01 X0.6393 Y27.0295
G01 X0.6231 Y26.9203
G01 X0.6177 Y26.8100
G01 X0.6231 Y26.6997
G01 X0.6393 Y26.5905
G01 X0.6661 Y26.4834
G01 X0.7033 Y26.3795
G01 X0.7505 Y26.2797
G01 X0.8073 Y26.1850
G01 X0.8730 Y26.0963
G01 X0.9472 Y26.0145
G01 X1.0290 Y25.9404
G01 X1.1177 Y25.8746
G01 X1.2124 Y25.8178
G01 X1.3122 Y25.7706
G01 X1.4161 Y25.7334
G01 X1.5232 Y25.7066
G01 X1.6324 Y25.6904
G01 X1.7427 Y25.6850
G01 X1.8530 Y25.6904
G01 X1.9622 Y25.7066
G01 X2.0693 Y25.7334
G01 X2.1732 Y25.7706
G01 X2.2730 Y25.8178
G01 X2.3677 Y25.8746
G01 X2.4564 Y25.9404
G01 X2.5382 Y26.0145
G01 X2.6123 Y26.0963
G01 X2.6781 Y26.1850
G01 X2.7348 Y26.2797
G01 X2.7820 Y26.3795
G01 X2.8192 Y26.4834
G01 X2.8461 Y26.5905
G01 X2.8615 Y26.6936
G00 Z2.0000
G00 X2.8862 Y29.2300
G01 F60.00
G01 Z-0.1418
G01 F60.00
G01 X2.8877 Y29.2446
G01 X2.8927 Y29.3500
G01 X2.8871 Y29.4627
G01 X2.8706 Y29.5744
G01 X2.8432 Y29.6838
G01 X2.8051 Y29.7901
G01 X2.7569 Y29.8921
G01 X2.6989 Y29.9889
G01 X2.6316 Y30.0796
G01 X2.5559 Y30.1632
G01 X2.4722 Y30.2390
G01 X2.3816 Y30.3062
G01 X2.2848 Y30.3642
G01 X2.1828 Y30.4125
G01 X2.0765 Y30.4505
G01 X1.9670 Y30.4779
G01 X1.8554 Y30.4945
G01 X1.7427 Y30.5000
G01 X1.6300 Y30.4945
G01 X1.5183 Y30.4779
G01 X1.4089 Y30.4505
G01 X1.3026 Y30.4125
G01 X1.2006 Y30.3642
G01 X1.1038 Y30.3062
G01 X1.0131 Y30.2390
G01 X0.9295 Y30.1632
G01 X0.8537 Y30.0796
G01 X0.7865 Y29.9889
G01 X0.7285 Y29.8921
G01 X0.6802 Y29.7901
G01 X0.6422 Y29.6838
G01 X0.6148 Y29.5744
G01 X0.5982 Y29.4627
G01 X0.5927 Y29.3500
G01 X0.5982 Y29.2373
G01 X0.6148 Y29.1256
G01 X0.6422 Y29.0162
G01 X0.6802 Y28.9099
G01 X0.7285 Y28.8079
G01 X0.7865 Y28.7111
G01 X0.8537 Y28.6204
G01 X0.9295 Y28.5368
G01 X1.0131 Y28.4610
G01 X1.1038 Y28.3938
G01 X1.2006 Y28.3358
G01 X1.3026 Y28.2875
G01 X1.4089 Y28.2495
G01 X1.5183 Y28.2221
G01 X1.6300 Y28.2055
G01 X1.7427 Y28.2000
G01 X1.8554 Y28.2055
G01 X1.9670 Y28.2221
G01 X2.0765 Y28.2495
G01 X2.1828 Y28.2875
G01 X2.2848 Y28.3358
G01 X2.3816 Y28.3938
G01 X2.4722 Y28.4610
G01 X2.5559 Y28.5368
G01 X2.6316 Y28.6204
G01 X2.6989 Y28.7111
G01 X2.7569 Y28.8079
G01 X2.8051 Y28.9099
G01 X2.8432 Y29.0162
G01 X2.8706 Y29.1256
G01 X2.8862 Y29.2300
G00 Z2.0000
G00 X2.8615 Y29.2336
G01 F60.00
G01 Z-0.1418
G01 F60.00
G01 X2.8627 Y29.2458
G01 X2.8677 Y29.3500
G01 X2.8623 Y29.4603
G01 X2.8461 Y29.5695
G01 X2.8192 Y29.6766
G01 X2.7820 Y29.7805
G01 X2.7348 Y29.8803
G01 X2.6781 Y29.9750
G01 X2.6123 Y30.0637
G01 X2.5382 Y30.1455
G01 X2.4564 Y30.2196
G01 X2.3677 Y30.2854
G01 X2.2730 Y30.3422
G01 X2.1732 Y30.3894
G01 X2.0693 Y30.4266
G01 X1.9622 Y30.4534
G01 X1.8530 Y30.4696
G01 X1.7427 Y30.4750
G01 X1.6324 Y30.4696
G01 X1.5232 Y30.4534
G01 X1.4161 Y30.4266
G01 X1.3122 Y30.3894
G01 X1.2124 Y30.3422
G01 X1.1177 Y30.2854
G01 X1.0290 Y30.2196
G01 X0.9472 Y30.1455
G01 X0.8730 Y30.0637
G01 X0.8073 Y29.9750
G01 X0.7505 Y29.8803
G01 X0.7033 Y29.7805
G01 X0.6661 Y29.6766
G01 X0.6393 Y29.5695
G01 X0.6231 Y29.4603
G01 X0.6177 Y29.3500
G01 X0.6231 Y29.2397
G01 X0.6393 Y29.1305
G01 X0.6661 Y29.0234
G01 X0.7033 Y28.9195
G01 X0.7505 Y28.8197
G01 X0.8073 Y28.7250
G01 X0.8730 Y28.6363
G01 X0.9472 Y28.5545
G01 X1.0290 Y28.4804
G01 X1.1177 Y28.4146
G01 X1.2124 Y28.3578
G01 X1.3122 Y28.3106
G01 X1.4161 Y28.2734
G01 X1.5232 Y28.2466
G01 X1.6324 Y28.2304
G01 X1.7427 Y28.2250
G01 X1.8530 Y28.2304
G01 X1.9622 Y28.2466
G01 X2.0693 Y28.2734
G01 X2.1732 Y28.3106
G01 X2.2730 Y28.3578
G01 X2.3677 Y28.4146
G01 X2.4564 Y28.4804
G01 X2.5382 Y28.5545
G01 X2.6123 Y28.6363
G01 X2.6781 Y28.7250
G01 X2.7348 Y28.8197
G01 X2.7820 Y28.9195
G01 X2.8192 Y29.0234
G01 X2.8461 Y29.1305
G01 X2.8615 Y29.2336
G00 Z2.0000
G00 X2.8862 Y31.7700
G01 F60.00
G01 Z-0.1418
G01 F60.00
G01 X2.8877 Y31.7846
G01 X2.8927 Y31.8900
G01 X2.8871 Y32.0027
G01 X2.8706 Y32.1144
G01 X2.8432 Y32.2238
G01 X2.8051 Y32.3301
G01 X2.7569 Y32.4321
G01 X2.6989 Y32.5289
G01 X2.6316 Y32.6196
G01 X2.5559 Y32.7032
G01 X2.4722 Y32.7790
G01 X2.3816 Y32.8462
G01 X2.2848 Y32.9042
G01 X2.1828 Y32.9525
G01 X2.0765 Y32.9905
G01 X1.9670 Y33.0179
G01 X1.8554 Y33.0345
G01 X1.7427 Y33.0400
G01 X1.6300 Y33.0345
G01 X1.5183 Y33.0179
G01 X1.4089 Y32.9905
G01 X1.3026 Y32.9525
G01 X1.2006 Y32.9042
G01 X1.1038 Y32.8462
G01 X1.0131 Y32.7790
G01 X0.9295 Y32.7032
G01 X0.8537 Y32.6196
G01 X0.7865 Y32.5289
G01 X0.7285 Y32.4321
G01 X0.6802 Y32.3301
G01 X0.6422 Y32.2238
G01 X0.6148 Y32.1144
G01 X0.5982 Y32.0027
G01 X0.5927 Y31.8900
G01 X0.5982 Y31.7773
G01 X0.6148 Y31.6656
G01 X0.6422 Y31.5562
G01 X0.6802 Y31.4499
G01 X0.7285 Y31.3479
G01 X0.7865 Y31.2511
G01 X0.8537 Y31.1604
G01 X0.9295 Y31.0768
G01 X1.0131 Y31.0010
G01 X1.1038 Y30.9338
G01 X1.2006 Y30.8758
G01 X1.3026 Y30.8275
G01 X1.4089 Y30.7895
G01 X1.5183 Y30.7621
G01 X1.6300 Y30.7455
G01 X1.7427 Y30.7400
G01 X1.8554 Y30.7455
G01 X1.9670 Y30.7621
G01 X2.0765 Y30.7895
G01 X2.1828 Y30.8275
G01 X2.2848 Y30.8758
G01 X2.3816 Y30.9338
G01 X2.4722 Y31.0010
G01 X2.5559 Y31.0768
G01 X2.6316 Y31.1604
G01 X2.6989 Y31.2511
G01 X2.7569 Y31.3479
G01 X2.8051 Y31.4499
G01 X2.8432 Y31.5562
G01 X2.8706 Y31.6656
G01 X2.8862 Y31.7700
G00 Z2.0000
G00 X2.8615 Y31.7736
G01 F60.00
G01 Z-0.1418
G01 F60.00
G01 X2.8627 Y31.7858
G01 X2.8677 Y31.8900
G01 X2.8623 Y32.0003
G01 X2.8461 Y32.1095
G01 X2.8192 Y32.2166
G01 X2.7820 Y32.3205
G01 X2.7348 Y32.4203
G01 X2.6781 Y32.5150
G01 X2.6123 Y32.6037
G01 X2.5382 Y32.6855
G01 X2.4564 Y32.7596
G01 X2.3677 Y32.8254
G01 X2.2730 Y32.8822
G01 X2.1732 Y32.9294
G01 X2.0693 Y32.9666
G01 X1.9622 Y32.9934
G01 X1.8530 Y33.0096
G01 X1.7427 Y33.0150
G01 X1.6324 Y33.0096
G01 X1.5232 Y32.9934
G01 X1.4161 Y32.9666
G01 X1.3122 Y32.9294
G01 X1.2124 Y32.8822
G01 X1.1177 Y32.8254
G01 X1.0290 Y32.7596
G01 X0.9472 Y32.6855
G01 X0.8730 Y32.6037
G01 X0.8073 Y32.5150
G01 X0.7505 Y32.4203
G01 X0.7033 Y32.3205
G01 X0.6661 Y32.2166
G01 X0.6393 Y32.1095
G01 X0.6231 Y32.0003
G01 X0.6177 Y31.8900
G01 X0.6231 Y31.7797
G01 X0.6393 Y31.6705
G01 X0.6661 Y31.5634
G01 X0.7033 Y31.4595
G01 X0.7505 Y31.3597
G01 X0.8073 Y31.2650
G01 X0.8730 Y31.1763
G01 X0.9472 Y31.0945
G01 X1.0290 Y31.0204
G01 X1.1177 Y30.9546
G01 X1.2124 Y30.8978
G01 X1.3122 Y30.8506
G01 X1.4161 Y30.8134
G01 X1.5232 Y30.7866
G01 X1.6324 Y30.7704
G01 X1.7427 Y30.7650
G01 X1.8530 Y30.7704
G01 X1.9622 Y30.7866
G01 X2.0693 Y30.8134
G01 X2.1732 Y30.8506
G01 X2.2730 Y30.8978
G01 X2.3677 Y30.9546
G01 X2.4564 Y31.0204
G01 X2.5382 Y31.0945
G01 X2.6123 Y31.1763
G01 X2.6781 Y31.2650
G01 X2.7348 Y31.3597
G01 X2.7820 Y31.4595
G01 X2.8192 Y31.5634
G01 X2.8461 Y31.6705
G01 X2.8615 Y31.7736
G00 Z2.0000
G00 X2.8862 Y34.3100
G01 F60.00
G01 Z-0.1418
G01 F60.00
G01 X2.8877 Y34.3246
G01 X2.8927 Y34.4300
G01 X2.8871 Y34.5427
G01 X2.8706 Y34.6544
G01 X2.8432 Y34.7638
G01 X2.8051 Y34.8701
G01 X2.7569 Y34.9721
G01 X2.6989 Y35.0689
G01 X2.6316 Y35.1596
G01 X2.5559 Y35.2432
G01 X2.4722 Y35.3190
G01 X2.3816 Y35.3862
G01 X2.2848 Y35.4442
G01 X2.1828 Y35.4925
G01 X2.0765 Y35.5305
G01 X1.9670 Y35.5579
G01 X1.8554 Y35.5745
G01 X1.7427 Y35.5800
G01 X1.6300 Y35.5745
G01 X1.5183 Y35.5579
G01 X1.4089 Y35.5305
G01 X1.3026 Y35.4925
G01 X1.2006 Y35.4442
G01 X1.1038 Y35.3862
G01 X1.0131 Y35.3190
G01 X0.9295 Y35.2432
G01 X0.8537 Y35.1596
G01 X0.7865 Y35.0689
G01 X0.7285 Y34.9721
G01 X0.6802 Y34.8701
G01 X0.6422 Y34.7638
G01 X0.6148 Y34.6544
G01 X0.5982 Y34.5427
G01 X0.5927 Y34.4300
G01 X0.5982 Y34.3173
G01 X0.6148 Y34.2056
G01 X0.6422 Y34.0962
G01 X0.6802 Y33.9899
G01 X0.7285 Y33.8879
G01 X0.7865 Y33.7911
G01 X0.8537 Y33.7004
G01 X0.9295 Y33.6168
G01 X1.0131 Y33.5410
G01 X1.1038 Y33.4738
G01 X1.2006 Y33.4158
G01 X1.3026 Y33.3675
G01 X1.4089 Y33.3295
G01 X1.5183 Y33.3021
G01 X1.6300 Y33.2855
G01 X1.7427 Y33.2800
G01 X1.8554 Y33.2855
G01 X1.9670 Y33.3021
G01 X2.0765 Y33.3295
G01 X2.1828 Y33.3675
G01 X2.2848 Y33.4158
G01 X2.3816 Y33.4738
G01 X2.4722 Y33.5410
G01 X2.5559 Y33.6168
G01 X2.6316 Y33.7004
G01 X2.6989 Y33.7911
G01 X2.7569 Y33.8879
G01 X2.8051 Y33.9899
G01 X2.8432 Y34.0962
G01 X2.8706 Y34.2056
G01 X2.8862 Y34.3100
G00 Z2.0000
G00 X2.8615 Y34.3136
G01 F60.00
G01 Z-0.1418
G01 F60.00
G01 X2.8627 Y34.3258
G01 X2.8677 Y34.4300
G01 X2.8623 Y34.5403
G01 X2.8461 Y34.6495
G01 X2.8192 Y34.7566
G01 X2.7820 Y34.8605
G01 X2.7348 Y34.9603
G01 X2.6781 Y35.0550
G01 X2.6123 Y35.1437
G01 X2.5382 Y35.2255
G01 X2.4564 Y35.2996
G01 X2.3677 Y35.3654
G01 X2.2730 Y35.4222
G01 X2.1732 Y35.4694
G01 X2.0693 Y35.5066
G01 X1.9622 Y35.5334
G01 X1.8530 Y35.5496
G01 X1.7427 Y35.5550
G01 X1.6324 Y35.5496
G01 X1.5232 Y35.5334
G01 X1.4161 Y35.5066
G01 X1.3122 Y35.4694
G01 X1.2124 Y35.4222
G01 X1.1177 Y35.3654
G01 X1.0290 Y35.2996
G01 X0.9472 Y35.2255
G01 X0.8730 Y35.1437
G01 X0.8073 Y35.0550
G01 X0.7505 Y34.9603
G01 X0.7033 Y34.8605
G01 X0.6661 Y34.7566
G01 X0.6393 Y34.6495
G01 X0.6231 Y34.5403
G01 X0.6177 Y34.4300
G01 X0.6231 Y34.3197
G01 X0.6393 Y34.2105
G01 X0.6661 Y34.1034
G01 X0.7033 Y33.9995
G01 X0.7505 Y33.8997
G01 X0.8073 Y33.8050
G01 X0.8730 Y33.7163
G01 X0.9472 Y33.6345
G01 X1.0290 Y33.5604
G01 X1.1177 Y33.4946
G01 X1.2124 Y33.4378
G01 X1.3122 Y33.3906
G01 X1.4161 Y33.3534
G01 X1.5232 Y33.3266
G01 X1.6324 Y33.3104
G01 X1.7427 Y33.3050
G01 X1.8530 Y33.3104
G01 X1.9622 Y33.3266
G01 X2.0693 Y33.3534
G01 X2.1732 Y33.3906
G01 X2.2730 Y33.4378
G01 X2.3677 Y33.4946
G01 X2.4564 Y33.5604
G01 X2.5382 Y33.6345
G01 X2.6123 Y33.7163
G01 X2.6781 Y33.8050
G01 X2.7348 Y33.8997
G01 X2.7820 Y33.9995
G01 X2.8192 Y34.1034
G01 X2.8461 Y34.2105
G01 X2.8615 Y34.3136
G00 Z2.0000
G00 X2.8862 Y36.8500
G01 F60.00
G01 Z-0.1418
G01 F60.00
G01 X2.8877 Y36.8646
G01 X2.8927 Y36.9700
G01 X2.8871 Y37.0827
G01 X2.8706 Y37.1944
G01 X2.8432 Y37.3038
G01 X2.8051 Y37.4101
G01 X2.7569 Y37.5121
G01 X2.6989 Y37.6089
G01 X2.6316 Y37.6996
G01 X2.5559 Y37.7832
G01 X2.4722 Y37.8590
G01 X2.3816 Y37.9262
G01 X2.2848 Y37.9842
G01 X2.1828 Y38.0325
G01 X2.0765 Y38.0705
G01 X1.9670 Y38.0979
G01 X1.8554 Y38.1145
G01 X1.7427 Y38.1200
G01 X1.6300 Y38.1145
G01 X1.5183 Y38.0979
G01 X1.4089 Y38.0705
G01 X1.3026 Y38.0325
G01 X1.2006 Y37.9842
G01 X1.1038 Y37.9262
G01 X1.0131 Y37.8590
G01 X0.9295 Y37.7832
G01 X0.8537 Y37.6996
G01 X0.7865 Y37.6089
G01 X0.7285 Y37.5121
G01 X0.6802 Y37.4101
G01 X0.6422 Y37.3038
G01 X0.6148 Y37.1944
G01 X0.5982 Y37.0827
G01 X0.5927 Y36.9700
G01 X0.5982 Y36.8573
G01 X0.6148 Y36.7456
G01 X0.6422 Y36.6362
G01 X0.6802 Y36.5299
G01 X0.7285 Y36.4279
G01 X0.7865 Y36.3311
G01 X0.8537 Y36.2404
G01 X0.9295 Y36.1568
G01 X1.0131 Y36.0810
G01 X1.1038 Y36.0138
G01 X1.2006 Y35.9558
G01 X1.3026 Y35.9075
G01 X1.4089 Y35.8695
G01 X1.5183 Y35.8421
G01 X1.6300 Y35.8255
G01 X1.7427 Y35.8200
G01 X1.8554 Y35.8255
G01 X1.9670 Y35.8421
G01 X2.0765 Y35.8695
G01 X2.1828 Y35.9075
G01 X2.2848 Y35.9558
G01 X2.3816 Y36.0138
G01 X2.4722 Y36.0810
G01 X2.5559 Y36.1568
G01 X2.6316 Y36.2404
G01 X2.6989 Y36.3311
G01 X2.7569 Y36.4279
G01 X2.8051 Y36.5299
G01 X2.8432 Y36.6362
G01 X2.8706 Y36.7456
G01 X2.8862 Y36.8500
G00 Z2.0000
G00 X2.8615 Y36.8536
G01 F60.00
G01 Z-0.1418
G01 F60.00
G01 X2.8627 Y36.8658
G01 X2.8677 Y36.9700
G01 X2.8623 Y37.0803
G01 X2.8461 Y37.1895
G01 X2.8192 Y37.2966
G01 X2.7820 Y37.4005
G01 X2.7348 Y37.5003
G01 X2.6781 Y37.5950
G01 X2.6123 Y37.6837
G01 X2.5382 Y37.7655
G01 X2.4564 Y37.8396
G01 X2.3677 Y37.9054
G01 X2.2730 Y37.9622
G01 X2.1732 Y38.0094
G01 X2.0693 Y38.0466
G01 X1.9622 Y38.0734
G01 X1.8530 Y38.0896
G01 X1.7427 Y38.0950
G01 X1.6324 Y38.0896
G01 X1.5232 Y38.0734
G01 X1.4161 Y38.0466
G01 X1.3122 Y38.0094
G01 X1.2124 Y37.9622
G01 X1.1177 Y37.9054
G01 X1.0290 Y37.8396
G01 X0.9472 Y37.7655
G01 X0.8730 Y37.6837
G01 X0.8073 Y37.5950
G01 X0.7505 Y37.5003
G01 X0.7033 Y37.4005
G01 X0.6661 Y37.2966
G01 X0.6393 Y37.1895
G01 X0.6231 Y37.0803
G01 X0.6177 Y36.9700
G01 X0.6231 Y36.8597
G01 X0.6393 Y36.7505
G01 X0.6661 Y36.6434
G01 X0.7033 Y36.5395
G01 X0.7505 Y36.4397
G01 X0.8073 Y36.3450
G01 X0.8730 Y36.2563
G01 X0.9472 Y36.1745
G01 X1.0290 Y36.1004
G01 X1.1177 Y36.0346
G01 X1.2124 Y35.9778
G01 X1.3122 Y35.9306
G01 X1.4161 Y35.8934
G01 X1.5232 Y35.8666
G01 X1.6324 Y35.8504
G01 X1.7427 Y35.8450
G01 X1.8530 Y35.8504
G01 X1.9622 Y35.8666
G01 X2.0693 Y35.8934
G01 X2.1732 Y35.9306
G01 X2.2730 Y35.9778
G01 X2.3677 Y36.0346
G01 X2.4564 Y36.1004
G01 X2.5382 Y36.1745
G01 X2.6123 Y36.2563
G01 X2.6781 Y36.3450
G01 X2.7348 Y36.4397
G01 X2.7820 Y36.5395
G01 X2.8192 Y36.6434
G01 X2.8461 Y36.7505
G01 X2.8615 Y36.8536
G00 Z2.0000
G00 X2.8862 Y39.3900
G01 F60.00
G01 Z-0.1418
G01 F60.00
G01 X2.8877 Y39.4046
G01 X2.8927 Y39.5100
G01 X2.8871 Y39.6227
G01 X2.8706 Y39.7344
G01 X2.8432 Y39.8438
G01 X2.8051 Y39.9501
G01 X2.7569 Y40.0521
G01 X2.6989 Y40.1489
G01 X2.6316 Y40.2396
G01 X2.5559 Y40.3232
G01 X2.4722 Y40.3990
G01 X2.3816 Y40.4662
G01 X2.2848 Y40.5242
G01 X2.1828 Y40.5725
G01 X2.0765 Y40.6105
G01 X1.9670 Y40.6379
G01 X1.8554 Y40.6545
G01 X1.7427 Y40.6600
G01 X1.6300 Y40.6545
G01 X1.5183 Y40.6379
G01 X1.4089 Y40.6105
G01 X1.3026 Y40.5725
G01 X1.2006 Y40.5242
G01 X1.1038 Y40.4662
G01 X1.0131 Y40.3990
G01 X0.9295 Y40.3232
G01 X0.8537 Y40.2396
G01 X0.7865 Y40.1489
G01 X0.7285 Y40.0521
G01 X0.6802 Y39.9501
G01 X0.6422 Y39.8438
G01 X0.6148 Y39.7344
G01 X0.5982 Y39.6227
G01 X0.5927 Y39.5100
G01 X0.5982 Y39.3973
G01 X0.6148 Y39.2856
G01 X0.6422 Y39.1762
G01 X0.6802 Y39.0699
G01 X0.7285 Y38.9679
G01 X0.7865 Y38.8711
G01 X0.8537 Y38.7804
G01 X0.9295 Y38.6968
G01 X1.0131 Y38.6210
G01 X1.1038 Y38.5538
G01 X1.2006 Y38.4958
G01 X1.3026 Y38.4475
G01 X1.4089 Y38.4095
G01 X1.5183 Y38.3821
G01 X1.6300 Y38.3655
G01 X1.7427 Y38.3600
G01 X1.8554 Y38.3655
G01 X1.9670 Y38.3821
G01 X2.0765 Y38.4095
G01 X2.1828 Y38.4475
G01 X2.2848 Y38.4958
G01 X2.3816 Y38.5538
G01 X2.4722 Y38.6210
G01 X2.5559 Y38.6968
G01 X2.6316 Y38.7804
G01 X2.6989 Y38.8711
G01 X2.7569 Y38.9679
G01 X2.8051 Y39.0699
G01 X2.8432 Y39.1762
G01 X2.8706 Y39.2856
G01 X2.8862 Y39.3900
G00 Z2.0000
G00 X2.8615 Y39.3936
G01 F60.00
G01 Z-0.1418
G01 F60.00
G01 X2.8627 Y39.4058
G01 X2.8677 Y39.5100
G01 X2.8623 Y39.6203
G01 X2.8461 Y39.7295
G01 X2.8192 Y39.8366
G01 X2.7820 Y39.9405
G01 X2.7348 Y40.0403
G01 X2.6781 Y40.1350
G01 X2.6123 Y40.2237
G01 X2.5382 Y40.3055
G01 X2.4564 Y40.3796
G01 X2.3677 Y40.4454
G01 X2.2730 Y40.5022
G01 X2.1732 Y40.5494
G01 X2.0693 Y40.5866
G01 X1.9622 Y40.6134
G01 X1.8530 Y40.6296
G01 X1.7427 Y40.6350
G01 X1.6324 Y40.6296
G01 X1.5232 Y40.6134
G01 X1.4161 Y40.5866
G01 X1.3122 Y40.5494
G01 X1.2124 Y40.5022
G01 X1.1177 Y40.4454
G01 X1.0290 Y40.3796
G01 X0.9472 Y40.3055
G01 X0.8730 Y40.2237
G01 X0.8073 Y40.1350
G01 X0.7505 Y40.0403
G01 X0.7033 Y39.9405
G01 X0.6661 Y39.8366
G01 X0.6393 Y39.7295
G01 X0.6231 Y39.6203
G01 X0.6177 Y39.5100
G01 X0.6231 Y39.3997
G01 X0.6393 Y39.2905
G01 X0.6661 Y39.1834
G01 X0.7033 Y39.0795
G01 X0.7505 Y38.9797
G01 X0.8073 Y38.8850
G01 X0.8730 Y38.7963
G01 X0.9472 Y38.7145
G01 X1.0290 Y38.6404
G01 X1.1177 Y38.5746
G01 X1.2124 Y38.5178
G01 X1.3122 Y38.4706
G01 X1.4161 Y38.4334
G01 X1.5232 Y38.4066
G01 X1.6324 Y38.3904
G01 X1.7427 Y38.3850
G01 X1.8530 Y38.3904
G01 X1.9622 Y38.4066
G01 X2.0693 Y38.4334
G01 X2.1732 Y38.4706
G01 X2.2730 Y38.5178
G01 X2.3677 Y38.5746
G01 X2.4564 Y38.6404
G01 X2.5382 Y38.7145
G01 X2.6123 Y38.7963
G01 X2.6781 Y38.8850
G01 X2.7348 Y38.9797
G01 X2.7820 Y39.0795
G01 X2.8192 Y39.1834
G01 X2.8461 Y39.2905
G01 X2.8615 Y39.3936
G00 Z2.0000
G00 X2.8862 Y41.9300
G01 F60.00
G01 Z-0.1418
G01 F60.00
G01 X2.8877 Y41.9446
G01 X2.8927 Y42.0500
G01 X2.8871 Y42.1627
G01 X2.8706 Y42.2744
G01 X2.8432 Y42.3838
G01 X2.8051 Y42.4901
G01 X2.7569 Y42.5921
G01 X2.6989 Y42.6889
G01 X2.6316 Y42.7796
G01 X2.5559 Y42.8632
G01 X2.4722 Y42.9390
G01 X2.3816 Y43.0062
G01 X2.2848 Y43.0642
G01 X2.1828 Y43.1125
G01 X2.0765 Y43.1505
G01 X1.9670 Y43.1779
G01 X1.8554 Y43.1945
G01 X1.7427 Y43.2000
G01 X1.6300 Y43.1945
G01 X1.5183 Y43.1779
G01 X1.4089 Y43.1505
G01 X1.3026 Y43.1125
G01 X1.2006 Y43.0642
G01 X1.1038 Y43.0062
G01 X1.0131 Y42.9390
G01 X0.9295 Y42.8632
G01 X0.8537 Y42.7796
G01 X0.7865 Y42.6889
G01 X0.7285 Y42.5921
G01 X0.6802 Y42.4901
G01 X0.6422 Y42.3838
G01 X0.6148 Y42.2744
G01 X0.5982 Y42.1627
G01 X0.5927 Y42.0500
G01 X0.5982 Y41.9373
G01 X0.6148 Y41.8256
G01 X0.6422 Y41.7162
G01 X0.6802 Y41.6099
G01 X0.7285 Y41.5079
G01 X0.7865 Y41.4111
G01 X0.8537 Y41.3204
G01 X0.9295 Y41.2368
G01 X1.0131 Y41.1610
G01 X1.1038 Y41.0938
G01 X1.2006 Y41.0358
G01 X1.3026 Y40.9875
G01 X1.4089 Y40.9495
G01 X1.5183 Y40.9221
G01 X1.6300 Y40.9055
G01 X1.7427 Y40.9000
G01 X1.8554 Y40.9055
G01 X1.9670 Y40.9221
G01 X2.0765 Y40.9495
G01 X2.1828 Y40.9875
G01 X2.2848 Y41.0358
G01 X2.3816 Y41.0938
G01 X2.4722 Y41.1610
G01 X2.5559 Y41.2368
G01 X2.6316 Y41.3204
G01 X2.6989 Y41.4111
G01 X2.7569 Y41.5079
G01 X2.8051 Y41.6099
G01 X2.8432 Y41.7162
G01 X2.8706 Y41.8256
G01 X2.8862 Y41.9300
G00 Z2.0000
G00 X2.8615 Y41.9336
G01 F60.00
G01 Z-0.1418
G01 F60.00
G01 X2.8627 Y41.9458
G01 X2.8677 Y42.0500
G01 X2.8623 Y42.1603
G01 X2.8461 Y42.2695
G01 X2.8192 Y42.3766
G01 X2.7820 Y42.4805
G01 X2.7348 Y42.5803
G01 X2.6781 Y42.6750
G01 X2.6123 Y42.7637
G01 X2.5382 Y42.8455
G01 X2.4564 Y42.9196
G01 X2.3677 Y42.9854
G01 X2.2730 Y43.0422
G01 X2.1732 Y43.0894
G01 X2.0693 Y43.1266
G01 X1.9622 Y43.1534
G01 X1.8530 Y43.1696
G01 X1.7427 Y43.1750
G01 X1.6324 Y43.1696
G01 X1.5232 Y43.1534
G01 X1.4161 Y43.1266
G01 X1.3122 Y43.0894
G01 X1.2124 Y43.0422
G01 X1.1177 Y42.9854
G01 X1.0290 Y42.9196
G01 X0.9472 Y42.8455
G01 X0.8730 Y42.7637
G01 X0.8073 Y42.6750
G01 X0.7505 Y42.5803
G01 X0.7033 Y42.4805
G01 X0.6661 Y42.3766
G01 X0.6393 Y42.2695
G01 X0.6231 Y42.1603
G01 X0.6177 Y42.0500
G01 X0.6231 Y41.9397
G01 X0.6393 Y41.8305
G01 X0.6661 Y41.7234
G01 X0.7033 Y41.6195
G01 X0.7505 Y41.5197
G01 X0.8073 Y41.4250
G01 X0.8730 Y41.3363
G01 X0.9472 Y41.2545
G01 X1.0290 Y41.1804
G01 X1.1177 Y41.1146
G01 X1.2124 Y41.0578
G01 X1.3122 Y41.0106
G01 X1.4161 Y40.9734
G01 X1.5232 Y40.9466
G01 X1.6324 Y40.9304
G01 X1.7427 Y40.9250
G01 X1.8530 Y40.9304
G01 X1.9622 Y40.9466
G01 X2.0693 Y40.9734
G01 X2.1732 Y41.0106
G01 X2.2730 Y41.0578
G01 X2.3677 Y41.1146
G01 X2.4564 Y41.1804
G01 X2.5382 Y41.2545
G01 X2.6123 Y41.3363
G01 X2.6781 Y41.4250
G01 X2.7348 Y41.5197
G01 X2.7820 Y41.6195
G01 X2.8192 Y41.7234
G01 X2.8461 Y41.8305
G01 X2.8615 Y41.9336
G00 Z2.0000
G00 X2.8862 Y44.4700
G01 F60.00
G01 Z-0.1418
G01 F60.00
G01 X2.8877 Y44.4846
G01 X2.8927 Y44.5900
G01 X2.8871 Y44.7027
G01 X2.8706 Y44.8144
G01 X2.8432 Y44.9238
G01 X2.8051 Y45.0301
G01 X2.7569 Y45.1321
G01 X2.6989 Y45.2289
G01 X2.6316 Y45.3196
G01 X2.5559 Y45.4032
G01 X2.4722 Y45.4790
G01 X2.3816 Y45.5462
G01 X2.2848 Y45.6042
G01 X2.1828 Y45.6525
G01 X2.0765 Y45.6905
G01 X1.9670 Y45.7179
G01 X1.8554 Y45.7345
G01 X1.7427 Y45.7400
G01 X1.6300 Y45.7345
G01 X1.5183 Y45.7179
G01 X1.4089 Y45.6905
G01 X1.3026 Y45.6525
G01 X1.2006 Y45.6042
G01 X1.1038 Y45.5462
G01 X1.0131 Y45.4790
G01 X0.9295 Y45.4032
G01 X0.8537 Y45.3196
G01 X0.7865 Y45.2289
G01 X0.7285 Y45.1321
G01 X0.6802 Y45.0301
G01 X0.6422 Y44.9238
G01 X0.6148 Y44.8144
G01 X0.5982 Y44.7027
G01 X0.5927 Y44.5900
G01 X0.5982 Y44.4773
G01 X0.6148 Y44.3656
G01 X0.6422 Y44.2562
G01 X0.6802 Y44.1499
G01 X0.7285 Y44.0479
G01 X0.7865 Y43.9511
G01 X0.8537 Y43.8604
G01 X0.9295 Y43.7768
G01 X1.0131 Y43.7010
G01 X1.1038 Y43.6338
G01 X1.2006 Y43.5758
G01 X1.3026 Y43.5275
G01 X1.4089 Y43.4895
G01 X1.5183 Y43.4621
G01 X1.6300 Y43.4455
G01 X1.7427 Y43.4400
G01 X1.8554 Y43.4455
G01 X1.9670 Y43.4621
G01 X2.0765 Y43.4895
G01 X2.1828 Y43.5275
G01 X2.2848 Y43.5758
G01 X2.3816 Y43.6338
G01 X2.4722 Y43.7010
G01 X2.5559 Y43.7768
G01 X2.6316 Y43.8604
G01 X2.6989 Y43.9511
G01 X2.7569 Y44.0479
G01 X2.8051 Y44.1499
G01 X2.8432 Y44.2562
G01 X2.8706 Y44.3656
G01 X2.8862 Y44.4700
G00 Z2.0000
G00 X2.8615 Y44.4736
G01 F60.00
G01 Z-0.1418
G01 F60.00
G01 X2.8627 Y44.4858
G01 X2.8677 Y44.5900
G01 X2.8623 Y44.7003
G01 X2.8461 Y44.8095
G01 X2.8192 Y44.9166
G01 X2.7820 Y45.0205
G01 X2.7348 Y45.1203
G01 X2.6781 Y45.2150
G01 X2.6123 Y45.3037
G01 X2.5382 Y45.3855
G01 X2.4564 Y45.4596
G01 X2.3677 Y45.5254
G01 X2.2730 Y45.5822
G01 X2.1732 Y45.6294
G01 X2.0693 Y45.6666
G01 X1.9622 Y45.6934
G01 X1.8530 Y45.7096
G01 X1.7427 Y45.7150
G01 X1.6324 Y45.7096
G01 X1.5232 Y45.6934
G01 X1.4161 Y45.6666
G01 X1.3122 Y45.6294
G01 X1.2124 Y45.5822
G01 X1.1177 Y45.5254
G01 X1.0290 Y45.4596
G01 X0.9472 Y45.3855
G01 X0.8730 Y45.3037
G01 X0.8073 Y45.2150
G01 X0.7505 Y45.1203
G01 X0.7033 Y45.0205
G01 X0.6661 Y44.9166
G01 X0.6393 Y44.8095
G01 X0.6231 Y44.7003
G01 X0.6177 Y44.5900
G01 X0.6231 Y44.4797
G01 X0.6393 Y44.3705
G01 X0.6661 Y44.2634
G01 X0.7033 Y44.1595
G01 X0.7505 Y44.0597
G01 X0.8073 Y43.9650
G01 X0.8730 Y43.8763
G01 X0.9472 Y43.7945
G01 X1.0290 Y43.7204
G01 X1.1177 Y43.6546
G01 X1.2124 Y43.5978
G01 X1.3122 Y43.5506
G01 X1.4161 Y43.5134
G01 X1.5232 Y43.4866
G01 X1.6324 Y43.4704
G01 X1.7427 Y43.4650
G01 X1.8530 Y43.4704
G01 X1.9622 Y43.4866
G01 X2.0693 Y43.5134
G01 X2.1732 Y43.5506
G01 X2.2730 Y43.5978
G01 X2.3677 Y43.6546
G01 X2.4564 Y43.7204
G01 X2.5382 Y43.7945
G01 X2.6123 Y43.8763
G01 X2.6781 Y43.9650
G01 X2.7348 Y44.0597
G01 X2.7820 Y44.1595
G01 X2.8192 Y44.2634
G01 X2.8461 Y44.3705
G01 X2.8615 Y44.4736
G00 Z2.0000
G00 X2.8862 Y47.0100
G01 F60.00
G01 Z-0.1418
G01 F60.00
G01 X2.8877 Y47.0246
G01 X2.8927 Y47.1300
G01 X2.8871 Y47.2427
G01 X2.8706 Y47.3544
G01 X2.8432 Y47.4638
G01 X2.8051 Y47.5701
G01 X2.7569 Y47.6721
G01 X2.6989 Y47.7689
G01 X2.6316 Y47.8596
G01 X2.5559 Y47.9432
G01 X2.4722 Y48.0190
G01 X2.3816 Y48.0862
G01 X2.2848 Y48.1442
G01 X2.1828 Y48.1925
G01 X2.0765 Y48.2305
G01 X1.9670 Y48.2579
G01 X1.8554 Y48.2745
G01 X1.7427 Y48.2800
G01 X1.6300 Y48.2745
G01 X1.5183 Y48.2579
G01 X1.4089 Y48.2305
G01 X1.3026 Y48.1925
G01 X1.2006 Y48.1442
G01 X1.1038 Y48.0862
G01 X1.0131 Y48.0190
G01 X0.9295 Y47.9432
G01 X0.8537 Y47.8596
G01 X0.7865 Y47.7689
G01 X0.7285 Y47.6721
G01 X0.6802 Y47.5701
G01 X0.6422 Y47.4638
G01 X0.6148 Y47.3544
G01 X0.5982 Y47.2427
G01 X0.5927 Y47.1300
G01 X0.5982 Y47.0173
G01 X0.6148 Y46.9056
G01 X0.6422 Y46.7962
G01 X0.6802 Y46.6899
G01 X0.7285 Y46.5879
G01 X0.7865 Y46.4911
G01 X0.8537 Y46.4004
G01 X0.9295 Y46.3168
G01 X1.0131 Y46.2410
G01 X1.1038 Y46.1738
G01 X1.2006 Y46.1158
G01 X1.3026 Y46.0675
G01 X1.4089 Y46.0295
G01 X1.5183 Y46.0021
G01 X1.6300 Y45.9855
G01 X1.7427 Y45.9800
G01 X1.8554 Y45.9855
G01 X1.9670 Y46.0021
G01 X2.0765 Y46.0295
G01 X2.1828 Y46.0675
G01 X2.2848 Y46.1158
G01 X2.3816 Y46.1738
G01 X2.4722 Y46.2410
G01 X2.5559 Y46.3168
G01 X2.6316 Y46.4004
G01 X2.6989 Y46.4911
G01 X2.7569 Y46.5879
G01 X2.8051 Y46.6899
G01 X2.8432 Y46.7962
G01 X2.8706 Y46.9056
G01 X2.8862 Y47.0100
G00 Z2.0000
G00 X2.8615 Y47.0136
G01 F60.00
G01 Z-0.1418
G01 F60.00
G01 X2.8627 Y47.0258
G01 X2.8677 Y47.1300
G01 X2.8623 Y47.2403
G01 X2.8461 Y47.3495
G01 X2.8192 Y47.4566
G01 X2.7820 Y47.5605
G01 X2.7348 Y47.6603
G01 X2.6781 Y47.7550
G01 X2.6123 Y47.8437
G01 X2.5382 Y47.9255
G01 X2.4564 Y47.9996
G01 X2.3677 Y48.0654
G01 X2.2730 Y48.1222
G01 X2.1732 Y48.1694
G01 X2.0693 Y48.2066
G01 X1.9622 Y48.2334
G01 X1.8530 Y48.2496
G01 X1.7427 Y48.2550
G01 X1.6324 Y48.2496
G01 X1.5232 Y48.2334
G01 X1.4161 Y48.2066
G01 X1.3122 Y48.1694
G01 X1.2124 Y48.1222
G01 X1.1177 Y48.0654
G01 X1.0290 Y47.9996
G01 X0.9472 Y47.9255
G01 X0.8730 Y47.8437
G01 X0.8073 Y47.7550
G01 X0.7505 Y47.6603
G01 X0.7033 Y47.5605
G01 X0.6661 Y47.4566
G01 X0.6393 Y47.3495
G01 X0.6231 Y47.2403
G01 X0.6177 Y47.1300
G01 X0.6231 Y47.0197
G01 X0.6393 Y46.9105
G01 X0.6661 Y46.8034
G01 X0.7033 Y46.6995
G01 X0.7505 Y46.5997
G01 X0.8073 Y46.5050
G01 X0.8730 Y46.4163
G01 X0.9472 Y46.3345
G01 X1.0290 Y46.2604
G01 X1.1177 Y46.1946
G01 X1.2124 Y46.1378
G01 X1.3122 Y46.0906
G01 X1.4161 Y46.0534
G01 X1.5232 Y46.0266
G01 X1.6324 Y46.0104
G01 X1.7427 Y46.0050
G01 X1.8530 Y46.0104
G01 X1.9622 Y46.0266
G01 X2.0693 Y46.0534
G01 X2.1732 Y46.0906
G01 X2.2730 Y46.1378
G01 X2.3677 Y46.1946
G01 X2.4564 Y46.2604
G01 X2.5382 Y46.3345
G01 X2.6123 Y46.4163
G01 X2.6781 Y46.5050
G01 X2.7348 Y46.5997
G01 X2.7820 Y46.6995
G01 X2.8192 Y46.8034
G01 X2.8461 Y46.9105
G01 X2.8615 Y47.0136
G00 Z2.0000
G00 X2.8862 Y49.5500
G01 F60.00
G01 Z-0.1418
G01 F60.00
G01 X2.8877 Y49.5646
G01 X2.8927 Y49.6700
G01 X2.8871 Y49.7827
G01 X2.8706 Y49.8944
G01 X2.8432 Y50.0038
G01 X2.8051 Y50.1101
G01 X2.7569 Y50.2121
G01 X2.6989 Y50.3089
G01 X2.6316 Y50.3996
G01 X2.5559 Y50.4832
G01 X2.4722 Y50.5590
G01 X2.3816 Y50.6262
G01 X2.2848 Y50.6842
G01 X2.1828 Y50.7325
G01 X2.0765 Y50.7705
G01 X1.9670 Y50.7979
G01 X1.8554 Y50.8145
G01 X1.7427 Y50.8200
G01 X1.6300 Y50.8145
G01 X1.5183 Y50.7979
G01 X1.4089 Y50.7705
G01 X1.3026 Y50.7325
G01 X1.2006 Y50.6842
G01 X1.1038 Y50.6262
G01 X1.0131 Y50.5590
G01 X0.9295 Y50.4832
G01 X0.8537 Y50.3996
G01 X0.7865 Y50.3089
G01 X0.7285 Y50.2121
G01 X0.6802 Y50.1101
G01 X0.6422 Y50.0038
G01 X0.6148 Y49.8944
G01 X0.5982 Y49.7827
G01 X0.5927 Y49.6700
G01 X0.5982 Y49.5573
G01 X0.6148 Y49.4456
G01 X0.6422 Y49.3362
G01 X0.6802 Y49.2299
G01 X0.7285 Y49.1279
G01 X0.7865 Y49.0311
G01 X0.8537 Y48.9404
G01 X0.9295 Y48.8568
G01 X1.0131 Y48.7810
G01 X1.1038 Y48.7138
G01 X1.2006 Y48.6558
G01 X1.3026 Y48.6075
G01 X1.4089 Y48.5695
G01 X1.5183 Y48.5421
G01 X1.6300 Y48.5255
G01 X1.7427 Y48.5200
G01 X1.8554 Y48.5255
G01 X1.9670 Y48.5421
G01 X2.0765 Y48.5695
G01 X2.1828 Y48.6075
G01 X2.2848 Y48.6558
G01 X2.3816 Y48.7138
G01 X2.4722 Y48.7810
G01 X2.5559 Y48.8568
G01 X2.6316 Y48.9404
G01 X2.6989 Y49.0311
G01 X2.7569 Y49.1279
G01 X2.8051 Y49.2299
G01 X2.8432 Y49.3362
G01 X2.8706 Y49.4456
G01 X2.8862 Y49.5500
G00 Z2.0000
G00 X2.8615 Y49.5536
G01 F60.00
G01 Z-0.1418
G01 F60.00
G01 X2.8627 Y49.5658
G01 X2.8677 Y49.6700
G01 X2.8623 Y49.7803
G01 X2.8461 Y49.8895
G01 X2.8192 Y49.9966
G01 X2.7820 Y50.1005
G01 X2.7348 Y50.2003
G01 X2.6781 Y50.2950
G01 X2.6123 Y50.3837
G01 X2.5382 Y50.4655
G01 X2.4564 Y50.5396
G01 X2.3677 Y50.6054
G01 X2.2730 Y50.6622
G01 X2.1732 Y50.7094
G01 X2.0693 Y50.7466
G01 X1.9622 Y50.7734
G01 X1.8530 Y50.7896
G01 X1.7427 Y50.7950
G01 X1.6324 Y50.7896
G01 X1.5232 Y50.7734
G01 X1.4161 Y50.7466
G01 X1.3122 Y50.7094
G01 X1.2124 Y50.6622
G01 X1.1177 Y50.6054
G01 X1.0290 Y50.5396
G01 X0.9472 Y50.4655
G01 X0.8730 Y50.3837
G01 X0.8073 Y50.2950
G01 X0.7505 Y50.2003
G01 X0.7033 Y50.1005
G01 X0.6661 Y49.9966
G01 X0.6393 Y49.8895
G01 X0.6231 Y49.7803
G01 X0.6177 Y49.6700
G01 X0.6231 Y49.5597
G01 X0.6393 Y49.4505
G01 X0.6661 Y49.3434
G01 X0.7033 Y49.2395
G01 X0.7505 Y49.1397
G01 X0.8073 Y49.0450
G01 X0.8730 Y48.9563
G01 X0.9472 Y48.8745
G01 X1.0290 Y48.8004
G01 X1.1177 Y48.7346
G01 X1.2124 Y48.6778
G01 X1.3122 Y48.6306
G01 X1.4161 Y48.5934
G01 X1.5232 Y48.5666
G01 X1.6324 Y48.5504
G01 X1.7427 Y48.5450
G01 X1.8530 Y48.5504
G01 X1.9622 Y48.5666
G01 X2.0693 Y48.5934
G01 X2.1732 Y48.6306
G01 X2.2730 Y48.6778
G01 X2.3677 Y48.7346
G01 X2.4564 Y48.8004
G01 X2.5382 Y48.8745
G01 X2.6123 Y48.9563
G01 X2.6781 Y49.0450
G01 X2.7348 Y49.1397
G01 X2.7820 Y49.2395
G01 X2.8192 Y49.3434
G01 X2.8461 Y49.4505
G01 X2.8615 Y49.5536
G00 Z2.0000
G00 X2.8862 Y52.0900
G01 F60.00
G01 Z-0.1418
G01 F60.00
G01 X2.8877 Y52.1046
G01 X2.8927 Y52.2100
G01 X2.8871 Y52.3227
G01 X2.8706 Y52.4344
G01 X2.8432 Y52.5438
G01 X2.8051 Y52.6501
G01 X2.7569 Y52.7521
G01 X2.6989 Y52.8489
G01 X2.6316 Y52.9396
G01 X2.5559 Y53.0232
G01 X2.4722 Y53.0990
G01 X2.3816 Y53.1662
G01 X2.2848 Y53.2242
G01 X2.1828 Y53.2725
G01 X2.0765 Y53.3105
G01 X1.9670 Y53.3379
G01 X1.8554 Y53.3545
G01 X1.7427 Y53.3600
G01 X1.6300 Y53.3545
G01 X1.5183 Y53.3379
G01 X1.4089 Y53.3105
G01 X1.3026 Y53.2725
G01 X1.2006 Y53.2242
G01 X1.1038 Y53.1662
G01 X1.0131 Y53.0990
G01 X0.9295 Y53.0232
G01 X0.8537 Y52.9396
G01 X0.7865 Y52.8489
G01 X0.7285 Y52.7521
G01 X0.6802 Y52.6501
G01 X0.6422 Y52.5438
G01 X0.6148 Y52.4344
G01 X0.5982 Y52.3227
G01 X0.5927 Y52.2100
G01 X0.5982 Y52.0973
G01 X0.6148 Y51.9856
G01 X0.6422 Y51.8762
G01 X0.6802 Y51.7699
G01 X0.7285 Y51.6679
G01 X0.7865 Y51.5711
G01 X0.8537 Y51.4804
G01 X0.9295 Y51.3968
G01 X1.0131 Y51.3210
G01 X1.1038 Y51.2538
G01 X1.2006 Y51.1958
G01 X1.3026 Y51.1475
G01 X1.4089 Y51.1095
G01 X1.5183 Y51.0821
G01 X1.6300 Y51.0655
G01 X1.7427 Y51.0600
G01 X1.8554 Y51.0655
G01 X1.9670 Y51.0821
G01 X2.0765 Y51.1095
G01 X2.1828 Y51.1475
G01 X2.2848 Y51.1958
G01 X2.3816 Y51.2538
G01 X2.4722 Y51.3210
G01 X2.5559 Y51.3968
G01 X2.6316 Y51.4804
G01 X2.6989 Y51.5711
G01 X2.7569 Y51.6679
G01 X2.8051 Y51.7699
G01 X2.8432 Y51.8762
G01 X2.8706 Y51.9856
G01 X2.8862 Y52.0900
G00 Z2.0000
G00 X2.8615 Y52.0936
G01 F60.00
G01 Z-0.1418
G01 F60.00
G01 X2.8627 Y52.1058
G01 X2.8677 Y52.2100
G01 X2.8623 Y52.3203
G01 X2.8461 Y52.4295
G01 X2.8192 Y52.5366
G01 X2.7820 Y52.6405
G01 X2.7348 Y52.7403
G01 X2.6781 Y52.8350
G01 X2.6123 Y52.9237
G01 X2.5382 Y53.0055
G01 X2.4564 Y53.0796
G01 X2.3677 Y53.1454
G01 X2.2730 Y53.2022
G01 X2.1732 Y53.2494
G01 X2.0693 Y53.2866
G01 X1.9622 Y53.3134
G01 X1.8530 Y53.3296
G01 X1.7427 Y53.3350
G01 X1.6324 Y53.3296
G01 X1.5232 Y53.3134
G01 X1.4161 Y53.2866
G01 X1.3122 Y53.2494
G01 X1.2124 Y53.2022
G01 X1.1177 Y53.1454
G01 X1.0290 Y53.0796
G01 X0.9472 Y53.0055
G01 X0.8730 Y52.9237
G01 X0.8073 Y52.8350
G01 X0.7505 Y52.7403
G01 X0.7033 Y52.6405
G01 X0.6661 Y52.5366
G01 X0.6393 Y52.4295
G01 X0.6231 Y52.3203
G01 X0.6177 Y52.2100
G01 X0.6231 Y52.0997
G01 X0.6393 Y51.9905
G01 X0.6661 Y51.8834
G01 X0.7033 Y51.7795
G01 X0.7505 Y51.6797
G01 X0.8073 Y51.5850
G01 X0.8730 Y51.4963
G01 X0.9472 Y51.4145
G01 X1.0290 Y51.3404
G01 X1.1177 Y51.2746
G01 X1.2124 Y51.2178
G01 X1.3122 Y51.1706
G01 X1.4161 Y51.1334
G01 X1.5232 Y51.1066
G01 X1.6324 Y51.0904
G01 X1.7427 Y51.0850
G01 X1.8530 Y51.0904
G01 X1.9622 Y51.1066
G01 X2.0693 Y51.1334
G01 X2.1732 Y51.1706
G01 X2.2730 Y51.2178
G01 X2.3677 Y51.2746
G01 X2.4564 Y51.3404
G01 X2.5382 Y51.4145
G01 X2.6123 Y51.4963
G01 X2.6781 Y51.5850
G01 X2.7348 Y51.6797
G01 X2.7820 Y51.7795
G01 X2.8192 Y51.8834
G01 X2.8461 Y51.9905
G01 X2.8615 Y52.0936
G00 Z2.0000
G00 X2.8862 Y54.6300
G01 F60.00
G01 Z-0.1418
G01 F60.00
G01 X2.8877 Y54.6446
G01 X2.8927 Y54.7500
G01 X2.8871 Y54.8627
G01 X2.8706 Y54.9744
G01 X2.8432 Y55.0838
G01 X2.8051 Y55.1901
G01 X2.7569 Y55.2921
G01 X2.6989 Y55.3889
G01 X2.6316 Y55.4796
G01 X2.5559 Y55.5632
G01 X2.4722 Y55.6390
G01 X2.3816 Y55.7062
G01 X2.2848 Y55.7642
G01 X2.1828 Y55.8125
G01 X2.0765 Y55.8505
G01 X1.9670 Y55.8779
G01 X1.8554 Y55.8945
G01 X1.7427 Y55.9000
G01 X1.6300 Y55.8945
G01 X1.5183 Y55.8779
G01 X1.4089 Y55.8505
G01 X1.3026 Y55.8125
G01 X1.2006 Y55.7642
G01 X1.1038 Y55.7062
G01 X1.0131 Y55.6390
G01 X0.9295 Y55.5632
G01 X0.8537 Y55.4796
G01 X0.7865 Y55.3889
G01 X0.7285 Y55.2921
G01 X0.6802 Y55.1901
G01 X0.6422 Y55.0838
G01 X0.6148 Y54.9744
G01 X0.5982 Y54.8627
G01 X0.5927 Y54.7500
G01 X0.5982 Y54.6373
G01 X0.6148 Y54.5256
G01 X0.6422 Y54.4162
G01 X0.6802 Y54.3099
G01 X0.7285 Y54.2079
G01 X0.7865 Y54.1111
G01 X0.8537 Y54.0204
G01 X0.9295 Y53.9368
G01 X1.0131 Y53.8610
G01 X1.1038 Y53.7938
G01 X1.2006 Y53.7358
G01 X1.3026 Y53.6875
G01 X1.4089 Y53.6495
G01 X1.5183 Y53.6221
G01 X1.6300 Y53.6055
G01 X1.7427 Y53.6000
G01 X1.8554 Y53.6055
G01 X1.9670 Y53.6221
G01 X2.0765 Y53.6495
G01 X2.1828 Y53.6875
G01 X2.2848 Y53.7358
G01 X2.3816 Y53.7938
G01 X2.4722 Y53.8610
G01 X2.5559 Y53.9368
G01 X2.6316 Y54.0204
G01 X2.6989 Y54.1111
G01 X2.7569 Y54.2079
G01 X2.8051 Y54.3099
G01 X2.8432 Y54.4162
G01 X2.8706 Y54.5256
G01 X2.8862 Y54.6300
G00 Z2.0000
G00 X2.8615 Y54.6336
G01 F60.00
G01 Z-0.1418
G01 F60.00
G01 X2.8627 Y54.6458
G01 X2.8677 Y54.7500
G01 X2.8623 Y54.8603
G01 X2.8461 Y54.9695
G01 X2.8192 Y55.0766
G01 X2.7820 Y55.1805
G01 X2.7348 Y55.2803
G01 X2.6781 Y55.3750
G01 X2.6123 Y55.4637
G01 X2.5382 Y55.5455
G01 X2.4564 Y55.6196
G01 X2.3677 Y55.6854
G01 X2.2730 Y55.7422
G01 X2.1732 Y55.7894
G01 X2.0693 Y55.8266
G01 X1.9622 Y55.8534
G01 X1.8530 Y55.8696
G01 X1.7427 Y55.8750
G01 X1.6324 Y55.8696
G01 X1.5232 Y55.8534
G01 X1.4161 Y55.8266
G01 X1.3122 Y55.7894
G01 X1.2124 Y55.7422
G01 X1.1177 Y55.6854
G01 X1.0290 Y55.6196
G01 X0.9472 Y55.5455
G01 X0.8730 Y55.4637
G01 X0.8073 Y55.3750
G01 X0.7505 Y55.2803
G01 X0.7033 Y55.1805
G01 X0.6661 Y55.0766
G01 X0.6393 Y54.9695
G01 X0.6231 Y54.8603
G01 X0.6177 Y54.7500
G01 X0.6231 Y54.6397
G01 X0.6393 Y54.5305
G01 X0.6661 Y54.4234
G01 X0.7033 Y54.3195
G01 X0.7505 Y54.2197
G01 X0.8073 Y54.1250
G01 X0.8730 Y54.0363
G01 X0.9472 Y53.9545
G01 X1.0290 Y53.8804
G01 X1.1177 Y53.8146
G01 X1.2124 Y53.7578
G01 X1.3122 Y53.7106
G01 X1.4161 Y53.6734
G01 X1.5232 Y53.6466
G01 X1.6324 Y53.6304
G01 X1.7427 Y53.6250
G01 X1.8530 Y53.6304
G01 X1.9622 Y53.6466
G01 X2.0693 Y53.6734
G01 X2.1732 Y53.7106
G01 X2.2730 Y53.7578
G01 X2.3677 Y53.8146
G01 X2.4564 Y53.8804
G01 X2.5382 Y53.9545
G01 X2.6123 Y54.0363
G01 X2.6781 Y54.1250
G01 X2.7348 Y54.2197
G01 X2.7820 Y54.3195
G01 X2.8192 Y54.4234
G01 X2.8461 Y54.5305
G01 X2.8615 Y54.6336
G00 Z2.0000
G00 X2.8862 Y57.1700
G01 F60.00
G01 Z-0.1418
G01 F60.00
G01 X2.8877 Y57.1846
G01 X2.8927 Y57.2900
G01 X2.8871 Y57.4027
G01 X2.8706 Y57.5144
G01 X2.8432 Y57.6238
G01 X2.8051 Y57.7301
G01 X2.7569 Y57.8321
G01 X2.6989 Y57.9289
G01 X2.6316 Y58.0196
G01 X2.5559 Y58.1032
G01 X2.4722 Y58.1790
G01 X2.3816 Y58.2462
G01 X2.2848 Y58.3042
G01 X2.1828 Y58.3525
G01 X2.0765 Y58.3905
G01 X1.9670 Y58.4179
G01 X1.8554 Y58.4345
G01 X1.7427 Y58.4400
G01 X1.6300 Y58.4345
G01 X1.5183 Y58.4179
G01 X1.4089 Y58.3905
G01 X1.3026 Y58.3525
G01 X1.2006 Y58.3042
G01 X1.1038 Y58.2462
G01 X1.0131 Y58.1790
G01 X0.9295 Y58.1032
G01 X0.8537 Y58.0196
G01 X0.7865 Y57.9289
G01 X0.7285 Y57.8321
G01 X0.6802 Y57.7301
G01 X0.6422 Y57.6238
G01 X0.6148 Y57.5144
G01 X0.5982 Y57.4027
G01 X0.5927 Y57.2900
G01 X0.5982 Y57.1773
G01 X0.6148 Y57.0656
G01 X0.6422 Y56.9562
G01 X0.6802 Y56.8499
G01 X0.7285 Y56.7479
G01 X0.7865 Y56.6511
G01 X0.8537 Y56.5604
G01 X0.9295 Y56.4768
G01 X1.0131 Y56.4010
G01 X1.1038 Y56.3338
G01 X1.2006 Y56.2758
G01 X1.3026 Y56.2275
G01 X1.4089 Y56.1895
G01 X1.5183 Y56.1621
G01 X1.6300 Y56.1455
G01 X1.7427 Y56.1400
G01 X1.8554 Y56.1455
G01 X1.9670 Y56.1621
G01 X2.0765 Y56.1895
G01 X2.1828 Y56.2275
G01 X2.2848 Y56.2758
G01 X2.3816 Y56.3338
G01 X2.4722 Y56.4010
G01 X2.5559 Y56.4768
G01 X2.6316 Y56.5604
G01 X2.6989 Y56.6511
G01 X2.7569 Y56.7479
G01 X2.8051 Y56.8499
G01 X2.8432 Y56.9562
G01 X2.8706 Y57.0656
G01 X2.8862 Y57.1700
G00 Z2.0000
G00 X2.8615 Y57.1736
G01 F60.00
G01 Z-0.1418
G01 F60.00
G01 X2.8627 Y57.1858
G01 X2.8677 Y57.2900
G01 X2.8623 Y57.4003
G01 X2.8461 Y57.5095
G01 X2.8192 Y57.6166
G01 X2.7820 Y57.7205
G01 X2.7348 Y57.8203
G01 X2.6781 Y57.9150
G01 X2.6123 Y58.0037
G01 X2.5382 Y58.0855
G01 X2.4564 Y58.1596
G01 X2.3677 Y58.2254
G01 X2.2730 Y58.2822
G01 X2.1732 Y58.3294
G01 X2.0693 Y58.3666
G01 X1.9622 Y58.3934
G01 X1.8530 Y58.4096
G01 X1.7427 Y58.4150
G01 X1.6324 Y58.4096
G01 X1.5232 Y58.3934
G01 X1.4161 Y58.3666
G01 X1.3122 Y58.3294
G01 X1.2124 Y58.2822
G01 X1.1177 Y58.2254
G01 X1.0290 Y58.1596
G01 X0.9472 Y58.0855
G01 X0.8730 Y58.0037
G01 X0.8073 Y57.9150
G01 X0.7505 Y57.8203
G01 X0.7033 Y57.7205
G01 X0.6661 Y57.6166
G01 X0.6393 Y57.5095
G01 X0.6231 Y57.4003
G01 X0.6177 Y57.2900
G01 X0.6231 Y57.1797
G01 X0.6393 Y57.0705
G01 X0.6661 Y56.9634
G01 X0.7033 Y56.8595
G01 X0.7505 Y56.7597
G01 X0.8073 Y56.6650
G01 X0.8730 Y56.5763
G01 X0.9472 Y56.4945
G01 X1.0290 Y56.4204
G01 X1.1177 Y56.3546
G01 X1.2124 Y56.2978
G01 X1.3122 Y56.2506
G01 X1.4161 Y56.2134
G01 X1.5232 Y56.1866
G01 X1.6324 Y56.1704
G01 X1.7427 Y56.1650
G01 X1.8530 Y56.1704
G01 X1.9622 Y56.1866
G01 X2.0693 Y56.2134
G01 X2.1732 Y56.2506
G01 X2.2730 Y56.2978
G01 X2.3677 Y56.3546
G01 X2.4564 Y56.4204
G01 X2.5382 Y56.4945
G01 X2.6123 Y56.5763
G01 X2.6781 Y56.6650
G01 X2.7348 Y56.7597
G01 X2.7820 Y56.8595
G01 X2.8192 Y56.9634
G01 X2.8461 Y57.0705
G01 X2.8615 Y57.1736
G00 Z2.0000
G00 X2.8862 Y59.7100
G01 F60.00
G01 Z-0.1418
G01 F60.00
G01 X2.8877 Y59.7246
G01 X2.8927 Y59.8300
G01 X2.8871 Y59.9427
G01 X2.8706 Y60.0544
G01 X2.8432 Y60.1638
G01 X2.8051 Y60.2701
G01 X2.7569 Y60.3721
G01 X2.6989 Y60.4689
G01 X2.6316 Y60.5596
G01 X2.5559 Y60.6432
G01 X2.4722 Y60.7190
G01 X2.3816 Y60.7862
G01 X2.2848 Y60.8442
G01 X2.1828 Y60.8925
G01 X2.0765 Y60.9305
G01 X1.9670 Y60.9579
G01 X1.8554 Y60.9745
G01 X1.7427 Y60.9800
G01 X1.6300 Y60.9745
G01 X1.5183 Y60.9579
G01 X1.4089 Y60.9305
G01 X1.3026 Y60.8925
G01 X1.2006 Y60.8442
G01 X1.1038 Y60.7862
G01 X1.0131 Y60.7190
G01 X0.9295 Y60.6432
G01 X0.8537 Y60.5596
G01 X0.7865 Y60.4689
G01 X0.7285 Y60.3721
G01 X0.6802 Y60.2701
G01 X0.6422 Y60.1638
G01 X0.6148 Y60.0544
G01 X0.5982 Y59.9427
G01 X0.5927 Y59.8300
G01 X0.5982 Y59.7173
G01 X0.6148 Y59.6056
G01 X0.6422 Y59.4962
G01 X0.6802 Y59.3899
G01 X0.7285 Y59.2879
G01 X0.7865 Y59.1911
G01 X0.8537 Y59.1004
G01 X0.9295 Y59.0168
G01 X1.0131 Y58.9410
G01 X1.1038 Y58.8738
G01 X1.2006 Y58.8158
G01 X1.3026 Y58.7675
G01 X1.4089 Y58.7295
G01 X1.5183 Y58.7021
G01 X1.6300 Y58.6855
G01 X1.7427 Y58.6800
G01 X1.8554 Y58.6855
G01 X1.9670 Y58.7021
G01 X2.0765 Y58.7295
G01 X2.1828 Y58.7675
G01 X2.2848 Y58.8158
G01 X2.3816 Y58.8738
G01 X2.4722 Y58.9410
G01 X2.5559 Y59.0168
G01 X2.6316 Y59.1004
G01 X2.6989 Y59.1911
G01 X2.7569 Y59.2879
G01 X2.8051 Y59.3899
G01 X2.8432 Y59.4962
G01 X2.8706 Y59.6056
G01 X2.8862 Y59.7100
G00 Z2.0000
G00 X2.8615 Y59.7136
G01 F60.00
G01 Z-0.1418
G01 F60.00
G01 X2.8627 Y59.7258
G01 X2.8677 Y59.8300
G01 X2.8623 Y59.9403
G01 X2.8461 Y60.0495
G01 X2.8192 Y60.1566
G01 X2.7820 Y60.2605
G01 X2.7348 Y60.3603
G01 X2.6781 Y60.4550
G01 X2.6123 Y60.5437
G01 X2.5382 Y60.6255
G01 X2.4564 Y60.6996
G01 X2.3677 Y60.7654
G01 X2.2730 Y60.8222
G01 X2.1732 Y60.8694
G01 X2.0693 Y60.9066
G01 X1.9622 Y60.9334
G01 X1.8530 Y60.9496
G01 X1.7427 Y60.9550
G01 X1.6324 Y60.9496
G01 X1.5232 Y60.9334
G01 X1.4161 Y60.9066
G01 X1.3122 Y60.8694
G01 X1.2124 Y60.8222
G01 X1.1177 Y60.7654
G01 X1.0290 Y60.6996
G01 X0.9472 Y60.6255
G01 X0.8730 Y60.5437
G01 X0.8073 Y60.4550
G01 X0.7505 Y60.3603
G01 X0.7033 Y60.2605
G01 X0.6661 Y60.1566
G01 X0.6393 Y60.0495
G01 X0.6231 Y59.9403
G01 X0.6177 Y59.8300
G01 X0.6231 Y59.7197
G01 X0.6393 Y59.6105
G01 X0.6661 Y59.5034
G01 X0.7033 Y59.3995
G01 X0.7505 Y59.2997
G01 X0.8073 Y59.2050
G01 X0.8730 Y59.1163
G01 X0.9472 Y59.0345
G01 X1.0290 Y58.9604
G01 X1.1177 Y58.8946
G01 X1.2124 Y58.8378
G01 X1.3122 Y58.7906
G01 X1.4161 Y58.7534
G01 X1.5232 Y58.7266
G01 X1.6324 Y58.7104
G01 X1.7427 Y58.7050
G01 X1.8530 Y58.7104
G01 X1.9622 Y58.7266
G01 X2.0693 Y58.7534
G01 X2.1732 Y58.7906
G01 X2.2730 Y58.8378
G01 X2.3677 Y58.8946
G01 X2.4564 Y58.9604
G01 X2.5382 Y59.0345
G01 X2.6123 Y59.1163
G01 X2.6781 Y59.2050
G01 X2.7348 Y59.2997
G01 X2.7820 Y59.3995
G01 X2.8192 Y59.5034
G01 X2.8461 Y59.6105
G01 X2.8615 Y59.7136
G00 Z2.0000
G00 X2.8862 Y62.2500
G01 F60.00
G01 Z-0.1418
G01 F60.00
G01 X2.8877 Y62.2646
G01 X2.8927 Y62.3700
G01 X2.8871 Y62.4827
G01 X2.8706 Y62.5944
G01 X2.8432 Y62.7038
G01 X2.8051 Y62.8101
G01 X2.7569 Y62.9121
G01 X2.6989 Y63.0089
G01 X2.6316 Y63.0996
G01 X2.5559 Y63.1832
G01 X2.4722 Y63.2590
G01 X2.3816 Y63.3262
G01 X2.2848 Y63.3842
G01 X2.1828 Y63.4325
G01 X2.0765 Y63.4705
G01 X1.9670 Y63.4979
G01 X1.8554 Y63.5145
G01 X1.7427 Y63.5200
G01 X1.6300 Y63.5145
G01 X1.5183 Y63.4979
G01 X1.4089 Y63.4705
G01 X1.3026 Y63.4325
G01 X1.2006 Y63.3842
G01 X1.1038 Y63.3262
G01 X1.0131 Y63.2590
G01 X0.9295 Y63.1832
G01 X0.8537 Y63.0996
G01 X0.7865 Y63.0089
G01 X0.7285 Y62.9121
G01 X0.6802 Y62.8101
G01 X0.6422 Y62.7038
G01 X0.6148 Y62.5944
G01 X0.5982 Y62.4827
G01 X0.5927 Y62.3700
G01 X0.5982 Y62.2573
G01 X0.6148 Y62.1456
G01 X0.6422 Y62.0362
G01 X0.6802 Y61.9299
G01 X0.7285 Y61.8279
G01 X0.7865 Y61.7311
G01 X0.8537 Y61.6404
G01 X0.9295 Y61.5568
G01 X1.0131 Y61.4810
G01 X1.1038 Y61.4138
G01 X1.2006 Y61.3558
G01 X1.3026 Y61.3075
G01 X1.4089 Y61.2695
G01 X1.5183 Y61.2421
G01 X1.6300 Y61.2255
G01 X1.7427 Y61.2200
G01 X1.8554 Y61.2255
G01 X1.9670 Y61.2421
G01 X2.0765 Y61.2695
G01 X2.1828 Y61.3075
G01 X2.2848 Y61.3558
G01 X2.3816 Y61.4138
G01 X2.4722 Y61.4810
G01 X2.5559 Y61.5568
G01 X2.6316 Y61.6404
G01 X2.6989 Y61.7311
G01 X2.7569 Y61.8279
G01 X2.8051 Y61.9299
G01 X2.8432 Y62.0362
G01 X2.8706 Y62.1456
G01 X2.8862 Y62.2500
G00 Z2.0000
G00 X2.8615 Y62.2536
G01 F60.00
G01 Z-0.1418
G01 F60.00
G01 X2.8627 Y62.2658
G01 X2.8677 Y62.3700
G01 X2.8623 Y62.4803
G01 X2.8461 Y62.5895
G01 X2.8192 Y62.6966
G01 X2.7820 Y62.8005
G01 X2.7348 Y62.9003
G01 X2.6781 Y62.9950
G01 X2.6123 Y63.0837
G01 X2.5382 Y63.1655
G01 X2.4564 Y63.2396
G01 X2.3677 Y63.3054
G01 X2.2730 Y63.3622
G01 X2.1732 Y63.4094
G01 X2.0693 Y63.4466
G01 X1.9622 Y63.4734
G01 X1.8530 Y63.4896
G01 X1.7427 Y63.4950
G01 X1.6324 Y63.4896
G01 X1.5232 Y63.4734
G01 X1.4161 Y63.4466
G01 X1.3122 Y63.4094
G01 X1.2124 Y63.3622
G01 X1.1177 Y63.3054
G01 X1.0290 Y63.2396
G01 X0.9472 Y63.1655
G01 X0.8730 Y63.0837
G01 X0.8073 Y62.9950
G01 X0.7505 Y62.9003
G01 X0.7033 Y62.8005
G01 X0.6661 Y62.6966
G01 X0.6393 Y62.5895
G01 X0.6231 Y62.4803
G01 X0.6177 Y62.3700
G01 X0.6231 Y62.2597
G01 X0.6393 Y62.1505
G01 X0.6661 Y62.0434
G01 X0.7033 Y61.9395
G01 X0.7505 Y61.8397
G01 X0.8073 Y61.7450
G01 X0.8730 Y61.6563
G01 X0.9472 Y61.5745
G01 X1.0290 Y61.5004
G01 X1.1177 Y61.4346
G01 X1.2124 Y61.3778
G01 X1.3122 Y61.3306
G01 X1.4161 Y61.2934
G01 X1.5232 Y61.2666
G01 X1.6324 Y61.2504
G01 X1.7427 Y61.2450
G01 X1.8530 Y61.2504
G01 X1.9622 Y61.2666
G01 X2.0693 Y61.2934
G01 X2.1732 Y61.3306
G01 X2.2730 Y61.3778
G01 X2.3677 Y61.4346
G01 X2.4564 Y61.5004
G01 X2.5382 Y61.5745
G01 X2.6123 Y61.6563
G01 X2.6781 Y61.7450
G01 X2.7348 Y61.8397
G01 X2.7820 Y61.9395
G01 X2.8192 Y62.0434
G01 X2.8461 Y62.1505
G01 X2.8615 Y62.2536
G00 Z2.0000
G00 X2.8862 Y64.7900
G01 F60.00
G01 Z-0.1418
G01 F60.00
G01 X2.8877 Y64.8046
G01 X2.8927 Y64.9100
G01 X2.8871 Y65.0227
G01 X2.8706 Y65.1344
G01 X2.8432 Y65.2438
G01 X2.8051 Y65.3501
G01 X2.7569 Y65.4521
G01 X2.6989 Y65.5489
G01 X2.6316 Y65.6396
G01 X2.5559 Y65.7232
G01 X2.4722 Y65.7990
G01 X2.3816 Y65.8662
G01 X2.2848 Y65.9242
G01 X2.1828 Y65.9725
G01 X2.0765 Y66.0105
G01 X1.9670 Y66.0379
G01 X1.8554 Y66.0545
G01 X1.7427 Y66.0600
G01 X1.6300 Y66.0545
G01 X1.5183 Y66.0379
G01 X1.4089 Y66.0105
G01 X1.3026 Y65.9725
G01 X1.2006 Y65.9242
G01 X1.1038 Y65.8662
G01 X1.0131 Y65.7990
G01 X0.9295 Y65.7232
G01 X0.8537 Y65.6396
G01 X0.7865 Y65.5489
G01 X0.7285 Y65.4521
G01 X0.6802 Y65.3501
G01 X0.6422 Y65.2438
G01 X0.6148 Y65.1344
G01 X0.5982 Y65.0227
G01 X0.5927 Y64.9100
G01 X0.5982 Y64.7973
G01 X0.6148 Y64.6856
G01 X0.6422 Y64.5762
G01 X0.6802 Y64.4699
G01 X0.7285 Y64.3679
G01 X0.7865 Y64.2711
G01 X0.8537 Y64.1804
G01 X0.9295 Y64.0968
G01 X1.0131 Y64.0210
G01 X1.1038 Y63.9538
G01 X1.2006 Y63.8958
G01 X1.3026 Y63.8475
G01 X1.4089 Y63.8095
G01 X1.5183 Y63.7821
G01 X1.6300 Y63.7655
G01 X1.7427 Y63.7600
G01 X1.8554 Y63.7655
G01 X1.9670 Y63.7821
G01 X2.0765 Y63.8095
G01 X2.1828 Y63.8475
G01 X2.2848 Y63.8958
G01 X2.3816 Y63.9538
G01 X2.4722 Y64.0210
G01 X2.5559 Y64.0968
G01 X2.6316 Y64.1804
G01 X2.6989 Y64.2711
G01 X2.7569 Y64.3679
G01 X2.8051 Y64.4699
G01 X2.8432 Y64.5762
G01 X2.8706 Y64.6856
G01 X2.8862 Y64.7900
G00 Z2.0000
G00 X2.8615 Y64.7936
G01 F60.00
G01 Z-0.1418
G01 F60.00
G01 X2.8627 Y64.8058
G01 X2.8677 Y64.9100
G01 X2.8623 Y65.0203
G01 X2.8461 Y65.1295
G01 X2.8192 Y65.2366
G01 X2.7820 Y65.3405
G01 X2.7348 Y65.4403
G01 X2.6781 Y65.5350
G01 X2.6123 Y65.6237
G01 X2.5382 Y65.7055
G01 X2.4564 Y65.7796
G01 X2.3677 Y65.8454
G01 X2.2730 Y65.9022
G01 X2.1732 Y65.9494
G01 X2.0693 Y65.9866
G01 X1.9622 Y66.0134
G01 X1.8530 Y66.0296
G01 X1.7427 Y66.0350
G01 X1.6324 Y66.0296
G01 X1.5232 Y66.0134
G01 X1.4161 Y65.9866
G01 X1.3122 Y65.9494
G01 X1.2124 Y65.9022
G01 X1.1177 Y65.8454
G01 X1.0290 Y65.7796
G01 X0.9472 Y65.7055
G01 X0.8730 Y65.6237
G01 X0.8073 Y65.5350
G01 X0.7505 Y65.4403
G01 X0.7033 Y65.3405
G01 X0.6661 Y65.2366
G01 X0.6393 Y65.1295
G01 X0.6231 Y65.0203
G01 X0.6177 Y64.9100
G01 X0.6231 Y64.7997
G01 X0.6393 Y64.6905
G01 X0.6661 Y64.5834
G01 X0.7033 Y64.4795
G01 X0.7505 Y64.3797
G01 X0.8073 Y64.2850
G01 X0.8730 Y64.1963
G01 X0.9472 Y64.1145
G01 X1.0290 Y64.0404
G01 X1.1177 Y63.9746
G01 X1.2124 Y63.9178
G01 X1.3122 Y63.8706
G01 X1.4161 Y63.8334
G01 X1.5232 Y63.8066
G01 X1.6324 Y63.7904
G01 X1.7427 Y63.7850
G01 X1.8530 Y63.7904
G01 X1.9622 Y63.8066
G01 X2.0693 Y63.8334
G01 X2.1732 Y63.8706
G01 X2.2730 Y63.9178
G01 X2.3677 Y63.9746
G01 X2.4564 Y64.0404
G01 X2.5382 Y64.1145
G01 X2.6123 Y64.1963
G01 X2.6781 Y64.2850
G01 X2.7348 Y64.3797
G01 X2.7820 Y64.4795
G01 X2.8192 Y64.5834
G01 X2.8461 Y64.6905
G01 X2.8615 Y64.7936
G00 Z2.0000
G00 X2.8862 Y67.3300
G01 F60.00
G01 Z-0.1418
G01 F60.00
G01 X2.8877 Y67.3446
G01 X2.8927 Y67.4500
G01 X2.8871 Y67.5627
G01 X2.8706 Y67.6744
G01 X2.8432 Y67.7838
G01 X2.8051 Y67.8901
G01 X2.7569 Y67.9921
G01 X2.6989 Y68.0889
G01 X2.6316 Y68.1796
G01 X2.5559 Y68.2632
G01 X2.4722 Y68.3390
G01 X2.3816 Y68.4062
G01 X2.2848 Y68.4642
G01 X2.1828 Y68.5125
G01 X2.0765 Y68.5505
G01 X1.9670 Y68.5779
G01 X1.8554 Y68.5945
G01 X1.7427 Y68.6000
G01 X1.6300 Y68.5945
G01 X1.5183 Y68.5779
G01 X1.4089 Y68.5505
G01 X1.3026 Y68.5125
G01 X1.2006 Y68.4642
G01 X1.1038 Y68.4062
G01 X1.0131 Y68.3390
G01 X0.9295 Y68.2632
G01 X0.8537 Y68.1796
G01 X0.7865 Y68.0889
G01 X0.7285 Y67.9921
G01 X0.6802 Y67.8901
G01 X0.6422 Y67.7838
G01 X0.6148 Y67.6744
G01 X0.5982 Y67.5627
G01 X0.5927 Y67.4500
G01 X0.5982 Y67.3373
G01 X0.6148 Y67.2256
G01 X0.6422 Y67.1162
G01 X0.6802 Y67.0099
G01 X0.7285 Y66.9079
G01 X0.7865 Y66.8111
G01 X0.8537 Y66.7204
G01 X0.9295 Y66.6368
G01 X1.0131 Y66.5610
G01 X1.1038 Y66.4938
G01 X1.2006 Y66.4358
G01 X1.3026 Y66.3875
G01 X1.4089 Y66.3495
G01 X1.5183 Y66.3221
G01 X1.6300 Y66.3055
G01 X1.7427 Y66.3000
G01 X1.8554 Y66.3055
G01 X1.9670 Y66.3221
G01 X2.0765 Y66.3495
G01 X2.1828 Y66.3875
G01 X2.2848 Y66.4358
G01 X2.3816 Y66.4938
G01 X2.4722 Y66.5610
G01 X2.5559 Y66.6368
G01 X2.6316 Y66.7204
G01 X2.6989 Y66.8111
G01 X2.7569 Y66.9079
G01 X2.8051 Y67.0099
G01 X2.8432 Y67.1162
G01 X2.8706 Y67.2256
G01 X2.8862 Y67.3300
G00 Z2.0000
G00 X2.8615 Y67.3336
G01 F60.00
G01 Z-0.1418
G01 F60.00
G01 X2.8627 Y67.3458
G01 X2.8677 Y67.4500
G01 X2.8623 Y67.5603
G01 X2.8461 Y67.6695
G01 X2.8192 Y67.7766
G01 X2.7820 Y67.8805
G01 X2.7348 Y67.9803
G01 X2.6781 Y68.0750
G01 X2.6123 Y68.1637
G01 X2.5382 Y68.2455
G01 X2.4564 Y68.3196
G01 X2.3677 Y68.3854
G01 X2.2730 Y68.4422
G01 X2.1732 Y68.4894
G01 X2.0693 Y68.5266
G01 X1.9622 Y68.5534
G01 X1.8530 Y68.5696
G01 X1.7427 Y68.5750
G01 X1.6324 Y68.5696
G01 X1.5232 Y68.5534
G01 X1.4161 Y68.5266
G01 X1.3122 Y68.4894
G01 X1.2124 Y68.4422
G01 X1.1177 Y68.3854
G01 X1.0290 Y68.3196
G01 X0.9472 Y68.2455
G01 X0.8730 Y68.1637
G01 X0.8073 Y68.0750
G01 X0.7505 Y67.9803
G01 X0.7033 Y67.8805
G01 X0.6661 Y67.7766
G01 X0.6393 Y67.6695
G01 X0.6231 Y67.5603
G01 X0.6177 Y67.4500
G01 X0.6231 Y67.3397
G01 X0.6393 Y67.2305
G01 X0.6661 Y67.1234
G01 X0.7033 Y67.0195
G01 X0.7505 Y66.9197
G01 X0.8073 Y66.8250
G01 X0.8730 Y66.7363
G01 X0.9472 Y66.6545
G01 X1.0290 Y66.5804
G01 X1.1177 Y66.5146
G01 X1.2124 Y66.4578
G01 X1.3122 Y66.4106
G01 X1.4161 Y66.3734
G01 X1.5232 Y66.3466
G01 X1.6324 Y66.3304
G01 X1.7427 Y66.3250
G01 X1.8530 Y66.3304
G01 X1.9622 Y66.3466
G01 X2.0693 Y66.3734
G01 X2.1732 Y66.4106
G01 X2.2730 Y66.4578
G01 X2.3677 Y66.5146
G01 X2.4564 Y66.5804
G01 X2.5382 Y66.6545
G01 X2.6123 Y66.7363
G01 X2.6781 Y66.8250
G01 X2.7348 Y66.9197
G01 X2.7820 Y67.0195
G01 X2.8192 Y67.1234
G01 X2.8461 Y67.2305
G01 X2.8615 Y67.3336
G00 Z2.0000
G00 X2.8862 Y69.8700
G01 F60.00
G01 Z-0.1418
G01 F60.00
G01 X2.8877 Y69.8846
G01 X2.8927 Y69.9900
G01 X2.8871 Y70.1027
G01 X2.8706 Y70.2144
G01 X2.8432 Y70.3238
G01 X2.8051 Y70.4301
G01 X2.7569 Y70.5321
G01 X2.6989 Y70.6289
G01 X2.6316 Y70.7196
G01 X2.5559 Y70.8032
G01 X2.4722 Y70.8790
G01 X2.3816 Y70.9462
G01 X2.2848 Y71.0042
G01 X2.1828 Y71.0525
G01 X2.0765 Y71.0905
G01 X1.9670 Y71.1179
G01 X1.8554 Y71.1345
G01 X1.7427 Y71.1400
G01 X1.6300 Y71.1345
G01 X1.5183 Y71.1179
G01 X1.4089 Y71.0905
G01 X1.3026 Y71.0525
G01 X1.2006 Y71.0042
G01 X1.1038 Y70.9462
G01 X1.0131 Y70.8790
G01 X0.9295 Y70.8032
G01 X0.8537 Y70.7196
G01 X0.7865 Y70.6289
G01 X0.7285 Y70.5321
G01 X0.6802 Y70.4301
G01 X0.6422 Y70.3238
G01 X0.6148 Y70.2144
G01 X0.5982 Y70.1027
G01 X0.5927 Y69.9900
G01 X0.5982 Y69.8773
G01 X0.6148 Y69.7656
G01 X0.6422 Y69.6562
G01 X0.6802 Y69.5499
G01 X0.7285 Y69.4479
G01 X0.7865 Y69.3511
G01 X0.8537 Y69.2604
G01 X0.9295 Y69.1768
G01 X1.0131 Y69.1010
G01 X1.1038 Y69.0338
G01 X1.2006 Y68.9758
G01 X1.3026 Y68.9275
G01 X1.4089 Y68.8895
G01 X1.5183 Y68.8621
G01 X1.6300 Y68.8455
G01 X1.7427 Y68.8400
G01 X1.8554 Y68.8455
G01 X1.9670 Y68.8621
G01 X2.0765 Y68.8895
G01 X2.1828 Y68.9275
G01 X2.2848 Y68.9758
G01 X2.3816 Y69.0338
G01 X2.4722 Y69.1010
G01 X2.5559 Y69.1768
G01 X2.6316 Y69.2604
G01 X2.6989 Y69.3511
G01 X2.7569 Y69.4479
G01 X2.8051 Y69.5499
G01 X2.8432 Y69.6562
G01 X2.8706 Y69.7656
G01 X2.8862 Y69.8700
G00 Z2.0000
G00 X2.8615 Y69.8736
G01 F60.00
G01 Z-0.1418
G01 F60.00
G01 X2.8627 Y69.8858
G01 X2.8677 Y69.9900
G01 X2.8623 Y70.1003
G01 X2.8461 Y70.2095
G01 X2.8192 Y70.3166
G01 X2.7820 Y70.4205
G01 X2.7348 Y70.5203
G01 X2.6781 Y70.6150
G01 X2.6123 Y70.7037
G01 X2.5382 Y70.7855
G01 X2.4564 Y70.8596
G01 X2.3677 Y70.9254
G01 X2.2730 Y70.9822
G01 X2.1732 Y71.0294
G01 X2.0693 Y71.0666
G01 X1.9622 Y71.0934
G01 X1.8530 Y71.1096
G01 X1.7427 Y71.1150
G01 X1.6324 Y71.1096
G01 X1.5232 Y71.0934
G01 X1.4161 Y71.0666
G01 X1.3122 Y71.0294
G01 X1.2124 Y70.9822
G01 X1.1177 Y70.9254
G01 X1.0290 Y70.8596
G01 X0.9472 Y70.7855
G01 X0.8730 Y70.7037
G01 X0.8073 Y70.6150
G01 X0.7505 Y70.5203
G01 X0.7033 Y70.4205
G01 X0.6661 Y70.3166
G01 X0.6393 Y70.2095
G01 X0.6231 Y70.1003
G01 X0.6177 Y69.9900
G01 X0.6231 Y69.8797
G01 X0.6393 Y69.7705
G01 X0.6661 Y69.6634
G01 X0.7033 Y69.5595
G01 X0.7505 Y69.4597
G01 X0.8073 Y69.3650
G01 X0.8730 Y69.2763
G01 X0.9472 Y69.1945
G01 X1.0290 Y69.1204
G01 X1.1177 Y69.0546
G01 X1.2124 Y68.9978
G01 X1.3122 Y68.9506
G01 X1.4161 Y68.9134
G01 X1.5232 Y68.8866
G01 X1.6324 Y68.8704
G01 X1.7427 Y68.8650
G01 X1.8530 Y68.8704
G01 X1.9622 Y68.8866
G01 X2.0693 Y68.9134
G01 X2.1732 Y68.9506
G01 X2.2730 Y68.9978
G01 X2.3677 Y69.0546
G01 X2.4564 Y69.1204
G01 X2.5382 Y69.1945
G01 X2.6123 Y69.2763
G01 X2.6781 Y69.3650
G01 X2.7348 Y69.4597
G01 X2.7820 Y69.5595
G01 X2.8192 Y69.6634
G01 X2.8461 Y69.7705
G01 X2.8615 Y69.8736
G00 Z2.0000
G00 X2.8862 Y72.4100
G01 F60.00
G01 Z-0.1418
G01 F60.00
G01 X2.8877 Y72.4246
G01 X2.8927 Y72.5300
G01 X2.8871 Y72.6427
G01 X2.8706 Y72.7544
G01 X2.8432 Y72.8638
G01 X2.8051 Y72.9701
G01 X2.7569 Y73.0721
G01 X2.6989 Y73.1689
G01 X2.6316 Y73.2596
G01 X2.5559 Y73.3432
G01 X2.4722 Y73.4190
G01 X2.3816 Y73.4862
G01 X2.2848 Y73.5442
G01 X2.1828 Y73.5925
G01 X2.0765 Y73.6305
G01 X1.9670 Y73.6579
G01 X1.8554 Y73.6745
G01 X1.7427 Y73.6800
G01 X1.6300 Y73.6745
G01 X1.5183 Y73.6579
G01 X1.4089 Y73.6305
G01 X1.3026 Y73.5925
G01 X1.2006 Y73.5442
G01 X1.1038 Y73.4862
G01 X1.0131 Y73.4190
G01 X0.9295 Y73.3432
G01 X0.8537 Y73.2596
G01 X0.7865 Y73.1689
G01 X0.7285 Y73.0721
G01 X0.6802 Y72.9701
G01 X0.6422 Y72.8638
G01 X0.6148 Y72.7544
G01 X0.5982 Y72.6427
G01 X0.5927 Y72.5300
G01 X0.5982 Y72.4173
G01 X0.6148 Y72.3056
G01 X0.6422 Y72.1962
G01 X0.6802 Y72.0899
G01 X0.7285 Y71.9879
G01 X0.7865 Y71.8911
G01 X0.8537 Y71.8004
G01 X0.9295 Y71.7168
G01 X1.0131 Y71.6410
G01 X1.1038 Y71.5738
G01 X1.2006 Y71.5158
G01 X1.3026 Y71.4675
G01 X1.4089 Y71.4295
G01 X1.5183 Y71.4021
G01 X1.6300 Y71.3855
G01 X1.7427 Y71.3800
G01 X1.8554 Y71.3855
G01 X1.9670 Y71.4021
G01 X2.0765 Y71.4295
G01 X2.1828 Y71.4675
G01 X2.2848 Y71.5158
G01 X2.3816 Y71.5738
G01 X2.4722 Y71.6410
G01 X2.5559 Y71.7168
G01 X2.6316 Y71.8004
G01 X2.6989 Y71.8911
G01 X2.7569 Y71.9879
G01 X2.8051 Y72.0899
G01 X2.8432 Y72.1962
G01 X2.8706 Y72.3056
G01 X2.8862 Y72.4100
G00 Z2.0000
G00 X2.8615 Y72.4136
G01 F60.00
G01 Z-0.1418
G01 F60.00
G01 X2.8627 Y72.4258
G01 X2.8677 Y72.5300
G01 X2.8623 Y72.6403
G01 X2.8461 Y72.7495
G01 X2.8192 Y72.8566
G01 X2.7820 Y72.9605
G01 X2.7348 Y73.0603
G01 X2.6781 Y73.1550
G01 X2.6123 Y73.2437
G01 X2.5382 Y73.3255
G01 X2.4564 Y73.3996
G01 X2.3677 Y73.4654
G01 X2.2730 Y73.5222
G01 X2.1732 Y73.5694
G01 X2.0693 Y73.6066
G01 X1.9622 Y73.6334
G01 X1.8530 Y73.6496
G01 X1.7427 Y73.6550
G01 X1.6324 Y73.6496
G01 X1.5232 Y73.6334
G01 X1.4161 Y73.6066
G01 X1.3122 Y73.5694
G01 X1.2124 Y73.5222
G01 X1.1177 Y73.4654
G01 X1.0290 Y73.3996
G01 X0.9472 Y73.3255
G01 X0.8730 Y73.2437
G01 X0.8073 Y73.1550
G01 X0.7505 Y73.0603
G01 X0.7033 Y72.9605
G01 X0.6661 Y72.8566
G01 X0.6393 Y72.7495
G01 X0.6231 Y72.6403
G01 X0.6177 Y72.5300
G01 X0.6231 Y72.4197
G01 X0.6393 Y72.3105
G01 X0.6661 Y72.2034
G01 X0.7033 Y72.0995
G01 X0.7505 Y71.9997
G01 X0.8073 Y71.9050
G01 X0.8730 Y71.8163
G01 X0.9472 Y71.7345
G01 X1.0290 Y71.6604
G01 X1.1177 Y71.5946
G01 X1.2124 Y71.5378
G01 X1.3122 Y71.4906
G01 X1.4161 Y71.4534
G01 X1.5232 Y71.4266
G01 X1.6324 Y71.4104
G01 X1.7427 Y71.4050
G01 X1.8530 Y71.4104
G01 X1.9622 Y71.4266
G01 X2.0693 Y71.4534
G01 X2.1732 Y71.4906
G01 X2.2730 Y71.5378
G01 X2.3677 Y71.5946
G01 X2.4564 Y71.6604
G01 X2.5382 Y71.7345
G01 X2.6123 Y71.8163
G01 X2.6781 Y71.9050
G01 X2.7348 Y71.9997
G01 X2.7820 Y72.0995
G01 X2.8192 Y72.2034
G01 X2.8461 Y72.3105
G01 X2.8615 Y72.4136
G00 Z2.0000
G00 X2.8862 Y74.9500
G01 F60.00
G01 Z-0.1418
G01 F60.00
G01 X2.8877 Y74.9646
G01 X2.8927 Y75.0700
G01 X2.8871 Y75.1827
G01 X2.8706 Y75.2944
G01 X2.8432 Y75.4038
G01 X2.8051 Y75.5101
G01 X2.7569 Y75.6121
G01 X2.6989 Y75.7089
G01 X2.6316 Y75.7996
G01 X2.5559 Y75.8832
G01 X2.4722 Y75.9590
G01 X2.3816 Y76.0262
G01 X2.2848 Y76.0842
G01 X2.1828 Y76.1325
G01 X2.0765 Y76.1705
G01 X1.9670 Y76.1979
G01 X1.8554 Y76.2145
G01 X1.7427 Y76.2200
G01 X1.6300 Y76.2145
G01 X1.5183 Y76.1979
G01 X1.4089 Y76.1705
G01 X1.3026 Y76.1325
G01 X1.2006 Y76.0842
G01 X1.1038 Y76.0262
G01 X1.0131 Y75.9590
G01 X0.9295 Y75.8832
G01 X0.8537 Y75.7996
G01 X0.7865 Y75.7089
G01 X0.7285 Y75.6121
G01 X0.6802 Y75.5101
G01 X0.6422 Y75.4038
G01 X0.6148 Y75.2944
G01 X0.5982 Y75.1827
G01 X0.5927 Y75.0700
G01 X0.5982 Y74.9573
G01 X0.6148 Y74.8456
G01 X0.6422 Y74.7362
G01 X0.6802 Y74.6299
G01 X0.7285 Y74.5279
G01 X0.7865 Y74.4311
G01 X0.8537 Y74.3404
G01 X0.9295 Y74.2568
G01 X1.0131 Y74.1810
G01 X1.1038 Y74.1138
G01 X1.2006 Y74.0558
G01 X1.3026 Y74.0075
G01 X1.4089 Y73.9695
G01 X1.5183 Y73.9421
G01 X1.6300 Y73.9255
G01 X1.7427 Y73.9200
G01 X1.8554 Y73.9255
G01 X1.9670 Y73.9421
G01 X2.0765 Y73.9695
G01 X2.1828 Y74.0075
G01 X2.2848 Y74.0558
G01 X2.3816 Y74.1138
G01 X2.4722 Y74.1810
G01 X2.5559 Y74.2568
G01 X2.6316 Y74.3404
G01 X2.6989 Y74.4311
G01 X2.7569 Y74.5279
G01 X2.8051 Y74.6299
G01 X2.8432 Y74.7362
G01 X2.8706 Y74.8456
G01 X2.8862 Y74.9500
G00 Z2.0000
G00 X2.8615 Y74.9536
G01 F60.00
G01 Z-0.1418
G01 F60.00
G01 X2.8627 Y74.9658
G01 X2.8677 Y75.0700
G01 X2.8623 Y75.1803
G01 X2.8461 Y75.2895
G01 X2.8192 Y75.3966
G01 X2.7820 Y75.5005
G01 X2.7348 Y75.6003
G01 X2.6781 Y75.6950
G01 X2.6123 Y75.7837
G01 X2.5382 Y75.8655
G01 X2.4564 Y75.9396
G01 X2.3677 Y76.0054
G01 X2.2730 Y76.0622
G01 X2.1732 Y76.1094
G01 X2.0693 Y76.1466
G01 X1.9622 Y76.1734
G01 X1.8530 Y76.1896
G01 X1.7427 Y76.1950
G01 X1.6324 Y76.1896
G01 X1.5232 Y76.1734
G01 X1.4161 Y76.1466
G01 X1.3122 Y76.1094
G01 X1.2124 Y76.0622
G01 X1.1177 Y76.0054
G01 X1.0290 Y75.9396
G01 X0.9472 Y75.8655
G01 X0.8730 Y75.7837
G01 X0.8073 Y75.6950
G01 X0.7505 Y75.6003
G01 X0.7033 Y75.5005
G01 X0.6661 Y75.3966
G01 X0.6393 Y75.2895
G01 X0.6231 Y75.1803
G01 X0.6177 Y75.0700
G01 X0.6231 Y74.9597
G01 X0.6393 Y74.8505
G01 X0.6661 Y74.7434
G01 X0.7033 Y74.6395
G01 X0.7505 Y74.5397
G01 X0.8073 Y74.4450
G01 X0.8730 Y74.3563
G01 X0.9472 Y74.2745
G01 X1.0290 Y74.2004
G01 X1.1177 Y74.1346
G01 X1.2124 Y74.0778
G01 X1.3122 Y74.0306
G01 X1.4161 Y73.9934
G01 X1.5232 Y73.9666
G01 X1.6324 Y73.9504
G01 X1.7427 Y73.9450
G01 X1.8530 Y73.9504
G01 X1.9622 Y73.9666
G01 X2.0693 Y73.9934
G01 X2.1732 Y74.0306
G01 X2.2730 Y74.0778
G01 X2.3677 Y74.1346
G01 X2.4564 Y74.2004
G01 X2.5382 Y74.2745
G01 X2.6123 Y74.3563
G01 X2.6781 Y74.4450
G01 X2.7348 Y74.5397
G01 X2.7820 Y74.6395
G01 X2.8192 Y74.7434
G01 X2.8461 Y74.8505
G01 X2.8615 Y74.9536
G00 Z2.0000
G00 X2.8862 Y77.4900
G01 F60.00
G01 Z-0.1418
G01 F60.00
G01 X2.8877 Y77.5046
G01 X2.8927 Y77.6100
G01 X2.8871 Y77.7227
G01 X2.8706 Y77.8344
G01 X2.8432 Y77.9438
G01 X2.8051 Y78.0501
G01 X2.7569 Y78.1521
G01 X2.6989 Y78.2489
G01 X2.6316 Y78.3396
G01 X2.5559 Y78.4232
G01 X2.4722 Y78.4990
G01 X2.3816 Y78.5662
G01 X2.2848 Y78.6242
G01 X2.1828 Y78.6725
G01 X2.0765 Y78.7105
G01 X1.9670 Y78.7379
G01 X1.8554 Y78.7545
G01 X1.7427 Y78.7600
G01 X1.6300 Y78.7545
G01 X1.5183 Y78.7379
G01 X1.4089 Y78.7105
G01 X1.3026 Y78.6725
G01 X1.2006 Y78.6242
G01 X1.1038 Y78.5662
G01 X1.0131 Y78.4990
G01 X0.9295 Y78.4232
G01 X0.8537 Y78.3396
G01 X0.7865 Y78.2489
G01 X0.7285 Y78.1521
G01 X0.6802 Y78.0501
G01 X0.6422 Y77.9438
G01 X0.6148 Y77.8344
G01 X0.5982 Y77.7227
G01 X0.5927 Y77.6100
G01 X0.5982 Y77.4973
G01 X0.6148 Y77.3856
G01 X0.6422 Y77.2762
G01 X0.6802 Y77.1699
G01 X0.7285 Y77.0679
G01 X0.7865 Y76.9711
G01 X0.8537 Y76.8804
G01 X0.9295 Y76.7968
G01 X1.0131 Y76.7210
G01 X1.1038 Y76.6538
G01 X1.2006 Y76.5958
G01 X1.3026 Y76.5475
G01 X1.4089 Y76.5095
G01 X1.5183 Y76.4821
G01 X1.6300 Y76.4655
G01 X1.7427 Y76.4600
G01 X1.8554 Y76.4655
G01 X1.9670 Y76.4821
G01 X2.0765 Y76.5095
G01 X2.1828 Y76.5475
G01 X2.2848 Y76.5958
G01 X2.3816 Y76.6538
G01 X2.4722 Y76.7210
G01 X2.5559 Y76.7968
G01 X2.6316 Y76.8804
G01 X2.6989 Y76.9711
G01 X2.7569 Y77.0679
G01 X2.8051 Y77.1699
G01 X2.8432 Y77.2762
G01 X2.8706 Y77.3856
G01 X2.8862 Y77.4900
G00 Z2.0000
G00 X2.8615 Y77.4936
G01 F60.00
G01 Z-0.1418
G01 F60.00
G01 X2.8627 Y77.5058
G01 X2.8677 Y77.6100
G01 X2.8623 Y77.7203
G01 X2.8461 Y77.8295
G01 X2.8192 Y77.9366
G01 X2.7820 Y78.0405
G01 X2.7348 Y78.1403
G01 X2.6781 Y78.2350
G01 X2.6123 Y78.3237
G01 X2.5382 Y78.4055
G01 X2.4564 Y78.4796
G01 X2.3677 Y78.5454
G01 X2.2730 Y78.6022
G01 X2.1732 Y78.6494
G01 X2.0693 Y78.6866
G01 X1.9622 Y78.7134
G01 X1.8530 Y78.7296
G01 X1.7427 Y78.7350
G01 X1.6324 Y78.7296
G01 X1.5232 Y78.7134
G01 X1.4161 Y78.6866
G01 X1.3122 Y78.6494
G01 X1.2124 Y78.6022
G01 X1.1177 Y78.5454
G01 X1.0290 Y78.4796
G01 X0.9472 Y78.4055
G01 X0.8730 Y78.3237
G01 X0.8073 Y78.2350
G01 X0.7505 Y78.1403
G01 X0.7033 Y78.0405
G01 X0.6661 Y77.9366
G01 X0.6393 Y77.8295
G01 X0.6231 Y77.7203
G01 X0.6177 Y77.6100
G01 X0.6231 Y77.4997
G01 X0.6393 Y77.3905
G01 X0.6661 Y77.2834
G01 X0.7033 Y77.1795
G01 X0.7505 Y77.0797
G01 X0.8073 Y76.9850
G01 X0.8730 Y76.8963
G01 X0.9472 Y76.8145
G01 X1.0290 Y76.7404
G01 X1.1177 Y76.6746
G01 X1.2124 Y76.6178
G01 X1.3122 Y76.5706
G01 X1.4161 Y76.5334
G01 X1.5232 Y76.5066
G01 X1.6324 Y76.4904
G01 X1.7427 Y76.4850
G01 X1.8530 Y76.4904
G01 X1.9622 Y76.5066
G01 X2.0693 Y76.5334
G01 X2.1732 Y76.5706
G01 X2.2730 Y76.6178
G01 X2.3677 Y76.6746
G01 X2.4564 Y76.7404
G01 X2.5382 Y76.8145
G01 X2.6123 Y76.8963
G01 X2.6781 Y76.9850
G01 X2.7348 Y77.0797
G01 X2.7820 Y77.1795
G01 X2.8192 Y77.2834
G01 X2.8461 Y77.3905
G01 X2.8615 Y77.4936
G00 Z2.0000
G00 X2.8862 Y80.0300
G01 F60.00
G01 Z-0.1418
G01 F60.00
G01 X2.8877 Y80.0446
G01 X2.8927 Y80.1500
G01 X2.8871 Y80.2627
G01 X2.8706 Y80.3744
G01 X2.8432 Y80.4838
G01 X2.8051 Y80.5901
G01 X2.7569 Y80.6921
G01 X2.6989 Y80.7889
G01 X2.6316 Y80.8796
G01 X2.5559 Y80.9632
G01 X2.4722 Y81.0390
G01 X2.3816 Y81.1062
G01 X2.2848 Y81.1642
G01 X2.1828 Y81.2125
G01 X2.0765 Y81.2505
G01 X1.9670 Y81.2779
G01 X1.8554 Y81.2945
G01 X1.7427 Y81.3000
G01 X1.6300 Y81.2945
G01 X1.5183 Y81.2779
G01 X1.4089 Y81.2505
G01 X1.3026 Y81.2125
G01 X1.2006 Y81.1642
G01 X1.1038 Y81.1062
G01 X1.0131 Y81.0390
G01 X0.9295 Y80.9632
G01 X0.8537 Y80.8796
G01 X0.7865 Y80.7889
G01 X0.7285 Y80.6921
G01 X0.6802 Y80.5901
G01 X0.6422 Y80.4838
G01 X0.6148 Y80.3744
G01 X0.5982 Y80.2627
G01 X0.5927 Y80.1500
G01 X0.5982 Y80.0373
G01 X0.6148 Y79.9256
G01 X0.6422 Y79.8162
G01 X0.6802 Y79.7099
G01 X0.7285 Y79.6079
G01 X0.7865 Y79.5111
G01 X0.8537 Y79.4204
G01 X0.9295 Y79.3368
G01 X1.0131 Y79.2610
G01 X1.1038 Y79.1938
G01 X1.2006 Y79.1358
G01 X1.3026 Y79.0875
G01 X1.4089 Y79.0495
G01 X1.5183 Y79.0221
G01 X1.6300 Y79.0055
G01 X1.7427 Y79.0000
G01 X1.8554 Y79.0055
G01 X1.9670 Y79.0221
G01 X2.0765 Y79.0495
G01 X2.1828 Y79.0875
G01 X2.2848 Y79.1358
G01 X2.3816 Y79.1938
G01 X2.4722 Y79.2610
G01 X2.5559 Y79.3368
G01 X2.6316 Y79.4204
G01 X2.6989 Y79.5111
G01 X2.7569 Y79.6079
G01 X2.8051 Y79.7099
G01 X2.8432 Y79.8162
G01 X2.8706 Y79.9256
G01 X2.8862 Y80.0300
G00 Z2.0000
G00 X2.8615 Y80.0336
G01 F60.00
G01 Z-0.1418
G01 F60.00
G01 X2.8627 Y80.0458
G01 X2.8677 Y80.1500
G01 X2.8623 Y80.2603
G01 X2.8461 Y80.3695
G01 X2.8192 Y80.4766
G01 X2.7820 Y80.5805
G01 X2.7348 Y80.6803
G01 X2.6781 Y80.7750
G01 X2.6123 Y80.8637
G01 X2.5382 Y80.9455
G01 X2.4564 Y81.0196
G01 X2.3677 Y81.0854
G01 X2.2730 Y81.1422
G01 X2.1732 Y81.1894
G01 X2.0693 Y81.2266
G01 X1.9622 Y81.2534
G01 X1.8530 Y81.2696
G01 X1.7427 Y81.2750
G01 X1.6324 Y81.2696
G01 X1.5232 Y81.2534
G01 X1.4161 Y81.2266
G01 X1.3122 Y81.1894
G01 X1.2124 Y81.1422
G01 X1.1177 Y81.0854
G01 X1.0290 Y81.0196
G01 X0.9472 Y80.9455
G01 X0.8730 Y80.8637
G01 X0.8073 Y80.7750
G01 X0.7505 Y80.6803
G01 X0.7033 Y80.5805
G01 X0.6661 Y80.4766
G01 X0.6393 Y80.3695
G01 X0.6231 Y80.2603
G01 X0.6177 Y80.1500
G01 X0.6231 Y80.0397
G01 X0.6393 Y79.9305
G01 X0.6661 Y79.8234
G01 X0.7033 Y79.7195
G01 X0.7505 Y79.6197
G01 X0.8073 Y79.5250
G01 X0.8730 Y79.4363
G01 X0.9472 Y79.3545
G01 X1.0290 Y79.2804
G01 X1.1177 Y79.2146
G01 X1.2124 Y79.1578
G01 X1.3122 Y79.1106
G01 X1.4161 Y79.0734
G01 X1.5232 Y79.0466
G01 X1.6324 Y79.0304
G01 X1.7427 Y79.0250
G01 X1.8530 Y79.0304
G01 X1.9622 Y79.0466
G01 X2.0693 Y79.0734
G01 X2.1732 Y79.1106
G01 X2.2730 Y79.1578
G01 X2.3677 Y79.2146
G01 X2.4564 Y79.2804
G01 X2.5382 Y79.3545
G01 X2.6123 Y79.4363
G01 X2.6781 Y79.5250
G01 X2.7348 Y79.6197
G01 X2.7820 Y79.7195
G01 X2.8192 Y79.8234
G01 X2.8461 Y79.9305
G01 X2.8615 Y80.0336
G00 Z2.0000
G00 X2.8862 Y82.5700
G01 F60.00
G01 Z-0.1418
G01 F60.00
G01 X2.8877 Y82.5846
G01 X2.8927 Y82.6900
G01 X2.8871 Y82.8027
G01 X2.8706 Y82.9144
G01 X2.8432 Y83.0238
G01 X2.8051 Y83.1301
G01 X2.7569 Y83.2321
G01 X2.6989 Y83.3289
G01 X2.6316 Y83.4196
G01 X2.5559 Y83.5032
G01 X2.4722 Y83.5790
G01 X2.3816 Y83.6462
G01 X2.2848 Y83.7042
G01 X2.1828 Y83.7525
G01 X2.0765 Y83.7905
G01 X1.9670 Y83.8179
G01 X1.8554 Y83.8345
G01 X1.7427 Y83.8400
G01 X1.6300 Y83.8345
G01 X1.5183 Y83.8179
G01 X1.4089 Y83.7905
G01 X1.3026 Y83.7525
G01 X1.2006 Y83.7042
G01 X1.1038 Y83.6462
G01 X1.0131 Y83.5790
G01 X0.9295 Y83.5032
G01 X0.8537 Y83.4196
G01 X0.7865 Y83.3289
G01 X0.7285 Y83.2321
G01 X0.6802 Y83.1301
G01 X0.6422 Y83.0238
G01 X0.6148 Y82.9144
G01 X0.5982 Y82.8027
G01 X0.5927 Y82.6900
G01 X0.5982 Y82.5773
G01 X0.6148 Y82.4656
G01 X0.6422 Y82.3562
G01 X0.6802 Y82.2499
G01 X0.7285 Y82.1479
G01 X0.7865 Y82.0511
G01 X0.8537 Y81.9604
G01 X0.9295 Y81.8768
G01 X1.0131 Y81.8010
G01 X1.1038 Y81.7338
G01 X1.2006 Y81.6758
G01 X1.3026 Y81.6275
G01 X1.4089 Y81.5895
G01 X1.5183 Y81.5621
G01 X1.6300 Y81.5455
G01 X1.7427 Y81.5400
G01 X1.8554 Y81.5455
G01 X1.9670 Y81.5621
G01 X2.0765 Y81.5895
G01 X2.1828 Y81.6275
G01 X2.2848 Y81.6758
G01 X2.3816 Y81.7338
G01 X2.4722 Y81.8010
G01 X2.5559 Y81.8768
G01 X2.6316 Y81.9604
G01 X2.6989 Y82.0511
G01 X2.7569 Y82.1479
G01 X2.8051 Y82.2499
G01 X2.8432 Y82.3562
G01 X2.8706 Y82.4656
G01 X2.8862 Y82.5700
G00 Z2.0000
G00 X2.8615 Y82.5736
G01 F60.00
G01 Z-0.1418
G01 F60.00
G01 X2.8627 Y82.5858
G01 X2.8677 Y82.6900
G01 X2.8623 Y82.8003
G01 X2.8461 Y82.9095
G01 X2.8192 Y83.0166
G01 X2.7820 Y83.1205
G01 X2.7348 Y83.2203
G01 X2.6781 Y83.3150
G01 X2.6123 Y83.4037
G01 X2.5382 Y83.4855
G01 X2.4564 Y83.5596
G01 X2.3677 Y83.6254
G01 X2.2730 Y83.6822
G01 X2.1732 Y83.7294
G01 X2.0693 Y83.7666
G01 X1.9622 Y83.7934
G01 X1.8530 Y83.8096
G01 X1.7427 Y83.8150
G01 X1.6324 Y83.8096
G01 X1.5232 Y83.7934
G01 X1.4161 Y83.7666
G01 X1.3122 Y83.7294
G01 X1.2124 Y83.6822
G01 X1.1177 Y83.6254
G01 X1.0290 Y83.5596
G01 X0.9472 Y83.4855
G01 X0.8730 Y83.4037
G01 X0.8073 Y83.3150
G01 X0.7505 Y83.2203
G01 X0.7033 Y83.1205
G01 X0.6661 Y83.0166
G01 X0.6393 Y82.9095
G01 X0.6231 Y82.8003
G01 X0.6177 Y82.6900
G01 X0.6231 Y82.5797
G01 X0.6393 Y82.4705
G01 X0.6661 Y82.3634
G01 X0.7033 Y82.2595
G01 X0.7505 Y82.1597
G01 X0.8073 Y82.0650
G01 X0.8730 Y81.9763
G01 X0.9472 Y81.8945
G01 X1.0290 Y81.8204
G01 X1.1177 Y81.7546
G01 X1.2124 Y81.6978
G01 X1.3122 Y81.6506
G01 X1.4161 Y81.6134
G01 X1.5232 Y81.5866
G01 X1.6324 Y81.5704
G01 X1.7427 Y81.5650
G01 X1.8530 Y81.5704
G01 X1.9622 Y81.5866
G01 X2.0693 Y81.6134
G01 X2.1732 Y81.6506
G01 X2.2730 Y81.6978
G01 X2.3677 Y81.7546
G01 X2.4564 Y81.8204
G01 X2.5382 Y81.8945
G01 X2.6123 Y81.9763
G01 X2.6781 Y82.0650
G01 X2.7348 Y82.1597
G01 X2.7820 Y82.2595
G01 X2.8192 Y82.3634
G01 X2.8461 Y82.4705
G01 X2.8615 Y82.5736
G00 Z2.0000
G00 X2.8862 Y85.1100
G01 F60.00
G01 Z-0.1418
G01 F60.00
G01 X2.8877 Y85.1246
G01 X2.8927 Y85.2300
G01 X2.8871 Y85.3427
G01 X2.8706 Y85.4544
G01 X2.8432 Y85.5638
G01 X2.8051 Y85.6701
G01 X2.7569 Y85.7721
G01 X2.6989 Y85.8689
G01 X2.6316 Y85.9596
G01 X2.5559 Y86.0432
G01 X2.4722 Y86.1190
G01 X2.3816 Y86.1862
G01 X2.2848 Y86.2442
G01 X2.1828 Y86.2925
G01 X2.0765 Y86.3305
G01 X1.9670 Y86.3579
G01 X1.8554 Y86.3745
G01 X1.7427 Y86.3800
G01 X1.6300 Y86.3745
G01 X1.5183 Y86.3579
G01 X1.4089 Y86.3305
G01 X1.3026 Y86.2925
G01 X1.2006 Y86.2442
G01 X1.1038 Y86.1862
G01 X1.0131 Y86.1190
G01 X0.9295 Y86.0432
G01 X0.8537 Y85.9596
G01 X0.7865 Y85.8689
G01 X0.7285 Y85.7721
G01 X0.6802 Y85.6701
G01 X0.6422 Y85.5638
G01 X0.6148 Y85.4544
G01 X0.5982 Y85.3427
G01 X0.5927 Y85.2300
G01 X0.5982 Y85.1173
G01 X0.6148 Y85.0056
G01 X0.6422 Y84.8962
G01 X0.6802 Y84.7899
G01 X0.7285 Y84.6879
G01 X0.7865 Y84.5911
G01 X0.8537 Y84.5004
G01 X0.9295 Y84.4168
G01 X1.0131 Y84.3410
G01 X1.1038 Y84.2738
G01 X1.2006 Y84.2158
G01 X1.3026 Y84.1675
G01 X1.4089 Y84.1295
G01 X1.5183 Y84.1021
G01 X1.6300 Y84.0855
G01 X1.7427 Y84.0800
G01 X1.8554 Y84.0855
G01 X1.9670 Y84.1021
G01 X2.0765 Y84.1295
G01 X2.1828 Y84.1675
G01 X2.2848 Y84.2158
G01 X2.3816 Y84.2738
G01 X2.4722 Y84.3410
G01 X2.5559 Y84.4168
G01 X2.6316 Y84.5004
G01 X2.6989 Y84.5911
G01 X2.7569 Y84.6879
G01 X2.8051 Y84.7899
G01 X2.8432 Y84.8962
G01 X2.8706 Y85.0056
G01 X2.8862 Y85.1100
G00 Z2.0000
G00 X2.8615 Y85.1136
G01 F60.00
G01 Z-0.1418
G01 F60.00
G01 X2.8627 Y85.1258
G01 X2.8677 Y85.2300
G01 X2.8623 Y85.3403
G01 X2.8461 Y85.4495
G01 X2.8192 Y85.5566
G01 X2.7820 Y85.6605
G01 X2.7348 Y85.7603
G01 X2.6781 Y85.8550
G01 X2.6123 Y85.9437
G01 X2.5382 Y86.0255
G01 X2.4564 Y86.0996
G01 X2.3677 Y86.1654
G01 X2.2730 Y86.2222
G01 X2.1732 Y86.2694
G01 X2.0693 Y86.3066
G01 X1.9622 Y86.3334
G01 X1.8530 Y86.3496
G01 X1.7427 Y86.3550
G01 X1.6324 Y86.3496
G01 X1.5232 Y86.3334
G01 X1.4161 Y86.3066
G01 X1.3122 Y86.2694
G01 X1.2124 Y86.2222
G01 X1.1177 Y86.1654
G01 X1.0290 Y86.0996
G01 X0.9472 Y86.0255
G01 X0.8730 Y85.9437
G01 X0.8073 Y85.8550
G01 X0.7505 Y85.7603
G01 X0.7033 Y85.6605
G01 X0.6661 Y85.5566
G01 X0.6393 Y85.4495
G01 X0.6231 Y85.3403
G01 X0.6177 Y85.2300
G01 X0.6231 Y85.1197
G01 X0.6393 Y85.0105
G01 X0.6661 Y84.9034
G01 X0.7033 Y84.7995
G01 X0.7505 Y84.6997
G01 X0.8073 Y84.6050
G01 X0.8730 Y84.5163
G01 X0.9472 Y84.4345
G01 X1.0290 Y84.3604
G01 X1.1177 Y84.2946
G01 X1.2124 Y84.2378
G01 X1.3122 Y84.1906
G01 X1.4161 Y84.1534
G01 X1.5232 Y84.1266
G01 X1.6324 Y84.1104
G01 X1.7427 Y84.1050
G01 X1.8530 Y84.1104
G01 X1.9622 Y84.1266
G01 X2.0693 Y84.1534
G01 X2.1732 Y84.1906
G01 X2.2730 Y84.2378
G01 X2.3677 Y84.2946
G01 X2.4564 Y84.3604
G01 X2.5382 Y84.4345
G01 X2.6123 Y84.5163
G01 X2.6781 Y84.6050
G01 X2.7348 Y84.6997
G01 X2.7820 Y84.7995
G01 X2.8192 Y84.9034
G01 X2.8461 Y85.0105
G01 X2.8615 Y85.1136
G00 Z2.0000
G00 X2.8862 Y87.6500
G01 F60.00
G01 Z-0.1418
G01 F60.00
G01 X2.8877 Y87.6646
G01 X2.8927 Y87.7700
G01 X2.8871 Y87.8827
G01 X2.8706 Y87.9944
G01 X2.8432 Y88.1038
G01 X2.8051 Y88.2101
G01 X2.7569 Y88.3121
G01 X2.6989 Y88.4089
G01 X2.6316 Y88.4996
G01 X2.5559 Y88.5832
G01 X2.4722 Y88.6590
G01 X2.3816 Y88.7262
G01 X2.2848 Y88.7842
G01 X2.1828 Y88.8325
G01 X2.0765 Y88.8705
G01 X1.9670 Y88.8979
G01 X1.8554 Y88.9145
G01 X1.7427 Y88.9200
G01 X1.6300 Y88.9145
G01 X1.5183 Y88.8979
G01 X1.4089 Y88.8705
G01 X1.3026 Y88.8325
G01 X1.2006 Y88.7842
G01 X1.1038 Y88.7262
G01 X1.0131 Y88.6590
G01 X0.9295 Y88.5832
G01 X0.8537 Y88.4996
G01 X0.7865 Y88.4089
G01 X0.7285 Y88.3121
G01 X0.6802 Y88.2101
G01 X0.6422 Y88.1038
G01 X0.6148 Y87.9944
G01 X0.5982 Y87.8827
G01 X0.5927 Y87.7700
G01 X0.5982 Y87.6573
G01 X0.6148 Y87.5456
G01 X0.6422 Y87.4362
G01 X0.6802 Y87.3299
G01 X0.7285 Y87.2279
G01 X0.7865 Y87.1311
G01 X0.8537 Y87.0404
G01 X0.9295 Y86.9568
G01 X1.0131 Y86.8810
G01 X1.1038 Y86.8138
G01 X1.2006 Y86.7558
G01 X1.3026 Y86.7075
G01 X1.4089 Y86.6695
G01 X1.5183 Y86.6421
G01 X1.6300 Y86.6255
G01 X1.7427 Y86.6200
G01 X1.8554 Y86.6255
G01 X1.9670 Y86.6421
G01 X2.0765 Y86.6695
G01 X2.1828 Y86.7075
G01 X2.2848 Y86.7558
G01 X2.3816 Y86.8138
G01 X2.4722 Y86.8810
G01 X2.5559 Y86.9568
G01 X2.6316 Y87.0404
G01 X2.6989 Y87.1311
G01 X2.7569 Y87.2279
G01 X2.8051 Y87.3299
G01 X2.8432 Y87.4362
G01 X2.8706 Y87.5456
G01 X2.8862 Y87.6500
G00 Z2.0000
G00 X2.8615 Y87.6536
G01 F60.00
G01 Z-0.1418
G01 F60.00
G01 X2.8627 Y87.6658
G01 X2.8677 Y87.7700
G01 X2.8623 Y87.8803
G01 X2.8461 Y87.9895
G01 X2.8192 Y88.0966
G01 X2.7820 Y88.2005
G01 X2.7348 Y88.3003
G01 X2.6781 Y88.3950
G01 X2.6123 Y88.4837
G01 X2.5382 Y88.5655
G01 X2.4564 Y88.6396
G01 X2.3677 Y88.7054
G01 X2.2730 Y88.7622
G01 X2.1732 Y88.8094
G01 X2.0693 Y88.8466
G01 X1.9622 Y88.8734
G01 X1.8530 Y88.8896
G01 X1.7427 Y88.8950
G01 X1.6324 Y88.8896
G01 X1.5232 Y88.8734
G01 X1.4161 Y88.8466
G01 X1.3122 Y88.8094
G01 X1.2124 Y88.7622
G01 X1.1177 Y88.7054
G01 X1.0290 Y88.6396
G01 X0.9472 Y88.5655
G01 X0.8730 Y88.4837
G01 X0.8073 Y88.3950
G01 X0.7505 Y88.3003
G01 X0.7033 Y88.2005
G01 X0.6661 Y88.0966
G01 X0.6393 Y87.9895
G01 X0.6231 Y87.8803
G01 X0.6177 Y87.7700
G01 X0.6231 Y87.6597
G01 X0.6393 Y87.5505
G01 X0.6661 Y87.4434
G01 X0.7033 Y87.3395
G01 X0.7505 Y87.2397
G01 X0.8073 Y87.1450
G01 X0.8730 Y87.0563
G01 X0.9472 Y86.9745
G01 X1.0290 Y86.9004
G01 X1.1177 Y86.8346
G01 X1.2124 Y86.7778
G01 X1.3122 Y86.7306
G01 X1.4161 Y86.6934
G01 X1.5232 Y86.6666
G01 X1.6324 Y86.6504
G01 X1.7427 Y86.6450
G01 X1.8530 Y86.6504
G01 X1.9622 Y86.6666
G01 X2.0693 Y86.6934
G01 X2.1732 Y86.7306
G01 X2.2730 Y86.7778
G01 X2.3677 Y86.8346
G01 X2.4564 Y86.9004
G01 X2.5382 Y86.9745
G01 X2.6123 Y87.0563
G01 X2.6781 Y87.1450
G01 X2.7348 Y87.2397
G01 X2.7820 Y87.3395
G01 X2.8192 Y87.4434
G01 X2.8461 Y87.5505
G01 X2.8615 Y87.6536
G00 Z2.0000
G00 X2.8862 Y90.1900
G01 F60.00
G01 Z-0.1418
G01 F60.00
G01 X2.8877 Y90.2046
G01 X2.8927 Y90.3100
G01 X2.8871 Y90.4227
G01 X2.8706 Y90.5344
G01 X2.8432 Y90.6438
G01 X2.8051 Y90.7501
G01 X2.7569 Y90.8521
G01 X2.6989 Y90.9489
G01 X2.6316 Y91.0396
G01 X2.5559 Y91.1232
G01 X2.4722 Y91.1990
G01 X2.3816 Y91.2662
G01 X2.2848 Y91.3242
G01 X2.1828 Y91.3725
G01 X2.0765 Y91.4105
G01 X1.9670 Y91.4379
G01 X1.8554 Y91.4545
G01 X1.7427 Y91.4600
G01 X1.6300 Y91.4545
G01 X1.5183 Y91.4379
G01 X1.4089 Y91.4105
G01 X1.3026 Y91.3725
G01 X1.2006 Y91.3242
G01 X1.1038 Y91.2662
G01 X1.0131 Y91.1990
G01 X0.9295 Y91.1232
G01 X0.8537 Y91.0396
G01 X0.7865 Y90.9489
G01 X0.7285 Y90.8521
G01 X0.6802 Y90.7501
G01 X0.6422 Y90.6438
G01 X0.6148 Y90.5344
G01 X0.5982 Y90.4227
G01 X0.5927 Y90.3100
G01 X0.5982 Y90.1973
G01 X0.6148 Y90.0856
G01 X0.6422 Y89.9762
G01 X0.6802 Y89.8699
G01 X0.7285 Y89.7679
G01 X0.7865 Y89.6711
G01 X0.8537 Y89.5804
G01 X0.9295 Y89.4968
G01 X1.0131 Y89.4210
G01 X1.1038 Y89.3538
G01 X1.2006 Y89.2958
G01 X1.3026 Y89.2475
G01 X1.4089 Y89.2095
G01 X1.5183 Y89.1821
G01 X1.6300 Y89.1655
G01 X1.7427 Y89.1600
G01 X1.8554 Y89.1655
G01 X1.9670 Y89.1821
G01 X2.0765 Y89.2095
G01 X2.1828 Y89.2475
G01 X2.2848 Y89.2958
G01 X2.3816 Y89.3538
G01 X2.4722 Y89.4210
G01 X2.5559 Y89.4968
G01 X2.6316 Y89.5804
G01 X2.6989 Y89.6711
G01 X2.7569 Y89.7679
G01 X2.8051 Y89.8699
G01 X2.8432 Y89.9762
G01 X2.8706 Y90.0856
G01 X2.8862 Y90.1900
G00 Z2.0000
G00 X2.8615 Y90.1936
G01 F60.00
G01 Z-0.1418
G01 F60.00
G01 X2.8627 Y90.2058
G01 X2.8677 Y90.3100
G01 X2.8623 Y90.4203
G01 X2.8461 Y90.5295
G01 X2.8192 Y90.6366
G01 X2.7820 Y90.7405
G01 X2.7348 Y90.8403
G01 X2.6781 Y90.9350
G01 X2.6123 Y91.0237
G01 X2.5382 Y91.1055
G01 X2.4564 Y91.1796
G01 X2.3677 Y91.2454
G01 X2.2730 Y91.3022
G01 X2.1732 Y91.3494
G01 X2.0693 Y91.3866
G01 X1.9622 Y91.4134
G01 X1.8530 Y91.4296
G01 X1.7427 Y91.4350
G01 X1.6324 Y91.4296
G01 X1.5232 Y91.4134
G01 X1.4161 Y91.3866
G01 X1.3122 Y91.3494
G01 X1.2124 Y91.3022
G01 X1.1177 Y91.2454
G01 X1.0290 Y91.1796
G01 X0.9472 Y91.1055
G01 X0.8730 Y91.0237
G01 X0.8073 Y90.9350
G01 X0.7505 Y90.8403
G01 X0.7033 Y90.7405
G01 X0.6661 Y90.6366
G01 X0.6393 Y90.5295
G01 X0.6231 Y90.4203
G01 X0.6177 Y90.3100
G01 X0.6231 Y90.1997
G01 X0.6393 Y90.0905
G01 X0.6661 Y89.9834
G01 X0.7033 Y89.8795
G01 X0.7505 Y89.7797
G01 X0.8073 Y89.6850
G01 X0.8730 Y89.5963
G01 X0.9472 Y89.5145
G01 X1.0290 Y89.4404
G01 X1.1177 Y89.3746
G01 X1.2124 Y89.3178
G01 X1.3122 Y89.2706
G01 X1.4161 Y89.2334
G01 X1.5232 Y89.2066
G01 X1.6324 Y89.1904
G01 X1.7427 Y89.1850
G01 X1.8530 Y89.1904
G01 X1.9622 Y89.2066
G01 X2.0693 Y89.2334
G01 X2.1732 Y89.2706
G01 X2.2730 Y89.3178
G01 X2.3677 Y89.3746
G01 X2.4564 Y89.4404
G01 X2.5382 Y89.5145
G01 X2.6123 Y89.5963
G01 X2.6781 Y89.6850
G01 X2.7348 Y89.7797
G01 X2.7820 Y89.8795
G01 X2.8192 Y89.9834
G01 X2.8461 Y90.0905
G01 X2.8615 Y90.1936
G00 Z2.0000
G00 X2.8862 Y92.7300
G01 F60.00
G01 Z-0.1418
G01 F60.00
G01 X2.8877 Y92.7446
G01 X2.8927 Y92.8500
G01 X2.8871 Y92.9627
G01 X2.8706 Y93.0744
G01 X2.8432 Y93.1838
G01 X2.8051 Y93.2901
G01 X2.7569 Y93.3921
G01 X2.6989 Y93.4889
G01 X2.6316 Y93.5796
G01 X2.5559 Y93.6632
G01 X2.4722 Y93.7390
G01 X2.3816 Y93.8062
G01 X2.2848 Y93.8642
G01 X2.1828 Y93.9125
G01 X2.0765 Y93.9505
G01 X1.9670 Y93.9779
G01 X1.8554 Y93.9945
G01 X1.7427 Y94.0000
G01 X1.6300 Y93.9945
G01 X1.5183 Y93.9779
G01 X1.4089 Y93.9505
G01 X1.3026 Y93.9125
G01 X1.2006 Y93.8642
G01 X1.1038 Y93.8062
G01 X1.0131 Y93.7390
G01 X0.9295 Y93.6632
G01 X0.8537 Y93.5796
G01 X0.7865 Y93.4889
G01 X0.7285 Y93.3921
G01 X0.6802 Y93.2901
G01 X0.6422 Y93.1838
G01 X0.6148 Y93.0744
G01 X0.5982 Y92.9627
G01 X0.5927 Y92.8500
G01 X0.5982 Y92.7373
G01 X0.6148 Y92.6256
G01 X0.6422 Y92.5162
G01 X0.6802 Y92.4099
G01 X0.7285 Y92.3079
G01 X0.7865 Y92.2111
G01 X0.8537 Y92.1204
G01 X0.9295 Y92.0368
G01 X1.0131 Y91.9610
G01 X1.1038 Y91.8938
G01 X1.2006 Y91.8358
G01 X1.3026 Y91.7875
G01 X1.4089 Y91.7495
G01 X1.5183 Y91.7221
G01 X1.6300 Y91.7055
G01 X1.7427 Y91.7000
G01 X1.8554 Y91.7055
G01 X1.9670 Y91.7221
G01 X2.0765 Y91.7495
G01 X2.1828 Y91.7875
G01 X2.2848 Y91.8358
G01 X2.3816 Y91.8938
G01 X2.4722 Y91.9610
G01 X2.5559 Y92.0368
G01 X2.6316 Y92.1204
G01 X2.6989 Y92.2111
G01 X2.7569 Y92.3079
G01 X2.8051 Y92.4099
G01 X2.8432 Y92.5162
G01 X2.8706 Y92.6256
G01 X2.8862 Y92.7300
G00 Z2.0000
G00 X2.8615 Y92.7336
G01 F60.00
G01 Z-0.1418
G01 F60.00
G01 X2.8627 Y92.7458
G01 X2.8677 Y92.8500
G01 X2.8623 Y92.9603
G01 X2.8461 Y93.0695
G01 X2.8192 Y93.1766
G01 X2.7820 Y93.2805
G01 X2.7348 Y93.3803
G01 X2.6781 Y93.4750
G01 X2.6123 Y93.5637
G01 X2.5382 Y93.6455
G01 X2.4564 Y93.7196
G01 X2.3677 Y93.7854
G01 X2.2730 Y93.8422
G01 X2.1732 Y93.8894
G01 X2.0693 Y93.9266
G01 X1.9622 Y93.9534
G01 X1.8530 Y93.9696
G01 X1.7427 Y93.9750
G01 X1.6324 Y93.9696
G01 X1.5232 Y93.9534
