(G-CODE GENERATED BY FLATCAM v8.994 - www.flatcam.org - Version Date: 2020/11/7)

(Name: Fonte_tensao_LM675_v03-PTH_LIMPO.drl_mill_cnc)
(Type: G-code from Geometry)
(Units: MM)

(Created on quinta, 22 junho 2023 at 18:59)

(This preprocessor is the default preprocessor used by FlatCAM.)
(It is made to work with MACH3 compatible motion controllers.)

(TOOL DIAMETER: 0.8 mm)
(Feedrate_XY: 100.0 mm/min)
(Feedrate_Z: 15.0 mm/min)
(Feedrate rapids 1500.0 mm/min)

(Z_Cut: -2.6 mm)
(Z_Move: 2.0 mm)
(Z Start: None mm)
(Z End: 15.0 mm)
(X,Y End: None mm)
(Steps per circle: 64)
(Preprocessor Geometry: default)

(X range:    1.7427 ...   81.7527  mm)
(Y range:    2.6800 ...   92.8500  mm)

(Spindle Speed: 1000.0 RPM)
G21
G90
G94

G01 F100.00

M5
G00 Z5.0000
G00 X0.0000 Y0.0000
(T1)
(M6 )   
(MSG, Change to Tool Dia = 0.8000)
(M0)
G00 Z5.0000

M03 S1000.0
G01 F100.00
G00 X1.7427 Y6.4900
G01 F15.00
G01 Z-2.6000
G01 F100.00
G01 X1.7427 Y6.4900
G01 X1.7427 Y6.4900
G01 X1.7427 Y6.4900
G01 X1.7427 Y6.4900
G00 Z2.0000
G00 X1.7427 Y9.0300
G01 F15.00
G01 Z-2.6000
G01 F100.00
G01 X1.7427 Y9.0300
G01 X1.7427 Y9.0300
G01 X1.7427 Y9.0300
G01 X1.7427 Y9.0300
G00 Z2.0000
G00 X1.7427 Y11.5700
G01 F15.00
G01 Z-2.6000
G01 F100.00
G01 X1.7427 Y11.5700
G01 X1.7427 Y11.5700
G01 X1.7427 Y11.5700
G01 X1.7427 Y11.5700
G00 Z2.0000
G00 X1.7427 Y14.1100
G01 F15.00
G01 Z-2.6000
G01 F100.00
G01 X1.7427 Y14.1100
G01 X1.7427 Y14.1100
G01 X1.7427 Y14.1100
G01 X1.7427 Y14.1100
G00 Z2.0000
G00 X1.7427 Y16.6500
G01 F15.00
G01 Z-2.6000
G01 F100.00
G01 X1.7427 Y16.6500
G01 X1.7427 Y16.6500
G01 X1.7427 Y16.6500
G01 X1.7427 Y16.6500
G00 Z2.0000
G00 X1.7427 Y19.1900
G01 F15.00
G01 Z-2.6000
G01 F100.00
G01 X1.7427 Y19.1900
G01 X1.7427 Y19.1900
G01 X1.7427 Y19.1900
G01 X1.7427 Y19.1900
G00 Z2.0000
G00 X1.7427 Y21.7300
G01 F15.00
G01 Z-2.6000
G01 F100.00
G01 X1.7427 Y21.7300
G01 X1.7427 Y21.7300
G01 X1.7427 Y21.7300
G01 X1.7427 Y21.7300
G00 Z2.0000
G00 X1.7427 Y24.2700
G01 F15.00
G01 Z-2.6000
G01 F100.00
G01 X1.7427 Y24.2700
G01 X1.7427 Y24.2700
G01 X1.7427 Y24.2700
G01 X1.7427 Y24.2700
G00 Z2.0000
G00 X1.7427 Y26.8100
G01 F15.00
G01 Z-2.6000
G01 F100.00
G01 X1.7427 Y26.8100
G01 X1.7427 Y26.8100
G01 X1.7427 Y26.8100
G01 X1.7427 Y26.8100
G00 Z2.0000
G00 X1.7427 Y29.3500
G01 F15.00
G01 Z-2.6000
G01 F100.00
G01 X1.7427 Y29.3500
G01 X1.7427 Y29.3500
G01 X1.7427 Y29.3500
G01 X1.7427 Y29.3500
G00 Z2.0000
G00 X1.7427 Y31.8900
G01 F15.00
G01 Z-2.6000
G01 F100.00
G01 X1.7427 Y31.8900
G01 X1.7427 Y31.8900
G01 X1.7427 Y31.8900
G01 X1.7427 Y31.8900
G00 Z2.0000
G00 X1.7427 Y34.4300
G01 F15.00
G01 Z-2.6000
G01 F100.00
G01 X1.7427 Y34.4300
G01 X1.7427 Y34.4300
G01 X1.7427 Y34.4300
G01 X1.7427 Y34.4300
G00 Z2.0000
G00 X1.7427 Y36.9700
G01 F15.00
G01 Z-2.6000
G01 F100.00
G01 X1.7427 Y36.9700
G01 X1.7427 Y36.9700
G01 X1.7427 Y36.9700
G01 X1.7427 Y36.9700
G00 Z2.0000
G00 X1.7427 Y39.5100
G01 F15.00
G01 Z-2.6000
G01 F100.00
G01 X1.7427 Y39.5100
G01 X1.7427 Y39.5100
G01 X1.7427 Y39.5100
G01 X1.7427 Y39.5100
G00 Z2.0000
G00 X1.7427 Y42.0500
G01 F15.00
G01 Z-2.6000
G01 F100.00
G01 X1.7427 Y42.0500
G01 X1.7427 Y42.0500
G01 X1.7427 Y42.0500
G01 X1.7427 Y42.0500
G00 Z2.0000
G00 X1.7427 Y44.5900
G01 F15.00
G01 Z-2.6000
G01 F100.00
G01 X1.7427 Y44.5900
G01 X1.7427 Y44.5900
G01 X1.7427 Y44.5900
G01 X1.7427 Y44.5900
G00 Z2.0000
G00 X1.7427 Y47.1300
G01 F15.00
G01 Z-2.6000
G01 F100.00
G01 X1.7427 Y47.1300
G01 X1.7427 Y47.1300
G01 X1.7427 Y47.1300
G01 X1.7427 Y47.1300
G00 Z2.0000
G00 X1.7427 Y49.6700
G01 F15.00
G01 Z-2.6000
G01 F100.00
G01 X1.7427 Y49.6700
G01 X1.7427 Y49.6700
G01 X1.7427 Y49.6700
G01 X1.7427 Y49.6700
G00 Z2.0000
G00 X1.7427 Y52.2100
G01 F15.00
G01 Z-2.6000
G01 F100.00
G01 X1.7427 Y52.2100
G01 X1.7427 Y52.2100
G01 X1.7427 Y52.2100
G01 X1.7427 Y52.2100
G00 Z2.0000
G00 X1.7427 Y54.7500
G01 F15.00
G01 Z-2.6000
G01 F100.00
G01 X1.7427 Y54.7500
G01 X1.7427 Y54.7500
G01 X1.7427 Y54.7500
G01 X1.7427 Y54.7500
G00 Z2.0000
G00 X1.7427 Y57.2900
G01 F15.00
G01 Z-2.6000
G01 F100.00
G01 X1.7427 Y57.2900
G01 X1.7427 Y57.2900
G01 X1.7427 Y57.2900
G01 X1.7427 Y57.2900
G00 Z2.0000
G00 X1.7427 Y59.8300
G01 F15.00
G01 Z-2.6000
G01 F100.00
G01 X1.7427 Y59.8300
G01 X1.7427 Y59.8300
G01 X1.7427 Y59.8300
G01 X1.7427 Y59.8300
G00 Z2.0000
G00 X1.7427 Y62.3700
G01 F15.00
G01 Z-2.6000
G01 F100.00
G01 X1.7427 Y62.3700
G01 X1.7427 Y62.3700
G01 X1.7427 Y62.3700
G01 X1.7427 Y62.3700
G00 Z2.0000
G00 X1.7427 Y64.9100
G01 F15.00
G01 Z-2.6000
G01 F100.00
G01 X1.7427 Y64.9100
G01 X1.7427 Y64.9100
G01 X1.7427 Y64.9100
G01 X1.7427 Y64.9100
G00 Z2.0000
G00 X1.7427 Y67.4500
G01 F15.00
G01 Z-2.6000
G01 F100.00
G01 X1.7427 Y67.4500
G01 X1.7427 Y67.4500
G01 X1.7427 Y67.4500
G01 X1.7427 Y67.4500
G00 Z2.0000
G00 X1.7427 Y69.9900
G01 F15.00
G01 Z-2.6000
G01 F100.00
G01 X1.7427 Y69.9900
G01 X1.7427 Y69.9900
G01 X1.7427 Y69.9900
G01 X1.7427 Y69.9900
G00 Z2.0000
G00 X1.7427 Y72.5300
G01 F15.00
G01 Z-2.6000
G01 F100.00
G01 X1.7427 Y72.5300
G01 X1.7427 Y72.5300
G01 X1.7427 Y72.5300
G01 X1.7427 Y72.5300
G00 Z2.0000
G00 X1.7427 Y75.0700
G01 F15.00
G01 Z-2.6000
G01 F100.00
G01 X1.7427 Y75.0700
G01 X1.7427 Y75.0700
G01 X1.7427 Y75.0700
G01 X1.7427 Y75.0700
G00 Z2.0000
G00 X1.7427 Y77.6100
G01 F15.00
G01 Z-2.6000
G01 F100.00
G01 X1.7427 Y77.6100
G01 X1.7427 Y77.6100
G01 X1.7427 Y77.6100
G01 X1.7427 Y77.6100
G00 Z2.0000
G00 X1.7427 Y80.1500
G01 F15.00
G01 Z-2.6000
G01 F100.00
G01 X1.7427 Y80.1500
G01 X1.7427 Y80.1500
G01 X1.7427 Y80.1500
G01 X1.7427 Y80.1500
G00 Z2.0000
G00 X1.7427 Y82.6900
G01 F15.00
G01 Z-2.6000
G01 F100.00
G01 X1.7427 Y82.6900
G01 X1.7427 Y82.6900
G01 X1.7427 Y82.6900
G01 X1.7427 Y82.6900
G00 Z2.0000
G00 X1.7427 Y85.2300
G01 F15.00
G01 Z-2.6000
G01 F100.00
G01 X1.7427 Y85.2300
G01 X1.7427 Y85.2300
G01 X1.7427 Y85.2300
G01 X1.7427 Y85.2300
G00 Z2.0000
G00 X1.7427 Y87.7700
G01 F15.00
G01 Z-2.6000
G01 F100.00
G01 X1.7427 Y87.7700
G01 X1.7427 Y87.7700
G01 X1.7427 Y87.7700
G01 X1.7427 Y87.7700
G00 Z2.0000
G00 X1.7427 Y90.3100
G01 F15.00
G01 Z-2.6000
G01 F100.00
G01 X1.7427 Y90.3100
G01 X1.7427 Y90.3100
G01 X1.7427 Y90.3100
G01 X1.7427 Y90.3100
G00 Z2.0000
G00 X1.7427 Y92.8500
G01 F15.00
G01 Z-2.6000
G01 F100.00
G01 X1.7427 Y92.8500
G01 X1.7427 Y92.8500
G01 X1.7427 Y92.8500
G01 X1.7427 Y92.8500
G00 Z2.0000
G00 X10.6327 Y91.5800
G01 F15.00
G01 Z-2.6000
G01 F100.00
G01 X10.6327 Y91.5800
G01 X10.6327 Y91.5800
G01 X10.6327 Y91.5800
G01 X10.6327 Y91.5800
G00 Z2.0000
G00 X13.1727 Y91.5800
G01 F15.00
G01 Z-2.6000
G01 F100.00
G01 X13.1727 Y91.5800
G01 X13.1727 Y91.5800
G01 X13.1727 Y91.5800
G01 X13.1727 Y91.5800
G00 Z2.0000
G00 X15.7127 Y91.5800
G01 F15.00
G01 Z-2.6000
G01 F100.00
G01 X15.7127 Y91.5800
G01 X15.7127 Y91.5800
G01 X15.7127 Y91.5800
G01 X15.7127 Y91.5800
G00 Z2.0000
G00 X13.1727 Y86.5000
G01 F15.00
G01 Z-2.6000
G01 F100.00
G01 X13.1727 Y86.5000
G01 X13.1727 Y86.5000
G01 X13.1727 Y86.5000
G01 X13.1727 Y86.5000
G00 Z2.0000
G00 X14.4027 Y82.6900
G01 F15.00
G01 Z-2.6000
G01 F100.00
G01 X14.4027 Y82.6900
G01 X14.4027 Y82.6900
G01 X14.4027 Y82.6900
G01 X14.4027 Y82.6900
G00 Z2.0000
G00 X11.9027 Y82.6900
G01 F15.00
G01 Z-2.6000
G01 F100.00
G01 X11.9027 Y82.6900
G01 X11.9027 Y82.6900
G01 X11.9027 Y82.6900
G01 X11.9027 Y82.6900
G00 Z2.0000
G00 X23.3327 Y75.0700
G01 F15.00
G01 Z-2.6000
G01 F100.00
G01 X23.3327 Y75.0700
G01 X23.3327 Y75.0700
G01 X23.3327 Y75.0700
G01 X23.3327 Y75.0700
G00 Z2.0000
G00 X25.8327 Y75.0700
G01 F15.00
G01 Z-2.6000
G01 F100.00
G01 X25.8327 Y75.0700
G01 X25.8327 Y75.0700
G01 X25.8327 Y75.0700
G01 X25.8327 Y75.0700
G00 Z2.0000
G00 X28.4127 Y75.1970
G01 F15.00
G01 Z-2.6000
G01 F100.00
G01 X28.4127 Y75.1970
G01 X28.4127 Y75.1970
G01 X28.4127 Y75.1970
G01 X28.4127 Y75.1970
G00 Z2.0000
G00 X30.9527 Y69.9900
G01 F15.00
G01 Z-2.6000
G01 F100.00
G01 X30.9527 Y69.9900
G01 X30.9527 Y69.9900
G01 X30.9527 Y69.9900
G01 X30.9527 Y69.9900
G00 Z2.0000
G00 X34.7627 Y69.9900
G01 F15.00
G01 Z-2.6000
G01 F100.00
G01 X34.7627 Y69.9900
G01 X34.7627 Y69.9900
G01 X34.7627 Y69.9900
G01 X34.7627 Y69.9900
G00 Z2.0000
G00 X42.3827 Y69.9900
G01 F15.00
G01 Z-2.6000
G01 F100.00
G01 X42.3827 Y69.9900
G01 X42.3827 Y69.9900
G01 X42.3827 Y69.9900
G01 X42.3827 Y69.9900
G00 Z2.0000
G00 X48.7327 Y67.4500
G01 F15.00
G01 Z-2.6000
G01 F100.00
G01 X48.7327 Y67.4500
G01 X48.7327 Y67.4500
G01 X48.7327 Y67.4500
G01 X48.7327 Y67.4500
G00 Z2.0000
G00 X48.7327 Y77.6100
G01 F15.00
G01 Z-2.6000
G01 F100.00
G01 X48.7327 Y77.6100
G01 X48.7327 Y77.6100
G01 X48.7327 Y77.6100
G01 X48.7327 Y77.6100
G00 Z2.0000
G00 X56.8607 Y81.0390
G01 F15.00
G01 Z-2.6000
G01 F100.00
G01 X56.8607 Y81.0390
G01 X56.8607 Y81.0390
G01 X56.8607 Y81.0390
G01 X56.8607 Y81.0390
G00 Z2.0000
G00 X58.8927 Y87.7700
G01 F15.00
G01 Z-2.6000
G01 F100.00
G01 X58.8927 Y87.7700
G01 X58.8927 Y87.7700
G01 X58.8927 Y87.7700
G01 X58.8927 Y87.7700
G00 Z2.0000
G00 X58.8927 Y91.5800
G01 F15.00
G01 Z-2.6000
G01 F100.00
G01 X58.8927 Y91.5800
G01 X58.8927 Y91.5800
G01 X58.8927 Y91.5800
G01 X58.8927 Y91.5800
G00 Z2.0000
G00 X56.3527 Y91.5800
G01 F15.00
G01 Z-2.6000
G01 F100.00
G01 X56.3527 Y91.5800
G01 X56.3527 Y91.5800
G01 X56.3527 Y91.5800
G01 X56.3527 Y91.5800
G00 Z2.0000
G00 X53.8127 Y91.5800
G01 F15.00
G01 Z-2.6000
G01 F100.00
G01 X53.8127 Y91.5800
G01 X53.8127 Y91.5800
G01 X53.8127 Y91.5800
G01 X53.8127 Y91.5800
G00 Z2.0000
G00 X49.6767 Y88.2230
G01 F15.00
G01 Z-2.6000
G01 F100.00
G01 X49.6767 Y88.2230
G01 X49.6767 Y88.2230
G01 X49.6767 Y88.2230
G01 X49.6767 Y88.2230
G00 Z2.0000
G00 X39.2377 Y81.4200
G01 F15.00
G01 Z-2.6000
G01 F100.00
G01 X39.2377 Y81.4200
G01 X39.2377 Y81.4200
G01 X39.2377 Y81.4200
G01 X39.2377 Y81.4200
G00 Z2.0000
G00 X36.7377 Y81.4200
G01 F15.00
G01 Z-2.6000
G01 F100.00
G01 X36.7377 Y81.4200
G01 X36.7377 Y81.4200
G01 X36.7377 Y81.4200
G01 X36.7377 Y81.4200
G00 Z2.0000
G00 X30.9527 Y81.4200
G01 F15.00
G01 Z-2.6000
G01 F100.00
G01 X30.9527 Y81.4200
G01 X30.9527 Y81.4200
G01 X30.9527 Y81.4200
G01 X30.9527 Y81.4200
G00 Z2.0000
G00 X28.4527 Y81.4200
G01 F15.00
G01 Z-2.6000
G01 F100.00
G01 X28.4527 Y81.4200
G01 X28.4527 Y81.4200
G01 X28.4527 Y81.4200
G01 X28.4527 Y81.4200
G00 Z2.0000
G00 X25.8727 Y86.5000
G01 F15.00
G01 Z-2.6000
G01 F100.00
G01 X25.8727 Y86.5000
G01 X25.8727 Y86.5000
G01 X25.8727 Y86.5000
G01 X25.8727 Y86.5000
G00 Z2.0000
G00 X25.8727 Y91.5800
G01 F15.00
G01 Z-2.6000
G01 F100.00
G01 X25.8727 Y91.5800
G01 X25.8727 Y91.5800
G01 X25.8727 Y91.5800
G01 X25.8727 Y91.5800
G00 Z2.0000
G00 X28.4127 Y91.5800
G01 F15.00
G01 Z-2.6000
G01 F100.00
G01 X28.4127 Y91.5800
G01 X28.4127 Y91.5800
G01 X28.4127 Y91.5800
G01 X28.4127 Y91.5800
G00 Z2.0000
G00 X30.9527 Y91.5800
G01 F15.00
G01 Z-2.6000
G01 F100.00
G01 X30.9527 Y91.5800
G01 X30.9527 Y91.5800
G01 X30.9527 Y91.5800
G01 X30.9527 Y91.5800
G00 Z2.0000
G00 X30.9527 Y59.8300
G01 F15.00
G01 Z-2.6000
G01 F100.00
G01 X30.9527 Y59.8300
G01 X30.9527 Y59.8300
G01 X30.9527 Y59.8300
G01 X30.9527 Y59.8300
G00 Z2.0000
G00 X28.4127 Y59.8300
G01 F15.00
G01 Z-2.6000
G01 F100.00
G01 X28.4127 Y59.8300
G01 X28.4127 Y59.8300
G01 X28.4127 Y59.8300
G01 X28.4127 Y59.8300
G00 Z2.0000
G00 X18.3797 Y56.6550
G01 F15.00
G01 Z-2.6000
G01 F100.00
G01 X18.3797 Y56.6550
G01 X18.3797 Y56.6550
G01 X18.3797 Y56.6550
G01 X18.3797 Y56.6550
G00 Z2.0000
G00 X18.3797 Y36.3350
G01 F15.00
G01 Z-2.6000
G01 F100.00
G01 X18.3797 Y36.3350
G01 X18.3797 Y36.3350
G01 X18.3797 Y36.3350
G01 X18.3797 Y36.3350
G00 Z2.0000
G00 X13.4417 Y27.6000
G01 F15.00
G01 Z-2.6000
G01 F100.00
G01 X13.4417 Y27.6000
G01 X13.4417 Y27.6000
G01 X13.4417 Y27.6000
G01 X13.4417 Y27.6000
G00 Z2.0000
G00 X10.9417 Y27.6000
G01 F15.00
G01 Z-2.6000
G01 F100.00
G01 X10.9417 Y27.6000
G01 X10.9417 Y27.6000
G01 X10.9417 Y27.6000
G01 X10.9417 Y27.6000
G00 Z2.0000
G00 X10.6327 Y16.0150
G01 F15.00
G01 Z-2.6000
G01 F100.00
G01 X10.6327 Y16.0150
G01 X10.6327 Y16.0150
G01 X10.6327 Y16.0150
G01 X10.6327 Y16.0150
G00 Z2.0000
G00 X8.1327 Y16.0150
G01 F15.00
G01 Z-2.6000
G01 F100.00
G01 X8.1327 Y16.0150
G01 X8.1327 Y16.0150
G01 X8.1327 Y16.0150
G01 X8.1327 Y16.0150
G00 Z2.0000
G00 X13.7457 Y12.9670
G01 F15.00
G01 Z-2.6000
G01 F100.00
G01 X13.7457 Y12.9670
G01 X13.7457 Y12.9670
G01 X13.7457 Y12.9670
G01 X13.7457 Y12.9670
G00 Z2.0000
G00 X13.4817 Y6.1450
G01 F15.00
G01 Z-2.6000
G01 F100.00
G01 X13.4817 Y6.1450
G01 X13.4817 Y6.1450
G01 X13.4817 Y6.1450
G01 X13.4817 Y6.1450
G00 Z2.0000
G00 X10.9417 Y6.1450
G01 F15.00
G01 Z-2.6000
G01 F100.00
G01 X10.9417 Y6.1450
G01 X10.9417 Y6.1450
G01 X10.9417 Y6.1450
G01 X10.9417 Y6.1450
G00 Z2.0000
G00 X8.4017 Y6.1450
G01 F15.00
G01 Z-2.6000
G01 F100.00
G01 X8.4017 Y6.1450
G01 X8.4017 Y6.1450
G01 X8.4017 Y6.1450
G01 X8.4017 Y6.1450
G00 Z2.0000
G00 X27.9827 Y10.2000
G01 F15.00
G01 Z-2.6000
G01 F100.00
G01 X27.9827 Y10.2000
G01 X27.9827 Y10.2000
G01 X27.9827 Y10.2000
G01 X27.9827 Y10.2000
G00 Z2.0000
G00 X31.3827 Y10.2000
G01 F15.00
G01 Z-2.6000
G01 F100.00
G01 X31.3827 Y10.2000
G01 X31.3827 Y10.2000
G01 X31.3827 Y10.2000
G01 X31.3827 Y10.2000
G00 Z2.0000
G00 X34.7827 Y10.2000
G01 F15.00
G01 Z-2.6000
G01 F100.00
G01 X34.7827 Y10.2000
G01 X34.7827 Y10.2000
G01 X34.7827 Y10.2000
G01 X34.7827 Y10.2000
G00 Z2.0000
G00 X35.7787 Y12.9670
G01 F15.00
G01 Z-2.6000
G01 F100.00
G01 X35.7787 Y12.9670
G01 X35.7787 Y12.9670
G01 X35.7787 Y12.9670
G01 X35.7787 Y12.9670
G00 Z2.0000
G00 X33.0827 Y6.5000
G01 F15.00
G01 Z-2.6000
G01 F100.00
G01 X33.0827 Y6.5000
G01 X33.0827 Y6.5000
G01 X33.0827 Y6.5000
G01 X33.0827 Y6.5000
G00 Z2.0000
G00 X29.6827 Y6.5000
G01 F15.00
G01 Z-2.6000
G01 F100.00
G01 X29.6827 Y6.5000
G01 X29.6827 Y6.5000
G01 X29.6827 Y6.5000
G01 X29.6827 Y6.5000
G00 Z2.0000
G00 X25.2727 Y23.0000
G01 F15.00
G01 Z-2.6000
G01 F100.00
G01 X25.2727 Y23.0000
G01 X25.2727 Y23.0000
G01 X25.2727 Y23.0000
G01 X25.2727 Y23.0000
G00 Z2.0000
G00 X32.8327 Y37.4000
G01 F15.00
G01 Z-2.6000
G01 F100.00
G01 X32.8327 Y37.4000
G01 X32.8327 Y37.4000
G01 X32.8327 Y37.4000
G01 X32.8327 Y37.4000
G00 Z2.0000
G00 X35.3327 Y37.4000
G01 F15.00
G01 Z-2.6000
G01 F100.00
G01 X35.3327 Y37.4000
G01 X35.3327 Y37.4000
G01 X35.3327 Y37.4000
G01 X35.3327 Y37.4000
G00 Z2.0000
G00 X40.3507 Y38.8750
G01 F15.00
G01 Z-2.6000
G01 F100.00
G01 X40.3507 Y38.8750
G01 X40.3507 Y38.8750
G01 X40.3507 Y38.8750
G01 X40.3507 Y38.8750
G00 Z2.0000
G00 X45.9387 Y38.6210
G01 F15.00
G01 Z-2.6000
G01 F100.00
G01 X45.9387 Y38.6210
G01 X45.9387 Y38.6210
G01 X45.9387 Y38.6210
G01 X45.9387 Y38.6210
G00 Z2.0000
G00 X49.1327 Y29.4000
G01 F15.00
G01 Z-2.6000
G01 F100.00
G01 X49.1327 Y29.4000
G01 X49.1327 Y29.4000
G01 X49.1327 Y29.4000
G01 X49.1327 Y29.4000
G00 Z2.0000
G00 X51.6327 Y29.4000
G01 F15.00
G01 Z-2.6000
G01 F100.00
G01 X51.6327 Y29.4000
G01 X51.6327 Y29.4000
G01 X51.6327 Y29.4000
G01 X51.6327 Y29.4000
G00 Z2.0000
G00 X45.5927 Y23.0000
G01 F15.00
G01 Z-2.6000
G01 F100.00
G01 X45.5927 Y23.0000
G01 X45.5927 Y23.0000
G01 X45.5927 Y23.0000
G01 X45.5927 Y23.0000
G00 Z2.0000
G00 X59.9087 Y25.5400
G01 F15.00
G01 Z-2.6000
G01 F100.00
G01 X59.9087 Y25.5400
G01 X59.9087 Y25.5400
G01 X59.9087 Y25.5400
G01 X59.9087 Y25.5400
G00 Z2.0000
G00 X67.7827 Y21.3490
G01 F15.00
G01 Z-2.6000
G01 F100.00
G01 X67.7827 Y21.3490
G01 X67.7827 Y21.3490
G01 X67.7827 Y21.3490
G01 X67.7827 Y21.3490
G00 Z2.0000
G00 X74.2327 Y17.2400
G01 F15.00
G01 Z-2.6000
G01 F100.00
G01 X74.2327 Y17.2400
G01 X74.2327 Y17.2400
G01 X74.2327 Y17.2400
G01 X74.2327 Y17.2400
G00 Z2.0000
G00 X81.7527 Y17.9200
G01 F15.00
G01 Z-2.6000
G01 F100.00
G01 X81.7527 Y17.9200
G01 X81.7527 Y17.9200
G01 X81.7527 Y17.9200
G01 X81.7527 Y17.9200
G00 Z2.0000
G00 X81.7527 Y15.3800
G01 F15.00
G01 Z-2.6000
G01 F100.00
G01 X81.7527 Y15.3800
G01 X81.7527 Y15.3800
G01 X81.7527 Y15.3800
G01 X81.7527 Y15.3800
G00 Z2.0000
G00 X81.7527 Y12.8400
G01 F15.00
G01 Z-2.6000
G01 F100.00
G01 X81.7527 Y12.8400
G01 X81.7527 Y12.8400
G01 X81.7527 Y12.8400
G01 X81.7527 Y12.8400
G00 Z2.0000
G00 X81.7527 Y10.3000
G01 F15.00
G01 Z-2.6000
G01 F100.00
G01 X81.7527 Y10.3000
G01 X81.7527 Y10.3000
G01 X81.7527 Y10.3000
G01 X81.7527 Y10.3000
G00 Z2.0000
G00 X81.7527 Y7.7600
G01 F15.00
G01 Z-2.6000
G01 F100.00
G01 X81.7527 Y7.7600
G01 X81.7527 Y7.7600
G01 X81.7527 Y7.7600
G01 X81.7527 Y7.7600
G00 Z2.0000
G00 X81.7527 Y5.2200
G01 F15.00
G01 Z-2.6000
G01 F100.00
G01 X81.7527 Y5.2200
G01 X81.7527 Y5.2200
G01 X81.7527 Y5.2200
G01 X81.7527 Y5.2200
G00 Z2.0000
G00 X81.7527 Y2.6800
G01 F15.00
G01 Z-2.6000
G01 F100.00
G01 X81.7527 Y2.6800
G01 X81.7527 Y2.6800
G01 X81.7527 Y2.6800
G01 X81.7527 Y2.6800
G00 Z2.0000
G00 X67.7827 Y12.8400
G01 F15.00
G01 Z-2.6000
G01 F100.00
G01 X67.7827 Y12.8400
G01 X67.7827 Y12.8400
G01 X67.7827 Y12.8400
G01 X67.7827 Y12.8400
G00 Z2.0000
G00 X64.8327 Y14.2000
G01 F15.00
G01 Z-2.6000
G01 F100.00
G01 X64.8327 Y14.2000
G01 X64.8327 Y14.2000
G01 X64.8327 Y14.2000
G01 X64.8327 Y14.2000
G00 Z2.0000
G00 X62.3327 Y14.2000
G01 F15.00
G01 Z-2.6000
G01 F100.00
G01 X62.3327 Y14.2000
G01 X62.3327 Y14.2000
G01 X62.3327 Y14.2000
G01 X62.3327 Y14.2000
G00 Z2.0000
G00 X59.6547 Y15.5070
G01 F15.00
G01 Z-2.6000
G01 F100.00
G01 X59.6547 Y15.5070
G01 X59.6547 Y15.5070
G01 X59.6547 Y15.5070
G01 X59.6547 Y15.5070
G00 Z2.0000
G00 X54.9327 Y7.0000
G01 F15.00
G01 Z-2.6000
G01 F100.00
G01 X54.9327 Y7.0000
G01 X54.9327 Y7.0000
G01 X54.9327 Y7.0000
G01 X54.9327 Y7.0000
G00 Z2.0000
G00 X47.9327 Y7.0000
G01 F15.00
G01 Z-2.6000
G01 F100.00
G01 X47.9327 Y7.0000
G01 X47.9327 Y7.0000
G01 X47.9327 Y7.0000
G01 X47.9327 Y7.0000
G00 Z2.0000
G00 X61.4327 Y3.4000
G01 F15.00
G01 Z-2.6000
G01 F100.00
G01 X61.4327 Y3.4000
G01 X61.4327 Y3.4000
G01 X61.4327 Y3.4000
G01 X61.4327 Y3.4000
G00 Z2.0000
G00 X63.9727 Y3.4000
G01 F15.00
G01 Z-2.6000
G01 F100.00
G01 X63.9727 Y3.4000
G01 X63.9727 Y3.4000
G01 X63.9727 Y3.4000
G01 X63.9727 Y3.4000
G00 Z2.0000
G00 X81.7527 Y20.4600
G01 F15.00
G01 Z-2.6000
G01 F100.00
G01 X81.7527 Y20.4600
G01 X81.7527 Y20.4600
G01 X81.7527 Y20.4600
G01 X81.7527 Y20.4600
G00 Z2.0000
G00 X81.7527 Y23.0000
G01 F15.00
G01 Z-2.6000
G01 F100.00
G01 X81.7527 Y23.0000
G01 X81.7527 Y23.0000
G01 X81.7527 Y23.0000
G01 X81.7527 Y23.0000
G00 Z2.0000
G00 X81.7527 Y25.5400
G01 F15.00
G01 Z-2.6000
G01 F100.00
G01 X81.7527 Y25.5400
G01 X81.7527 Y25.5400
G01 X81.7527 Y25.5400
G01 X81.7527 Y25.5400
G00 Z2.0000
G00 X81.7527 Y28.0800
G01 F15.00
G01 Z-2.6000
G01 F100.00
G01 X81.7527 Y28.0800
G01 X81.7527 Y28.0800
G01 X81.7527 Y28.0800
G01 X81.7527 Y28.0800
G00 Z2.0000
G00 X81.7527 Y30.6200
G01 F15.00
G01 Z-2.6000
G01 F100.00
G01 X81.7527 Y30.6200
G01 X81.7527 Y30.6200
G01 X81.7527 Y30.6200
G01 X81.7527 Y30.6200
G00 Z2.0000
G00 X81.7527 Y33.1600
G01 F15.00
G01 Z-2.6000
G01 F100.00
G01 X81.7527 Y33.1600
G01 X81.7527 Y33.1600
G01 X81.7527 Y33.1600
G01 X81.7527 Y33.1600
G00 Z2.0000
G00 X81.7527 Y35.7000
G01 F15.00
G01 Z-2.6000
G01 F100.00
G01 X81.7527 Y35.7000
G01 X81.7527 Y35.7000
G01 X81.7527 Y35.7000
G01 X81.7527 Y35.7000
G00 Z2.0000
G00 X81.7527 Y38.2400
G01 F15.00
G01 Z-2.6000
G01 F100.00
G01 X81.7527 Y38.2400
G01 X81.7527 Y38.2400
G01 X81.7527 Y38.2400
G01 X81.7527 Y38.2400
G00 Z2.0000
G00 X81.7527 Y40.7800
G01 F15.00
G01 Z-2.6000
G01 F100.00
G01 X81.7527 Y40.7800
G01 X81.7527 Y40.7800
G01 X81.7527 Y40.7800
G01 X81.7527 Y40.7800
G00 Z2.0000
G00 X81.7527 Y43.3200
G01 F15.00
G01 Z-2.6000
G01 F100.00
G01 X81.7527 Y43.3200
G01 X81.7527 Y43.3200
G01 X81.7527 Y43.3200
G01 X81.7527 Y43.3200
G00 Z2.0000
G00 X81.7527 Y45.8600
G01 F15.00
G01 Z-2.6000
G01 F100.00
G01 X81.7527 Y45.8600
G01 X81.7527 Y45.8600
G01 X81.7527 Y45.8600
G01 X81.7527 Y45.8600
G00 Z2.0000
G00 X81.7527 Y48.4000
G01 F15.00
G01 Z-2.6000
G01 F100.00
G01 X81.7527 Y48.4000
G01 X81.7527 Y48.4000
G01 X81.7527 Y48.4000
G01 X81.7527 Y48.4000
G00 Z2.0000
G00 X81.7527 Y50.9400
G01 F15.00
G01 Z-2.6000
G01 F100.00
G01 X81.7527 Y50.9400
G01 X81.7527 Y50.9400
G01 X81.7527 Y50.9400
G01 X81.7527 Y50.9400
G00 Z2.0000
G00 X81.7527 Y53.4800
G01 F15.00
G01 Z-2.6000
G01 F100.00
G01 X81.7527 Y53.4800
G01 X81.7527 Y53.4800
G01 X81.7527 Y53.4800
G01 X81.7527 Y53.4800
G00 Z2.0000
G00 X81.7527 Y56.0200
G01 F15.00
G01 Z-2.6000
G01 F100.00
G01 X81.7527 Y56.0200
G01 X81.7527 Y56.0200
G01 X81.7527 Y56.0200
G01 X81.7527 Y56.0200
G00 Z2.0000
G00 X81.7527 Y58.5600
G01 F15.00
G01 Z-2.6000
G01 F100.00
G01 X81.7527 Y58.5600
G01 X81.7527 Y58.5600
G01 X81.7527 Y58.5600
G01 X81.7527 Y58.5600
G00 Z2.0000
G00 X81.7527 Y61.1000
G01 F15.00
G01 Z-2.6000
G01 F100.00
G01 X81.7527 Y61.1000
G01 X81.7527 Y61.1000
G01 X81.7527 Y61.1000
G01 X81.7527 Y61.1000
G00 Z2.0000
G00 X81.7527 Y63.6400
G01 F15.00
G01 Z-2.6000
G01 F100.00
G01 X81.7527 Y63.6400
G01 X81.7527 Y63.6400
G01 X81.7527 Y63.6400
G01 X81.7527 Y63.6400
G00 Z2.0000
G00 X81.7527 Y66.1800
G01 F15.00
G01 Z-2.6000
G01 F100.00
G01 X81.7527 Y66.1800
G01 X81.7527 Y66.1800
G01 X81.7527 Y66.1800
G01 X81.7527 Y66.1800
G00 Z2.0000
G00 X81.7527 Y68.7200
G01 F15.00
G01 Z-2.6000
G01 F100.00
G01 X81.7527 Y68.7200
G01 X81.7527 Y68.7200
G01 X81.7527 Y68.7200
G01 X81.7527 Y68.7200
G00 Z2.0000
G00 X77.4347 Y66.6880
G01 F15.00
G01 Z-2.6000
G01 F100.00
G01 X77.4347 Y66.6880
G01 X77.4347 Y66.6880
G01 X77.4347 Y66.6880
G01 X77.4347 Y66.6880
G00 Z2.0000
G00 X81.7527 Y75.0700
G01 F15.00
G01 Z-2.6000
G01 F100.00
G01 X81.7527 Y75.0700
G01 X81.7527 Y75.0700
G01 X81.7527 Y75.0700
G01 X81.7527 Y75.0700
G00 Z2.0000
G00 X81.7527 Y77.6100
G01 F15.00
G01 Z-2.6000
G01 F100.00
G01 X81.7527 Y77.6100
G01 X81.7527 Y77.6100
G01 X81.7527 Y77.6100
G01 X81.7527 Y77.6100
G00 Z2.0000
G00 X81.7527 Y80.1500
G01 F15.00
G01 Z-2.6000
G01 F100.00
G01 X81.7527 Y80.1500
G01 X81.7527 Y80.1500
G01 X81.7527 Y80.1500
G01 X81.7527 Y80.1500
G00 Z2.0000
G00 X81.7527 Y82.6900
G01 F15.00
G01 Z-2.6000
G01 F100.00
G01 X81.7527 Y82.6900
G01 X81.7527 Y82.6900
G01 X81.7527 Y82.6900
G01 X81.7527 Y82.6900
G00 Z2.0000
G00 X81.7527 Y85.2300
G01 F15.00
G01 Z-2.6000
G01 F100.00
G01 X81.7527 Y85.2300
G01 X81.7527 Y85.2300
G01 X81.7527 Y85.2300
G01 X81.7527 Y85.2300
G00 Z2.0000
G00 X81.7527 Y87.7700
G01 F15.00
G01 Z-2.6000
G01 F100.00
G01 X81.7527 Y87.7700
G01 X81.7527 Y87.7700
G01 X81.7527 Y87.7700
G01 X81.7527 Y87.7700
G00 Z2.0000
G00 X81.7527 Y90.3100
G01 F15.00
G01 Z-2.6000
G01 F100.00
G01 X81.7527 Y90.3100
G01 X81.7527 Y90.3100
G01 X81.7527 Y90.3100
G01 X81.7527 Y90.3100
G00 Z2.0000
G00 X81.7527 Y92.8500
G01 F15.00
G01 Z-2.6000
G01 F100.00
G01 X81.7527 Y92.8500
G01 X81.7527 Y92.8500
G01 X81.7527 Y92.8500
G01 X81.7527 Y92.8500
G00 Z2.0000
G00 X77.4347 Y87.7700
G01 F15.00
G01 Z-2.6000
G01 F100.00
G01 X77.4347 Y87.7700
G01 X77.4347 Y87.7700
G01 X77.4347 Y87.7700
G01 X77.4347 Y87.7700
G00 Z2.0000
G00 X74.1327 Y91.5800
G01 F15.00
G01 Z-2.6000
G01 F100.00
G01 X74.1327 Y91.5800
G01 X74.1327 Y91.5800
G01 X74.1327 Y91.5800
G01 X74.1327 Y91.5800
G00 Z2.0000
G00 X71.5927 Y91.5800
G01 F15.00
G01 Z-2.6000
G01 F100.00
G01 X71.5927 Y91.5800
G01 X71.5927 Y91.5800
G01 X71.5927 Y91.5800
G01 X71.5927 Y91.5800
G00 Z2.0000
G00 X69.0527 Y91.5800
G01 F15.00
G01 Z-2.6000
G01 F100.00
G01 X69.0527 Y91.5800
G01 X69.0527 Y91.5800
G01 X69.0527 Y91.5800
G01 X69.0527 Y91.5800
G00 Z2.0000
G00 X71.5927 Y83.9600
G01 F15.00
G01 Z-2.6000
G01 F100.00
G01 X71.5927 Y83.9600
G01 X71.5927 Y83.9600
G01 X71.5927 Y83.9600
G01 X71.5927 Y83.9600
G00 Z2.0000
G00 X74.0927 Y83.9600
G01 F15.00
G01 Z-2.6000
G01 F100.00
G01 X74.0927 Y83.9600
G01 X74.0927 Y83.9600
G01 X74.0927 Y83.9600
G01 X74.0927 Y83.9600
G00 Z2.0000
G00 X66.4727 Y83.9600
G01 F15.00
G01 Z-2.6000
G01 F100.00
G01 X66.4727 Y83.9600
G01 X66.4727 Y83.9600
G01 X66.4727 Y83.9600
G01 X66.4727 Y83.9600
G00 Z2.0000
G00 X63.9727 Y83.9600
G01 F15.00
G01 Z-2.6000
G01 F100.00
G01 X63.9727 Y83.9600
G01 X63.9727 Y83.9600
G01 X63.9727 Y83.9600
G01 X63.9727 Y83.9600
G00 Z2.0000
G00 X67.7827 Y74.8160
G01 F15.00
G01 Z-2.6000
G01 F100.00
G01 X67.7827 Y74.8160
G01 X67.7827 Y74.8160
G01 X67.7827 Y74.8160
G01 X67.7827 Y74.8160
G00 Z2.0000
G00 X58.8927 Y72.0220
G01 F15.00
G01 Z-2.6000
G01 F100.00
G01 X58.8927 Y72.0220
G01 X58.8927 Y72.0220
G01 X58.8927 Y72.0220
G01 X58.8927 Y72.0220
G00 Z2.0000
G00 X58.8927 Y61.7350
G01 F15.00
G01 Z-2.6000
G01 F100.00
G01 X58.8927 Y61.7350
G01 X58.8927 Y61.7350
G01 X58.8927 Y61.7350
G01 X58.8927 Y61.7350
G00 Z2.0000
G00 X67.7827 Y64.6560
G01 F15.00
G01 Z-2.6000
G01 F100.00
G01 X67.7827 Y64.6560
G01 X67.7827 Y64.6560
G01 X67.7827 Y64.6560
G01 X67.7827 Y64.6560
G00 Z2.0000
G00 X72.4327 Y51.4000
G01 F15.00
G01 Z-2.6000
G01 F100.00
G01 X72.4327 Y51.4000
G01 X72.4327 Y51.4000
G01 X72.4327 Y51.4000
G01 X72.4327 Y51.4000
G00 Z2.0000
G00 X74.2327 Y37.5600
G01 F15.00
G01 Z-2.6000
G01 F100.00
G01 X74.2327 Y37.5600
G01 X74.2327 Y37.5600
G01 X74.2327 Y37.5600
G01 X74.2327 Y37.5600
G00 Z2.0000
G00 X66.2587 Y38.6210
G01 F15.00
G01 Z-2.6000
G01 F100.00
G01 X66.2587 Y38.6210
G01 X66.2587 Y38.6210
G01 X66.2587 Y38.6210
G01 X66.2587 Y38.6210
G00 Z2.0000
G00 X52.1127 Y51.4000
G01 F15.00
G01 Z-2.6000
G01 F100.00
G01 X52.1127 Y51.4000
G01 X52.1127 Y51.4000
G01 X52.1127 Y51.4000
G01 X52.1127 Y51.4000
G00 Z2.0000
G00 X40.3507 Y59.1950
G01 F15.00
G01 Z-2.6000
G01 F100.00
G01 X40.3507 Y59.1950
G01 X40.3507 Y59.1950
G01 X40.3507 Y59.1950
G01 X40.3507 Y59.1950
G00 Z2.0000
M05
G00 Z2.0000
G00 Z15.00


