(G-CODE GENERATED BY FLATCAM v8.994 - www.flatcam.org - Version Date: 2020/11/7)

(Name: condicionamento_BIA_v02-B_Cu.gbr_iso_combined_cnc)
(Type: G-code from Geometry)
(Units: MM)

(Created on quarta, 02 agosto 2023 at 18:53)

(This preprocessor is the default preprocessor used by FlatCAM.)
(It is made to work with MACH3 compatible motion controllers.)

(TOOL DIAMETER: 0.25 mm)
(Feedrate_XY: 60.0 mm/min)
(Feedrate_Z: 30.0 mm/min)
(Feedrate rapids 1500.0 mm/min)

(Z_Cut: -0.14178 mm)
(Z_Move: 1.0 mm)
(Z Start: None mm)
(Z End: 15.0 mm)
(X,Y End: None mm)
(Steps per circle: 64)
(Preprocessor Geometry: default)

(X range:   10.1897 ...   56.2003  mm)
(Y range:    0.2750 ...   96.7856  mm)

(Spindle Speed: 1000.0 RPM)
G21
G90
G94

G01 F60.00

M5
G00 Z1.0000
G00 X0.0000 Y0.0000
(T1)
(M6  )  
(MSG, Change to Tool Dia = 0.25000)
(M0)
G00 Z1.0000

M03 S1000.0
G01 F60.00
G00 X17.0424 Y4.7581
G01 F30.00
G01 Z-0.1418
G01 F60.00
G01 X13.1158 Y8.6848
G01 X13.1158 Y17.8008
G01 X13.1122 Y17.8753
G01 X13.1012 Y17.9491
G01 X13.0847 Y18.0156
G01 X13.0812 Y18.0274
G01 X13.0601 Y18.0861
G01 X13.0555 Y18.0974
G01 X13.0260 Y18.1592
G01 X12.9910 Y18.2180
G01 X12.9841 Y18.2282
G01 X12.9432 Y18.2832
G01 X12.8931 Y18.3384
G01 X12.8378 Y18.3886
G01 X12.7829 Y18.4295
G01 X12.7727 Y18.4363
G01 X12.7139 Y18.4714
G01 X12.6521 Y18.5008
G01 X12.6407 Y18.5055
G01 X12.5820 Y18.5265
G01 X12.5703 Y18.5300
G01 X12.5038 Y18.5465
G01 X12.4300 Y18.5575
G01 X12.3555 Y18.5611
G01 X12.2871 Y18.5579
G01 X12.2749 Y18.5567
G01 X12.2072 Y18.5465
G01 X12.1407 Y18.5300
G01 X12.1290 Y18.5265
G01 X12.0703 Y18.5055
G01 X12.0589 Y18.5008
G01 X12.0026 Y18.4741
G01 X11.9918 Y18.4683
G01 X11.9331 Y18.4330
G01 X11.8732 Y18.3886
G01 X11.8223 Y18.3427
G01 X11.8136 Y18.3340
G01 X11.7678 Y18.2832
G01 X11.7233 Y18.2232
G01 X11.6850 Y18.1592
G01 X11.6555 Y18.0974
G01 X11.6509 Y18.0861
G01 X11.6279 Y18.0215
G01 X11.6111 Y17.9551
G01 X11.6087 Y17.9431
G01 X11.5988 Y17.8753
G01 X11.5953 Y17.8070
G01 X11.5952 Y8.3698
G01 X11.5988 Y8.2953
G01 X11.6098 Y8.2215
G01 X11.6279 Y8.1491
G01 X11.6509 Y8.0846
G01 X11.6555 Y8.0732
G01 X11.6850 Y8.0114
G01 X11.7233 Y7.9474
G01 X11.7678 Y7.8875
G01 X11.8179 Y7.8322
G01 X16.1650 Y3.4851
G01 X16.1650 Y3.4322
G01 X16.1692 Y3.3477
G01 X16.1702 Y3.3386
G01 X16.1822 Y3.2579
G01 X16.1841 Y3.2489
G01 X16.2048 Y3.1668
G01 X16.2343 Y3.0842
G01 X16.2379 Y3.0757
G01 X16.2742 Y2.9993
G01 X16.3209 Y2.9214
G01 X16.3750 Y2.8485
G01 X16.4359 Y2.7812
G01 X16.5032 Y2.7203
G01 X16.5761 Y2.6662
G01 X16.6540 Y2.6195
G01 X16.7360 Y2.5807
G01 X16.8215 Y2.5501
G01 X16.9095 Y2.5281
G01 X16.9993 Y2.5148
G01 X17.0839 Y2.5105
G01 X17.0931 Y2.5104
G01 X17.1745 Y2.5143
G01 X17.1868 Y2.5155
G01 X17.2705 Y2.5281
G01 X17.3526 Y2.5485
G01 X17.3643 Y2.5521
G01 X17.4440 Y2.5807
G01 X17.5260 Y2.6195
G01 X17.6039 Y2.6662
G01 X17.6720 Y2.7165
G01 X17.6815 Y2.7243
G01 X17.7441 Y2.7812
G01 X17.8010 Y2.8439
G01 X17.8088 Y2.8533
G01 X17.8574 Y2.9189
G01 X17.8624 Y2.9266
G01 X17.9058 Y2.9993
G01 X17.9446 Y3.0813
G01 X17.9752 Y3.1668
G01 X17.9959 Y3.2489
G01 X17.9978 Y3.2579
G01 X18.0105 Y3.3447
G01 X18.0150 Y3.4322
G01 X18.0150 Y3.8384
G01 X18.0105 Y3.9260
G01 X17.9972 Y4.0158
G01 X17.9752 Y4.1038
G01 X17.9446 Y4.1893
G01 X17.9058 Y4.2714
G01 X17.8591 Y4.3492
G01 X17.8050 Y4.4221
G01 X17.7483 Y4.4849
G01 X17.7419 Y4.4915
G01 X17.6768 Y4.5504
G01 X17.6039 Y4.6044
G01 X17.5260 Y4.6511
G01 X17.4496 Y4.6874
G01 X17.4411 Y4.6910
G01 X17.3585 Y4.7205
G01 X17.2764 Y4.7412
G01 X17.2674 Y4.7431
G01 X17.1868 Y4.7551
G01 X17.1776 Y4.7561
G01 X17.0931 Y4.7603
G01 X17.0839 Y4.7602
G01 X17.0424 Y4.7581
G00 Z1.0000
G00 X17.0523 Y4.7836
G01 F30.00
G01 Z-0.1418
G01 F60.00
G01 X13.1408 Y8.6951
G01 X13.1408 Y17.8008
G01 X13.1370 Y17.8778
G01 X13.1257 Y17.9540
G01 X13.1090 Y18.0217
G01 X13.1047 Y18.0358
G01 X13.0837 Y18.0945
G01 X13.0781 Y18.1081
G01 X13.0481 Y18.1710
G01 X13.0124 Y18.2309
G01 X13.0042 Y18.2431
G01 X12.9626 Y18.2990
G01 X12.9108 Y18.3561
G01 X12.8537 Y18.4079
G01 X12.7978 Y18.4495
G01 X12.7856 Y18.4577
G01 X12.7257 Y18.4934
G01 X12.6628 Y18.5234
G01 X12.6492 Y18.5290
G01 X12.5905 Y18.5500
G01 X12.5764 Y18.5543
G01 X12.5087 Y18.5710
G01 X12.4325 Y18.5824
G01 X12.3555 Y18.5861
G01 X12.2859 Y18.5829
G01 X12.2712 Y18.5815
G01 X12.2023 Y18.5710
G01 X12.1346 Y18.5543
G01 X12.1205 Y18.5500
G01 X12.0618 Y18.5290
G01 X12.0482 Y18.5234
G01 X11.9919 Y18.4967
G01 X11.9789 Y18.4898
G01 X11.9192 Y18.4538
G01 X11.8573 Y18.4079
G01 X11.8055 Y18.3612
G01 X11.7951 Y18.3508
G01 X11.7484 Y18.2990
G01 X11.7025 Y18.2371
G01 X11.6629 Y18.1710
G01 X11.6329 Y18.1081
G01 X11.6273 Y18.0945
G01 X11.6040 Y18.0288
G01 X11.5869 Y17.9612
G01 X11.5840 Y17.9468
G01 X11.5740 Y17.8778
G01 X11.5704 Y17.8082
G01 X11.5702 Y8.3698
G01 X11.5740 Y8.2928
G01 X11.5853 Y8.2166
G01 X11.6040 Y8.1419
G01 X11.6273 Y8.0762
G01 X11.6329 Y8.0626
G01 X11.6629 Y7.9996
G01 X11.7025 Y7.9335
G01 X11.7484 Y7.8716
G01 X11.8002 Y7.8145
G01 X16.1400 Y3.4747
G01 X16.1400 Y3.4316
G01 X16.1443 Y3.3459
G01 X16.1455 Y3.3349
G01 X16.1576 Y3.2536
G01 X16.1599 Y3.2428
G01 X16.1809 Y3.1595
G01 X16.2109 Y3.0752
G01 X16.2153 Y3.0650
G01 X16.2522 Y2.9875
G01 X16.3001 Y2.9075
G01 X16.3556 Y2.8326
G01 X16.4182 Y2.7636
G01 X16.4873 Y2.7010
G01 X16.5622 Y2.6454
G01 X16.6422 Y2.5975
G01 X16.7265 Y2.5576
G01 X16.8142 Y2.5262
G01 X16.9047 Y2.5036
G01 X16.9969 Y2.4899
G01 X17.0826 Y2.4855
G01 X17.0937 Y2.4854
G01 X17.1758 Y2.4894
G01 X17.1904 Y2.4908
G01 X17.2753 Y2.5036
G01 X17.3587 Y2.5243
G01 X17.3728 Y2.5285
G01 X17.4535 Y2.5576
G01 X17.5378 Y2.5975
G01 X17.6178 Y2.6454
G01 X17.6869 Y2.6964
G01 X17.6982 Y2.7058
G01 X17.7618 Y2.7636
G01 X17.8196 Y2.8271
G01 X17.8289 Y2.8384
G01 X17.8778 Y2.9045
G01 X17.8838 Y2.9137
G01 X17.9278 Y2.9875
G01 X17.9677 Y3.0718
G01 X17.9991 Y3.1595
G01 X18.0201 Y3.2428
G01 X18.0224 Y3.2536
G01 X18.0354 Y3.3422
G01 X18.0400 Y3.4316
G01 X18.0400 Y3.8390
G01 X18.0354 Y3.9284
G01 X18.0217 Y4.0207
G01 X17.9991 Y4.1111
G01 X17.9677 Y4.1989
G01 X17.9278 Y4.2831
G01 X17.8799 Y4.3631
G01 X17.8244 Y4.4380
G01 X17.7668 Y4.5017
G01 X17.7591 Y4.5096
G01 X17.6927 Y4.5697
G01 X17.6178 Y4.6252
G01 X17.5378 Y4.6731
G01 X17.4603 Y4.7100
G01 X17.4501 Y4.7144
G01 X17.3658 Y4.7444
G01 X17.2825 Y4.7655
G01 X17.2717 Y4.7677
G01 X17.1904 Y4.7798
G01 X17.1794 Y4.7811
G01 X17.0937 Y4.7853
G01 X17.0826 Y4.7851
G01 X17.0523 Y4.7836
G00 Z1.0000
G00 X17.0621 Y4.8092
G01 F30.00
G01 Z-0.1418
G01 F60.00
G01 X13.1658 Y8.7055
G01 X13.1658 Y17.8008
G01 X13.1625 Y17.8717
G01 X13.1614 Y17.8845
G01 X13.1502 Y17.9589
G01 X13.1332 Y18.0278
G01 X13.1282 Y18.0442
G01 X13.1072 Y18.1029
G01 X13.1007 Y18.1188
G01 X13.0701 Y18.1828
G01 X13.0338 Y18.2437
G01 X13.0243 Y18.2580
G01 X12.9819 Y18.3149
G01 X12.9285 Y18.3738
G01 X12.8696 Y18.4272
G01 X12.8127 Y18.4696
G01 X12.7984 Y18.4792
G01 X12.7375 Y18.5155
G01 X12.6734 Y18.5460
G01 X12.6576 Y18.5525
G01 X12.5989 Y18.5735
G01 X12.5824 Y18.5785
G01 X12.5136 Y18.5956
G01 X12.4349 Y18.6072
G01 X12.3555 Y18.6111
G01 X12.2846 Y18.6079
G01 X12.2676 Y18.6062
G01 X12.1974 Y18.5956
G01 X12.1286 Y18.5785
G01 X12.1121 Y18.5735
G01 X12.0534 Y18.5525
G01 X12.0376 Y18.5460
G01 X11.9812 Y18.5193
G01 X11.9660 Y18.5112
G01 X11.9053 Y18.4746
G01 X11.8414 Y18.4272
G01 X11.7887 Y18.3797
G01 X11.7766 Y18.3676
G01 X11.7291 Y18.3149
G01 X11.6817 Y18.2510
G01 X11.6409 Y18.1828
G01 X11.6103 Y18.1188
G01 X11.6038 Y18.1029
G01 X11.5801 Y18.0360
G01 X11.5626 Y17.9673
G01 X11.5593 Y17.9504
G01 X11.5491 Y17.8802
G01 X11.5454 Y17.8094
G01 X11.5452 Y8.3698
G01 X11.5491 Y8.2904
G01 X11.5608 Y8.2117
G01 X11.5801 Y8.1346
G01 X11.6038 Y8.0677
G01 X11.6103 Y8.0519
G01 X11.6409 Y7.9878
G01 X11.6817 Y7.9196
G01 X11.7291 Y7.8558
G01 X11.7825 Y7.7968
G01 X16.1150 Y3.4644
G01 X16.1151 Y3.4310
G01 X16.1193 Y3.3440
G01 X16.1207 Y3.3312
G01 X16.1329 Y3.2493
G01 X16.1356 Y3.2367
G01 X16.1570 Y3.1523
G01 X16.1876 Y3.0662
G01 X16.1927 Y3.0543
G01 X16.2301 Y2.9757
G01 X16.2793 Y2.8936
G01 X16.3363 Y2.8168
G01 X16.4006 Y2.7459
G01 X16.4715 Y2.6816
G01 X16.5483 Y2.6246
G01 X16.6304 Y2.5754
G01 X16.7169 Y2.5345
G01 X16.8070 Y2.5023
G01 X16.8998 Y2.4791
G01 X16.9944 Y2.4650
G01 X17.0814 Y2.4605
G01 X17.0943 Y2.4604
G01 X17.1770 Y2.4644
G01 X17.1941 Y2.4661
G01 X17.2802 Y2.4791
G01 X17.3647 Y2.5000
G01 X17.3812 Y2.5050
G01 X17.4631 Y2.5345
G01 X17.5496 Y2.5754
G01 X17.6317 Y2.6246
G01 X17.7018 Y2.6763
G01 X17.7150 Y2.6872
G01 X17.7794 Y2.7459
G01 X17.8381 Y2.8103
G01 X17.8490 Y2.8236
G01 X17.8983 Y2.8901
G01 X17.9053 Y2.9009
G01 X17.9499 Y2.9757
G01 X17.9908 Y3.0622
G01 X18.0230 Y3.1523
G01 X18.0444 Y3.2367
G01 X18.0471 Y3.2493
G01 X18.0603 Y3.3398
G01 X18.0649 Y3.4310
G01 X18.0649 Y3.8396
G01 X18.0603 Y3.9309
G01 X18.0463 Y4.0255
G01 X18.0230 Y4.1183
G01 X17.9908 Y4.2084
G01 X17.9499 Y4.2949
G01 X17.9007 Y4.3770
G01 X17.8437 Y4.4539
G01 X17.7854 Y4.5185
G01 X17.7764 Y4.5277
G01 X17.7085 Y4.5890
G01 X17.6317 Y4.6460
G01 X17.5496 Y4.6952
G01 X17.4710 Y4.7326
G01 X17.4591 Y4.7377
G01 X17.3730 Y4.7683
G01 X17.2886 Y4.7897
G01 X17.2760 Y4.7924
G01 X17.1941 Y4.8046
G01 X17.1813 Y4.8060
G01 X17.0943 Y4.8103
G01 X17.0857 Y4.8103
G01 X17.0621 Y4.8092
G00 Z1.0000
G00 X18.6560 Y3.8599
G01 F30.00
G01 Z-0.1418
G01 F60.00
G01 X18.6550 Y3.8353
G01 X18.6550 Y3.4353
G01 X18.6597 Y3.3398
G01 X18.6737 Y3.2451
G01 X18.6947 Y3.1606
G01 X18.6997 Y3.1441
G01 X18.7261 Y3.0702
G01 X18.7309 Y3.0583
G01 X18.7701 Y2.9757
G01 X18.8193 Y2.8936
G01 X18.8763 Y2.8168
G01 X18.9406 Y2.7459
G01 X19.0115 Y2.6816
G01 X19.0883 Y2.6246
G01 X19.1704 Y2.5754
G01 X19.2569 Y2.5345
G01 X19.3470 Y2.5023
G01 X19.4398 Y2.4791
G01 X19.5344 Y2.4650
G01 X19.6300 Y2.4603
G01 X19.7256 Y2.4650
G01 X19.8202 Y2.4791
G01 X19.9130 Y2.5023
G01 X20.0031 Y2.5345
G01 X20.0896 Y2.5754
G01 X20.1717 Y2.6246
G01 X20.2485 Y2.6816
G01 X20.3194 Y2.7459
G01 X20.3837 Y2.8168
G01 X20.4407 Y2.8936
G01 X20.4899 Y2.9757
G01 X20.5308 Y3.0622
G01 X20.5630 Y3.1523
G01 X20.5844 Y3.2367
G01 X20.5877 Y3.2536
G01 X20.5993 Y3.3312
G01 X20.6007 Y3.3440
G01 X20.6050 Y3.4353
G01 X20.6050 Y3.8353
G01 X20.6003 Y3.9309
G01 X20.5863 Y4.0255
G01 X20.5653 Y4.1101
G01 X20.5603 Y4.1265
G01 X20.5308 Y4.2084
G01 X20.4937 Y4.2873
G01 X20.4856 Y4.3024
G01 X20.4407 Y4.3770
G01 X20.3837 Y4.4539
G01 X20.3194 Y4.5247
G01 X20.2518 Y4.5862
G01 X20.2418 Y4.5943
G01 X20.1752 Y4.6436
G01 X20.1681 Y4.6483
G01 X20.1464 Y4.6614
G01 X15.3003 Y9.5075
G01 X15.3003 Y14.2353
G01 X15.2964 Y14.3147
G01 X15.2847 Y14.3934
G01 X15.2654 Y14.4705
G01 X15.2417 Y14.5374
G01 X15.2352 Y14.5533
G01 X15.2085 Y14.6096
G01 X15.2004 Y14.6248
G01 X15.1638 Y14.6855
G01 X15.1217 Y14.7426
G01 X15.1108 Y14.7559
G01 X15.0630 Y14.8083
G01 X15.0041 Y14.8617
G01 X14.9402 Y14.9091
G01 X14.8720 Y14.9500
G01 X14.8001 Y14.9840
G01 X14.7252 Y15.0107
G01 X14.6481 Y15.0301
G01 X14.5779 Y15.0407
G01 X14.5609 Y15.0424
G01 X14.4986 Y15.0454
G01 X14.4814 Y15.0454
G01 X14.4106 Y15.0417
G01 X14.3404 Y15.0315
G01 X14.3235 Y15.0282
G01 X14.2548 Y15.0107
G01 X14.1799 Y14.9840
G01 X14.1157 Y14.9538
G01 X14.1005 Y14.9457
G01 X14.0398 Y14.9091
G01 X13.9759 Y14.8617
G01 X13.9232 Y14.8142
G01 X13.9111 Y14.8021
G01 X13.8636 Y14.7494
G01 X13.8212 Y14.6925
G01 X13.8117 Y14.6782
G01 X13.7754 Y14.6173
G01 X13.7448 Y14.5533
G01 X13.7383 Y14.5374
G01 X13.7146 Y14.4705
G01 X13.6971 Y14.4018
G01 X13.6938 Y14.3849
G01 X13.6846 Y14.3233
G01 X13.6832 Y14.3105
G01 X13.6797 Y14.2353
G01 X13.6797 Y9.1718
G01 X13.6836 Y9.0924
G01 X13.6953 Y9.0137
G01 X13.7146 Y8.9366
G01 X13.7414 Y8.8617
G01 X13.7754 Y8.7898
G01 X13.8162 Y8.7216
G01 X13.8636 Y8.6578
G01 X13.9170 Y8.5988
G01 X18.6560 Y3.8599
G00 Z1.0000
G00 X18.6815 Y3.8697
G01 F30.00
G01 Z-0.1418
G01 F60.00
G01 X18.6800 Y3.8353
G01 X18.6800 Y3.4353
G01 X18.6846 Y3.3422
G01 X18.6983 Y3.2500
G01 X18.7189 Y3.1666
G01 X18.7232 Y3.1526
G01 X18.7497 Y3.0786
G01 X18.7538 Y3.0684
G01 X18.7922 Y2.9875
G01 X18.8401 Y2.9075
G01 X18.8956 Y2.8326
G01 X18.9582 Y2.7636
G01 X19.0273 Y2.7010
G01 X19.1022 Y2.6454
G01 X19.1822 Y2.5975
G01 X19.2631 Y2.5591
G01 X19.2733 Y2.5550
G01 X19.3542 Y2.5262
G01 X19.4447 Y2.5036
G01 X19.5369 Y2.4899
G01 X19.6300 Y2.4853
G01 X19.7231 Y2.4899
G01 X19.8153 Y2.5036
G01 X19.9058 Y2.5262
G01 X19.9935 Y2.5576
G01 X20.0778 Y2.5975
G01 X20.1578 Y2.6454
G01 X20.2327 Y2.7010
G01 X20.3018 Y2.7636
G01 X20.3644 Y2.8326
G01 X20.4199 Y2.9075
G01 X20.4678 Y2.9875
G01 X20.5062 Y3.0684
G01 X20.5103 Y3.0786
G01 X20.5368 Y3.1526
G01 X20.5411 Y3.1666
G01 X20.5617 Y3.2500
G01 X20.5745 Y3.3349
G01 X20.5757 Y3.3459
G01 X20.5800 Y3.4353
G01 X20.5800 Y3.8353
G01 X20.5754 Y3.9284
G01 X20.5617 Y4.0207
G01 X20.5411 Y4.1040
G01 X20.5368 Y4.1181
G01 X20.5077 Y4.1989
G01 X20.4711 Y4.2766
G01 X20.4642 Y4.2896
G01 X20.4199 Y4.3631
G01 X20.3644 Y4.4380
G01 X20.3018 Y4.5071
G01 X20.2355 Y4.5673
G01 X20.2269 Y4.5742
G01 X20.1608 Y4.6231
G01 X20.1516 Y4.6292
G01 X20.1309 Y4.6416
G01 X15.2753 Y9.4971
G01 X15.2753 Y14.2353
G01 X15.2715 Y14.3123
G01 X15.2602 Y14.3885
G01 X15.2415 Y14.4633
G01 X15.2182 Y14.5290
G01 X15.2126 Y14.5426
G01 X15.1859 Y14.5989
G01 X15.1790 Y14.6119
G01 X15.1430 Y14.6716
G01 X15.1016 Y14.7277
G01 X15.0922 Y14.7391
G01 X15.0453 Y14.7906
G01 X14.9882 Y14.8424
G01 X14.9263 Y14.8883
G01 X14.8602 Y14.9279
G01 X14.7905 Y14.9609
G01 X14.7180 Y14.9868
G01 X14.6432 Y15.0055
G01 X14.5743 Y15.0160
G01 X14.5596 Y15.0174
G01 X14.4974 Y15.0205
G01 X14.4826 Y15.0205
G01 X14.4130 Y15.0169
G01 X14.3440 Y15.0068
G01 X14.3296 Y15.0039
G01 X14.2620 Y14.9868
G01 X14.1895 Y14.9609
G01 X14.1264 Y14.9312
G01 X14.1134 Y14.9243
G01 X14.0537 Y14.8883
G01 X13.9918 Y14.8424
G01 X13.9400 Y14.7957
G01 X13.9296 Y14.7853
G01 X13.8829 Y14.7335
G01 X13.8413 Y14.6776
G01 X13.8331 Y14.6654
G01 X13.7974 Y14.6055
G01 X13.7674 Y14.5426
G01 X13.7618 Y14.5290
G01 X13.7385 Y14.4633
G01 X13.7214 Y14.3957
G01 X13.7185 Y14.3813
G01 X13.7094 Y14.3196
G01 X13.7081 Y14.3086
G01 X13.7047 Y14.2353
G01 X13.7047 Y9.1718
G01 X13.7085 Y9.0948
G01 X13.7198 Y9.0186
G01 X13.7385 Y8.9439
G01 X13.7645 Y8.8713
G01 X13.7974 Y8.8016
G01 X13.8370 Y8.7355
G01 X13.8829 Y8.6736
G01 X13.9347 Y8.6165
G01 X18.6815 Y3.8697
G00 Z1.0000
G00 X18.7070 Y3.8795
G01 F30.00
G01 Z-0.1418
G01 F60.00
G01 X18.7050 Y3.8353
G01 X18.7050 Y3.4353
G01 X18.7092 Y3.3477
G01 X18.7102 Y3.3386
G01 X18.7217 Y3.2609
G01 X18.7241 Y3.2489
G01 X18.7448 Y3.1668
G01 X18.7743 Y3.0842
G01 X18.7779 Y3.0757
G01 X18.8142 Y2.9993
G01 X18.8576 Y2.9266
G01 X18.8644 Y2.9164
G01 X18.9112 Y2.8533
G01 X18.9190 Y2.8439
G01 X18.9759 Y2.7812
G01 X19.0432 Y2.7203
G01 X19.1161 Y2.6662
G01 X19.1886 Y2.6226
G01 X19.1967 Y2.6181
G01 X19.2760 Y2.5807
G01 X19.3615 Y2.5501
G01 X19.4495 Y2.5281
G01 X19.5393 Y2.5148
G01 X19.6300 Y2.5103
G01 X19.7207 Y2.5148
G01 X19.8105 Y2.5281
G01 X19.8985 Y2.5501
G01 X19.9840 Y2.5807
G01 X20.0660 Y2.6195
G01 X20.1439 Y2.6662
G01 X20.2168 Y2.7203
G01 X20.2841 Y2.7812
G01 X20.3450 Y2.8485
G01 X20.3991 Y2.9214
G01 X20.4428 Y2.9939
G01 X20.4472 Y3.0020
G01 X20.4846 Y3.0813
G01 X20.5152 Y3.1668
G01 X20.5372 Y3.2549
G01 X20.5502 Y3.3416
G01 X20.5510 Y3.3508
G01 X20.5550 Y3.4353
G01 X20.5550 Y3.8353
G01 X20.5508 Y3.9229
G01 X20.5498 Y3.9321
G01 X20.5383 Y4.0097
G01 X20.5359 Y4.0218
G01 X20.5152 Y4.1038
G01 X20.4846 Y4.1893
G01 X20.4485 Y4.2659
G01 X20.4428 Y4.2767
G01 X20.3991 Y4.3492
G01 X20.3450 Y4.4221
G01 X20.2841 Y4.4894
G01 X20.2192 Y4.5484
G01 X20.2120 Y4.5541
G01 X20.1464 Y4.6027
G01 X20.1387 Y4.6077
G01 X20.1154 Y4.6217
G01 X15.2503 Y9.4868
G01 X15.2503 Y14.2353
G01 X15.2467 Y14.3098
G01 X15.2357 Y14.3836
G01 X15.2176 Y14.4560
G01 X15.1946 Y14.5206
G01 X15.1900 Y14.5319
G01 X15.1633 Y14.5882
G01 X15.1575 Y14.5991
G01 X15.1222 Y14.6577
G01 X15.0815 Y14.7128
G01 X15.0737 Y14.7223
G01 X15.0276 Y14.7729
G01 X14.9723 Y14.8231
G01 X14.9124 Y14.8675
G01 X14.8484 Y14.9059
G01 X14.7810 Y14.9378
G01 X14.7107 Y14.9629
G01 X14.6383 Y14.9810
G01 X14.5706 Y14.9912
G01 X14.5584 Y14.9924
G01 X14.4961 Y14.9955
G01 X14.4839 Y14.9955
G01 X14.4155 Y14.9920
G01 X14.3477 Y14.9821
G01 X14.3357 Y14.9797
G01 X14.2693 Y14.9629
G01 X14.1990 Y14.9378
G01 X14.1371 Y14.9086
G01 X14.1263 Y14.9028
G01 X14.0676 Y14.8675
G01 X14.0077 Y14.8231
G01 X13.9568 Y14.7772
G01 X13.9481 Y14.7685
G01 X13.9023 Y14.7177
G01 X13.8614 Y14.6627
G01 X13.8545 Y14.6525
G01 X13.8195 Y14.5937
G01 X13.7900 Y14.5319
G01 X13.7854 Y14.5206
G01 X13.7624 Y14.4560
G01 X13.7456 Y14.3896
G01 X13.7432 Y14.3776
G01 X13.7341 Y14.3159
G01 X13.7331 Y14.3068
G01 X13.7297 Y14.2353
G01 X13.7297 Y9.1718
G01 X13.7333 Y9.0973
G01 X13.7443 Y9.0235
G01 X13.7624 Y8.9511
G01 X13.7876 Y8.8809
G01 X13.8195 Y8.8134
G01 X13.8578 Y8.7494
G01 X13.9023 Y8.6895
G01 X13.9524 Y8.6342
G01 X18.7070 Y3.8795
G00 Z1.0000
G00 X21.3597 Y2.8931
G01 F30.00
G01 Z-0.1418
G01 F60.00
G01 X21.3597 Y1.0810
G01 X21.3636 Y1.0059
G01 X21.3753 Y0.9272
G01 X21.3946 Y0.8501
G01 X21.4183 Y0.7832
G01 X21.4231 Y0.7713
G01 X21.4554 Y0.7033
G01 X21.4962 Y0.6351
G01 X21.5436 Y0.5713
G01 X21.5970 Y0.5123
G01 X21.6559 Y0.4589
G01 X21.7198 Y0.4116
G01 X21.7880 Y0.3707
G01 X21.8599 Y0.3367
G01 X21.9348 Y0.3099
G01 X22.0119 Y0.2906
G01 X22.0906 Y0.2789
G01 X22.1700 Y0.2750
G01 X22.2494 Y0.2789
G01 X22.3281 Y0.2906
G01 X22.4052 Y0.3099
G01 X22.4721 Y0.3336
G01 X22.4840 Y0.3384
G01 X22.5520 Y0.3707
G01 X22.6129 Y0.4070
G01 X22.6272 Y0.4165
G01 X22.6841 Y0.4589
G01 X22.7368 Y0.5064
G01 X22.7489 Y0.5186
G01 X22.7964 Y0.5713
G01 X22.8388 Y0.6281
G01 X22.8483 Y0.6424
G01 X22.8846 Y0.7033
G01 X22.9152 Y0.7674
G01 X22.9217 Y0.7832
G01 X22.9454 Y0.8501
G01 X22.9629 Y0.9189
G01 X22.9662 Y0.9357
G01 X22.9754 Y0.9974
G01 X22.9768 Y1.0102
G01 X22.9803 Y1.0853
G01 X22.9803 Y2.8931
G01 X23.0299 Y2.9757
G01 X23.0708 Y3.0622
G01 X23.1030 Y3.1523
G01 X23.1244 Y3.2367
G01 X23.1277 Y3.2536
G01 X23.1403 Y3.3398
G01 X23.1449 Y3.4310
G01 X23.1450 Y3.8353
G01 X23.1409 Y3.9223
G01 X23.1393 Y3.9394
G01 X23.1263 Y4.0255
G01 X23.1030 Y4.1183
G01 X23.0708 Y4.2084
G01 X23.0299 Y4.2949
G01 X22.9807 Y4.3770
G01 X22.9237 Y4.4539
G01 X22.8594 Y4.5247
G01 X22.7918 Y4.5862
G01 X22.7818 Y4.5943
G01 X22.7117 Y4.6460
G01 X22.6296 Y4.6952
G01 X22.5431 Y4.7361
G01 X22.4530 Y4.7683
G01 X22.3602 Y4.7916
G01 X22.2656 Y4.8056
G01 X22.1700 Y4.8103
G01 X22.0744 Y4.8056
G01 X21.9798 Y4.7916
G01 X21.8870 Y4.7683
G01 X21.7969 Y4.7361
G01 X21.7104 Y4.6952
G01 X21.6283 Y4.6460
G01 X21.5515 Y4.5890
G01 X21.4806 Y4.5247
G01 X21.4191 Y4.4571
G01 X21.4110 Y4.4471
G01 X21.3593 Y4.3770
G01 X21.3144 Y4.3024
G01 X21.3063 Y4.2873
G01 X21.2727 Y4.2163
G01 X21.2661 Y4.2004
G01 X21.2370 Y4.1183
G01 X21.2137 Y4.0255
G01 X21.1997 Y3.9309
G01 X21.1952 Y3.8439
G01 X21.1951 Y3.4310
G01 X21.1997 Y3.3398
G01 X21.2129 Y3.2493
G01 X21.2156 Y3.2367
G01 X21.2370 Y3.1523
G01 X21.2692 Y3.0622
G01 X21.3101 Y2.9757
G01 X21.3597 Y2.8931
G00 Z1.0000
G00 X22.9303 Y2.9093
G01 F30.00
G01 Z-0.1418
G01 F60.00
G01 X22.9408 Y2.9240
G01 X22.9858 Y2.9993
G01 X23.0246 Y3.0813
G01 X23.0552 Y3.1668
G01 X23.0759 Y3.2489
G01 X23.0778 Y3.2579
G01 X23.0905 Y3.3447
G01 X23.0950 Y3.4322
G01 X23.0950 Y3.8384
G01 X23.0905 Y3.9260
G01 X23.0772 Y4.0158
G01 X23.0552 Y4.1038
G01 X23.0268 Y4.1836
G01 X23.0221 Y4.1949
G01 X22.9885 Y4.2659
G01 X22.9828 Y4.2767
G01 X22.9391 Y4.3492
G01 X22.8850 Y4.4221
G01 X22.8241 Y4.4894
G01 X22.7568 Y4.5504
G01 X22.6839 Y4.6044
G01 X22.6060 Y4.6511
G01 X22.5240 Y4.6899
G01 X22.4385 Y4.7205
G01 X22.3505 Y4.7425
G01 X22.2607 Y4.7559
G01 X22.1700 Y4.7603
G01 X22.0793 Y4.7559
G01 X21.9895 Y4.7425
G01 X21.9015 Y4.7205
G01 X21.8160 Y4.6899
G01 X21.7340 Y4.6511
G01 X21.6561 Y4.6044
G01 X21.5832 Y4.5504
G01 X21.5159 Y4.4894
G01 X21.4550 Y4.4221
G01 X21.4009 Y4.3492
G01 X21.3572 Y4.2767
G01 X21.3515 Y4.2659
G01 X21.3179 Y4.1949
G01 X21.3132 Y4.1836
G01 X21.2848 Y4.1038
G01 X21.2641 Y4.0218
G01 X21.2617 Y4.0097
G01 X21.2495 Y3.9260
G01 X21.2452 Y3.8415
G01 X21.2450 Y3.4322
G01 X21.2495 Y3.3447
G01 X21.2622 Y3.2579
G01 X21.2641 Y3.2489
G01 X21.2848 Y3.1668
G01 X21.3154 Y3.0813
G01 X21.3542 Y2.9993
G01 X21.3992 Y2.9240
G01 X21.4097 Y2.9093
G01 X21.4097 Y1.0853
G01 X21.4131 Y1.0138
G01 X21.4141 Y1.0047
G01 X21.4232 Y0.9430
G01 X21.4256 Y0.9310
G01 X21.4424 Y0.8646
G01 X21.4654 Y0.8001
G01 X21.4700 Y0.7887
G01 X21.4995 Y0.7269
G01 X21.5345 Y0.6681
G01 X21.5414 Y0.6579
G01 X21.5823 Y0.6030
G01 X21.6281 Y0.5521
G01 X21.6368 Y0.5435
G01 X21.6877 Y0.4976
G01 X21.7426 Y0.4567
G01 X21.7528 Y0.4499
G01 X21.8116 Y0.4148
G01 X21.8790 Y0.3829
G01 X21.9493 Y0.3577
G01 X22.0217 Y0.3396
G01 X22.0955 Y0.3287
G01 X22.1700 Y0.3250
G01 X22.2445 Y0.3287
G01 X22.3183 Y0.3396
G01 X22.3907 Y0.3577
G01 X22.4610 Y0.3829
G01 X22.5284 Y0.4148
G01 X22.5924 Y0.4531
G01 X22.6523 Y0.4976
G01 X22.7076 Y0.5477
G01 X22.7577 Y0.6030
G01 X22.8022 Y0.6629
G01 X22.8405 Y0.7269
G01 X22.8724 Y0.7944
G01 X22.8976 Y0.8646
G01 X22.9157 Y0.9370
G01 X22.9267 Y1.0108
G01 X22.9303 Y1.0822
G01 X22.9303 Y2.9093
G00 Z1.0000
G00 X22.9553 Y2.9010
G01 F30.00
G01 Z-0.1418
G01 F60.00
G01 X22.9638 Y2.9137
G01 X23.0078 Y2.9875
G01 X23.0477 Y3.0718
G01 X23.0791 Y3.1595
G01 X23.1001 Y3.2428
G01 X23.1024 Y3.2536
G01 X23.1154 Y3.3422
G01 X23.1200 Y3.4316
G01 X23.1200 Y3.8390
G01 X23.1154 Y3.9284
G01 X23.1017 Y4.0207
G01 X23.0791 Y4.1111
G01 X23.0503 Y4.1920
G01 X23.0447 Y4.2056
G01 X23.0111 Y4.2766
G01 X23.0042 Y4.2896
G01 X22.9599 Y4.3631
G01 X22.9044 Y4.4380
G01 X22.8418 Y4.5071
G01 X22.7727 Y4.5697
G01 X22.6978 Y4.6252
G01 X22.6178 Y4.6731
G01 X22.5335 Y4.7130
G01 X22.4458 Y4.7444
G01 X22.3553 Y4.7671
G01 X22.2631 Y4.7807
G01 X22.1700 Y4.7853
G01 X22.0769 Y4.7807
G01 X21.9847 Y4.7671
G01 X21.8942 Y4.7444
G01 X21.8065 Y4.7130
G01 X21.7222 Y4.6731
G01 X21.6422 Y4.6252
G01 X21.5673 Y4.5697
G01 X21.4982 Y4.5071
G01 X21.4356 Y4.4380
G01 X21.3801 Y4.3631
G01 X21.3322 Y4.2831
G01 X21.2923 Y4.1989
G01 X21.2609 Y4.1111
G01 X21.2383 Y4.0207
G01 X21.2255 Y3.9357
G01 X21.2240 Y3.9211
G01 X21.2200 Y3.8353
G01 X21.2200 Y3.4316
G01 X21.2246 Y3.3422
G01 X21.2370 Y3.2572
G01 X21.2399 Y3.2428
G01 X21.2609 Y3.1595
G01 X21.2923 Y3.0718
G01 X21.3322 Y2.9875
G01 X21.3762 Y2.9137
G01 X21.3847 Y2.9010
G01 X21.3847 Y1.0853
G01 X21.3881 Y1.0120
G01 X21.3894 Y1.0010
G01 X21.3985 Y0.9394
G01 X21.4014 Y0.9249
G01 X21.4185 Y0.8574
G01 X21.4418 Y0.7917
G01 X21.4474 Y0.7781
G01 X21.4774 Y0.7151
G01 X21.5131 Y0.6552
G01 X21.5213 Y0.6430
G01 X21.5629 Y0.5871
G01 X21.6096 Y0.5353
G01 X21.6200 Y0.5249
G01 X21.6718 Y0.4783
G01 X21.7277 Y0.4366
G01 X21.7399 Y0.4284
G01 X21.7998 Y0.3927
G01 X21.8695 Y0.3598
G01 X21.9420 Y0.3338
G01 X22.0168 Y0.3151
G01 X22.0930 Y0.3038
G01 X22.1700 Y0.3000
G01 X22.2470 Y0.3038
G01 X22.3232 Y0.3151
G01 X22.3980 Y0.3338
G01 X22.4705 Y0.3598
G01 X22.5402 Y0.3927
G01 X22.6063 Y0.4323
G01 X22.6682 Y0.4783
G01 X22.7253 Y0.5300
G01 X22.7771 Y0.5871
G01 X22.8230 Y0.6490
G01 X22.8626 Y0.7151
G01 X22.8955 Y0.7848
G01 X22.9215 Y0.8574
G01 X22.9402 Y0.9321
G01 X22.9515 Y1.0083
G01 X22.9553 Y1.0816
G01 X22.9553 Y2.9010
G00 Z1.0000
G00 X24.9944 Y4.7150
G01 F30.00
G01 Z-0.1418
G01 F60.00
G01 X24.9756 Y4.7213
G01 X24.8905 Y4.7425
G01 X24.8007 Y4.7559
G01 X24.7100 Y4.7603
G01 X24.6193 Y4.7559
G01 X24.5295 Y4.7425
G01 X24.4415 Y4.7205
G01 X24.3560 Y4.6899
G01 X24.2794 Y4.6539
G01 X24.2686 Y4.6481
G01 X24.1961 Y4.6044
G01 X24.1280 Y4.5541
G01 X24.1185 Y4.5463
G01 X24.0604 Y4.4936
G01 X24.0517 Y4.4849
G01 X23.9950 Y4.4221
G01 X23.9444 Y4.3542
G01 X23.9376 Y4.3440
G01 X23.8942 Y4.2714
G01 X23.8554 Y4.1893
G01 X23.8248 Y4.1038
G01 X23.8034 Y4.0188
G01 X23.8017 Y4.0097
G01 X23.7895 Y3.9260
G01 X23.7850 Y3.8384
G01 X23.7850 Y3.4353
G01 X23.7895 Y3.3447
G01 X23.8028 Y3.2549
G01 X23.8248 Y3.1668
G01 X23.8554 Y3.0813
G01 X23.8915 Y3.0048
G01 X23.8972 Y2.9939
G01 X23.9409 Y2.9214
G01 X23.9950 Y2.8485
G01 X24.0559 Y2.7812
G01 X24.1185 Y2.7243
G01 X24.1280 Y2.7165
G01 X24.1911 Y2.6697
G01 X24.2013 Y2.6629
G01 X24.2740 Y2.6195
G01 X24.3504 Y2.5832
G01 X24.3617 Y2.5785
G01 X24.4415 Y2.5501
G01 X24.5265 Y2.5287
G01 X24.5356 Y2.5270
G01 X24.6193 Y2.5148
G01 X24.7039 Y2.5105
G01 X24.7161 Y2.5105
G01 X24.7945 Y2.5143
G01 X24.8068 Y2.5155
G01 X24.8905 Y2.5281
G01 X24.9726 Y2.5485
G01 X24.9843 Y2.5521
G01 X25.0640 Y2.5807
G01 X25.1460 Y2.6195
G01 X25.2239 Y2.6662
G01 X25.2920 Y2.7165
G01 X25.2992 Y2.7223
G01 X25.3641 Y2.7812
G01 X25.4210 Y2.8439
G01 X25.4288 Y2.8533
G01 X25.4791 Y2.9214
G01 X25.5228 Y2.9939
G01 X25.5285 Y3.0048
G01 X25.5646 Y3.0813
G01 X25.5944 Y3.1645
G01 X29.8424 Y7.4125
G01 X29.8839 Y7.4105
G01 X29.8931 Y7.4104
G01 X29.9972 Y7.4155
G01 X30.0064 Y7.4165
G01 X30.1065 Y7.4314
G01 X30.1155 Y7.4333
G01 X30.2166 Y7.4588
G01 X30.3177 Y7.4948
G01 X30.3261 Y7.4984
G01 X30.4203 Y7.5432
G01 X30.5150 Y7.5999
G01 X30.6037 Y7.6657
G01 X30.6811 Y7.7356
G01 X30.6897 Y7.7443
G01 X30.7596 Y7.8216
G01 X30.8254 Y7.9103
G01 X30.8822 Y8.0050
G01 X30.9294 Y8.1048
G01 X30.9666 Y8.2087
G01 X30.9934 Y8.3158
G01 X31.0096 Y8.4250
G01 X31.0148 Y8.5292
G01 X31.0148 Y8.5415
G01 X31.0100 Y8.6395
G01 X31.0088 Y8.6517
G01 X30.9934 Y8.7548
G01 X30.9682 Y8.8560
G01 X30.9646 Y8.8677
G01 X30.9294 Y8.9658
G01 X30.8822 Y9.0656
G01 X30.8254 Y9.1603
G01 X30.7616 Y9.2466
G01 X30.7556 Y9.2537
G01 X30.6855 Y9.3308
G01 X30.6037 Y9.4050
G01 X30.5150 Y9.4707
G01 X30.4203 Y9.5275
G01 X30.3205 Y9.5747
G01 X30.2166 Y9.6119
G01 X30.1095 Y9.6387
G01 X30.0003 Y9.6549
G01 X29.8900 Y9.6603
G01 X29.7797 Y9.6549
G01 X29.6705 Y9.6387
G01 X29.5634 Y9.6119
G01 X29.4595 Y9.5747
G01 X29.3597 Y9.5275
G01 X29.2650 Y9.4707
G01 X29.1787 Y9.4069
G01 X29.1717 Y9.4009
G01 X29.0945 Y9.3308
G01 X29.0244 Y9.2537
G01 X29.0166 Y9.2442
G01 X28.9546 Y9.1603
G01 X28.9009 Y9.0710
G01 X28.8951 Y9.0602
G01 X28.8518 Y8.9687
G01 X28.8484 Y8.9601
G01 X28.8134 Y8.8619
G01 X28.7880 Y8.7608
G01 X28.7861 Y8.7518
G01 X28.7712 Y8.6517
G01 X28.7702 Y8.6425
G01 X28.7650 Y8.5384
G01 X28.7652 Y8.5292
G01 X28.7672 Y8.4878
G01 X24.9944 Y4.7150
G00 Z1.0000
G00 X24.9878 Y4.7438
G01 F30.00
G01 Z-0.1418
G01 F60.00
G01 X24.9787 Y4.7464
G01 X24.8953 Y4.7671
G01 X24.8031 Y4.7807
G01 X24.7100 Y4.7853
G01 X24.6169 Y4.7807
G01 X24.5247 Y4.7671
G01 X24.4342 Y4.7444
G01 X24.3465 Y4.7130
G01 X24.2687 Y4.6765
G01 X24.2558 Y4.6695
G01 X24.1822 Y4.6252
G01 X24.1131 Y4.5742
G01 X24.1018 Y4.5649
G01 X24.0436 Y4.5121
G01 X24.0332 Y4.5017
G01 X23.9756 Y4.4380
G01 X23.9243 Y4.3691
G01 X23.9162 Y4.3569
G01 X23.8722 Y4.2831
G01 X23.8323 Y4.1989
G01 X23.8009 Y4.1111
G01 X23.7783 Y4.0207
G01 X23.7646 Y3.9284
G01 X23.7600 Y3.8390
G01 X23.7600 Y3.4353
G01 X23.7646 Y3.3422
G01 X23.7783 Y3.2500
G01 X23.8009 Y3.1595
G01 X23.8323 Y3.0718
G01 X23.8705 Y2.9908
G01 X23.8758 Y2.9811
G01 X23.9201 Y2.9075
G01 X23.9756 Y2.8326
G01 X24.0382 Y2.7636
G01 X24.1018 Y2.7058
G01 X24.1131 Y2.6964
G01 X24.1762 Y2.6497
G01 X24.1884 Y2.6415
G01 X24.2622 Y2.5975
G01 X24.3397 Y2.5606
G01 X24.3533 Y2.5550
G01 X24.4342 Y2.5262
G01 X24.5247 Y2.5036
G01 X24.6169 Y2.4899
G01 X24.7026 Y2.4855
G01 X24.7174 Y2.4855
G01 X24.7958 Y2.4894
G01 X24.8104 Y2.4908
G01 X24.8953 Y2.5036
G01 X24.9787 Y2.5243
G01 X24.9928 Y2.5285
G01 X25.0735 Y2.5576
G01 X25.1578 Y2.5975
G01 X25.2378 Y2.6454
G01 X25.3069 Y2.6964
G01 X25.3155 Y2.7033
G01 X25.3818 Y2.7636
G01 X25.4396 Y2.8271
G01 X25.4489 Y2.8384
G01 X25.4999 Y2.9075
G01 X25.5442 Y2.9811
G01 X25.5511 Y2.9941
G01 X25.5877 Y3.0718
G01 X25.6162 Y3.1509
G01 X29.8523 Y7.3870
G01 X29.8826 Y7.3855
G01 X29.8937 Y7.3854
G01 X29.9991 Y7.3905
G01 X30.0100 Y7.3918
G01 X30.1107 Y7.4067
G01 X30.1215 Y7.4090
G01 X30.2238 Y7.4348
G01 X30.3267 Y7.4715
G01 X30.3368 Y7.4758
G01 X30.4321 Y7.5211
G01 X30.5289 Y7.5791
G01 X30.6196 Y7.6464
G01 X30.6978 Y7.7171
G01 X30.7082 Y7.7275
G01 X30.7790 Y7.8058
G01 X30.8462 Y7.8964
G01 X30.9042 Y7.9932
G01 X30.9525 Y8.0952
G01 X30.9905 Y8.2015
G01 X31.0179 Y8.3110
G01 X31.0345 Y8.4226
G01 X31.0398 Y8.5280
G01 X31.0398 Y8.5427
G01 X31.0350 Y8.6407
G01 X31.0336 Y8.6553
G01 X31.0179 Y8.7597
G01 X30.9924 Y8.8620
G01 X30.9882 Y8.8761
G01 X30.9525 Y8.9754
G01 X30.9042 Y9.0774
G01 X30.8462 Y9.1742
G01 X30.7813 Y9.2620
G01 X30.7742 Y9.2704
G01 X30.7032 Y9.3485
G01 X30.6196 Y9.4243
G01 X30.5289 Y9.4915
G01 X30.4321 Y9.5495
G01 X30.3301 Y9.5978
G01 X30.2238 Y9.6358
G01 X30.1144 Y9.6632
G01 X30.0027 Y9.6798
G01 X29.8900 Y9.6853
G01 X29.7773 Y9.6798
G01 X29.6656 Y9.6632
G01 X29.5562 Y9.6358
G01 X29.4499 Y9.5978
G01 X29.3479 Y9.5495
G01 X29.2511 Y9.4915
G01 X29.1633 Y9.4266
G01 X29.1549 Y9.4195
G01 X29.0768 Y9.3485
G01 X29.0058 Y9.2704
G01 X28.9965 Y9.2591
G01 X28.9338 Y9.1742
G01 X28.8794 Y9.0838
G01 X28.8725 Y9.0708
G01 X28.8290 Y8.9788
G01 X28.8249 Y8.9685
G01 X28.7895 Y8.8691
G01 X28.7637 Y8.7669
G01 X28.7614 Y8.7561
G01 X28.7464 Y8.6553
G01 X28.7452 Y8.6444
G01 X28.7400 Y8.5390
G01 X28.7402 Y8.5280
G01 X28.7417 Y8.4976
G01 X24.9878 Y4.7438
G00 Z1.0000
G00 X24.9804 Y4.7717
G01 F30.00
G01 Z-0.1418
G01 F60.00
G01 X24.9002 Y4.7916
G01 X24.8141 Y4.8046
G01 X24.7970 Y4.8063
G01 X24.7186 Y4.8101
G01 X24.7014 Y4.8101
G01 X24.6144 Y4.8056
G01 X24.5282 Y4.7931
G01 X24.5114 Y4.7897
G01 X24.4270 Y4.7683
G01 X24.3369 Y4.7361
G01 X24.2504 Y4.6952
G01 X24.1756 Y4.6506
G01 X24.1613 Y4.6411
G01 X24.0915 Y4.5890
G01 X24.0206 Y4.5247
G01 X23.9563 Y4.4539
G01 X23.8993 Y4.3770
G01 X23.8501 Y4.2949
G01 X23.8092 Y4.2084
G01 X23.7770 Y4.1183
G01 X23.7537 Y4.0255
G01 X23.7397 Y3.9309
G01 X23.7351 Y3.8396
G01 X23.7350 Y3.4353
G01 X23.7397 Y3.3398
G01 X23.7537 Y3.2451
G01 X23.7770 Y3.1523
G01 X23.8092 Y3.0622
G01 X23.8481 Y2.9795
G01 X23.8544 Y2.9682
G01 X23.8993 Y2.8936
G01 X23.9563 Y2.8168
G01 X24.0206 Y2.7459
G01 X24.0850 Y2.6872
G01 X24.0982 Y2.6763
G01 X24.1613 Y2.6296
G01 X24.1756 Y2.6200
G01 X24.2504 Y2.5754
G01 X24.3290 Y2.5380
G01 X24.3449 Y2.5314
G01 X24.4270 Y2.5023
G01 X24.5198 Y2.4791
G01 X24.6144 Y2.4650
G01 X24.7014 Y2.4605
G01 X24.7186 Y2.4605
G01 X24.7970 Y2.4644
G01 X24.8141 Y2.4661
G01 X24.9002 Y2.4791
G01 X24.9847 Y2.5000
G01 X25.0012 Y2.5050
G01 X25.0831 Y2.5345
G01 X25.1696 Y2.5754
G01 X25.2517 Y2.6246
G01 X25.3218 Y2.6763
G01 X25.3318 Y2.6844
G01 X25.3994 Y2.7459
G01 X25.4581 Y2.8103
G01 X25.4690 Y2.8236
G01 X25.5207 Y2.8936
G01 X25.5656 Y2.9682
G01 X25.5737 Y2.9834
G01 X25.6108 Y3.0622
G01 X25.6378 Y3.1372
G01 X29.8621 Y7.3615
G01 X29.8857 Y7.3604
G01 X29.8943 Y7.3604
G01 X30.0009 Y7.3656
G01 X30.0137 Y7.3670
G01 X30.1150 Y7.3821
G01 X30.1276 Y7.3848
G01 X30.2311 Y7.4109
G01 X30.3397 Y7.4498
G01 X30.4439 Y7.4991
G01 X30.5428 Y7.5583
G01 X30.6354 Y7.6270
G01 X30.7146 Y7.6985
G01 X30.7268 Y7.7107
G01 X30.7983 Y7.7899
G01 X30.8670 Y7.8825
G01 X30.9263 Y7.9814
G01 X30.9756 Y8.0857
G01 X31.0144 Y8.1942
G01 X31.0424 Y8.3061
G01 X31.0593 Y8.4201
G01 X31.0648 Y8.5267
G01 X31.0648 Y8.5439
G01 X31.0600 Y8.6419
G01 X31.0583 Y8.6590
G01 X31.0424 Y8.7645
G01 X31.0167 Y8.8681
G01 X31.0117 Y8.8846
G01 X30.9756 Y8.9850
G01 X30.9263 Y9.0892
G01 X30.8670 Y9.1881
G01 X30.8010 Y9.2774
G01 X30.7927 Y9.2872
G01 X30.7209 Y9.3662
G01 X30.6354 Y9.4436
G01 X30.5428 Y9.5123
G01 X30.4439 Y9.5716
G01 X30.3397 Y9.6209
G01 X30.2311 Y9.6597
G01 X30.1192 Y9.6877
G01 X30.0052 Y9.7047
G01 X29.8900 Y9.7103
G01 X29.7748 Y9.7047
G01 X29.6608 Y9.6877
G01 X29.5489 Y9.6597
G01 X29.4403 Y9.6209
G01 X29.3361 Y9.5716
G01 X29.2372 Y9.5123
G01 X29.1479 Y9.4463
G01 X29.1381 Y9.4380
G01 X29.0591 Y9.3662
G01 X28.9873 Y9.2872
G01 X28.9764 Y9.2740
G01 X28.9180 Y9.1951
G01 X28.9084 Y9.1809
G01 X28.8537 Y9.0892
G01 X28.8079 Y8.9928
G01 X28.8014 Y8.9770
G01 X28.7656 Y8.8764
G01 X28.7376 Y8.7645
G01 X28.7217 Y8.6590
G01 X28.7203 Y8.6462
G01 X28.7151 Y8.5396
G01 X28.7151 Y8.5310
G01 X28.7162 Y8.5074
G01 X24.9804 Y4.7717
G00 Z1.0000
G00 X24.6586 Y11.9792
G01 F30.00
G01 Z-0.1418
G01 F60.00
G01 X19.9524 Y7.2729
G01 X19.9063 Y7.2223
G01 X19.9003 Y7.2153
G01 X19.8578 Y7.1577
G01 X19.8195 Y7.0937
G01 X19.7876 Y7.0263
G01 X19.7624 Y6.9560
G01 X19.7443 Y6.8836
G01 X19.7333 Y6.8098
G01 X19.7297 Y6.7353
G01 X19.7333 Y6.6608
G01 X19.7443 Y6.5870
G01 X19.7624 Y6.5146
G01 X19.7876 Y6.4444
G01 X19.8195 Y6.3769
G01 X19.8578 Y6.3129
G01 X19.9023 Y6.2530
G01 X19.9524 Y6.1977
G01 X20.0030 Y6.1516
G01 X20.0101 Y6.1457
G01 X20.0676 Y6.1031
G01 X20.1316 Y6.0648
G01 X20.1990 Y6.0329
G01 X20.2635 Y6.0097
G01 X20.2752 Y6.0061
G01 X20.3357 Y5.9910
G01 X20.3477 Y5.9886
G01 X20.4155 Y5.9787
G01 X20.4900 Y5.9750
G01 X20.5645 Y5.9787
G01 X20.6383 Y5.9896
G01 X20.7107 Y6.0077
G01 X20.7752 Y6.0307
G01 X20.7866 Y6.0354
G01 X20.8429 Y6.0620
G01 X20.8537 Y6.0678
G01 X20.9124 Y6.1031
G01 X20.9675 Y6.1438
G01 X20.9747 Y6.1496
G01 X21.0276 Y6.1977
G01 X26.0276 Y11.1977
G01 X26.0758 Y11.2506
G01 X26.0815 Y11.2578
G01 X26.1222 Y11.3129
G01 X26.1605 Y11.3769
G01 X26.1924 Y11.4444
G01 X26.2157 Y11.5088
G01 X26.2184 Y11.5176
G01 X26.2357 Y11.5870
G01 X26.2459 Y11.6547
G01 X26.2469 Y11.6638
G01 X26.2503 Y11.7322
G01 X26.2503 Y11.9077
G01 X26.2811 Y11.9356
G01 X26.2876 Y11.9420
G01 X26.3556 Y12.0170
G01 X26.3616 Y12.0240
G01 X26.4254 Y12.1103
G01 X26.4791 Y12.1997
G01 X26.4836 Y12.2077
G01 X26.5294 Y12.3048
G01 X26.5666 Y12.4087
G01 X26.5934 Y12.5158
G01 X26.6096 Y12.6250
G01 X26.6150 Y12.7353
G01 X26.6096 Y12.8456
G01 X26.5934 Y12.9548
G01 X26.5682 Y13.0560
G01 X26.5646 Y13.0677
G01 X26.5316 Y13.1601
G01 X26.5269 Y13.1714
G01 X26.4822 Y13.2656
G01 X26.4287 Y13.3552
G01 X26.4219 Y13.3654
G01 X26.3596 Y13.4490
G01 X26.2876 Y13.5286
G01 X26.2811 Y13.5350
G01 X26.2037 Y13.6050
G01 X26.1150 Y13.6707
G01 X26.0203 Y13.7275
G01 X25.9205 Y13.7747
G01 X25.8166 Y13.8119
G01 X25.7095 Y13.8387
G01 X25.6003 Y13.8549
G01 X25.4900 Y13.8603
G01 X25.3797 Y13.8549
G01 X25.2705 Y13.8387
G01 X25.1634 Y13.8119
G01 X25.0595 Y13.7747
G01 X24.9597 Y13.7275
G01 X24.8650 Y13.6707
G01 X24.7763 Y13.6050
G01 X24.6967 Y13.5330
G01 X24.6903 Y13.5264
G01 X24.6204 Y13.4490
G01 X24.5546 Y13.3603
G01 X24.4978 Y13.2656
G01 X24.4506 Y13.1658
G01 X24.4134 Y13.0619
G01 X24.3866 Y12.9548
G01 X24.3704 Y12.8456
G01 X24.3650 Y12.7384
G01 X24.3652 Y12.7292
G01 X24.3704 Y12.6250
G01 X24.3866 Y12.5158
G01 X24.4134 Y12.4087
G01 X24.4495 Y12.3076
G01 X24.4531 Y12.2992
G01 X24.4978 Y12.2050
G01 X24.5529 Y12.1129
G01 X24.5581 Y12.1053
G01 X24.6184 Y12.0240
G01 X24.6244 Y12.0170
G01 X24.6586 Y11.9792
G00 Z1.0000
G00 X24.6241 Y11.9800
G01 F30.00
G01 Z-0.1418
G01 F60.00
G01 X19.9347 Y7.2906
G01 X19.8878 Y7.2391
G01 X19.8806 Y7.2306
G01 X19.8370 Y7.1716
G01 X19.7974 Y7.1055
G01 X19.7645 Y7.0358
G01 X19.7385 Y6.9633
G01 X19.7198 Y6.8885
G01 X19.7085 Y6.8123
G01 X19.7047 Y6.7353
G01 X19.7085 Y6.6583
G01 X19.7198 Y6.5821
G01 X19.7385 Y6.5074
G01 X19.7645 Y6.4348
G01 X19.7974 Y6.3651
G01 X19.8370 Y6.2990
G01 X19.8829 Y6.2371
G01 X19.9347 Y6.1800
G01 X19.9862 Y6.1331
G01 X19.9947 Y6.1260
G01 X20.0537 Y6.0823
G01 X20.1198 Y6.0427
G01 X20.1895 Y6.0098
G01 X20.2550 Y5.9861
G01 X20.2691 Y5.9819
G01 X20.3296 Y5.9667
G01 X20.3440 Y5.9638
G01 X20.4130 Y5.9538
G01 X20.4900 Y5.9500
G01 X20.5670 Y5.9538
G01 X20.6432 Y5.9651
G01 X20.7180 Y5.9838
G01 X20.7837 Y6.0071
G01 X20.7973 Y6.0128
G01 X20.8536 Y6.0394
G01 X20.8666 Y6.0464
G01 X20.9263 Y6.0823
G01 X20.9882 Y6.1283
G01 X21.0453 Y6.1800
G01 X26.0453 Y11.1800
G01 X26.0947 Y11.2343
G01 X26.1016 Y11.2429
G01 X26.1430 Y11.2990
G01 X26.1826 Y11.3651
G01 X26.2155 Y11.4348
G01 X26.2392 Y11.5004
G01 X26.2425 Y11.5109
G01 X26.2602 Y11.5821
G01 X26.2706 Y11.6510
G01 X26.2719 Y11.6620
G01 X26.2753 Y11.7316
G01 X26.2753 Y11.8967
G01 X26.2978 Y11.9171
G01 X26.3057 Y11.9248
G01 X26.3742 Y12.0002
G01 X26.3813 Y12.0086
G01 X26.4462 Y12.0964
G01 X26.5006 Y12.1868
G01 X26.5059 Y12.1965
G01 X26.5525 Y12.2952
G01 X26.5905 Y12.4015
G01 X26.6179 Y12.5110
G01 X26.6341 Y12.6189
G01 X26.6350 Y12.6299
G01 X26.6400 Y12.7353
G01 X26.6345 Y12.8480
G01 X26.6179 Y12.9597
G01 X26.5905 Y13.0691
G01 X26.5525 Y13.1754
G01 X26.5042 Y13.2774
G01 X26.4462 Y13.3742
G01 X26.3835 Y13.4591
G01 X26.3766 Y13.4677
G01 X26.3032 Y13.5485
G01 X26.2196 Y13.6243
G01 X26.1289 Y13.6915
G01 X26.0321 Y13.7495
G01 X25.9301 Y13.7978
G01 X25.8238 Y13.8358
G01 X25.7144 Y13.8632
G01 X25.6027 Y13.8798
G01 X25.4900 Y13.8853
G01 X25.3773 Y13.8798
G01 X25.2656 Y13.8632
G01 X25.1562 Y13.8358
G01 X25.0499 Y13.7978
G01 X24.9479 Y13.7495
G01 X24.8511 Y13.6915
G01 X24.7663 Y13.6288
G01 X24.7576 Y13.6219
G01 X24.6768 Y13.5485
G01 X24.6010 Y13.4649
G01 X24.5338 Y13.3742
G01 X24.4758 Y13.2774
G01 X24.4275 Y13.1754
G01 X24.3895 Y13.0691
G01 X24.3621 Y12.9597
G01 X24.3464 Y12.8553
G01 X24.3452 Y12.8444
G01 X24.3400 Y12.7353
G01 X24.3455 Y12.6226
G01 X24.3621 Y12.5110
G01 X24.3876 Y12.4086
G01 X24.3906 Y12.3980
G01 X24.4275 Y12.2952
G01 X24.4725 Y12.1998
G01 X24.4776 Y12.1900
G01 X24.5299 Y12.1026
G01 X24.5359 Y12.0934
G01 X24.5987 Y12.0086
G01 X24.6058 Y12.0002
G01 X24.6241 Y11.9800
G00 Z1.0000
G00 X24.5896 Y11.9809
G01 F30.00
G01 Z-0.1418
G01 F60.00
G01 X19.9170 Y7.3083
G01 X19.8692 Y7.2559
G01 X19.8609 Y7.2460
G01 X19.8162 Y7.1855
G01 X19.7754 Y7.1173
G01 X19.7414 Y7.0454
G01 X19.7146 Y6.9705
G01 X19.6953 Y6.8934
G01 X19.6836 Y6.8147
G01 X19.6797 Y6.7353
G01 X19.6836 Y6.6559
G01 X19.6953 Y6.5772
G01 X19.7146 Y6.5001
G01 X19.7414 Y6.4252
G01 X19.7754 Y6.3533
G01 X19.8162 Y6.2851
G01 X19.8636 Y6.2213
G01 X19.9170 Y6.1623
G01 X19.9694 Y6.1145
G01 X19.9793 Y6.1062
G01 X20.0398 Y6.0616
G01 X20.1080 Y6.0207
G01 X20.1799 Y5.9867
G01 X20.2466 Y5.9626
G01 X20.2631 Y5.9576
G01 X20.3235 Y5.9425
G01 X20.3404 Y5.9391
G01 X20.4106 Y5.9289
G01 X20.4900 Y5.9250
G01 X20.5694 Y5.9289
G01 X20.6481 Y5.9406
G01 X20.7252 Y5.9599
G01 X20.7921 Y5.9836
G01 X20.8079 Y5.9902
G01 X20.8643 Y6.0168
G01 X20.8795 Y6.0249
G01 X20.9402 Y6.0616
G01 X21.0041 Y6.1089
G01 X21.0630 Y6.1623
G01 X26.0630 Y11.1623
G01 X26.1136 Y11.2180
G01 X26.1217 Y11.2280
G01 X26.1638 Y11.2851
G01 X26.2046 Y11.3533
G01 X26.2386 Y11.4252
G01 X26.2627 Y11.4919
G01 X26.2666 Y11.5042
G01 X26.2847 Y11.5772
G01 X26.2964 Y11.6559
G01 X26.3003 Y11.7310
G01 X26.3003 Y11.8856
G01 X26.3178 Y11.9015
G01 X26.3238 Y11.9075
G01 X26.3927 Y11.9834
G01 X26.4036 Y11.9967
G01 X26.4670 Y12.0825
G01 X26.5220 Y12.1740
G01 X26.5282 Y12.1852
G01 X26.5756 Y12.2857
G01 X26.6144 Y12.3942
G01 X26.6424 Y12.5061
G01 X26.6589 Y12.6159
G01 X26.6600 Y12.6287
G01 X26.6650 Y12.7353
G01 X26.6593 Y12.8505
G01 X26.6424 Y12.9645
G01 X26.6144 Y13.0764
G01 X26.5756 Y13.1850
G01 X26.5263 Y13.2892
G01 X26.4670 Y13.3881
G01 X26.3983 Y13.4807
G01 X26.3209 Y13.5662
G01 X26.2354 Y13.6436
G01 X26.1428 Y13.7123
G01 X26.0439 Y13.7716
G01 X25.9397 Y13.8209
G01 X25.8311 Y13.8597
G01 X25.7192 Y13.8877
G01 X25.6052 Y13.9047
G01 X25.4900 Y13.9103
G01 X25.3748 Y13.9047
G01 X25.2608 Y13.8877
G01 X25.1489 Y13.8597
G01 X25.0403 Y13.8209
G01 X24.9361 Y13.7716
G01 X24.8372 Y13.7123
G01 X24.7446 Y13.6436
G01 X24.6591 Y13.5662
G01 X24.5817 Y13.4807
G01 X24.5130 Y13.3881
G01 X24.4537 Y13.2892
G01 X24.4044 Y13.1850
G01 X24.3656 Y13.0764
G01 X24.3376 Y12.9645
G01 X24.3207 Y12.8505
G01 X24.3150 Y12.7353
G01 X24.3207 Y12.6201
G01 X24.3376 Y12.5061
G01 X24.3656 Y12.3942
G01 X24.4044 Y12.2857
G01 X24.4537 Y12.1814
G01 X24.5130 Y12.0825
G01 X24.5764 Y11.9967
G01 X24.5817 Y11.9899
G01 X24.5896 Y11.9809
G00 Z1.0000
G00 X31.5058 Y58.1420
G01 F30.00
G01 Z-0.1418
G01 F60.00
G01 X31.5022 Y58.2165
G01 X31.4912 Y58.2903
G01 X31.4731 Y58.3627
G01 X31.4479 Y58.4330
G01 X31.4160 Y58.5004
G01 X31.3777 Y58.5644
G01 X31.3332 Y58.6244
G01 X31.2874 Y58.6752
G01 X28.6498 Y61.3129
G01 X28.5945 Y61.3631
G01 X28.5396 Y61.4040
G01 X28.5294 Y61.4108
G01 X28.4759 Y61.4428
G01 X28.4679 Y61.4473
G01 X28.4088 Y61.4753
G01 X28.3974 Y61.4800
G01 X28.3329 Y61.5029
G01 X28.2665 Y61.5197
G01 X28.2545 Y61.5221
G01 X28.1867 Y61.5320
G01 X28.1153 Y61.5356
G01 X26.2400 Y61.5356
G01 X26.1655 Y61.5320
G01 X26.0977 Y61.5221
G01 X26.0857 Y61.5197
G01 X26.0193 Y61.5029
G01 X25.9548 Y61.4800
G01 X25.9434 Y61.4753
G01 X25.8816 Y61.4459
G01 X25.8176 Y61.4075
G01 X25.7625 Y61.3668
G01 X25.7530 Y61.3590
G01 X25.7024 Y61.3129
G01 X25.6563 Y61.2623
G01 X25.6485 Y61.2528
G01 X25.6078 Y61.1977
G01 X25.5725 Y61.1391
G01 X25.5680 Y61.1310
G01 X25.5376 Y61.0663
G01 X25.5124 Y60.9960
G01 X25.4943 Y60.9236
G01 X25.4841 Y60.8559
G01 X25.4829 Y60.8437
G01 X25.4798 Y60.7815
G01 X25.4798 Y60.7692
G01 X25.4833 Y60.7008
G01 X25.4943 Y60.6270
G01 X25.5124 Y60.5546
G01 X25.5376 Y60.4844
G01 X25.5695 Y60.4169
G01 X25.6045 Y60.3581
G01 X25.6114 Y60.3479
G01 X25.6485 Y60.2978
G01 X25.6563 Y60.2883
G01 X25.7024 Y60.2377
G01 X25.7530 Y60.1916
G01 X25.7625 Y60.1838
G01 X25.8176 Y60.1431
G01 X25.8763 Y60.1078
G01 X25.8871 Y60.1020
G01 X25.9490 Y60.0729
G01 X26.0193 Y60.0477
G01 X26.0857 Y60.0310
G01 X26.0977 Y60.0286
G01 X26.1594 Y60.0194
G01 X26.1685 Y60.0184
G01 X26.2400 Y60.0150
G01 X27.7973 Y60.0150
G01 X29.9852 Y57.8271
G01 X29.9852 Y28.0222
G01 X29.9888 Y27.9508
G01 X29.9998 Y27.8770
G01 X30.0179 Y27.8046
G01 X30.0431 Y27.7344
G01 X30.0750 Y27.6669
G01 X30.1133 Y27.6029
G01 X30.1578 Y27.5430
G01 X30.2079 Y27.4877
G01 X30.2632 Y27.4376
G01 X30.3231 Y27.3931
G01 X30.3871 Y27.3548
G01 X30.4545 Y27.3229
G01 X30.5248 Y27.2977
G01 X30.5972 Y27.2796
G01 X30.6710 Y27.2687
G01 X30.7424 Y27.2650
G01 X30.7516 Y27.2652
G01 X30.8200 Y27.2687
G01 X30.8938 Y27.2796
G01 X30.9662 Y27.2977
G01 X31.0365 Y27.3229
G01 X31.1039 Y27.3548
G01 X31.1679 Y27.3931
G01 X31.2278 Y27.4376
G01 X31.2831 Y27.4877
G01 X31.3332 Y27.5430
G01 X31.3777 Y27.6029
G01 X31.4160 Y27.6669
G01 X31.4479 Y27.7344
G01 X31.4731 Y27.8046
G01 X31.4912 Y27.8770
G01 X31.5022 Y27.9508
G01 X31.5058 Y28.0222
G01 X31.5058 Y58.1420
G00 Z1.0000
G00 X31.5308 Y58.1420
G01 F30.00
G01 Z-0.1418
G01 F60.00
G01 X31.5270 Y58.2190
G01 X31.5157 Y58.2952
G01 X31.4970 Y58.3700
G01 X31.4710 Y58.4425
G01 X31.4381 Y58.5122
G01 X31.3985 Y58.5783
G01 X31.3526 Y58.6402
G01 X31.3059 Y58.6920
G01 X28.6675 Y61.3306
G01 X28.6104 Y61.3824
G01 X28.5545 Y61.4240
G01 X28.5423 Y61.4322
G01 X28.4888 Y61.4643
G01 X28.4791 Y61.4696
G01 X28.4127 Y61.5009
G01 X28.3472 Y61.5245
G01 X28.3331 Y61.5288
G01 X28.2654 Y61.5455
G01 X28.1965 Y61.5560
G01 X28.1818 Y61.5574
G01 X28.1196 Y61.5605
G01 X26.2400 Y61.5606
G01 X26.1704 Y61.5574
G01 X26.1594 Y61.5564
G01 X26.0940 Y61.5468
G01 X26.0796 Y61.5439
G01 X26.0120 Y61.5268
G01 X25.9463 Y61.5035
G01 X25.9327 Y61.4979
G01 X25.8698 Y61.4679
G01 X25.8037 Y61.4283
G01 X25.7476 Y61.3869
G01 X25.7362 Y61.3776
G01 X25.6847 Y61.3306
G01 X25.6378 Y61.2791
G01 X25.6284 Y61.2677
G01 X25.5870 Y61.2116
G01 X25.5510 Y61.1519
G01 X25.5457 Y61.1422
G01 X25.5145 Y61.0758
G01 X25.4885 Y61.0033
G01 X25.4698 Y60.9285
G01 X25.4594 Y60.8596
G01 X25.4579 Y60.8449
G01 X25.4549 Y60.7827
G01 X25.4549 Y60.7680
G01 X25.4585 Y60.6983
G01 X25.4698 Y60.6221
G01 X25.4885 Y60.5474
G01 X25.5145 Y60.4748
G01 X25.5474 Y60.4051
G01 X25.5831 Y60.3452
G01 X25.5913 Y60.3330
G01 X25.6284 Y60.2829
G01 X25.6378 Y60.2715
G01 X25.6847 Y60.2200
G01 X25.7362 Y60.1731
G01 X25.7476 Y60.1637
G01 X25.8037 Y60.1223
G01 X25.8634 Y60.0864
G01 X25.8764 Y60.0794
G01 X25.9395 Y60.0498
G01 X26.0120 Y60.0238
G01 X26.0796 Y60.0067
G01 X26.0940 Y60.0038
G01 X26.1557 Y59.9947
G01 X26.1667 Y59.9935
G01 X26.2400 Y59.9900
G01 X27.7869 Y59.9900
G01 X29.9602 Y57.8167
G01 X29.9602 Y28.0216
G01 X29.9640 Y27.9483
G01 X29.9753 Y27.8721
G01 X29.9940 Y27.7974
G01 X30.0200 Y27.7248
G01 X30.0529 Y27.6551
G01 X30.0925 Y27.5890
G01 X30.1384 Y27.5271
G01 X30.1902 Y27.4700
G01 X30.2473 Y27.4183
G01 X30.3092 Y27.3723
G01 X30.3753 Y27.3327
G01 X30.4450 Y27.2998
G01 X30.5175 Y27.2738
G01 X30.5923 Y27.2551
G01 X30.6685 Y27.2438
G01 X30.7418 Y27.2400
G01 X30.7529 Y27.2402
G01 X30.8225 Y27.2438
G01 X30.8987 Y27.2551
G01 X30.9735 Y27.2738
G01 X31.0460 Y27.2998
G01 X31.1157 Y27.3327
G01 X31.1818 Y27.3723
G01 X31.2437 Y27.4183
G01 X31.3008 Y27.4700
G01 X31.3526 Y27.5271
G01 X31.3985 Y27.5890
G01 X31.4381 Y27.6551
G01 X31.4710 Y27.7248
G01 X31.4970 Y27.7974
G01 X31.5157 Y27.8721
G01 X31.5270 Y27.9483
G01 X31.5308 Y28.0216
G01 X31.5308 Y58.1420
G00 Z1.0000
G00 X31.5558 Y58.1420
G01 F30.00
G01 Z-0.1418
G01 F60.00
G01 X31.5519 Y58.2214
G01 X31.5402 Y58.3001
G01 X31.5209 Y58.3772
G01 X31.4941 Y58.4521
G01 X31.4601 Y58.5240
G01 X31.4193 Y58.5922
G01 X31.3719 Y58.6561
G01 X31.3244 Y58.7088
G01 X28.6852 Y61.3483
G01 X28.6263 Y61.4017
G01 X28.5694 Y61.4441
G01 X28.5551 Y61.4537
G01 X28.5017 Y61.4857
G01 X28.4904 Y61.4919
G01 X28.4223 Y61.5240
G01 X28.3556 Y61.5480
G01 X28.3391 Y61.5530
G01 X28.2703 Y61.5701
G01 X28.2001 Y61.5807
G01 X28.1831 Y61.5824
G01 X28.1208 Y61.5854
G01 X26.2400 Y61.5856
G01 X26.1691 Y61.5824
G01 X26.1563 Y61.5813
G01 X26.0904 Y61.5715
G01 X26.0735 Y61.5682
G01 X26.0048 Y61.5507
G01 X25.9379 Y61.5270
G01 X25.9221 Y61.5205
G01 X25.8580 Y61.4900
G01 X25.7898 Y61.4491
G01 X25.7327 Y61.4070
G01 X25.7194 Y61.3961
G01 X25.6670 Y61.3483
G01 X25.6192 Y61.2959
G01 X25.6083 Y61.2826
G01 X25.5662 Y61.2255
G01 X25.5296 Y61.1648
G01 X25.5234 Y61.1535
G01 X25.4914 Y61.0854
G01 X25.4646 Y61.0105
G01 X25.4453 Y60.9334
G01 X25.4346 Y60.8633
G01 X25.4330 Y60.8462
G01 X25.4299 Y60.7839
G01 X25.4299 Y60.7667
G01 X25.4336 Y60.6959
G01 X25.4453 Y60.6172
G01 X25.4646 Y60.5401
G01 X25.4914 Y60.4652
G01 X25.5254 Y60.3933
G01 X25.5617 Y60.3324
G01 X25.5712 Y60.3181
G01 X25.6083 Y60.2680
G01 X25.6192 Y60.2548
G01 X25.6670 Y60.2023
G01 X25.7194 Y60.1545
G01 X25.7327 Y60.1436
G01 X25.7898 Y60.1016
G01 X25.8505 Y60.0649
G01 X25.8657 Y60.0568
G01 X25.9299 Y60.0267
G01 X26.0048 Y59.9999
G01 X26.0735 Y59.9825
G01 X26.0904 Y59.9791
G01 X26.1606 Y59.9689
G01 X26.2400 Y59.9650
G01 X27.7766 Y59.9650
G01 X29.9352 Y57.8064
G01 X29.9352 Y28.0210
G01 X29.9391 Y27.9459
G01 X29.9508 Y27.8672
G01 X29.9701 Y27.7901
G01 X29.9969 Y27.7152
G01 X30.0309 Y27.6433
G01 X30.0717 Y27.5751
G01 X30.1191 Y27.5113
G01 X30.1725 Y27.4523
G01 X30.2314 Y27.3989
G01 X30.2953 Y27.3516
G01 X30.3635 Y27.3107
G01 X30.4354 Y27.2767
G01 X30.5103 Y27.2499
G01 X30.5874 Y27.2306
G01 X30.6661 Y27.2189
G01 X30.7412 Y27.2151
G01 X30.7541 Y27.2152
G01 X30.8249 Y27.2189
G01 X30.9036 Y27.2306
G01 X30.9807 Y27.2499
G01 X31.0556 Y27.2767
G01 X31.1275 Y27.3107
G01 X31.1957 Y27.3516
G01 X31.2596 Y27.3989
G01 X31.3185 Y27.4523
G01 X31.3719 Y27.5113
G01 X31.4193 Y27.5751
G01 X31.4601 Y27.6433
G01 X31.4941 Y27.7152
G01 X31.5209 Y27.7901
G01 X31.5402 Y27.8672
G01 X31.5519 Y27.9459
G01 X31.5558 Y28.0210
G01 X31.5558 Y58.1420
G00 Z1.0000
G00 X41.0252 Y58.7807
G01 F30.00
G01 Z-0.1418
G01 F60.00
G01 X41.0366 Y58.7854
G01 X41.0984 Y58.8148
G01 X41.1572 Y58.8499
G01 X41.1674 Y58.8567
G01 X41.2223 Y58.8976
G01 X41.2732 Y58.9435
G01 X41.2819 Y58.9521
G01 X41.3237 Y58.9983
G01 X41.3315 Y59.0078
G01 X41.3722 Y59.0629
G01 X41.4105 Y59.1269
G01 X41.4424 Y59.1944
G01 X41.4657 Y59.2588
G01 X41.4692 Y59.2705
G01 X41.4844 Y59.3310
G01 X41.4868 Y59.3430
G01 X41.4967 Y59.4108
G01 X41.5002 Y59.4792
G01 X41.5002 Y59.4915
G01 X41.4967 Y59.5598
G01 X41.4857 Y59.6336
G01 X41.4692 Y59.7001
G01 X41.4657 Y59.7119
G01 X41.4424 Y59.7763
G01 X41.4133 Y59.8382
G01 X41.4075 Y59.8491
G01 X41.3722 Y59.9077
G01 X41.3315 Y59.9628
G01 X41.3258 Y59.9700
G01 X41.2776 Y60.0229
G01 X32.7503 Y68.5503
G01 X32.7503 Y92.9853
G01 X32.7467 Y93.0598
G01 X32.7368 Y93.1276
G01 X32.7344 Y93.1396
G01 X32.7176 Y93.2060
G01 X32.6946 Y93.2706
G01 X32.6900 Y93.2819
G01 X32.6620 Y93.3410
G01 X32.6575 Y93.3491
G01 X32.6255 Y93.4025
G01 X32.6186 Y93.4127
G01 X32.5777 Y93.4677
G01 X32.5276 Y93.5229
G01 X29.5376 Y96.5129
G01 X29.4823 Y96.5631
G01 X29.4274 Y96.6040
G01 X29.4172 Y96.6108
G01 X29.3584 Y96.6459
G01 X29.2966 Y96.6753
G01 X29.2852 Y96.6800
G01 X29.2236 Y96.7020
G01 X29.2148 Y96.7045
G01 X29.1543 Y96.7197
G01 X29.1423 Y96.7221
G01 X29.0745 Y96.7320
G01 X29.0000 Y96.7356
G01 X22.7300 Y96.7356
G01 X22.6555 Y96.7320
G01 X22.5877 Y96.7221
G01 X22.5757 Y96.7197
G01 X22.5093 Y96.7029
G01 X22.4448 Y96.6800
G01 X22.4334 Y96.6753
G01 X22.3743 Y96.6473
G01 X22.3663 Y96.6428
G01 X22.3128 Y96.6108
G01 X22.3026 Y96.6040
G01 X22.2477 Y96.5631
G01 X22.1924 Y96.5129
G01 X14.9524 Y89.2729
G01 X14.9023 Y89.2177
G01 X14.8578 Y89.1577
G01 X14.8195 Y89.0937
G01 X14.7900 Y89.0319
G01 X14.7854 Y89.0206
G01 X14.7624 Y88.9560
G01 X14.7456 Y88.8896
G01 X14.7432 Y88.8776
G01 X14.7333 Y88.8098
G01 X14.7297 Y88.7384
G01 X14.7297 Y81.3003
G01 X12.7451 Y79.3156
G01 X11.0000 Y79.3156
G01 X10.9316 Y79.3124
G01 X10.9194 Y79.3112
G01 X10.8517 Y79.3010
G01 X10.7852 Y79.2845
G01 X10.7735 Y79.2810
G01 X10.7090 Y79.2578
G01 X10.6471 Y79.2286
G01 X10.6363 Y79.2228
G01 X10.5828 Y79.1908
G01 X10.5751 Y79.1858
G01 X10.5177 Y79.1431
G01 X10.4624 Y79.0929
G01 X10.4123 Y79.0377
G01 X10.3678 Y78.9777
G01 X10.3295 Y78.9137
G01 X10.2976 Y78.8463
G01 X10.2724 Y78.7760
G01 X10.2556 Y78.7096
G01 X10.2532 Y78.6976
G01 X10.2433 Y78.6298
G01 X10.2398 Y78.5615
G01 X10.2398 Y78.5492
G01 X10.2429 Y78.4869
G01 X10.2441 Y78.4747
G01 X10.2543 Y78.4070
G01 X10.2724 Y78.3346
G01 X10.2976 Y78.2644
G01 X10.3280 Y78.1996
G01 X10.3325 Y78.1916
G01 X10.3678 Y78.1329
G01 X10.4085 Y78.0778
G01 X10.4163 Y78.0683
G01 X10.4624 Y78.0177
G01 X10.5130 Y77.9716
G01 X10.5225 Y77.9638
G01 X10.5776 Y77.9231
G01 X10.6416 Y77.8848
G01 X10.7034 Y77.8554
G01 X10.7148 Y77.8507
G01 X10.7793 Y77.8277
G01 X10.8457 Y77.8110
G01 X10.8577 Y77.8086
G01 X10.9224 Y77.7990
G01 X10.9316 Y77.7982
G01 X11.0000 Y77.7950
G01 X13.0631 Y77.7950
G01 X13.1345 Y77.7987
G01 X13.2083 Y77.8096
G01 X13.2807 Y77.8277
G01 X13.3510 Y77.8529
G01 X13.4184 Y77.8848
G01 X13.4824 Y77.9231
G01 X13.5423 Y77.9676
G01 X13.5954 Y78.0155
G01 X16.0276 Y80.4477
G01 X16.0737 Y80.4983
G01 X16.0815 Y80.5078
G01 X16.1222 Y80.5629
G01 X16.1605 Y80.6269
G01 X16.1924 Y80.6944
G01 X16.2157 Y80.7588
G01 X16.2192 Y80.7705
G01 X16.2344 Y80.8310
G01 X16.2368 Y80.8430
G01 X16.2467 Y80.9108
G01 X16.2503 Y80.9822
G01 X16.2503 Y88.4204
G01 X23.0449 Y95.2150
G01 X28.6851 Y95.2150
G01 X31.2297 Y92.6704
G01 X31.2297 Y68.2353
G01 X31.2333 Y68.1608
G01 X31.2432 Y68.0930
G01 X31.2456 Y68.0810
G01 X31.2608 Y68.0205
G01 X31.2633 Y68.0117
G01 X31.2854 Y67.9501
G01 X31.2900 Y67.9387
G01 X31.3195 Y67.8769
G01 X31.3545 Y67.8181
G01 X31.3614 Y67.8079
G01 X31.4023 Y67.7530
G01 X31.4524 Y67.6977
G01 X40.2046 Y58.9455
G01 X40.2577 Y58.8976
G01 X40.3126 Y58.8567
G01 X40.3228 Y58.8499
G01 X40.3816 Y58.8148
G01 X40.4490 Y58.7829
G01 X40.5135 Y58.7597
G01 X40.5252 Y58.7561
G01 X40.5917 Y58.7396
G01 X40.6655 Y58.7287
G01 X40.7339 Y58.7252
G01 X40.7461 Y58.7252
G01 X40.8145 Y58.7287
G01 X40.8823 Y58.7386
G01 X40.8943 Y58.7410
G01 X40.9607 Y58.7577
G01 X41.0252 Y58.7807
G00 Z1.0000
G00 X41.0337 Y58.7571
G01 F30.00
G01 Z-0.1418
G01 F60.00
G01 X41.0473 Y58.7628
G01 X41.1102 Y58.7927
G01 X41.1701 Y58.8284
G01 X41.1823 Y58.8366
G01 X41.2382 Y58.8783
G01 X41.2900 Y58.9249
G01 X41.3004 Y58.9353
G01 X41.3422 Y58.9815
G01 X41.3516 Y58.9929
G01 X41.3930 Y59.0490
G01 X41.4326 Y59.1151
G01 X41.4655 Y59.1848
G01 X41.4892 Y59.2504
G01 X41.4935 Y59.2644
G01 X41.5086 Y59.3249
G01 X41.5115 Y59.3394
G01 X41.5215 Y59.4083
G01 X41.5251 Y59.4780
G01 X41.5251 Y59.4927
G01 X41.5215 Y59.5623
G01 X41.5102 Y59.6385
G01 X41.4935 Y59.7062
G01 X41.4892 Y59.7203
G01 X41.4655 Y59.7858
G01 X41.4359 Y59.8489
G01 X41.4290 Y59.8619
G01 X41.3930 Y59.9216
G01 X41.3516 Y59.9777
G01 X41.3447 Y59.9863
G01 X41.2953 Y60.0406
G01 X32.7753 Y68.5606
G01 X32.7753 Y92.9853
G01 X32.7715 Y93.0623
G01 X32.7615 Y93.1313
G01 X32.7586 Y93.1457
G01 X32.7415 Y93.2133
G01 X32.7182 Y93.2790
G01 X32.7126 Y93.2926
G01 X32.6843 Y93.3522
G01 X32.6790 Y93.3619
G01 X32.6469 Y93.4154
G01 X32.6387 Y93.4276
G01 X32.5971 Y93.4835
G01 X32.5453 Y93.5406
G01 X29.5553 Y96.5306
G01 X29.4982 Y96.5824
G01 X29.4423 Y96.6240
G01 X29.4301 Y96.6322
G01 X29.3702 Y96.6679
G01 X29.3073 Y96.6979
G01 X29.2937 Y96.7035
G01 X29.2315 Y96.7257
G01 X29.2209 Y96.7288
G01 X29.1604 Y96.7439
G01 X29.1460 Y96.7468
G01 X29.0770 Y96.7569
G01 X29.0000 Y96.7606
G01 X22.7300 Y96.7606
G01 X22.6530 Y96.7569
G01 X22.5840 Y96.7468
G01 X22.5696 Y96.7439
G01 X22.5020 Y96.7268
G01 X22.4363 Y96.7035
G01 X22.4227 Y96.6979
G01 X22.3631 Y96.6696
G01 X22.3534 Y96.6643
G01 X22.2999 Y96.6322
G01 X22.2877 Y96.6240
G01 X22.2318 Y96.5824
G01 X22.1747 Y96.5306
G01 X14.9347 Y89.2906
G01 X14.8829 Y89.2335
G01 X14.8370 Y89.1716
G01 X14.7974 Y89.1055
G01 X14.7674 Y89.0426
G01 X14.7618 Y89.0290
G01 X14.7385 Y88.9633
G01 X14.7214 Y88.8957
G01 X14.7185 Y88.8813
G01 X14.7085 Y88.8123
G01 X14.7047 Y88.7390
G01 X14.7047 Y81.3106
G01 X12.7347 Y79.3406
G01 X11.0000 Y79.3406
G01 X10.9267 Y79.3372
G01 X10.9157 Y79.3360
G01 X10.8540 Y79.3268
G01 X10.8396 Y79.3239
G01 X10.7720 Y79.3068
G01 X10.7063 Y79.2835
G01 X10.6927 Y79.2779
G01 X10.6298 Y79.2479
G01 X10.5699 Y79.2122
G01 X10.5607 Y79.2062
G01 X10.5018 Y79.1624
G01 X10.4447 Y79.1106
G01 X10.3929 Y79.0535
G01 X10.3470 Y78.9916
G01 X10.3074 Y78.9255
G01 X10.2745 Y78.8558
G01 X10.2485 Y78.7833
G01 X10.2314 Y78.7157
G01 X10.2285 Y78.7013
G01 X10.2185 Y78.6323
G01 X10.2149 Y78.5627
G01 X10.2149 Y78.5480
G01 X10.2179 Y78.4857
G01 X10.2194 Y78.4710
G01 X10.2298 Y78.4021
G01 X10.2485 Y78.3274
G01 X10.2745 Y78.2548
G01 X10.3057 Y78.1884
G01 X10.3110 Y78.1787
G01 X10.3470 Y78.1190
G01 X10.3884 Y78.0629
G01 X10.3978 Y78.0515
G01 X10.4447 Y78.0000
G01 X10.4962 Y77.9531
G01 X10.5076 Y77.9437
G01 X10.5637 Y77.9023
G01 X10.6298 Y77.8627
G01 X10.6927 Y77.8328
G01 X10.7063 Y77.8271
G01 X10.7720 Y77.8038
G01 X10.8396 Y77.7867
G01 X10.8540 Y77.7838
G01 X10.9194 Y77.7742
G01 X10.9304 Y77.7732
G01 X11.0000 Y77.7700
G01 X13.0637 Y77.7700
G01 X13.1370 Y77.7738
G01 X13.2132 Y77.7851
G01 X13.2880 Y77.8038
G01 X13.3571 Y77.8284
G01 X13.3673 Y77.8328
G01 X13.4302 Y77.8627
G01 X13.4963 Y77.9023
G01 X13.5582 Y77.9483
G01 X13.6127 Y77.9974
G01 X16.0453 Y80.4300
G01 X16.0922 Y80.4815
G01 X16.1016 Y80.4929
G01 X16.1430 Y80.5490
G01 X16.1826 Y80.6151
G01 X16.2155 Y80.6848
G01 X16.2392 Y80.7504
G01 X16.2435 Y80.7644
G01 X16.2586 Y80.8249
G01 X16.2615 Y80.8394
G01 X16.2715 Y80.9083
G01 X16.2753 Y80.9816
G01 X16.2753 Y88.4100
G01 X23.0553 Y95.1900
G01 X28.6747 Y95.1900
G01 X31.2047 Y92.6600
G01 X31.2047 Y68.2353
G01 X31.2085 Y68.1583
G01 X31.2185 Y68.0894
G01 X31.2214 Y68.0749
G01 X31.2365 Y68.0144
G01 X31.2396 Y68.0038
G01 X31.2618 Y67.9417
G01 X31.2674 Y67.9281
G01 X31.2974 Y67.8651
G01 X31.3331 Y67.8052
G01 X31.3413 Y67.7930
G01 X31.3829 Y67.7371
G01 X31.4347 Y67.6800
G01 X40.1873 Y58.9274
G01 X40.2418 Y58.8783
G01 X40.2977 Y58.8366
G01 X40.3099 Y58.8284
G01 X40.3698 Y58.7927
G01 X40.4395 Y58.7598
G01 X40.5050 Y58.7361
G01 X40.5191 Y58.7319
G01 X40.5868 Y58.7151
G01 X40.6630 Y58.7038
G01 X40.7326 Y58.7002
G01 X40.7474 Y58.7002
G01 X40.8170 Y58.7038
G01 X40.8860 Y58.7138
G01 X40.9004 Y58.7167
G01 X40.9680 Y58.7338
G01 X41.0337 Y58.7571
G00 Z1.0000
G00 X41.0421 Y58.7336
G01 F30.00
G01 Z-0.1418
G01 F60.00
G01 X41.0579 Y58.7402
G01 X41.1220 Y58.7707
G01 X41.1829 Y58.8070
G01 X41.1972 Y58.8165
G01 X41.2541 Y58.8589
G01 X41.3068 Y58.9064
G01 X41.3189 Y58.9186
G01 X41.3608 Y58.9648
G01 X41.3717 Y58.9780
G01 X41.4138 Y59.0351
G01 X41.4546 Y59.1033
G01 X41.4886 Y59.1752
G01 X41.5127 Y59.2419
G01 X41.5177 Y59.2584
G01 X41.5329 Y59.3189
G01 X41.5362 Y59.3357
G01 X41.5464 Y59.4059
G01 X41.5501 Y59.4767
G01 X41.5501 Y59.4939
G01 X41.5464 Y59.5647
G01 X41.5347 Y59.6434
G01 X41.5177 Y59.7123
G01 X41.5127 Y59.7287
G01 X41.4886 Y59.7954
G01 X41.4585 Y59.8596
G01 X41.4504 Y59.8748
G01 X41.4138 Y59.9355
G01 X41.3664 Y59.9994
G01 X41.3130 Y60.0583
G01 X32.8003 Y68.5710
G01 X32.8003 Y92.9853
G01 X32.7964 Y93.0647
G01 X32.7862 Y93.1349
G01 X32.7829 Y93.1518
G01 X32.7654 Y93.2205
G01 X32.7417 Y93.2874
G01 X32.7352 Y93.3033
G01 X32.7066 Y93.3635
G01 X32.7004 Y93.3748
G01 X32.6683 Y93.4282
G01 X32.6588 Y93.4425
G01 X32.6164 Y93.4994
G01 X32.5630 Y93.5583
G01 X29.5730 Y96.5483
G01 X29.5141 Y96.6017
G01 X29.4572 Y96.6441
G01 X29.4429 Y96.6537
G01 X29.3820 Y96.6900
G01 X29.3179 Y96.7205
G01 X29.3021 Y96.7270
G01 X29.2393 Y96.7494
G01 X29.2269 Y96.7530
G01 X29.1665 Y96.7682
G01 X29.1496 Y96.7715
G01 X29.0794 Y96.7817
G01 X29.0000 Y96.7856
G01 X22.7300 Y96.7856
G01 X22.6506 Y96.7817
G01 X22.5804 Y96.7715
G01 X22.5635 Y96.7682
G01 X22.4948 Y96.7507
G01 X22.4279 Y96.7270
G01 X22.4121 Y96.7205
G01 X22.3518 Y96.6919
G01 X22.3405 Y96.6857
G01 X22.2871 Y96.6537
G01 X22.2728 Y96.6441
G01 X22.2159 Y96.6017
G01 X22.1570 Y96.5483
G01 X14.9170 Y89.3083
G01 X14.8636 Y89.2494
G01 X14.8162 Y89.1855
G01 X14.7754 Y89.1173
G01 X14.7448 Y89.0533
G01 X14.7383 Y89.0374
G01 X14.7146 Y88.9705
G01 X14.6971 Y88.9018
G01 X14.6938 Y88.8849
G01 X14.6836 Y88.8147
G01 X14.6797 Y88.7396
G01 X14.6797 Y81.3210
G01 X12.7244 Y79.3656
G01 X11.0000 Y79.3656
G01 X10.9249 Y79.3621
G01 X10.9121 Y79.3607
G01 X10.8504 Y79.3515
G01 X10.8335 Y79.3482
G01 X10.7648 Y79.3307
G01 X10.6979 Y79.3070
G01 X10.6821 Y79.3005
G01 X10.6180 Y79.2700
G01 X10.5571 Y79.2337
G01 X10.5463 Y79.2266
G01 X10.4859 Y79.1817
G01 X10.4270 Y79.1283
G01 X10.3736 Y79.0694
G01 X10.3262 Y79.0055
G01 X10.2854 Y78.9373
G01 X10.2514 Y78.8654
G01 X10.2246 Y78.7905
G01 X10.2071 Y78.7218
G01 X10.2038 Y78.7049
G01 X10.1936 Y78.6347
G01 X10.1899 Y78.5639
G01 X10.1899 Y78.5467
G01 X10.1930 Y78.4845
G01 X10.1946 Y78.4674
G01 X10.2053 Y78.3972
G01 X10.2246 Y78.3201
G01 X10.2514 Y78.2452
G01 X10.2834 Y78.1771
G01 X10.2896 Y78.1659
G01 X10.3262 Y78.1051
G01 X10.3683 Y78.0480
G01 X10.3792 Y78.0348
G01 X10.4270 Y77.9823
G01 X10.4794 Y77.9345
G01 X10.4927 Y77.9236
G01 X10.5498 Y77.8816
G01 X10.6180 Y77.8407
G01 X10.6821 Y77.8102
G01 X10.6979 Y77.8036
G01 X10.7648 Y77.7799
G01 X10.8335 Y77.7625
G01 X10.8504 Y77.7591
G01 X10.9163 Y77.7494
G01 X10.9291 Y77.7483
G01 X11.0000 Y77.7450
G01 X13.0643 Y77.7451
G01 X13.1394 Y77.7489
G01 X13.2181 Y77.7606
G01 X13.2952 Y77.7799
G01 X13.3661 Y77.8051
G01 X13.3779 Y77.8102
G01 X13.4420 Y77.8407
G01 X13.5102 Y77.8816
G01 X13.5741 Y77.9289
G01 X13.6299 Y77.9793
G01 X16.0630 Y80.4123
G01 X16.1108 Y80.4648
G01 X16.1217 Y80.4780
G01 X16.1638 Y80.5351
G01 X16.2046 Y80.6033
G01 X16.2386 Y80.6752
G01 X16.2627 Y80.7419
G01 X16.2677 Y80.7584
G01 X16.2829 Y80.8189
G01 X16.2862 Y80.8357
G01 X16.2964 Y80.9059
G01 X16.3003 Y80.9810
G01 X16.3003 Y88.3997
G01 X23.0656 Y95.1650
G01 X28.6644 Y95.1650
G01 X31.1797 Y92.6497
G01 X31.1797 Y68.2353
G01 X31.1836 Y68.1559
G01 X31.1938 Y68.0857
G01 X31.1971 Y68.0689
G01 X31.2123 Y68.0084
G01 X31.2159 Y67.9960
G01 X31.2383 Y67.9332
G01 X31.2448 Y67.9174
G01 X31.2754 Y67.8533
G01 X31.3117 Y67.7924
G01 X31.3212 Y67.7781
G01 X31.3636 Y67.7213
G01 X31.4170 Y67.6623
G01 X40.1701 Y58.9093
G01 X40.2259 Y58.8589
G01 X40.2828 Y58.8165
G01 X40.2971 Y58.8070
G01 X40.3580 Y58.7707
G01 X40.4299 Y58.7367
G01 X40.4966 Y58.7126
G01 X40.5131 Y58.7076
G01 X40.5819 Y58.6906
G01 X40.6606 Y58.6789
G01 X40.7314 Y58.6752
G01 X40.7486 Y58.6752
G01 X40.8194 Y58.6789
G01 X40.8896 Y58.6891
G01 X40.9065 Y58.6925
G01 X40.9752 Y58.7099
G01 X41.0421 Y58.7336
G00 Z1.0000
G00 X55.6752 Y55.0307
G01 F30.00
G01 Z-0.1418
G01 F60.00
G01 X55.6866 Y55.0354
G01 X55.7429 Y55.0620
G01 X55.7537 Y55.0678
G01 X55.8124 Y55.1031
G01 X55.8723 Y55.1476
G01 X55.9232 Y55.1935
G01 X55.9319 Y55.2021
G01 X55.9777 Y55.2530
G01 X56.0222 Y55.3129
G01 X56.0605 Y55.3769
G01 X56.0900 Y55.4387
G01 X56.0946 Y55.4501
G01 X56.1176 Y55.5146
G01 X56.1357 Y55.5870
G01 X56.1459 Y55.6547
G01 X56.1471 Y55.6669
G01 X56.1502 Y55.7292
G01 X56.1502 Y55.7415
G01 X56.1467 Y55.8098
G01 X56.1357 Y55.8836
G01 X56.1176 Y55.9560
G01 X56.0946 Y56.0206
G01 X56.0900 Y56.0319
G01 X56.0633 Y56.0882
G01 X56.0575 Y56.0991
G01 X56.0222 Y56.1577
G01 X55.9815 Y56.2128
G01 X55.9737 Y56.2223
G01 X55.9319 Y56.2685
G01 X55.9232 Y56.2772
G01 X55.8723 Y56.3231
G01 X55.8124 Y56.3675
G01 X55.7537 Y56.4028
G01 X55.7429 Y56.4086
G01 X55.6810 Y56.4378
G01 X55.6107 Y56.4629
G01 X55.5383 Y56.4810
G01 X55.4706 Y56.4912
G01 X55.4584 Y56.4924
G01 X55.3900 Y56.4956
G01 X50.7900 Y56.4956
G01 X50.7185 Y56.4922
G01 X50.7094 Y56.4912
G01 X50.6477 Y56.4821
G01 X50.6357 Y56.4797
G01 X50.5693 Y56.4629
G01 X50.4990 Y56.4378
G01 X50.4316 Y56.4059
G01 X50.3728 Y56.3708
G01 X50.3626 Y56.3640
G01 X50.3125 Y56.3268
G01 X50.3030 Y56.3190
G01 X50.2524 Y56.2729
G01 X48.5524 Y54.5729
G01 X48.5023 Y54.5177
G01 X48.4578 Y54.4577
G01 X48.4195 Y54.3937
G01 X48.3876 Y54.3263
G01 X48.3624 Y54.2560
G01 X48.3443 Y54.1836
G01 X48.3333 Y54.1098
G01 X48.3297 Y54.0384
G01 X48.3297 Y47.7503
G01 X41.8502 Y41.2707
G01 X41.8023 Y41.2177
G01 X41.7614 Y41.1627
G01 X41.7545 Y41.1525
G01 X41.7195 Y41.0937
G01 X41.6900 Y41.0319
G01 X41.6854 Y41.0206
G01 X41.6624 Y40.9560
G01 X41.6443 Y40.8836
G01 X41.6333 Y40.8098
G01 X41.6297 Y40.7353
G01 X41.6297 Y10.9353
G01 X41.6333 Y10.8608
G01 X41.6443 Y10.7870
G01 X41.6608 Y10.7205
G01 X41.6643 Y10.7088
G01 X41.6854 Y10.6501
G01 X41.6900 Y10.6387
G01 X41.7195 Y10.5769
G01 X41.7578 Y10.5129
G01 X41.8023 Y10.4530
G01 X41.8502 Y10.3999
G01 X45.0297 Y7.2204
G01 X45.0297 Y3.8353
G01 X45.0329 Y3.7669
G01 X45.0341 Y3.7547
G01 X45.0443 Y3.6870
G01 X45.0624 Y3.6146
G01 X45.0876 Y3.5444
G01 X45.1167 Y3.4824
G01 X45.1225 Y3.4716
G01 X45.1545 Y3.4181
G01 X45.1614 Y3.4079
G01 X45.2023 Y3.3530
G01 X45.2481 Y3.3021
G01 X45.2568 Y3.2935
G01 X45.3030 Y3.2516
G01 X45.3125 Y3.2438
G01 X45.3676 Y3.2031
G01 X45.4316 Y3.1648
G01 X45.4934 Y3.1354
G01 X45.5048 Y3.1307
G01 X45.5693 Y3.1077
G01 X45.6417 Y3.0896
G01 X45.7155 Y3.0787
G01 X45.7900 Y3.0750
G01 X45.8645 Y3.0787
G01 X45.9383 Y3.0896
G01 X46.0107 Y3.1077
G01 X46.0810 Y3.1329
G01 X46.1484 Y3.1648
G01 X46.2124 Y3.2031
G01 X46.2723 Y3.2476
G01 X46.3276 Y3.2977
G01 X46.3777 Y3.3530
G01 X46.4222 Y3.4129
G01 X46.4605 Y3.4769
G01 X46.4924 Y3.5444
G01 X46.5176 Y3.6146
G01 X46.5357 Y3.6870
G01 X46.5467 Y3.7608
G01 X46.5503 Y3.8353
G01 X46.5503 Y7.5353
G01 X46.5471 Y7.6037
G01 X46.5459 Y7.6159
G01 X46.5357 Y7.6836
G01 X46.5176 Y7.7560
G01 X46.4924 Y7.8263
G01 X46.4633 Y7.8882
G01 X46.4575 Y7.8991
G01 X46.4222 Y7.9577
G01 X46.3815 Y8.0128
G01 X46.3737 Y8.0223
G01 X46.3298 Y8.0707
G01 X43.1503 Y11.2503
G01 X43.1503 Y40.4204
G01 X49.6276 Y46.8977
G01 X49.6777 Y46.9530
G01 X49.7186 Y47.0079
G01 X49.7255 Y47.0181
G01 X49.7575 Y47.0716
G01 X49.7620 Y47.0796
G01 X49.7900 Y47.1387
G01 X49.7946 Y47.1501
G01 X49.8176 Y47.2146
G01 X49.8344 Y47.2810
G01 X49.8368 Y47.2930
G01 X49.8467 Y47.3608
G01 X49.8503 Y47.4322
G01 X49.8503 Y53.7204
G01 X51.1049 Y54.9750
G01 X55.3900 Y54.9750
G01 X55.4645 Y54.9787
G01 X55.5383 Y54.9896
G01 X55.6107 Y55.0077
G01 X55.6752 Y55.0307
G00 Z1.0000
G00 X55.6837 Y55.0071
G01 F30.00
G01 Z-0.1418
G01 F60.00
G01 X55.6973 Y55.0128
G01 X55.7536 Y55.0394
G01 X55.7666 Y55.0464
G01 X55.8263 Y55.0823
G01 X55.8882 Y55.1283
G01 X55.9400 Y55.1749
G01 X55.9504 Y55.1853
G01 X55.9971 Y55.2371
G01 X56.0430 Y55.2990
G01 X56.0826 Y55.3651
G01 X56.1126 Y55.4281
G01 X56.1182 Y55.4417
G01 X56.1415 Y55.5074
G01 X56.1602 Y55.5821
G01 X56.1706 Y55.6510
G01 X56.1721 Y55.6657
G01 X56.1751 Y55.7280
G01 X56.1751 Y55.7427
G01 X56.1715 Y55.8123
G01 X56.1602 Y55.8885
G01 X56.1415 Y55.9633
G01 X56.1182 Y56.0290
G01 X56.1126 Y56.0426
G01 X56.0859 Y56.0989
G01 X56.0790 Y56.1119
G01 X56.0430 Y56.1716
G01 X56.0016 Y56.2277
G01 X55.9922 Y56.2391
G01 X55.9504 Y56.2853
G01 X55.9400 Y56.2957
G01 X55.8882 Y56.3424
G01 X55.8263 Y56.3883
G01 X55.7666 Y56.4243
G01 X55.7536 Y56.4312
G01 X55.6905 Y56.4609
G01 X55.6180 Y56.4868
G01 X55.5432 Y56.5055
G01 X55.4743 Y56.5160
G01 X55.4596 Y56.5174
G01 X55.3900 Y56.5206
G01 X50.7900 Y56.5206
G01 X50.7204 Y56.5174
G01 X50.7057 Y56.5160
G01 X50.6440 Y56.5068
G01 X50.6296 Y56.5039
G01 X50.5620 Y56.4868
G01 X50.4895 Y56.4609
G01 X50.4198 Y56.4279
G01 X50.3599 Y56.3922
G01 X50.3477 Y56.3840
G01 X50.2976 Y56.3469
G01 X50.2890 Y56.3400
G01 X50.2347 Y56.2906
G01 X48.5347 Y54.5906
G01 X48.4829 Y54.5335
G01 X48.4370 Y54.4716
G01 X48.3974 Y54.4055
G01 X48.3645 Y54.3358
G01 X48.3385 Y54.2633
G01 X48.3198 Y54.1885
G01 X48.3085 Y54.1123
G01 X48.3047 Y54.0390
G01 X48.3047 Y47.7606
G01 X41.8321 Y41.2880
G01 X41.7829 Y41.2335
G01 X41.7413 Y41.1776
G01 X41.7331 Y41.1654
G01 X41.6974 Y41.1055
G01 X41.6674 Y41.0426
G01 X41.6618 Y41.0290
G01 X41.6385 Y40.9633
G01 X41.6198 Y40.8885
G01 X41.6085 Y40.8123
G01 X41.6047 Y40.7353
G01 X41.6047 Y10.9353
G01 X41.6085 Y10.8583
G01 X41.6198 Y10.7821
G01 X41.6365 Y10.7144
G01 X41.6408 Y10.7004
G01 X41.6618 Y10.6417
G01 X41.6674 Y10.6281
G01 X41.6974 Y10.5651
G01 X41.7370 Y10.4990
G01 X41.7829 Y10.4371
G01 X41.8321 Y10.3826
G01 X45.0047 Y7.2100
G01 X45.0047 Y3.8353
G01 X45.0085 Y3.7583
G01 X45.0185 Y3.6894
G01 X45.0214 Y3.6749
G01 X45.0365 Y3.6144
G01 X45.0408 Y3.6004
G01 X45.0645 Y3.5348
G01 X45.0974 Y3.4651
G01 X45.1370 Y3.3990
G01 X45.1784 Y3.3429
G01 X45.1878 Y3.3315
G01 X45.2347 Y3.2800
G01 X45.2918 Y3.2283
G01 X45.3477 Y3.1866
G01 X45.3599 Y3.1784
G01 X45.4198 Y3.1427
G01 X45.4827 Y3.1128
G01 X45.4963 Y3.1071
G01 X45.5620 Y3.0838
G01 X45.6368 Y3.0651
G01 X45.7130 Y3.0538
G01 X45.7900 Y3.0500
G01 X45.8670 Y3.0538
G01 X45.9432 Y3.0651
G01 X46.0180 Y3.0838
G01 X46.0905 Y3.1098
G01 X46.1602 Y3.1427
G01 X46.2263 Y3.1823
G01 X46.2882 Y3.2283
G01 X46.3453 Y3.2800
G01 X46.3971 Y3.3371
G01 X46.4430 Y3.3990
G01 X46.4826 Y3.4651
G01 X46.5155 Y3.5348
G01 X46.5415 Y3.6074
G01 X46.5602 Y3.6821
G01 X46.5715 Y3.7583
G01 X46.5753 Y3.8353
G01 X46.5753 Y7.5353
G01 X46.5721 Y7.6049
G01 X46.5706 Y7.6196
G01 X46.5602 Y7.6885
G01 X46.5415 Y7.7633
G01 X46.5155 Y7.8358
G01 X46.4859 Y7.8989
G01 X46.4790 Y7.9119
G01 X46.4430 Y7.9716
G01 X46.4016 Y8.0277
G01 X46.3922 Y8.0391
G01 X46.3479 Y8.0880
G01 X43.1753 Y11.2606
G01 X43.1753 Y40.4100
G01 X49.6453 Y46.8800
G01 X49.6971 Y46.9371
G01 X49.7387 Y46.9930
G01 X49.7469 Y47.0052
G01 X49.7790 Y47.0587
G01 X49.7843 Y47.0684
G01 X49.8126 Y47.1281
G01 X49.8182 Y47.1417
G01 X49.8415 Y47.2074
G01 X49.8586 Y47.2749
G01 X49.8615 Y47.2894
G01 X49.8715 Y47.3583
G01 X49.8753 Y47.4316
G01 X49.8753 Y53.7100
G01 X51.1153 Y54.9500
G01 X55.3937 Y54.9500
G01 X55.4670 Y54.9538
G01 X55.5432 Y54.9651
G01 X55.6180 Y54.9838
G01 X55.6837 Y55.0071
G00 Z1.0000
G00 X55.6921 Y54.9836
G01 F30.00
G01 Z-0.1418
G01 F60.00
G01 X55.7079 Y54.9902
G01 X55.7643 Y55.0168
G01 X55.7795 Y55.0249
G01 X55.8402 Y55.0616
G01 X55.9041 Y55.1089
G01 X55.9630 Y55.1623
G01 X56.0108 Y55.2148
G01 X56.0217 Y55.2280
G01 X56.0588 Y55.2781
G01 X56.0683 Y55.2924
G01 X56.1046 Y55.3533
G01 X56.1386 Y55.4252
G01 X56.1654 Y55.5001
G01 X56.1829 Y55.5689
G01 X56.1862 Y55.5857
G01 X56.1954 Y55.6474
G01 X56.1970 Y55.6645
G01 X56.2003 Y55.7353
G01 X56.1964 Y55.8147
G01 X56.1847 Y55.8934
G01 X56.1677 Y55.9623
G01 X56.1627 Y55.9787
G01 X56.1386 Y56.0454
G01 X56.1046 Y56.1173
G01 X56.0683 Y56.1782
G01 X56.0588 Y56.1925
G01 X56.0217 Y56.2426
G01 X56.0108 Y56.2559
G01 X55.9630 Y56.3083
G01 X55.9106 Y56.3561
G01 X55.8973 Y56.3670
G01 X55.8472 Y56.4041
G01 X55.8329 Y56.4137
G01 X55.7720 Y56.4500
G01 X55.7001 Y56.4840
G01 X55.6252 Y56.5107
G01 X55.5565 Y56.5282
G01 X55.5396 Y56.5315
G01 X55.4694 Y56.5417
G01 X55.3900 Y56.5456
G01 X50.7814 Y56.5454
G01 X50.7106 Y56.5417
G01 X50.6319 Y56.5301
G01 X50.5548 Y56.5107
G01 X50.4799 Y56.4840
G01 X50.4080 Y56.4500
G01 X50.3398 Y56.4091
G01 X50.2759 Y56.3617
G01 X50.2170 Y56.3083
G01 X48.5111 Y54.6021
G01 X48.4636 Y54.5494
G01 X48.4212 Y54.4925
G01 X48.4117 Y54.4782
G01 X48.3754 Y54.4173
G01 X48.3448 Y54.3533
G01 X48.3383 Y54.3374
G01 X48.3146 Y54.2705
G01 X48.2961 Y54.1976
G01 X48.2938 Y54.1849
G01 X48.2836 Y54.1147
G01 X48.2797 Y54.0353
G01 X48.2797 Y47.7710
G01 X41.8140 Y41.3052
G01 X41.7636 Y41.2494
G01 X41.7212 Y41.1925
G01 X41.7117 Y41.1782
G01 X41.6754 Y41.1173
G01 X41.6448 Y41.0533
G01 X41.6383 Y41.0374
G01 X41.6146 Y40.9705
G01 X41.5953 Y40.8934
G01 X41.5836 Y40.8147
G01 X41.5797 Y40.7353
G01 X41.5797 Y10.9353
G01 X41.5836 Y10.8559
G01 X41.5953 Y10.7772
G01 X41.6123 Y10.7084
G01 X41.6173 Y10.6919
G01 X41.6383 Y10.6332
G01 X41.6448 Y10.6174
G01 X41.6754 Y10.5533
G01 X41.7162 Y10.4851
G01 X41.7636 Y10.4213
G01 X41.8111 Y10.3686
G01 X44.9797 Y7.1997
G01 X44.9797 Y3.8353
G01 X44.9836 Y3.7559
G01 X44.9938 Y3.6857
G01 X44.9971 Y3.6689
G01 X45.0123 Y3.6084
G01 X45.0173 Y3.5919
G01 X45.0414 Y3.5252
G01 X45.0754 Y3.4533
G01 X45.1162 Y3.3851
G01 X45.1583 Y3.3280
G01 X45.1692 Y3.3148
G01 X45.2170 Y3.2623
G01 X45.2759 Y3.2089
G01 X45.3328 Y3.1665
G01 X45.3471 Y3.1570
G01 X45.4080 Y3.1207
G01 X45.4721 Y3.0902
G01 X45.4879 Y3.0836
G01 X45.5548 Y3.0599
G01 X45.6319 Y3.0406
G01 X45.7106 Y3.0289
G01 X45.7900 Y3.0250
G01 X45.8694 Y3.0289
G01 X45.9481 Y3.0406
G01 X46.0252 Y3.0599
G01 X46.1001 Y3.0867
G01 X46.1720 Y3.1207
G01 X46.2402 Y3.1616
G01 X46.3041 Y3.2089
G01 X46.3630 Y3.2623
G01 X46.4164 Y3.3213
G01 X46.4638 Y3.3851
G01 X46.5046 Y3.4533
G01 X46.5386 Y3.5252
G01 X46.5654 Y3.6001
G01 X46.5847 Y3.6772
G01 X46.5964 Y3.7559
G01 X46.6003 Y3.8353
G01 X46.6003 Y7.5353
G01 X46.5970 Y7.6062
G01 X46.5954 Y7.6233
G01 X46.5847 Y7.6934
G01 X46.5654 Y7.7705
G01 X46.5386 Y7.8454
G01 X46.5085 Y7.9096
G01 X46.5004 Y7.9248
G01 X46.4638 Y7.9855
G01 X46.4217 Y8.0426
G01 X46.4108 Y8.0559
G01 X46.3660 Y8.1052
G01 X43.2003 Y11.2710
G01 X43.2003 Y40.3997
G01 X49.6630 Y46.8623
G01 X49.7164 Y46.9213
G01 X49.7588 Y46.9781
G01 X49.7683 Y46.9924
G01 X49.8004 Y47.0459
G01 X49.8066 Y47.0571
G01 X49.8352 Y47.1174
G01 X49.8417 Y47.1332
G01 X49.8654 Y47.2001
G01 X49.8829 Y47.2689
G01 X49.8862 Y47.2857
G01 X49.8964 Y47.3559
G01 X49.9003 Y47.4310
G01 X49.9003 Y53.6997
G01 X51.1256 Y54.9250
G01 X55.3943 Y54.9251
G01 X55.4694 Y54.9289
G01 X55.5481 Y54.9406
G01 X55.6252 Y54.9599
G01 X55.6921 Y54.9836
G00 Z1.0000
M05
G00 Z1.0000
G00 Z15.00


