(G-CODE GENERATED BY FLATCAM v8.994 - www.flatcam.org - Version Date: 2020/11/7)

(Name: condicionamento_BIA_v02-B_Cu.gbr_iso_combined_cnc)
(Type: G-code from Geometry)
(Units: MM)

(Created on quarta, 02 agosto 2023 at 18:33)

(This preprocessor is the default preprocessor used by FlatCAM.)
(It is made to work with MACH3 compatible motion controllers.)

(TOOL DIAMETER: 0.25 mm)
(Feedrate_XY: 60.0 mm/min)
(Feedrate_Z: 30.0 mm/min)
(Feedrate rapids 1500.0 mm/min)

(Z_Cut: -0.14178 mm)
(Z_Move: 1.0 mm)
(Z Start: None mm)
(Z End: 15.0 mm)
(X,Y End: None mm)
(Steps per circle: 64)
(Preprocessor Geometry: default)

(X range:   -0.1750 ...   45.8356  mm)
(Y range:   -0.1750 ...   94.1503  mm)

(Spindle Speed: 1000.0 RPM)
G21
G90
G94

G01 F60.00

M5
G00 Z15.0000
G00 X0.0000 Y0.0000
T1
M6    
(MSG, Change to Tool Dia = 0.25000)
M0
G00 Z15.0000

M03 S1000.0
G01 F60.00
G00 X6.6778 Y2.1228
G01 F30.00
G01 Z-0.1418
G01 F60.00
G01 X2.7511 Y6.0494
G01 X2.7511 Y15.1655
G01 X2.7475 Y15.2400
G01 X2.7365 Y15.3138
G01 X2.7200 Y15.3803
G01 X2.7165 Y15.3920
G01 X2.6955 Y15.4507
G01 X2.6908 Y15.4621
G01 X2.6614 Y15.5239
G01 X2.6263 Y15.5827
G01 X2.6195 Y15.5929
G01 X2.5786 Y15.6478
G01 X2.5284 Y15.7031
G01 X2.4732 Y15.7532
G01 X2.4182 Y15.7941
G01 X2.4080 Y15.8010
G01 X2.3492 Y15.8360
G01 X2.2874 Y15.8655
G01 X2.2761 Y15.8701
G01 X2.2174 Y15.8912
G01 X2.2056 Y15.8947
G01 X2.1391 Y15.9112
G01 X2.0653 Y15.9222
G01 X1.9908 Y15.9258
G01 X1.9224 Y15.9226
G01 X1.9102 Y15.9214
G01 X1.8425 Y15.9112
G01 X1.7760 Y15.8947
G01 X1.7643 Y15.8912
G01 X1.7056 Y15.8701
G01 X1.6942 Y15.8655
G01 X1.6379 Y15.8388
G01 X1.6271 Y15.8330
G01 X1.5684 Y15.7977
G01 X1.5085 Y15.7532
G01 X1.4576 Y15.7074
G01 X1.4490 Y15.6987
G01 X1.4031 Y15.6478
G01 X1.3586 Y15.5879
G01 X1.3203 Y15.5239
G01 X1.2909 Y15.4621
G01 X1.2862 Y15.4507
G01 X1.2632 Y15.3862
G01 X1.2465 Y15.3198
G01 X1.2441 Y15.3078
G01 X1.2342 Y15.2400
G01 X1.2307 Y15.1716
G01 X1.2305 Y5.7345
G01 X1.2342 Y5.6600
G01 X1.2451 Y5.5862
G01 X1.2632 Y5.5138
G01 X1.2862 Y5.4493
G01 X1.2909 Y5.4379
G01 X1.3203 Y5.3761
G01 X1.3586 Y5.3121
G01 X1.4031 Y5.2522
G01 X1.4532 Y5.1969
G01 X5.8003 Y0.8497
G01 X5.8004 Y0.7969
G01 X5.8045 Y0.7124
G01 X5.8055 Y0.7032
G01 X5.8175 Y0.6226
G01 X5.8194 Y0.6136
G01 X5.8401 Y0.5315
G01 X5.8696 Y0.4489
G01 X5.8732 Y0.4404
G01 X5.9095 Y0.3640
G01 X5.9562 Y0.2861
G01 X6.0103 Y0.2132
G01 X6.0712 Y0.1459
G01 X6.1385 Y0.0850
G01 X6.2114 Y0.0309
G01 X6.2893 Y-0.0158
G01 X6.3713 Y-0.0546
G01 X6.4568 Y-0.0852
G01 X6.5449 Y-0.1072
G01 X6.6347 Y-0.1205
G01 X6.7192 Y-0.1248
G01 X6.7284 Y-0.1250
G01 X6.8099 Y-0.1210
G01 X6.8221 Y-0.1198
G01 X6.9058 Y-0.1072
G01 X6.9879 Y-0.0868
G01 X6.9997 Y-0.0832
G01 X7.0793 Y-0.0546
G01 X7.1614 Y-0.0158
G01 X7.2392 Y0.0309
G01 X7.3073 Y0.0812
G01 X7.3168 Y0.0890
G01 X7.3794 Y0.1459
G01 X7.4363 Y0.2085
G01 X7.4441 Y0.2180
G01 X7.4927 Y0.2836
G01 X7.4977 Y0.2913
G01 X7.5411 Y0.3640
G01 X7.5799 Y0.4460
G01 X7.6105 Y0.5315
G01 X7.6312 Y0.6136
G01 X7.6331 Y0.6226
G01 X7.6459 Y0.7093
G01 X7.6503 Y0.7969
G01 X7.6503 Y1.2031
G01 X7.6459 Y1.2907
G01 X7.6325 Y1.3805
G01 X7.6105 Y1.4685
G01 X7.5799 Y1.5540
G01 X7.5411 Y1.6360
G01 X7.4944 Y1.7139
G01 X7.4404 Y1.7868
G01 X7.3836 Y1.8496
G01 X7.3772 Y1.8562
G01 X7.3121 Y1.9150
G01 X7.2392 Y1.9691
G01 X7.1614 Y2.0158
G01 X7.0849 Y2.0521
G01 X7.0765 Y2.0557
G01 X6.9938 Y2.0852
G01 X6.9118 Y2.1059
G01 X6.9028 Y2.1078
G01 X6.8221 Y2.1198
G01 X6.8129 Y2.1208
G01 X6.7284 Y2.1250
G01 X6.7192 Y2.1248
G01 X6.6778 Y2.1228
G00 Z1.0000
G00 X6.6876 Y2.1483
G01 F30.00
G01 Z-0.1418
G01 F60.00
G01 X2.7761 Y6.0598
G01 X2.7761 Y15.1655
G01 X2.7724 Y15.2425
G01 X2.7610 Y15.3187
G01 X2.7443 Y15.3864
G01 X2.7400 Y15.4005
G01 X2.7190 Y15.4592
G01 X2.7134 Y15.4728
G01 X2.6834 Y15.5357
G01 X2.6477 Y15.5956
G01 X2.6395 Y15.6078
G01 X2.5979 Y15.6637
G01 X2.5461 Y15.7208
G01 X2.4890 Y15.7726
G01 X2.4331 Y15.8142
G01 X2.4209 Y15.8224
G01 X2.3610 Y15.8581
G01 X2.2981 Y15.8881
G01 X2.2845 Y15.8937
G01 X2.2258 Y15.9147
G01 X2.2117 Y15.9190
G01 X2.1440 Y15.9357
G01 X2.0678 Y15.9470
G01 X1.9908 Y15.9508
G01 X1.9212 Y15.9476
G01 X1.9065 Y15.9461
G01 X1.8376 Y15.9357
G01 X1.7699 Y15.9190
G01 X1.7559 Y15.9147
G01 X1.6972 Y15.8937
G01 X1.6836 Y15.8881
G01 X1.6272 Y15.8614
G01 X1.6142 Y15.8545
G01 X1.5545 Y15.8185
G01 X1.4926 Y15.7726
G01 X1.4408 Y15.7259
G01 X1.4304 Y15.7155
G01 X1.3838 Y15.6637
G01 X1.3378 Y15.6018
G01 X1.2982 Y15.5357
G01 X1.2683 Y15.4728
G01 X1.2626 Y15.4592
G01 X1.2393 Y15.3935
G01 X1.2222 Y15.3259
G01 X1.2193 Y15.3115
G01 X1.2093 Y15.2425
G01 X1.2057 Y15.1729
G01 X1.2055 Y5.7345
G01 X1.2093 Y5.6575
G01 X1.2206 Y5.5813
G01 X1.2393 Y5.5065
G01 X1.2626 Y5.4408
G01 X1.2683 Y5.4272
G01 X1.2982 Y5.3643
G01 X1.3378 Y5.2982
G01 X1.3838 Y5.2363
G01 X1.4355 Y5.1792
G01 X5.7753 Y0.8394
G01 X5.7754 Y0.7963
G01 X5.7796 Y0.7106
G01 X5.7808 Y0.6996
G01 X5.7929 Y0.6183
G01 X5.7952 Y0.6075
G01 X5.8162 Y0.5242
G01 X5.8463 Y0.4399
G01 X5.8506 Y0.4297
G01 X5.8875 Y0.3522
G01 X5.9354 Y0.2722
G01 X5.9910 Y0.1973
G01 X6.0536 Y0.1282
G01 X6.1226 Y0.0656
G01 X6.1975 Y0.0101
G01 X6.2775 Y-0.0378
G01 X6.3618 Y-0.0777
G01 X6.4495 Y-0.1091
G01 X6.5400 Y-0.1317
G01 X6.6322 Y-0.1454
G01 X6.7180 Y-0.1498
G01 X6.7290 Y-0.1500
G01 X6.8111 Y-0.1460
G01 X6.8257 Y-0.1445
G01 X6.9107 Y-0.1317
G01 X6.9940 Y-0.1111
G01 X7.0081 Y-0.1068
G01 X7.0889 Y-0.0777
G01 X7.1731 Y-0.0378
G01 X7.2531 Y0.0101
G01 X7.3222 Y0.0611
G01 X7.3336 Y0.0704
G01 X7.3971 Y0.1282
G01 X7.4549 Y0.1918
G01 X7.4642 Y0.2031
G01 X7.5131 Y0.2692
G01 X7.5192 Y0.2784
G01 X7.5631 Y0.3522
G01 X7.6030 Y0.4365
G01 X7.6344 Y0.5242
G01 X7.6555 Y0.6075
G01 X7.6577 Y0.6183
G01 X7.6707 Y0.7069
G01 X7.6753 Y0.7963
G01 X7.6753 Y1.2037
G01 X7.6707 Y1.2931
G01 X7.6571 Y1.3853
G01 X7.6344 Y1.4758
G01 X7.6030 Y1.5635
G01 X7.5631 Y1.6478
G01 X7.5152 Y1.7278
G01 X7.4597 Y1.8027
G01 X7.4021 Y1.8664
G01 X7.3944 Y1.8743
G01 X7.3280 Y1.9344
G01 X7.2531 Y1.9899
G01 X7.1731 Y2.0378
G01 X7.0956 Y2.0747
G01 X7.0854 Y2.0791
G01 X7.0011 Y2.1091
G01 X6.9178 Y2.1301
G01 X6.9070 Y2.1324
G01 X6.8257 Y2.1445
G01 X6.8148 Y2.1457
G01 X6.7290 Y2.1500
G01 X6.7180 Y2.1498
G01 X6.6876 Y2.1483
G00 Z1.0000
G00 X6.6974 Y2.1738
G01 F30.00
G01 Z-0.1418
G01 F60.00
G01 X2.8011 Y6.0701
G01 X2.8011 Y15.1655
G01 X2.7979 Y15.2364
G01 X2.7968 Y15.2492
G01 X2.7856 Y15.3236
G01 X2.7685 Y15.3924
G01 X2.7635 Y15.4089
G01 X2.7425 Y15.4676
G01 X2.7360 Y15.4834
G01 X2.7055 Y15.5475
G01 X2.6692 Y15.6084
G01 X2.6596 Y15.6227
G01 X2.6172 Y15.6796
G01 X2.5638 Y15.7385
G01 X2.5049 Y15.7919
G01 X2.4480 Y15.8343
G01 X2.4337 Y15.8438
G01 X2.3728 Y15.8801
G01 X2.3088 Y15.9107
G01 X2.2929 Y15.9172
G01 X2.2342 Y15.9382
G01 X2.2178 Y15.9432
G01 X2.1489 Y15.9602
G01 X2.0702 Y15.9719
G01 X1.9908 Y15.9758
G01 X1.9200 Y15.9725
G01 X1.9029 Y15.9709
G01 X1.8327 Y15.9602
G01 X1.7639 Y15.9432
G01 X1.7474 Y15.9382
G01 X1.6887 Y15.9172
G01 X1.6729 Y15.9107
G01 X1.6165 Y15.8840
G01 X1.6014 Y15.8759
G01 X1.5406 Y15.8393
G01 X1.4768 Y15.7919
G01 X1.4241 Y15.7444
G01 X1.4119 Y15.7323
G01 X1.3644 Y15.6796
G01 X1.3171 Y15.6157
G01 X1.2762 Y15.5475
G01 X1.2457 Y15.4834
G01 X1.2391 Y15.4676
G01 X1.2154 Y15.4007
G01 X1.1980 Y15.3320
G01 X1.1946 Y15.3151
G01 X1.1844 Y15.2449
G01 X1.1807 Y15.1741
G01 X1.1805 Y5.7345
G01 X1.1844 Y5.6551
G01 X1.1961 Y5.5764
G01 X1.2154 Y5.4993
G01 X1.2391 Y5.4324
G01 X1.2457 Y5.4166
G01 X1.2762 Y5.3525
G01 X1.3171 Y5.2843
G01 X1.3644 Y5.2204
G01 X1.4178 Y5.1615
G01 X5.7503 Y0.8290
G01 X5.7504 Y0.7957
G01 X5.7546 Y0.7087
G01 X5.7561 Y0.6959
G01 X5.7683 Y0.6140
G01 X5.7709 Y0.6014
G01 X5.7923 Y0.5170
G01 X5.8229 Y0.4309
G01 X5.8280 Y0.4190
G01 X5.8654 Y0.3404
G01 X5.9146 Y0.2583
G01 X5.9716 Y0.1815
G01 X6.0359 Y0.1106
G01 X6.1068 Y0.0463
G01 X6.1836 Y-0.0107
G01 X6.2657 Y-0.0599
G01 X6.3522 Y-0.1008
G01 X6.4423 Y-0.1330
G01 X6.5351 Y-0.1563
G01 X6.6298 Y-0.1703
G01 X6.7167 Y-0.1748
G01 X6.7296 Y-0.1749
G01 X6.8123 Y-0.1709
G01 X6.8294 Y-0.1693
G01 X6.9155 Y-0.1563
G01 X7.0001 Y-0.1353
G01 X7.0165 Y-0.1303
G01 X7.0984 Y-0.1008
G01 X7.1849 Y-0.0599
G01 X7.2670 Y-0.0107
G01 X7.3371 Y0.0410
G01 X7.3504 Y0.0519
G01 X7.4147 Y0.1106
G01 X7.4734 Y0.1750
G01 X7.4843 Y0.1882
G01 X7.5336 Y0.2548
G01 X7.5406 Y0.2656
G01 X7.5852 Y0.3404
G01 X7.6261 Y0.4269
G01 X7.6583 Y0.5170
G01 X7.6797 Y0.6014
G01 X7.6824 Y0.6140
G01 X7.6956 Y0.7044
G01 X7.7003 Y0.7957
G01 X7.7003 Y1.2043
G01 X7.6956 Y1.2956
G01 X7.6816 Y1.3902
G01 X7.6583 Y1.4830
G01 X7.6261 Y1.5731
G01 X7.5852 Y1.6596
G01 X7.5360 Y1.7417
G01 X7.4790 Y1.8185
G01 X7.4207 Y1.8832
G01 X7.4117 Y1.8924
G01 X7.3439 Y1.9537
G01 X7.2670 Y2.0107
G01 X7.1849 Y2.0599
G01 X7.1063 Y2.0973
G01 X7.0944 Y2.1024
G01 X7.0083 Y2.1330
G01 X6.9239 Y2.1544
G01 X6.9113 Y2.1571
G01 X6.8294 Y2.1693
G01 X6.8166 Y2.1707
G01 X6.7296 Y2.1749
G01 X6.7210 Y2.1749
G01 X6.6974 Y2.1738
G00 Z1.0000
G00 X8.2913 Y1.2245
G01 F30.00
G01 Z-0.1418
G01 F60.00
G01 X8.2903 Y1.2000
G01 X8.2903 Y0.8000
G01 X8.2950 Y0.7044
G01 X8.3091 Y0.6098
G01 X8.3300 Y0.5253
G01 X8.3350 Y0.5088
G01 X8.3614 Y0.4349
G01 X8.3662 Y0.4229
G01 X8.4054 Y0.3404
G01 X8.4546 Y0.2583
G01 X8.5116 Y0.1815
G01 X8.5759 Y0.1106
G01 X8.6468 Y0.0463
G01 X8.7236 Y-0.0107
G01 X8.8057 Y-0.0599
G01 X8.8922 Y-0.1008
G01 X8.9823 Y-0.1330
G01 X9.0751 Y-0.1563
G01 X9.1698 Y-0.1703
G01 X9.2653 Y-0.1750
G01 X9.3609 Y-0.1703
G01 X9.4555 Y-0.1563
G01 X9.5483 Y-0.1330
G01 X9.6384 Y-0.1008
G01 X9.7249 Y-0.0599
G01 X9.8070 Y-0.0107
G01 X9.8839 Y0.0463
G01 X9.9547 Y0.1106
G01 X10.0190 Y0.1815
G01 X10.0760 Y0.2583
G01 X10.1252 Y0.3404
G01 X10.1661 Y0.4269
G01 X10.1983 Y0.5170
G01 X10.2197 Y0.6014
G01 X10.2231 Y0.6182
G01 X10.2346 Y0.6959
G01 X10.2360 Y0.7087
G01 X10.2403 Y0.8000
G01 X10.2403 Y1.2000
G01 X10.2356 Y1.2956
G01 X10.2216 Y1.3902
G01 X10.2006 Y1.4747
G01 X10.1956 Y1.4912
G01 X10.1661 Y1.5731
G01 X10.1291 Y1.6519
G01 X10.1210 Y1.6671
G01 X10.0760 Y1.7417
G01 X10.0190 Y1.8185
G01 X9.9547 Y1.8894
G01 X9.8871 Y1.9509
G01 X9.8771 Y1.9590
G01 X9.8105 Y2.0083
G01 X9.8034 Y2.0130
G01 X9.7817 Y2.0261
G01 X4.9356 Y6.8721
G01 X4.9356 Y11.6000
G01 X4.9317 Y11.6794
G01 X4.9201 Y11.7581
G01 X4.9007 Y11.8352
G01 X4.8770 Y11.9021
G01 X4.8705 Y11.9179
G01 X4.8438 Y11.9743
G01 X4.8357 Y11.9895
G01 X4.7991 Y12.0502
G01 X4.7570 Y12.1073
G01 X4.7461 Y12.1206
G01 X4.6983 Y12.1730
G01 X4.6394 Y12.2264
G01 X4.5755 Y12.2738
G01 X4.5073 Y12.3146
G01 X4.4354 Y12.3486
G01 X4.3605 Y12.3754
G01 X4.2834 Y12.3947
G01 X4.2133 Y12.4054
G01 X4.1962 Y12.4070
G01 X4.1339 Y12.4101
G01 X4.1167 Y12.4101
G01 X4.0459 Y12.4064
G01 X3.9757 Y12.3962
G01 X3.9589 Y12.3929
G01 X3.8901 Y12.3754
G01 X3.8152 Y12.3486
G01 X3.7510 Y12.3185
G01 X3.7359 Y12.3104
G01 X3.6751 Y12.2738
G01 X3.6113 Y12.2264
G01 X3.5586 Y12.1789
G01 X3.5464 Y12.1668
G01 X3.4989 Y12.1141
G01 X3.4565 Y12.0572
G01 X3.4470 Y12.0429
G01 X3.4107 Y11.9820
G01 X3.3802 Y11.9179
G01 X3.3736 Y11.9021
G01 X3.3499 Y11.8352
G01 X3.3325 Y11.7665
G01 X3.3291 Y11.7496
G01 X3.3200 Y11.6879
G01 X3.3185 Y11.6751
G01 X3.3150 Y11.6000
G01 X3.3150 Y6.5365
G01 X3.3189 Y6.4571
G01 X3.3306 Y6.3784
G01 X3.3499 Y6.3013
G01 X3.3767 Y6.2264
G01 X3.4107 Y6.1545
G01 X3.4516 Y6.0863
G01 X3.4989 Y6.0224
G01 X3.5523 Y5.9635
G01 X8.2913 Y1.2245
G00 Z1.0000
G00 X8.3168 Y1.2344
G01 F30.00
G01 Z-0.1418
G01 F60.00
G01 X8.3153 Y1.2000
G01 X8.3153 Y0.8000
G01 X8.3199 Y0.7069
G01 X8.3336 Y0.6147
G01 X8.3543 Y0.5313
G01 X8.3585 Y0.5172
G01 X8.3850 Y0.4433
G01 X8.3891 Y0.4331
G01 X8.4275 Y0.3522
G01 X8.4754 Y0.2722
G01 X8.5310 Y0.1973
G01 X8.5936 Y0.1282
G01 X8.6626 Y0.0656
G01 X8.7375 Y0.0101
G01 X8.8175 Y-0.0378
G01 X8.8984 Y-0.0762
G01 X8.9086 Y-0.0803
G01 X8.9895 Y-0.1091
G01 X9.0800 Y-0.1317
G01 X9.1722 Y-0.1454
G01 X9.2653 Y-0.1500
G01 X9.3584 Y-0.1454
G01 X9.4507 Y-0.1317
G01 X9.5411 Y-0.1091
G01 X9.6289 Y-0.0777
G01 X9.7131 Y-0.0378
G01 X9.7931 Y0.0101
G01 X9.8680 Y0.0656
G01 X9.9371 Y0.1282
G01 X9.9997 Y0.1973
G01 X10.0552 Y0.2722
G01 X10.1031 Y0.3522
G01 X10.1416 Y0.4331
G01 X10.1457 Y0.4433
G01 X10.1721 Y0.5172
G01 X10.1764 Y0.5313
G01 X10.1971 Y0.6147
G01 X10.2098 Y0.6996
G01 X10.2111 Y0.7106
G01 X10.2153 Y0.8000
G01 X10.2153 Y1.2000
G01 X10.2107 Y1.2931
G01 X10.1971 Y1.3853
G01 X10.1764 Y1.4687
G01 X10.1721 Y1.4828
G01 X10.1430 Y1.5635
G01 X10.1065 Y1.6413
G01 X10.0995 Y1.6542
G01 X10.0552 Y1.7278
G01 X9.9997 Y1.8027
G01 X9.9371 Y1.8718
G01 X9.8708 Y1.9320
G01 X9.8622 Y1.9389
G01 X9.7961 Y1.9878
G01 X9.7869 Y1.9938
G01 X9.7662 Y2.0062
G01 X4.9106 Y6.8618
G01 X4.9106 Y11.6000
G01 X4.9069 Y11.6770
G01 X4.8955 Y11.7532
G01 X4.8768 Y11.8280
G01 X4.8535 Y11.8937
G01 X4.8479 Y11.9073
G01 X4.8212 Y11.9636
G01 X4.8143 Y11.9766
G01 X4.7783 Y12.0363
G01 X4.7369 Y12.0924
G01 X4.7276 Y12.1038
G01 X4.6806 Y12.1553
G01 X4.6235 Y12.2071
G01 X4.5616 Y12.2530
G01 X4.4955 Y12.2926
G01 X4.4258 Y12.3255
G01 X4.3533 Y12.3515
G01 X4.2785 Y12.3702
G01 X4.2096 Y12.3806
G01 X4.1949 Y12.3821
G01 X4.1327 Y12.3851
G01 X4.1180 Y12.3851
G01 X4.0483 Y12.3815
G01 X3.9794 Y12.3715
G01 X3.9649 Y12.3686
G01 X3.8974 Y12.3515
G01 X3.8248 Y12.3255
G01 X3.7617 Y12.2959
G01 X3.7487 Y12.2890
G01 X3.6890 Y12.2530
G01 X3.6271 Y12.2071
G01 X3.5753 Y12.1604
G01 X3.5649 Y12.1500
G01 X3.5183 Y12.0982
G01 X3.4766 Y12.0423
G01 X3.4684 Y12.0301
G01 X3.4327 Y11.9702
G01 X3.4028 Y11.9073
G01 X3.3971 Y11.8937
G01 X3.3738 Y11.8280
G01 X3.3567 Y11.7604
G01 X3.3538 Y11.7460
G01 X3.3447 Y11.6843
G01 X3.3435 Y11.6733
G01 X3.3400 Y11.6000
G01 X3.3400 Y6.5365
G01 X3.3438 Y6.4595
G01 X3.3551 Y6.3833
G01 X3.3738 Y6.3085
G01 X3.3998 Y6.2360
G01 X3.4327 Y6.1663
G01 X3.4723 Y6.1002
G01 X3.5183 Y6.0383
G01 X3.5700 Y5.9812
G01 X8.3168 Y1.2344
G00 Z1.0000
G00 X8.3423 Y1.2442
G01 F30.00
G01 Z-0.1418
G01 F60.00
G01 X8.3403 Y1.2000
G01 X8.3403 Y0.8000
G01 X8.3445 Y0.7124
G01 X8.3455 Y0.7032
G01 X8.3570 Y0.6256
G01 X8.3594 Y0.6136
G01 X8.3801 Y0.5315
G01 X8.4096 Y0.4489
G01 X8.4132 Y0.4404
G01 X8.4495 Y0.3640
G01 X8.4929 Y0.2913
G01 X8.4997 Y0.2811
G01 X8.5465 Y0.2180
G01 X8.5543 Y0.2085
G01 X8.6112 Y0.1459
G01 X8.6785 Y0.0850
G01 X8.7514 Y0.0309
G01 X8.8239 Y-0.0128
G01 X8.8320 Y-0.0172
G01 X8.9113 Y-0.0546
G01 X8.9968 Y-0.0852
G01 X9.0849 Y-0.1072
G01 X9.1747 Y-0.1205
G01 X9.2653 Y-0.1250
G01 X9.3560 Y-0.1205
G01 X9.4458 Y-0.1072
G01 X9.5338 Y-0.0852
G01 X9.6193 Y-0.0546
G01 X9.7014 Y-0.0158
G01 X9.7792 Y0.0309
G01 X9.8521 Y0.0850
G01 X9.9194 Y0.1459
G01 X9.9804 Y0.2132
G01 X10.0344 Y0.2861
G01 X10.0781 Y0.3586
G01 X10.0825 Y0.3667
G01 X10.1199 Y0.4460
G01 X10.1505 Y0.5315
G01 X10.1725 Y0.6195
G01 X10.1855 Y0.7063
G01 X10.1863 Y0.7155
G01 X10.1903 Y0.8000
G01 X10.1903 Y1.2000
G01 X10.1861 Y1.2876
G01 X10.1851 Y1.2968
G01 X10.1736 Y1.3744
G01 X10.1712 Y1.3864
G01 X10.1505 Y1.4685
G01 X10.1199 Y1.5540
G01 X10.0839 Y1.6306
G01 X10.0781 Y1.6414
G01 X10.0344 Y1.7139
G01 X9.9804 Y1.7868
G01 X9.9194 Y1.8541
G01 X9.8545 Y1.9131
G01 X9.8473 Y1.9188
G01 X9.7817 Y1.9674
G01 X9.7740 Y1.9724
G01 X9.7507 Y1.9864
G01 X4.8856 Y6.8514
G01 X4.8856 Y11.6000
G01 X4.8820 Y11.6745
G01 X4.8710 Y11.7483
G01 X4.8529 Y11.8207
G01 X4.8300 Y11.8852
G01 X4.8253 Y11.8966
G01 X4.7986 Y11.9529
G01 X4.7928 Y11.9637
G01 X4.7575 Y12.0224
G01 X4.7168 Y12.0775
G01 X4.7090 Y12.0870
G01 X4.6629 Y12.1376
G01 X4.6077 Y12.1877
G01 X4.5477 Y12.2322
G01 X4.4837 Y12.2705
G01 X4.4163 Y12.3024
G01 X4.3460 Y12.3276
G01 X4.2736 Y12.3457
G01 X4.2059 Y12.3559
G01 X4.1937 Y12.3571
G01 X4.1315 Y12.3602
G01 X4.1192 Y12.3602
G01 X4.0508 Y12.3567
G01 X3.9830 Y12.3468
G01 X3.9710 Y12.3444
G01 X3.9046 Y12.3276
G01 X3.8344 Y12.3024
G01 X3.7724 Y12.2733
G01 X3.7616 Y12.2675
G01 X3.7029 Y12.2322
G01 X3.6430 Y12.1877
G01 X3.5921 Y12.1419
G01 X3.5835 Y12.1332
G01 X3.5376 Y12.0823
G01 X3.4967 Y12.0274
G01 X3.4899 Y12.0172
G01 X3.4548 Y11.9584
G01 X3.4254 Y11.8966
G01 X3.4207 Y11.8852
G01 X3.3977 Y11.8207
G01 X3.3810 Y11.7543
G01 X3.3786 Y11.7423
G01 X3.3694 Y11.6806
G01 X3.3684 Y11.6715
G01 X3.3650 Y11.6000
G01 X3.3650 Y6.5365
G01 X3.3687 Y6.4620
G01 X3.3796 Y6.3882
G01 X3.3977 Y6.3158
G01 X3.4229 Y6.2455
G01 X3.4548 Y6.1781
G01 X3.4931 Y6.1141
G01 X3.5376 Y6.0542
G01 X3.5877 Y5.9989
G01 X8.3423 Y1.2442
G00 Z1.0000
G00 X11.7992 Y-0.1248
G01 F30.00
G01 Z-0.1418
G01 F60.00
G01 X11.8115 Y-0.1248
G01 X11.8960 Y-0.1205
G01 X11.9858 Y-0.1072
G01 X12.0738 Y-0.0852
G01 X12.1593 Y-0.0546
G01 X12.2414 Y-0.0158
G01 X12.3192 Y0.0309
G01 X12.3921 Y0.0850
G01 X12.4594 Y0.1459
G01 X12.5204 Y0.2132
G01 X12.5744 Y0.2861
G01 X12.6211 Y0.3640
G01 X12.6599 Y0.4460
G01 X12.6905 Y0.5315
G01 X12.7125 Y0.6195
G01 X12.7259 Y0.7093
G01 X12.7303 Y0.8000
G01 X12.7303 Y1.2031
G01 X12.7259 Y1.2907
G01 X12.7131 Y1.3774
G01 X12.7112 Y1.3864
G01 X12.6905 Y1.4685
G01 X12.6599 Y1.5540
G01 X12.6211 Y1.6360
G01 X12.5777 Y1.7087
G01 X12.5727 Y1.7164
G01 X12.5241 Y1.7820
G01 X12.5163 Y1.7915
G01 X12.4594 Y1.8541
G01 X12.3968 Y1.9110
G01 X12.3873 Y1.9188
G01 X12.3192 Y1.9691
G01 X12.2414 Y2.0158
G01 X12.1593 Y2.0546
G01 X12.0797 Y2.0832
G01 X12.0679 Y2.0868
G01 X11.9858 Y2.1072
G01 X11.9021 Y2.1198
G01 X11.8899 Y2.1210
G01 X11.8053 Y2.1250
G01 X11.7147 Y2.1205
G01 X11.6249 Y2.1072
G01 X11.5368 Y2.0852
G01 X11.4513 Y2.0546
G01 X11.3693 Y2.0158
G01 X11.2914 Y1.9691
G01 X11.2185 Y1.9150
G01 X11.1512 Y1.8541
G01 X11.0903 Y1.7868
G01 X11.0362 Y1.7139
G01 X10.9895 Y1.6360
G01 X10.9507 Y1.5540
G01 X10.9201 Y1.4685
G01 X10.8981 Y1.3805
G01 X10.8848 Y1.2907
G01 X10.8803 Y1.2000
G01 X10.8804 Y0.7969
G01 X10.8848 Y0.7093
G01 X10.8975 Y0.6226
G01 X10.8994 Y0.6136
G01 X10.9201 Y0.5315
G01 X10.9507 Y0.4460
G01 X10.9895 Y0.3640
G01 X11.0329 Y0.2913
G01 X11.0379 Y0.2836
G01 X11.0865 Y0.2180
G01 X11.0943 Y0.2085
G01 X11.1512 Y0.1459
G01 X11.2139 Y0.0890
G01 X11.2233 Y0.0812
G01 X11.2914 Y0.0309
G01 X11.3693 Y-0.0158
G01 X11.4513 Y-0.0546
G01 X11.5310 Y-0.0832
G01 X11.5427 Y-0.0868
G01 X11.6249 Y-0.1072
G01 X11.7086 Y-0.1198
G01 X11.7208 Y-0.1210
G01 X11.7992 Y-0.1248
G00 Z1.0000
G00 X11.7980 Y-0.1498
G01 F30.00
G01 Z-0.1418
G01 F60.00
G01 X11.8127 Y-0.1498
G01 X11.8984 Y-0.1454
G01 X11.9907 Y-0.1317
G01 X12.0811 Y-0.1091
G01 X12.1689 Y-0.0777
G01 X12.2531 Y-0.0378
G01 X12.3331 Y0.0101
G01 X12.4080 Y0.0656
G01 X12.4771 Y0.1282
G01 X12.5397 Y0.1973
G01 X12.5952 Y0.2722
G01 X12.6431 Y0.3522
G01 X12.6830 Y0.4365
G01 X12.7144 Y0.5242
G01 X12.7371 Y0.6147
G01 X12.7507 Y0.7069
G01 X12.7553 Y0.8000
G01 X12.7553 Y1.2037
G01 X12.7507 Y1.2931
G01 X12.7377 Y1.3817
G01 X12.7355 Y1.3925
G01 X12.7144 Y1.4758
G01 X12.6830 Y1.5635
G01 X12.6431 Y1.6478
G01 X12.5992 Y1.7216
G01 X12.5931 Y1.7308
G01 X12.5442 Y1.7969
G01 X12.5349 Y1.8082
G01 X12.4771 Y1.8718
G01 X12.4136 Y1.9296
G01 X12.4022 Y1.9389
G01 X12.3331 Y1.9899
G01 X12.2531 Y2.0378
G01 X12.1689 Y2.0777
G01 X12.0881 Y2.1068
G01 X12.0740 Y2.1111
G01 X11.9907 Y2.1317
G01 X11.9057 Y2.1445
G01 X11.8911 Y2.1460
G01 X11.8053 Y2.1500
G01 X11.7122 Y2.1454
G01 X11.6200 Y2.1317
G01 X11.5295 Y2.1091
G01 X11.4418 Y2.0777
G01 X11.3575 Y2.0378
G01 X11.2775 Y1.9899
G01 X11.2026 Y1.9344
G01 X11.1336 Y1.8718
G01 X11.0710 Y1.8027
G01 X11.0154 Y1.7278
G01 X10.9675 Y1.6478
G01 X10.9276 Y1.5635
G01 X10.8962 Y1.4758
G01 X10.8736 Y1.3853
G01 X10.8599 Y1.2931
G01 X10.8553 Y1.2000
G01 X10.8554 Y0.7963
G01 X10.8599 Y0.7069
G01 X10.8729 Y0.6183
G01 X10.8752 Y0.6075
G01 X10.8962 Y0.5242
G01 X10.9276 Y0.4365
G01 X10.9675 Y0.3522
G01 X11.0115 Y0.2784
G01 X11.0175 Y0.2692
G01 X11.0664 Y0.2031
G01 X11.0758 Y0.1918
G01 X11.1336 Y0.1282
G01 X11.1971 Y0.0704
G01 X11.2084 Y0.0611
G01 X11.2775 Y0.0101
G01 X11.3575 Y-0.0378
G01 X11.4418 Y-0.0777
G01 X11.5226 Y-0.1068
G01 X11.5366 Y-0.1111
G01 X11.6200 Y-0.1317
G01 X11.7049 Y-0.1445
G01 X11.7195 Y-0.1460
G01 X11.7980 Y-0.1498
G00 Z1.0000
G00 X11.7967 Y-0.1748
G01 F30.00
G01 Z-0.1418
G01 F60.00
G01 X11.8139 Y-0.1748
G01 X11.9009 Y-0.1703
G01 X11.9955 Y-0.1563
G01 X12.0883 Y-0.1330
G01 X12.1784 Y-0.1008
G01 X12.2649 Y-0.0599
G01 X12.3470 Y-0.0107
G01 X12.4239 Y0.0463
G01 X12.4947 Y0.1106
G01 X12.5590 Y0.1815
G01 X12.6160 Y0.2583
G01 X12.6652 Y0.3404
G01 X12.7061 Y0.4269
G01 X12.7383 Y0.5170
G01 X12.7616 Y0.6098
G01 X12.7756 Y0.7044
G01 X12.7803 Y0.8000
G01 X12.7803 Y1.2043
G01 X12.7756 Y1.2956
G01 X12.7624 Y1.3860
G01 X12.7597 Y1.3986
G01 X12.7383 Y1.4830
G01 X12.7061 Y1.5731
G01 X12.6652 Y1.6596
G01 X12.6206 Y1.7344
G01 X12.6136 Y1.7452
G01 X12.5643 Y1.8118
G01 X12.5534 Y1.8250
G01 X12.4947 Y1.8894
G01 X12.4304 Y1.9481
G01 X12.4171 Y1.9590
G01 X12.3470 Y2.0107
G01 X12.2649 Y2.0599
G01 X12.1784 Y2.1008
G01 X12.0965 Y2.1303
G01 X12.0801 Y2.1353
G01 X11.9955 Y2.1563
G01 X11.9094 Y2.1693
G01 X11.8923 Y2.1709
G01 X11.8053 Y2.1750
G01 X11.7098 Y2.1703
G01 X11.6151 Y2.1563
G01 X11.5223 Y2.1330
G01 X11.4322 Y2.1008
G01 X11.3457 Y2.0599
G01 X11.2636 Y2.0107
G01 X11.1868 Y1.9537
G01 X11.1159 Y1.8894
G01 X11.0516 Y1.8185
G01 X10.9946 Y1.7417
G01 X10.9454 Y1.6596
G01 X10.9045 Y1.5731
G01 X10.8723 Y1.4830
G01 X10.8491 Y1.3902
G01 X10.8350 Y1.2956
G01 X10.8303 Y1.2000
G01 X10.8304 Y0.7957
G01 X10.8350 Y0.7044
G01 X10.8483 Y0.6140
G01 X10.8509 Y0.6014
G01 X10.8723 Y0.5170
G01 X10.9045 Y0.4269
G01 X10.9454 Y0.3404
G01 X10.9900 Y0.2656
G01 X10.9971 Y0.2548
G01 X11.0463 Y0.1882
G01 X11.0572 Y0.1750
G01 X11.1159 Y0.1106
G01 X11.1803 Y0.0519
G01 X11.1936 Y0.0410
G01 X11.2636 Y-0.0107
G01 X11.3457 Y-0.0599
G01 X11.4322 Y-0.1008
G01 X11.5141 Y-0.1303
G01 X11.5306 Y-0.1353
G01 X11.6151 Y-0.1563
G01 X11.7012 Y-0.1693
G01 X11.7183 Y-0.1709
G01 X11.7967 Y-0.1748
G00 Z1.0000
G00 X14.6297 Y2.0796
G01 F30.00
G01 Z-0.1418
G01 F60.00
G01 X14.6109 Y2.0860
G01 X14.5258 Y2.1072
G01 X14.4360 Y2.1205
G01 X14.3453 Y2.1250
G01 X14.2547 Y2.1205
G01 X14.1649 Y2.1072
G01 X14.0768 Y2.0852
G01 X13.9913 Y2.0546
G01 X13.9148 Y2.0185
G01 X13.9039 Y2.0128
G01 X13.8314 Y1.9691
G01 X13.7633 Y1.9188
G01 X13.7539 Y1.9110
G01 X13.6957 Y1.8583
G01 X13.6870 Y1.8496
G01 X13.6303 Y1.7868
G01 X13.5797 Y1.7189
G01 X13.5729 Y1.7087
G01 X13.5295 Y1.6360
G01 X13.4907 Y1.5540
G01 X13.4601 Y1.4685
G01 X13.4387 Y1.3835
G01 X13.4370 Y1.3744
G01 X13.4248 Y1.2907
G01 X13.4204 Y1.2031
G01 X13.4203 Y0.8000
G01 X13.4248 Y0.7093
G01 X13.4381 Y0.6195
G01 X13.4601 Y0.5315
G01 X13.4907 Y0.4460
G01 X13.5268 Y0.3694
G01 X13.5326 Y0.3586
G01 X13.5762 Y0.2861
G01 X13.6303 Y0.2132
G01 X13.6912 Y0.1459
G01 X13.7539 Y0.0890
G01 X13.7633 Y0.0812
G01 X13.8264 Y0.0344
G01 X13.8366 Y0.0276
G01 X13.9093 Y-0.0158
G01 X13.9857 Y-0.0521
G01 X13.9971 Y-0.0568
G01 X14.0768 Y-0.0852
G01 X14.1619 Y-0.1066
G01 X14.1709 Y-0.1083
G01 X14.2547 Y-0.1205
G01 X14.3392 Y-0.1248
G01 X14.3515 Y-0.1248
G01 X14.4299 Y-0.1210
G01 X14.4421 Y-0.1198
G01 X14.5258 Y-0.1072
G01 X14.6079 Y-0.0868
G01 X14.6197 Y-0.0832
G01 X14.6993 Y-0.0546
G01 X14.7814 Y-0.0158
G01 X14.8592 Y0.0309
G01 X14.9273 Y0.0812
G01 X14.9345 Y0.0869
G01 X14.9994 Y0.1459
G01 X15.0563 Y0.2085
G01 X15.0641 Y0.2180
G01 X15.1144 Y0.2861
G01 X15.1581 Y0.3586
G01 X15.1639 Y0.3694
G01 X15.1999 Y0.4460
G01 X15.2298 Y0.5292
G01 X19.4778 Y4.7772
G01 X19.5192 Y4.7752
G01 X19.5284 Y4.7750
G01 X19.6325 Y4.7802
G01 X19.6417 Y4.7812
G01 X19.7418 Y4.7961
G01 X19.7508 Y4.7980
G01 X19.8519 Y4.8234
G01 X19.9530 Y4.8595
G01 X19.9614 Y4.8631
G01 X20.0556 Y4.9078
G01 X20.1503 Y4.9646
G01 X20.2390 Y5.0304
G01 X20.3164 Y5.1003
G01 X20.3250 Y5.1089
G01 X20.3950 Y5.1863
G01 X20.4607 Y5.2750
G01 X20.5175 Y5.3697
G01 X20.5647 Y5.4695
G01 X20.6019 Y5.5734
G01 X20.6287 Y5.6805
G01 X20.6449 Y5.7897
G01 X20.6502 Y5.8939
G01 X20.6502 Y5.9061
G01 X20.6454 Y6.0042
G01 X20.6441 Y6.0164
G01 X20.6287 Y6.1195
G01 X20.6035 Y6.2207
G01 X20.6000 Y6.2324
G01 X20.5647 Y6.3305
G01 X20.5175 Y6.4303
G01 X20.4607 Y6.5250
G01 X20.3969 Y6.6113
G01 X20.3909 Y6.6183
G01 X20.3208 Y6.6955
G01 X20.2390 Y6.7696
G01 X20.1503 Y6.8354
G01 X20.0556 Y6.8922
G01 X19.9558 Y6.9394
G01 X19.8519 Y6.9766
G01 X19.7448 Y7.0034
G01 X19.6356 Y7.0196
G01 X19.5253 Y7.0250
G01 X19.4150 Y7.0196
G01 X19.3058 Y7.0034
G01 X19.1987 Y6.9766
G01 X19.0948 Y6.9394
G01 X18.9950 Y6.8922
G01 X18.9003 Y6.8354
G01 X18.8140 Y6.7716
G01 X18.8070 Y6.7656
G01 X18.7298 Y6.6955
G01 X18.6597 Y6.6183
G01 X18.6519 Y6.6089
G01 X18.5899 Y6.5250
G01 X18.5362 Y6.4357
G01 X18.5304 Y6.4248
G01 X18.4872 Y6.3333
G01 X18.4837 Y6.3248
G01 X18.4488 Y6.2266
G01 X18.4233 Y6.1255
G01 X18.4214 Y6.1165
G01 X18.4065 Y6.0164
G01 X18.4055 Y6.0072
G01 X18.4004 Y5.9031
G01 X18.4005 Y5.8939
G01 X18.4025 Y5.8524
G01 X14.6297 Y2.0796
G00 Z1.0000
G00 X14.6232 Y2.1084
G01 F30.00
G01 Z-0.1418
G01 F60.00
G01 X14.6140 Y2.1111
G01 X14.5307 Y2.1317
G01 X14.4384 Y2.1454
G01 X14.3453 Y2.1500
G01 X14.2522 Y2.1454
G01 X14.1600 Y2.1317
G01 X14.0695 Y2.1091
G01 X13.9818 Y2.0777
G01 X13.9041 Y2.0411
G01 X13.8911 Y2.0342
G01 X13.8175 Y1.9899
G01 X13.7484 Y1.9389
G01 X13.7371 Y1.9296
G01 X13.6789 Y1.8768
G01 X13.6685 Y1.8664
G01 X13.6110 Y1.8027
G01 X13.5597 Y1.7338
G01 X13.5515 Y1.7216
G01 X13.5075 Y1.6478
G01 X13.4676 Y1.5635
G01 X13.4362 Y1.4758
G01 X13.4136 Y1.3853
G01 X13.3999 Y1.2931
G01 X13.3954 Y1.2037
G01 X13.3953 Y0.8000
G01 X13.3999 Y0.7069
G01 X13.4136 Y0.6147
G01 X13.4362 Y0.5242
G01 X13.4676 Y0.4365
G01 X13.5058 Y0.3554
G01 X13.5111 Y0.3458
G01 X13.5554 Y0.2722
G01 X13.6110 Y0.1973
G01 X13.6736 Y0.1282
G01 X13.7371 Y0.0704
G01 X13.7484 Y0.0611
G01 X13.8115 Y0.0143
G01 X13.8237 Y0.0062
G01 X13.8975 Y-0.0378
G01 X13.9750 Y-0.0747
G01 X13.9886 Y-0.0803
G01 X14.0695 Y-0.1091
G01 X14.1600 Y-0.1317
G01 X14.2522 Y-0.1454
G01 X14.3380 Y-0.1498
G01 X14.3527 Y-0.1498
G01 X14.4311 Y-0.1460
G01 X14.4457 Y-0.1445
G01 X14.5307 Y-0.1317
G01 X14.6140 Y-0.1111
G01 X14.6281 Y-0.1068
G01 X14.7089 Y-0.0777
G01 X14.7931 Y-0.0378
G01 X14.8731 Y0.0101
G01 X14.9422 Y0.0611
G01 X14.9508 Y0.0680
G01 X15.0171 Y0.1282
G01 X15.0749 Y0.1918
G01 X15.0842 Y0.2031
G01 X15.1352 Y0.2722
G01 X15.1795 Y0.3458
G01 X15.1865 Y0.3587
G01 X15.2230 Y0.4365
G01 X15.2515 Y0.5156
G01 X19.4876 Y4.7517
G01 X19.5180 Y4.7502
G01 X19.5290 Y4.7500
G01 X19.6344 Y4.7552
G01 X19.6453 Y4.7564
G01 X19.7461 Y4.7714
G01 X19.7569 Y4.7737
G01 X19.8591 Y4.7995
G01 X19.9620 Y4.8362
G01 X19.9721 Y4.8405
G01 X20.0674 Y4.8858
G01 X20.1642 Y4.9438
G01 X20.2549 Y5.0110
G01 X20.3332 Y5.0818
G01 X20.3436 Y5.0922
G01 X20.4143 Y5.1704
G01 X20.4815 Y5.2611
G01 X20.5395 Y5.3579
G01 X20.5878 Y5.4599
G01 X20.6258 Y5.5662
G01 X20.6532 Y5.6756
G01 X20.6698 Y5.7873
G01 X20.6751 Y5.8926
G01 X20.6751 Y5.9074
G01 X20.6703 Y6.0054
G01 X20.6689 Y6.0200
G01 X20.6532 Y6.1244
G01 X20.6278 Y6.2267
G01 X20.6235 Y6.2408
G01 X20.5878 Y6.3401
G01 X20.5395 Y6.4421
G01 X20.4815 Y6.5389
G01 X20.4166 Y6.6267
G01 X20.4095 Y6.6351
G01 X20.3385 Y6.7132
G01 X20.2549 Y6.7890
G01 X20.1642 Y6.8562
G01 X20.0674 Y6.9142
G01 X19.9654 Y6.9625
G01 X19.8591 Y7.0005
G01 X19.7497 Y7.0279
G01 X19.6380 Y7.0445
G01 X19.5253 Y7.0500
G01 X19.4126 Y7.0445
G01 X19.3010 Y7.0279
G01 X19.1915 Y7.0005
G01 X19.0852 Y6.9625
G01 X18.9832 Y6.9142
G01 X18.8864 Y6.8562
G01 X18.7986 Y6.7913
G01 X18.7902 Y6.7842
G01 X18.7121 Y6.7132
G01 X18.6412 Y6.6351
G01 X18.6318 Y6.6237
G01 X18.5691 Y6.5389
G01 X18.5147 Y6.4485
G01 X18.5078 Y6.4355
G01 X18.4643 Y6.3435
G01 X18.4602 Y6.3332
G01 X18.4248 Y6.2338
G01 X18.3990 Y6.1315
G01 X18.3967 Y6.1207
G01 X18.3818 Y6.0200
G01 X18.3805 Y6.0091
G01 X18.3754 Y5.9037
G01 X18.3755 Y5.8926
G01 X18.3770 Y5.8623
G01 X14.6232 Y2.1084
G00 Z1.0000
G00 X14.6157 Y2.1364
G01 F30.00
G01 Z-0.1418
G01 F60.00
G01 X14.5355 Y2.1563
G01 X14.4494 Y2.1693
G01 X14.4323 Y2.1709
G01 X14.3539 Y2.1748
G01 X14.3367 Y2.1748
G01 X14.2498 Y2.1703
G01 X14.1636 Y2.1577
G01 X14.1467 Y2.1544
G01 X14.0623 Y2.1330
G01 X13.9722 Y2.1008
G01 X13.8857 Y2.0599
G01 X13.8109 Y2.0153
G01 X13.7966 Y2.0057
G01 X13.7268 Y1.9537
G01 X13.6559 Y1.8894
G01 X13.5916 Y1.8185
G01 X13.5346 Y1.7417
G01 X13.4854 Y1.6596
G01 X13.4445 Y1.5731
G01 X13.4123 Y1.4830
G01 X13.3891 Y1.3902
G01 X13.3750 Y1.2956
G01 X13.3704 Y1.2043
G01 X13.3703 Y0.8000
G01 X13.3750 Y0.7044
G01 X13.3891 Y0.6098
G01 X13.4123 Y0.5170
G01 X13.4445 Y0.4269
G01 X13.4835 Y0.3442
G01 X13.4897 Y0.3329
G01 X13.5346 Y0.2583
G01 X13.5916 Y0.1815
G01 X13.6559 Y0.1106
G01 X13.7203 Y0.0519
G01 X13.7336 Y0.0410
G01 X13.7966 Y-0.0057
G01 X13.8109 Y-0.0153
G01 X13.8857 Y-0.0599
G01 X13.9643 Y-0.0973
G01 X13.9802 Y-0.1039
G01 X14.0623 Y-0.1330
G01 X14.1551 Y-0.1563
G01 X14.2498 Y-0.1703
G01 X14.3367 Y-0.1748
G01 X14.3539 Y-0.1748
G01 X14.4323 Y-0.1709
G01 X14.4494 Y-0.1693
G01 X14.5355 Y-0.1563
G01 X14.6201 Y-0.1353
G01 X14.6365 Y-0.1303
G01 X14.7184 Y-0.1008
G01 X14.8049 Y-0.0599
G01 X14.8870 Y-0.0107
G01 X14.9571 Y0.0410
G01 X14.9671 Y0.0491
G01 X15.0347 Y0.1106
G01 X15.0934 Y0.1750
G01 X15.1043 Y0.1882
G01 X15.1560 Y0.2583
G01 X15.2010 Y0.3329
G01 X15.2091 Y0.3481
G01 X15.2461 Y0.4269
G01 X15.2732 Y0.5019
G01 X19.4974 Y4.7262
G01 X19.5210 Y4.7251
G01 X19.5296 Y4.7251
G01 X19.6362 Y4.7303
G01 X19.6490 Y4.7317
G01 X19.7503 Y4.7468
G01 X19.7629 Y4.7495
G01 X19.8664 Y4.7756
G01 X19.9750 Y4.8144
G01 X20.0792 Y4.8637
G01 X20.1781 Y4.9230
G01 X20.2707 Y4.9917
G01 X20.3499 Y5.0632
G01 X20.3621 Y5.0754
G01 X20.4336 Y5.1546
G01 X20.5023 Y5.2472
G01 X20.5616 Y5.3461
G01 X20.6109 Y5.4503
G01 X20.6497 Y5.5589
G01 X20.6777 Y5.6708
G01 X20.6947 Y5.7848
G01 X20.7001 Y5.8914
G01 X20.7001 Y5.9086
G01 X20.6953 Y6.0066
G01 X20.6936 Y6.0237
G01 X20.6777 Y6.1292
G01 X20.6520 Y6.2328
G01 X20.6470 Y6.2492
G01 X20.6109 Y6.3497
G01 X20.5616 Y6.4539
G01 X20.5023 Y6.5528
G01 X20.4363 Y6.6421
G01 X20.4280 Y6.6519
G01 X20.3562 Y6.7309
G01 X20.2707 Y6.8083
G01 X20.1781 Y6.8770
G01 X20.0792 Y6.9363
G01 X19.9750 Y6.9856
G01 X19.8664 Y7.0244
G01 X19.7545 Y7.0524
G01 X19.6405 Y7.0693
G01 X19.5253 Y7.0750
G01 X19.4101 Y7.0693
G01 X19.2961 Y7.0524
G01 X19.1842 Y7.0244
G01 X19.0757 Y6.9856
G01 X18.9714 Y6.9363
G01 X18.8725 Y6.8770
G01 X18.7833 Y6.8110
G01 X18.7734 Y6.8027
G01 X18.6945 Y6.7309
G01 X18.6226 Y6.6519
G01 X18.6117 Y6.6386
G01 X18.5533 Y6.5598
G01 X18.5437 Y6.5455
G01 X18.4891 Y6.4539
G01 X18.4432 Y6.3575
G01 X18.4367 Y6.3416
G01 X18.4009 Y6.2411
G01 X18.3729 Y6.1292
G01 X18.3570 Y6.0237
G01 X18.3556 Y6.0109
G01 X18.3504 Y5.9043
G01 X18.3504 Y5.8957
G01 X18.3515 Y5.8721
G01 X14.6157 Y2.1364
G00 Z1.0000
G00 X15.8856 Y10.1000
G01 F30.00
G01 Z-0.1418
G01 F60.00
G01 X15.8824 Y10.1684
G01 X15.8812 Y10.1806
G01 X15.8710 Y10.2483
G01 X15.8529 Y10.3207
G01 X15.8300 Y10.3852
G01 X15.8253 Y10.3966
G01 X15.7959 Y10.4584
G01 X15.7575 Y10.5224
G01 X15.7168 Y10.5775
G01 X15.7090 Y10.5870
G01 X15.6629 Y10.6376
G01 X15.6077 Y10.6877
G01 X15.5527 Y10.7286
G01 X15.5425 Y10.7355
G01 X15.4837 Y10.7705
G01 X15.4163 Y10.8024
G01 X15.3519 Y10.8257
G01 X15.3401 Y10.8292
G01 X15.2736 Y10.8457
G01 X15.1998 Y10.8567
G01 X15.1315 Y10.8602
G01 X15.1192 Y10.8602
G01 X15.0508 Y10.8567
G01 X14.9770 Y10.8457
G01 X14.9046 Y10.8276
G01 X14.8401 Y10.8046
G01 X14.8287 Y10.8000
G01 X14.7669 Y10.7705
G01 X14.7029 Y10.7322
G01 X14.6478 Y10.6915
G01 X14.6383 Y10.6837
G01 X14.5921 Y10.6419
G01 X14.5855 Y10.6354
G01 X14.5376 Y10.5823
G01 X14.4967 Y10.5274
G01 X14.4899 Y10.5172
G01 X14.4548 Y10.4584
G01 X14.4229 Y10.3910
G01 X14.3997 Y10.3265
G01 X14.3961 Y10.3148
G01 X14.3810 Y10.2543
G01 X14.3790 Y10.2453
G01 X14.3687 Y10.1745
G01 X14.3650 Y10.1031
G01 X14.3650 Y9.4149
G01 X10.1729 Y5.2228
G01 X10.1315 Y5.2248
G01 X10.1222 Y5.2250
G01 X10.0181 Y5.2198
G01 X10.0090 Y5.2188
G01 X9.9119 Y5.2044
G01 X9.9028 Y5.2027
G01 X9.7987 Y5.1766
G01 X9.7005 Y5.1416
G01 X9.6892 Y5.1369
G01 X9.5977 Y5.0936
G01 X9.5897 Y5.0891
G01 X9.5003 Y5.0354
G01 X9.4165 Y4.9734
G01 X9.4070 Y4.9656
G01 X9.3298 Y4.8955
G01 X9.2597 Y4.8183
G01 X9.2519 Y4.8089
G01 X9.1916 Y4.7275
G01 X9.1866 Y4.7198
G01 X9.1332 Y4.6303
G01 X9.0884 Y4.5361
G01 X9.0837 Y4.5248
G01 X9.0507 Y4.4324
G01 X9.0471 Y4.4207
G01 X9.0219 Y4.3195
G01 X9.0057 Y4.2103
G01 X9.0003 Y4.1000
G01 X9.0057 Y3.9897
G01 X9.0219 Y3.8805
G01 X9.0488 Y3.7734
G01 X9.0860 Y3.6695
G01 X9.1304 Y3.5752
G01 X9.1362 Y3.5643
G01 X9.1866 Y3.4802
G01 X9.1934 Y3.4700
G01 X9.2557 Y3.3863
G01 X9.3256 Y3.3089
G01 X9.3320 Y3.3024
G01 X9.4116 Y3.2304
G01 X9.5003 Y3.1646
G01 X9.5950 Y3.1078
G01 X9.6948 Y3.0606
G01 X9.7987 Y3.0234
G01 X9.9058 Y2.9966
G01 X10.0150 Y2.9804
G01 X10.1253 Y2.9750
G01 X10.2356 Y2.9804
G01 X10.3448 Y2.9966
G01 X10.4519 Y3.0234
G01 X10.5558 Y3.0606
G01 X10.6556 Y3.1078
G01 X10.7503 Y3.1646
G01 X10.8390 Y3.2304
G01 X10.9164 Y3.3003
G01 X10.9230 Y3.3067
G01 X10.9950 Y3.3863
G01 X11.0607 Y3.4750
G01 X11.1175 Y3.5697
G01 X11.1622 Y3.6639
G01 X11.1658 Y3.6723
G01 X11.2019 Y3.7734
G01 X11.2274 Y3.8745
G01 X11.2293 Y3.8835
G01 X11.2441 Y3.9836
G01 X11.2452 Y3.9928
G01 X11.2503 Y4.0969
G01 X11.2502 Y4.1061
G01 X11.2481 Y4.1476
G01 X15.6629 Y8.5624
G01 X15.7131 Y8.6177
G01 X15.7540 Y8.6726
G01 X15.7608 Y8.6828
G01 X15.7959 Y8.7416
G01 X15.8253 Y8.8034
G01 X15.8300 Y8.8148
G01 X15.8529 Y8.8793
G01 X15.8697 Y8.9457
G01 X15.8721 Y8.9577
G01 X15.8820 Y9.0255
G01 X15.8856 Y9.1000
G01 X15.8856 Y10.1000
G00 Z1.0000
G00 X15.9106 Y10.1000
G01 F30.00
G01 Z-0.1418
G01 F60.00
G01 X15.9074 Y10.1696
G01 X15.9060 Y10.1843
G01 X15.8955 Y10.2532
G01 X15.8768 Y10.3280
G01 X15.8535 Y10.3937
G01 X15.8479 Y10.4073
G01 X15.8179 Y10.4702
G01 X15.7783 Y10.5363
G01 X15.7369 Y10.5924
G01 X15.7276 Y10.6038
G01 X15.6806 Y10.6553
G01 X15.6235 Y10.7071
G01 X15.5676 Y10.7487
G01 X15.5554 Y10.7569
G01 X15.4955 Y10.7926
G01 X15.4258 Y10.8255
G01 X15.3603 Y10.8492
G01 X15.3462 Y10.8535
G01 X15.2785 Y10.8702
G01 X15.2023 Y10.8815
G01 X15.1327 Y10.8851
G01 X15.1180 Y10.8851
G01 X15.0483 Y10.8815
G01 X14.9721 Y10.8702
G01 X14.8974 Y10.8515
G01 X14.8317 Y10.8282
G01 X14.8181 Y10.8226
G01 X14.7551 Y10.7926
G01 X14.6890 Y10.7530
G01 X14.6329 Y10.7116
G01 X14.6215 Y10.7022
G01 X14.5753 Y10.6604
G01 X14.5674 Y10.6527
G01 X14.5183 Y10.5982
G01 X14.4766 Y10.5423
G01 X14.4684 Y10.5301
G01 X14.4327 Y10.4702
G01 X14.3998 Y10.4005
G01 X14.3761 Y10.3350
G01 X14.3719 Y10.3209
G01 X14.3567 Y10.2604
G01 X14.3544 Y10.2496
G01 X14.3438 Y10.1770
G01 X14.3400 Y10.1037
G01 X14.3400 Y9.4253
G01 X10.1630 Y5.2483
G01 X10.1327 Y5.2498
G01 X10.1216 Y5.2500
G01 X10.0163 Y5.2448
G01 X10.0053 Y5.2436
G01 X9.9082 Y5.2292
G01 X9.8974 Y5.2271
G01 X9.7915 Y5.2005
G01 X9.6921 Y5.1651
G01 X9.6785 Y5.1595
G01 X9.5865 Y5.1159
G01 X9.5768 Y5.1106
G01 X9.4864 Y5.0562
G01 X9.4016 Y4.9935
G01 X9.3902 Y4.9842
G01 X9.3121 Y4.9132
G01 X9.2412 Y4.8351
G01 X9.2318 Y4.8237
G01 X9.1712 Y4.7419
G01 X9.1652 Y4.7327
G01 X9.1111 Y4.6421
G01 X9.0658 Y4.5468
G01 X9.0602 Y4.5332
G01 X9.0271 Y4.4408
G01 X9.0229 Y4.4267
G01 X8.9974 Y4.3244
G01 X8.9809 Y4.2127
G01 X8.9753 Y4.1000
G01 X8.9809 Y3.9873
G01 X8.9974 Y3.8756
G01 X9.0248 Y3.7662
G01 X9.0629 Y3.6599
G01 X9.1078 Y3.5645
G01 X9.1147 Y3.5515
G01 X9.1652 Y3.4673
G01 X9.1734 Y3.4551
G01 X9.2364 Y3.3704
G01 X9.3071 Y3.2922
G01 X9.3148 Y3.2843
G01 X9.3958 Y3.2110
G01 X9.4864 Y3.1438
G01 X9.5832 Y3.0858
G01 X9.6852 Y3.0375
G01 X9.7915 Y2.9995
G01 X9.9010 Y2.9721
G01 X10.0126 Y2.9555
G01 X10.1253 Y2.9500
G01 X10.2380 Y2.9555
G01 X10.3497 Y2.9721
G01 X10.4591 Y2.9995
G01 X10.5654 Y3.0375
G01 X10.6674 Y3.0858
G01 X10.7642 Y3.1438
G01 X10.8549 Y3.2110
G01 X10.9332 Y3.2818
G01 X10.9411 Y3.2895
G01 X11.0143 Y3.3704
G01 X11.0815 Y3.4611
G01 X11.1395 Y3.5579
G01 X11.1848 Y3.6532
G01 X11.1891 Y3.6633
G01 X11.2258 Y3.7662
G01 X11.2516 Y3.8685
G01 X11.2539 Y3.8793
G01 X11.2689 Y3.9800
G01 X11.2701 Y3.9909
G01 X11.2753 Y4.0963
G01 X11.2751 Y4.1074
G01 X11.2736 Y4.1377
G01 X15.6806 Y8.5447
G01 X15.7324 Y8.6018
G01 X15.7740 Y8.6577
G01 X15.7822 Y8.6699
G01 X15.8179 Y8.7298
G01 X15.8479 Y8.7927
G01 X15.8535 Y8.8063
G01 X15.8768 Y8.8720
G01 X15.8939 Y8.9396
G01 X15.8968 Y8.9540
G01 X15.9069 Y9.0230
G01 X15.9106 Y9.1000
G01 X15.9106 Y10.1000
G00 Z1.0000
G00 X15.9356 Y10.1000
G01 F30.00
G01 Z-0.1418
G01 F60.00
G01 X15.9324 Y10.1709
G01 X15.9307 Y10.1879
G01 X15.9201 Y10.2581
G01 X15.9007 Y10.3352
G01 X15.8770 Y10.4021
G01 X15.8705 Y10.4179
G01 X15.8400 Y10.4820
G01 X15.7991 Y10.5502
G01 X15.7570 Y10.6073
G01 X15.7461 Y10.6206
G01 X15.6983 Y10.6730
G01 X15.6394 Y10.7264
G01 X15.5825 Y10.7688
G01 X15.5682 Y10.7783
G01 X15.5073 Y10.8146
G01 X15.4354 Y10.8486
G01 X15.3687 Y10.8727
G01 X15.3523 Y10.8777
G01 X15.2834 Y10.8947
G01 X15.2047 Y10.9064
G01 X15.1339 Y10.9101
G01 X15.1167 Y10.9101
G01 X15.0459 Y10.9064
G01 X14.9672 Y10.8947
G01 X14.8901 Y10.8754
G01 X14.8232 Y10.8517
G01 X14.8074 Y10.8452
G01 X14.7433 Y10.8146
G01 X14.6751 Y10.7738
G01 X14.6180 Y10.7317
G01 X14.6048 Y10.7208
G01 X14.5586 Y10.6789
G01 X14.5493 Y10.6699
G01 X14.4989 Y10.6141
G01 X14.4565 Y10.5572
G01 X14.4470 Y10.5429
G01 X14.4107 Y10.4820
G01 X14.3802 Y10.4179
G01 X14.3736 Y10.4021
G01 X14.3499 Y10.3352
G01 X14.3306 Y10.2581
G01 X14.3189 Y10.1794
G01 X14.3151 Y10.1043
G01 X14.3150 Y9.4356
G01 X10.1532 Y5.2738
G01 X10.1296 Y5.2749
G01 X10.1210 Y5.2749
G01 X10.0144 Y5.2697
G01 X10.0016 Y5.2683
G01 X9.9045 Y5.2539
G01 X9.8919 Y5.2515
G01 X9.7842 Y5.2244
G01 X9.6837 Y5.1886
G01 X9.6678 Y5.1821
G01 X9.5752 Y5.1382
G01 X9.5640 Y5.1320
G01 X9.4725 Y5.0770
G01 X9.3867 Y5.0136
G01 X9.3734 Y5.0027
G01 X9.2945 Y4.9309
G01 X9.2226 Y4.8519
G01 X9.2117 Y4.8386
G01 X9.1508 Y4.7563
G01 X9.1437 Y4.7455
G01 X9.0891 Y4.6539
G01 X9.0432 Y4.5575
G01 X9.0367 Y4.5416
G01 X9.0036 Y4.4492
G01 X8.9986 Y4.4328
G01 X8.9729 Y4.3292
G01 X8.9560 Y4.2152
G01 X8.9503 Y4.1000
G01 X8.9560 Y3.9848
G01 X8.9729 Y3.8708
G01 X9.0009 Y3.7589
G01 X9.0398 Y3.6503
G01 X9.0852 Y3.5538
G01 X9.0933 Y3.5386
G01 X9.1437 Y3.4545
G01 X9.1533 Y3.4402
G01 X9.2170 Y3.3546
G01 X9.2885 Y3.2754
G01 X9.2975 Y3.2661
G01 X9.3799 Y3.1917
G01 X9.4725 Y3.1230
G01 X9.5714 Y3.0637
G01 X9.6757 Y3.0144
G01 X9.7842 Y2.9756
G01 X9.8961 Y2.9476
G01 X10.0101 Y2.9307
G01 X10.1253 Y2.9250
G01 X10.2405 Y2.9307
G01 X10.3545 Y2.9476
G01 X10.4664 Y2.9756
G01 X10.5750 Y3.0144
G01 X10.6792 Y3.0637
G01 X10.7781 Y3.1230
G01 X10.8707 Y3.1917
G01 X10.9499 Y3.2632
G01 X10.9592 Y3.2722
G01 X11.0336 Y3.3546
G01 X11.1023 Y3.4472
G01 X11.1616 Y3.5461
G01 X11.2074 Y3.6425
G01 X11.2125 Y3.6543
G01 X11.2497 Y3.7589
G01 X11.2759 Y3.8624
G01 X11.2785 Y3.8750
G01 X11.2936 Y3.9763
G01 X11.2950 Y3.9891
G01 X11.3003 Y4.0957
G01 X11.3003 Y4.1043
G01 X11.2992 Y4.1279
G01 X15.6983 Y8.5270
G01 X15.7517 Y8.5859
G01 X15.7941 Y8.6428
G01 X15.8037 Y8.6571
G01 X15.8400 Y8.7180
G01 X15.8705 Y8.7821
G01 X15.8770 Y8.7979
G01 X15.9007 Y8.8648
G01 X15.9182 Y8.9335
G01 X15.9215 Y8.9504
G01 X15.9317 Y9.0206
G01 X15.9356 Y9.1000
G01 X15.9356 Y10.1000
G00 Z1.0000
G00 X21.1411 Y55.5067
G01 F30.00
G01 Z-0.1418
G01 F60.00
G01 X21.1375 Y55.5812
G01 X21.1265 Y55.6550
G01 X21.1084 Y55.7274
G01 X21.0833 Y55.7977
G01 X21.0514 Y55.8651
G01 X21.0130 Y55.9291
G01 X20.9686 Y55.9890
G01 X20.9227 Y56.0399
G01 X18.2851 Y58.6776
G01 X18.2299 Y58.7277
G01 X18.1749 Y58.7686
G01 X18.1647 Y58.7755
G01 X18.1113 Y58.8075
G01 X18.1032 Y58.8120
G01 X18.0441 Y58.8400
G01 X18.0328 Y58.8446
G01 X17.9682 Y58.8676
G01 X17.9018 Y58.8844
G01 X17.8898 Y58.8868
G01 X17.8220 Y58.8967
G01 X17.7506 Y58.9003
G01 X15.8753 Y58.9003
G01 X15.8008 Y58.8967
G01 X15.7330 Y58.8868
G01 X15.7210 Y58.8844
G01 X15.6546 Y58.8676
G01 X15.5901 Y58.8446
G01 X15.5787 Y58.8400
G01 X15.5169 Y58.8105
G01 X15.4529 Y58.7722
G01 X15.3978 Y58.7315
G01 X15.3883 Y58.7237
G01 X15.3377 Y58.6776
G01 X15.2916 Y58.6270
G01 X15.2838 Y58.6175
G01 X15.2431 Y58.5624
G01 X15.2078 Y58.5037
G01 X15.2034 Y58.4957
G01 X15.1729 Y58.4310
G01 X15.1477 Y58.3607
G01 X15.1296 Y58.2883
G01 X15.1194 Y58.2206
G01 X15.1182 Y58.2084
G01 X15.1152 Y58.1461
G01 X15.1152 Y58.1339
G01 X15.1187 Y58.0655
G01 X15.1296 Y57.9917
G01 X15.1477 Y57.9193
G01 X15.1729 Y57.8490
G01 X15.2048 Y57.7816
G01 X15.2399 Y57.7228
G01 X15.2467 Y57.7126
G01 X15.2838 Y57.6625
G01 X15.2916 Y57.6530
G01 X15.3377 Y57.6024
G01 X15.3883 Y57.5563
G01 X15.3978 Y57.5485
G01 X15.4529 Y57.5078
G01 X15.5116 Y57.4725
G01 X15.5224 Y57.4667
G01 X15.5844 Y57.4376
G01 X15.6546 Y57.4124
G01 X15.7210 Y57.3956
G01 X15.7330 Y57.3932
G01 X15.7947 Y57.3841
G01 X15.8038 Y57.3831
G01 X15.8753 Y57.3797
G01 X17.4326 Y57.3797
G01 X19.6205 Y55.1918
G01 X19.6205 Y25.3869
G01 X19.6242 Y25.3155
G01 X19.6351 Y25.2417
G01 X19.6532 Y25.1693
G01 X19.6784 Y25.0990
G01 X19.7103 Y25.0316
G01 X19.7486 Y24.9676
G01 X19.7931 Y24.9077
G01 X19.8432 Y24.8524
G01 X19.8985 Y24.8023
G01 X19.9584 Y24.7578
G01 X20.0224 Y24.7195
G01 X20.0899 Y24.6876
G01 X20.1601 Y24.6624
G01 X20.2325 Y24.6443
G01 X20.3063 Y24.6333
G01 X20.3777 Y24.6297
G01 X20.3870 Y24.6298
G01 X20.4553 Y24.6333
G01 X20.5291 Y24.6443
G01 X20.6015 Y24.6624
G01 X20.6718 Y24.6876
G01 X20.7392 Y24.7195
G01 X20.8032 Y24.7578
G01 X20.8632 Y24.8023
G01 X20.9184 Y24.8524
G01 X20.9686 Y24.9077
G01 X21.0130 Y24.9676
G01 X21.0514 Y25.0316
G01 X21.0833 Y25.0990
G01 X21.1084 Y25.1693
G01 X21.1265 Y25.2417
G01 X21.1375 Y25.3155
G01 X21.1411 Y25.3869
G01 X21.1411 Y55.5067
G00 Z1.0000
G00 X21.1661 Y55.5067
G01 F30.00
G01 Z-0.1418
G01 F60.00
G01 X21.1624 Y55.5837
G01 X21.1510 Y55.6599
G01 X21.1323 Y55.7347
G01 X21.1064 Y55.8072
G01 X21.0734 Y55.8769
G01 X21.0338 Y55.9430
G01 X20.9879 Y56.0049
G01 X20.9412 Y56.0567
G01 X18.3028 Y58.6953
G01 X18.2457 Y58.7471
G01 X18.1898 Y58.7887
G01 X18.1776 Y58.7969
G01 X18.1241 Y58.8290
G01 X18.1144 Y58.8343
G01 X18.0480 Y58.8655
G01 X17.9825 Y58.8892
G01 X17.9684 Y58.8935
G01 X17.9007 Y58.9102
G01 X17.8318 Y58.9206
G01 X17.8171 Y58.9221
G01 X17.7549 Y58.9251
G01 X15.8753 Y58.9253
G01 X15.8057 Y58.9221
G01 X15.7947 Y58.9211
G01 X15.7294 Y58.9115
G01 X15.7149 Y58.9086
G01 X15.6474 Y58.8915
G01 X15.5817 Y58.8682
G01 X15.5681 Y58.8626
G01 X15.5051 Y58.8326
G01 X15.4390 Y58.7930
G01 X15.3829 Y58.7516
G01 X15.3715 Y58.7422
G01 X15.3200 Y58.6953
G01 X15.2731 Y58.6438
G01 X15.2637 Y58.6324
G01 X15.2223 Y58.5763
G01 X15.1864 Y58.5166
G01 X15.1810 Y58.5069
G01 X15.1498 Y58.4405
G01 X15.1238 Y58.3680
G01 X15.1051 Y58.2932
G01 X15.0947 Y58.2243
G01 X15.0932 Y58.2096
G01 X15.0902 Y58.1474
G01 X15.0902 Y58.1326
G01 X15.0938 Y58.0630
G01 X15.1051 Y57.9868
G01 X15.1238 Y57.9120
G01 X15.1498 Y57.8395
G01 X15.1827 Y57.7698
G01 X15.2184 Y57.7099
G01 X15.2266 Y57.6977
G01 X15.2637 Y57.6476
G01 X15.2731 Y57.6362
G01 X15.3200 Y57.5847
G01 X15.3715 Y57.5378
G01 X15.3829 Y57.5284
G01 X15.4390 Y57.4870
G01 X15.4987 Y57.4510
G01 X15.5117 Y57.4441
G01 X15.5748 Y57.4145
G01 X15.6474 Y57.3885
G01 X15.7149 Y57.3714
G01 X15.7294 Y57.3685
G01 X15.7910 Y57.3594
G01 X15.8020 Y57.3581
G01 X15.8753 Y57.3547
G01 X17.4222 Y57.3547
G01 X19.5955 Y55.1814
G01 X19.5955 Y25.3863
G01 X19.5993 Y25.3130
G01 X19.6106 Y25.2368
G01 X19.6293 Y25.1620
G01 X19.6553 Y25.0895
G01 X19.6882 Y25.0198
G01 X19.7278 Y24.9537
G01 X19.7738 Y24.8918
G01 X19.8255 Y24.8347
G01 X19.8826 Y24.7829
G01 X19.9445 Y24.7370
G01 X20.0106 Y24.6974
G01 X20.0803 Y24.6645
G01 X20.1529 Y24.6385
G01 X20.2276 Y24.6198
G01 X20.3038 Y24.6085
G01 X20.3771 Y24.6047
G01 X20.3882 Y24.6049
G01 X20.4578 Y24.6085
G01 X20.5340 Y24.6198
G01 X20.6088 Y24.6385
G01 X20.6813 Y24.6645
G01 X20.7510 Y24.6974
G01 X20.8171 Y24.7370
G01 X20.8790 Y24.7829
G01 X20.9361 Y24.8347
G01 X20.9879 Y24.8918
G01 X21.0338 Y24.9537
G01 X21.0734 Y25.0198
G01 X21.1064 Y25.0895
G01 X21.1323 Y25.1620
G01 X21.1510 Y25.2368
G01 X21.1624 Y25.3130
G01 X21.1661 Y25.3863
G01 X21.1661 Y55.5067
G00 Z1.0000
G00 X21.1911 Y55.5067
G01 F30.00
G01 Z-0.1418
G01 F60.00
G01 X21.1872 Y55.5861
G01 X21.1756 Y55.6648
G01 X21.1562 Y55.7419
G01 X21.1295 Y55.8168
G01 X21.0955 Y55.8887
G01 X21.0546 Y55.9569
G01 X21.0072 Y56.0208
G01 X20.9597 Y56.0735
G01 X18.3205 Y58.7130
G01 X18.2616 Y58.7664
G01 X18.2047 Y58.8088
G01 X18.1904 Y58.8183
G01 X18.1370 Y58.8504
G01 X18.1257 Y58.8566
G01 X18.0576 Y58.8886
G01 X17.9909 Y58.9127
G01 X17.9745 Y58.9177
G01 X17.9056 Y58.9347
G01 X17.8355 Y58.9454
G01 X17.8184 Y58.9470
G01 X17.7561 Y58.9501
G01 X15.8753 Y58.9503
G01 X15.8045 Y58.9470
G01 X15.7916 Y58.9459
G01 X15.7257 Y58.9362
G01 X15.7089 Y58.9329
G01 X15.6401 Y58.9154
G01 X15.5732 Y58.8917
G01 X15.5574 Y58.8852
G01 X15.4933 Y58.8546
G01 X15.4251 Y58.8138
G01 X15.3680 Y58.7717
G01 X15.3548 Y58.7608
G01 X15.3023 Y58.7130
G01 X15.2545 Y58.6606
G01 X15.2436 Y58.6473
G01 X15.2016 Y58.5902
G01 X15.1649 Y58.5295
G01 X15.1587 Y58.5182
G01 X15.1267 Y58.4501
G01 X15.0999 Y58.3752
G01 X15.0806 Y58.2981
G01 X15.0700 Y58.2279
G01 X15.0683 Y58.2109
G01 X15.0652 Y58.1486
G01 X15.0652 Y58.1314
G01 X15.0689 Y58.0606
G01 X15.0806 Y57.9819
G01 X15.0999 Y57.9048
G01 X15.1267 Y57.8299
G01 X15.1607 Y57.7580
G01 X15.1970 Y57.6971
G01 X15.2065 Y57.6828
G01 X15.2436 Y57.6327
G01 X15.2545 Y57.6194
G01 X15.3023 Y57.5670
G01 X15.3548 Y57.5192
G01 X15.3680 Y57.5083
G01 X15.4251 Y57.4662
G01 X15.4859 Y57.4296
G01 X15.5010 Y57.4215
G01 X15.5652 Y57.3914
G01 X15.6401 Y57.3646
G01 X15.7089 Y57.3471
G01 X15.7257 Y57.3438
G01 X15.7959 Y57.3336
G01 X15.8753 Y57.3297
G01 X17.4119 Y57.3297
G01 X19.5705 Y55.1711
G01 X19.5706 Y25.3857
G01 X19.5744 Y25.3106
G01 X19.5861 Y25.2319
G01 X19.6054 Y25.1548
G01 X19.6322 Y25.0799
G01 X19.6662 Y25.0080
G01 X19.7071 Y24.9398
G01 X19.7544 Y24.8759
G01 X19.8078 Y24.8170
G01 X19.8668 Y24.7636
G01 X19.9306 Y24.7162
G01 X19.9988 Y24.6754
G01 X20.0707 Y24.6414
G01 X20.1456 Y24.6146
G01 X20.2227 Y24.5953
G01 X20.3014 Y24.5836
G01 X20.3765 Y24.5797
G01 X20.3894 Y24.5799
G01 X20.4602 Y24.5836
G01 X20.5389 Y24.5953
G01 X20.6160 Y24.6146
G01 X20.6909 Y24.6414
G01 X20.7628 Y24.6754
G01 X20.8310 Y24.7162
G01 X20.8949 Y24.7636
G01 X20.9538 Y24.8170
G01 X21.0072 Y24.8759
G01 X21.0546 Y24.9398
G01 X21.0955 Y25.0080
G01 X21.1295 Y25.0799
G01 X21.1562 Y25.1548
G01 X21.1756 Y25.2319
G01 X21.1872 Y25.3106
G01 X21.1911 Y25.3857
G01 X21.1911 Y55.5067
G00 Z1.0000
G00 X30.6606 Y56.1454
G01 F30.00
G01 Z-0.1418
G01 F60.00
G01 X30.6719 Y56.1500
G01 X30.7337 Y56.1795
G01 X30.7925 Y56.2145
G01 X30.8027 Y56.2214
G01 X30.8577 Y56.2623
G01 X30.9085 Y56.3081
G01 X30.9172 Y56.3168
G01 X30.9590 Y56.3630
G01 X30.9668 Y56.3725
G01 X31.0075 Y56.4276
G01 X31.0459 Y56.4916
G01 X31.0778 Y56.5590
G01 X31.1010 Y56.6235
G01 X31.1045 Y56.6352
G01 X31.1197 Y56.6957
G01 X31.1221 Y56.7077
G01 X31.1320 Y56.7755
G01 X31.1355 Y56.8439
G01 X31.1355 Y56.8561
G01 X31.1320 Y56.9245
G01 X31.1210 Y56.9983
G01 X31.1045 Y57.0648
G01 X31.1010 Y57.0765
G01 X31.0778 Y57.1410
G01 X31.0486 Y57.2029
G01 X31.0428 Y57.2137
G01 X31.0075 Y57.2724
G01 X30.9668 Y57.3275
G01 X30.9611 Y57.3347
G01 X30.9129 Y57.3876
G01 X22.3856 Y65.9149
G01 X22.3856 Y90.3500
G01 X22.3820 Y90.4245
G01 X22.3721 Y90.4923
G01 X22.3697 Y90.5043
G01 X22.3529 Y90.5707
G01 X22.3300 Y90.6352
G01 X22.3253 Y90.6466
G01 X22.2973 Y90.7057
G01 X22.2928 Y90.7137
G01 X22.2608 Y90.7672
G01 X22.2540 Y90.7774
G01 X22.2131 Y90.8323
G01 X22.1629 Y90.8876
G01 X19.1729 Y93.8776
G01 X19.1177 Y93.9277
G01 X19.0627 Y93.9686
G01 X19.0525 Y93.9755
G01 X18.9937 Y94.0105
G01 X18.9319 Y94.0400
G01 X18.9206 Y94.0446
G01 X18.8590 Y94.0667
G01 X18.8501 Y94.0692
G01 X18.7896 Y94.0844
G01 X18.7776 Y94.0868
G01 X18.7098 Y94.0967
G01 X18.6353 Y94.1003
G01 X12.3653 Y94.1003
G01 X12.2908 Y94.0967
G01 X12.2230 Y94.0868
G01 X12.2110 Y94.0844
G01 X12.1446 Y94.0676
G01 X12.0801 Y94.0446
G01 X12.0687 Y94.0400
G01 X12.0096 Y94.0120
G01 X12.0016 Y94.0075
G01 X11.9481 Y93.9755
G01 X11.9379 Y93.9686
G01 X11.8830 Y93.9277
G01 X11.8277 Y93.8776
G01 X4.5877 Y86.6376
G01 X4.5376 Y86.5823
G01 X4.4931 Y86.5224
G01 X4.4548 Y86.4584
G01 X4.4254 Y86.3966
G01 X4.4207 Y86.3852
G01 X4.3977 Y86.3207
G01 X4.3810 Y86.2543
G01 X4.3786 Y86.2423
G01 X4.3687 Y86.1745
G01 X4.3650 Y86.1031
G01 X4.3650 Y78.6649
G01 X2.3804 Y76.6803
G01 X0.6353 Y76.6803
G01 X0.5669 Y76.6771
G01 X0.5547 Y76.6759
G01 X0.4870 Y76.6657
G01 X0.4205 Y76.6492
G01 X0.4088 Y76.6457
G01 X0.3444 Y76.6224
G01 X0.2824 Y76.5933
G01 X0.2716 Y76.5875
G01 X0.2181 Y76.5555
G01 X0.2104 Y76.5504
G01 X0.1530 Y76.5077
G01 X0.0977 Y76.4576
G01 X0.0476 Y76.4023
G01 X0.0031 Y76.3424
G01 X-0.0352 Y76.2784
G01 X-0.0671 Y76.2110
G01 X-0.0923 Y76.1407
G01 X-0.1090 Y76.0743
G01 X-0.1114 Y76.0623
G01 X-0.1213 Y75.9945
G01 X-0.1248 Y75.9261
G01 X-0.1248 Y75.9139
G01 X-0.1218 Y75.8516
G01 X-0.1206 Y75.8394
G01 X-0.1104 Y75.7717
G01 X-0.0923 Y75.6993
G01 X-0.0671 Y75.6290
G01 X-0.0366 Y75.5643
G01 X-0.0322 Y75.5563
G01 X0.0031 Y75.4976
G01 X0.0438 Y75.4425
G01 X0.0516 Y75.4330
G01 X0.0977 Y75.3824
G01 X0.1483 Y75.3363
G01 X0.1578 Y75.3285
G01 X0.2129 Y75.2878
G01 X0.2769 Y75.2495
G01 X0.3387 Y75.2200
G01 X0.3501 Y75.2154
G01 X0.4146 Y75.1924
G01 X0.4810 Y75.1756
G01 X0.4930 Y75.1732
G01 X0.5577 Y75.1637
G01 X0.5669 Y75.1629
G01 X0.6353 Y75.1597
G01 X2.6984 Y75.1597
G01 X2.7698 Y75.1633
G01 X2.8436 Y75.1743
G01 X2.9160 Y75.1924
G01 X2.9863 Y75.2176
G01 X3.0537 Y75.2495
G01 X3.1177 Y75.2878
G01 X3.1777 Y75.3323
G01 X3.2307 Y75.3802
G01 X5.6629 Y77.8124
G01 X5.7090 Y77.8630
G01 X5.7168 Y77.8725
G01 X5.7575 Y77.9276
G01 X5.7959 Y77.9916
G01 X5.8278 Y78.0590
G01 X5.8510 Y78.1235
G01 X5.8545 Y78.1352
G01 X5.8697 Y78.1957
G01 X5.8721 Y78.2077
G01 X5.8820 Y78.2755
G01 X5.8856 Y78.3469
G01 X5.8856 Y85.7851
G01 X12.6803 Y92.5797
G01 X18.3204 Y92.5797
G01 X20.8650 Y90.0351
G01 X20.8650 Y65.6000
G01 X20.8687 Y65.5255
G01 X20.8786 Y65.4577
G01 X20.8810 Y65.4457
G01 X20.8961 Y65.3852
G01 X20.8987 Y65.3764
G01 X20.9207 Y65.3148
G01 X20.9254 Y65.3034
G01 X20.9548 Y65.2416
G01 X20.9899 Y65.1828
G01 X20.9967 Y65.1726
G01 X21.0376 Y65.1177
G01 X21.0877 Y65.0624
G01 X29.8399 Y56.3102
G01 X29.8930 Y56.2623
G01 X29.9479 Y56.2214
G01 X29.9581 Y56.2145
G01 X30.0169 Y56.1795
G01 X30.0844 Y56.1476
G01 X30.1488 Y56.1243
G01 X30.1605 Y56.1208
G01 X30.2270 Y56.1043
G01 X30.3008 Y56.0933
G01 X30.3692 Y56.0898
G01 X30.3815 Y56.0898
G01 X30.4498 Y56.0933
G01 X30.5176 Y56.1032
G01 X30.5296 Y56.1056
G01 X30.5960 Y56.1224
G01 X30.6606 Y56.1454
G00 Z1.0000
G00 X30.6690 Y56.1218
G01 F30.00
G01 Z-0.1418
G01 F60.00
G01 X30.6826 Y56.1274
G01 X30.7455 Y56.1574
G01 X30.8054 Y56.1931
G01 X30.8176 Y56.2013
G01 X30.8735 Y56.2429
G01 X30.9253 Y56.2896
G01 X30.9357 Y56.3000
G01 X30.9776 Y56.3462
G01 X30.9869 Y56.3576
G01 X31.0283 Y56.4137
G01 X31.0679 Y56.4798
G01 X31.1009 Y56.5495
G01 X31.1245 Y56.6150
G01 X31.1288 Y56.6291
G01 X31.1439 Y56.6896
G01 X31.1468 Y56.7040
G01 X31.1569 Y56.7730
G01 X31.1605 Y56.8426
G01 X31.1605 Y56.8574
G01 X31.1569 Y56.9270
G01 X31.1455 Y57.0032
G01 X31.1288 Y57.0709
G01 X31.1245 Y57.0850
G01 X31.1009 Y57.1505
G01 X31.0712 Y57.2136
G01 X31.0643 Y57.2266
G01 X31.0283 Y57.2863
G01 X30.9869 Y57.3424
G01 X30.9800 Y57.3510
G01 X30.9306 Y57.4053
G01 X22.4106 Y65.9253
G01 X22.4106 Y90.3500
G01 X22.4069 Y90.4270
G01 X22.3968 Y90.4960
G01 X22.3939 Y90.5104
G01 X22.3768 Y90.5780
G01 X22.3535 Y90.6437
G01 X22.3479 Y90.6573
G01 X22.3196 Y90.7169
G01 X22.3143 Y90.7266
G01 X22.2822 Y90.7801
G01 X22.2740 Y90.7923
G01 X22.2324 Y90.8482
G01 X22.1806 Y90.9053
G01 X19.1906 Y93.8953
G01 X19.1335 Y93.9471
G01 X19.0776 Y93.9887
G01 X19.0654 Y93.9969
G01 X19.0055 Y94.0326
G01 X18.9426 Y94.0626
G01 X18.9290 Y94.0682
G01 X18.8668 Y94.0904
G01 X18.8562 Y94.0935
G01 X18.7957 Y94.1086
G01 X18.7813 Y94.1115
G01 X18.7123 Y94.1215
G01 X18.6353 Y94.1253
G01 X12.3653 Y94.1253
G01 X12.2883 Y94.1215
G01 X12.2194 Y94.1115
G01 X12.2049 Y94.1086
G01 X12.1374 Y94.0915
G01 X12.0717 Y94.0682
G01 X12.0581 Y94.0626
G01 X11.9984 Y94.0343
G01 X11.9887 Y94.0290
G01 X11.9352 Y93.9969
G01 X11.9230 Y93.9887
G01 X11.8671 Y93.9471
G01 X11.8100 Y93.8953
G01 X4.5700 Y86.6553
G01 X4.5183 Y86.5982
G01 X4.4723 Y86.5363
G01 X4.4327 Y86.4702
G01 X4.4028 Y86.4073
G01 X4.3971 Y86.3937
G01 X4.3738 Y86.3280
G01 X4.3567 Y86.2604
G01 X4.3538 Y86.2460
G01 X4.3438 Y86.1770
G01 X4.3400 Y86.1037
G01 X4.3400 Y78.6753
G01 X2.3700 Y76.7053
G01 X0.6353 Y76.7053
G01 X0.5620 Y76.7019
G01 X0.5510 Y76.7006
G01 X0.4894 Y76.6915
G01 X0.4749 Y76.6886
G01 X0.4074 Y76.6715
G01 X0.3417 Y76.6482
G01 X0.3281 Y76.6426
G01 X0.2651 Y76.6126
G01 X0.2052 Y76.5769
G01 X0.1960 Y76.5709
G01 X0.1371 Y76.5271
G01 X0.0800 Y76.4753
G01 X0.0283 Y76.4182
G01 X-0.0177 Y76.3563
G01 X-0.0573 Y76.2902
G01 X-0.0902 Y76.2205
G01 X-0.1162 Y76.1480
G01 X-0.1333 Y76.0804
G01 X-0.1362 Y76.0660
G01 X-0.1462 Y75.9970
G01 X-0.1498 Y75.9274
G01 X-0.1498 Y75.9126
G01 X-0.1468 Y75.8504
G01 X-0.1453 Y75.8357
G01 X-0.1349 Y75.7668
G01 X-0.1162 Y75.6920
G01 X-0.0902 Y75.6195
G01 X-0.0590 Y75.5531
G01 X-0.0536 Y75.5434
G01 X-0.0177 Y75.4837
G01 X0.0237 Y75.4276
G01 X0.0331 Y75.4162
G01 X0.0800 Y75.3647
G01 X0.1315 Y75.3178
G01 X0.1429 Y75.3084
G01 X0.1990 Y75.2670
G01 X0.2651 Y75.2274
G01 X0.3281 Y75.1974
G01 X0.3417 Y75.1918
G01 X0.4074 Y75.1685
G01 X0.4749 Y75.1514
G01 X0.4894 Y75.1485
G01 X0.5547 Y75.1389
G01 X0.5657 Y75.1379
G01 X0.6353 Y75.1347
G01 X2.6990 Y75.1347
G01 X2.7723 Y75.1385
G01 X2.8485 Y75.1498
G01 X2.9233 Y75.1685
G01 X2.9924 Y75.1931
G01 X3.0026 Y75.1974
G01 X3.0655 Y75.2274
G01 X3.1316 Y75.2670
G01 X3.1935 Y75.3129
G01 X3.2480 Y75.3621
G01 X5.6806 Y77.7947
G01 X5.7276 Y77.8462
G01 X5.7369 Y77.8576
G01 X5.7783 Y77.9137
G01 X5.8179 Y77.9798
G01 X5.8509 Y78.0495
G01 X5.8745 Y78.1150
G01 X5.8788 Y78.1291
G01 X5.8939 Y78.1896
G01 X5.8968 Y78.2040
G01 X5.9069 Y78.2730
G01 X5.9106 Y78.3463
G01 X5.9106 Y85.7747
G01 X12.6906 Y92.5547
G01 X18.3100 Y92.5547
G01 X20.8400 Y90.0247
G01 X20.8400 Y65.6000
G01 X20.8438 Y65.5230
G01 X20.8538 Y65.4540
G01 X20.8567 Y65.4396
G01 X20.8719 Y65.3791
G01 X20.8749 Y65.3685
G01 X20.8971 Y65.3063
G01 X20.9028 Y65.2927
G01 X20.9327 Y65.2298
G01 X20.9684 Y65.1699
G01 X20.9766 Y65.1577
G01 X21.0183 Y65.1018
G01 X21.0700 Y65.0447
G01 X29.8226 Y56.2921
G01 X29.8771 Y56.2429
G01 X29.9330 Y56.2013
G01 X29.9452 Y56.1931
G01 X30.0051 Y56.1574
G01 X30.0748 Y56.1245
G01 X30.1404 Y56.1008
G01 X30.1544 Y56.0965
G01 X30.2221 Y56.0798
G01 X30.2983 Y56.0685
G01 X30.3680 Y56.0649
G01 X30.3827 Y56.0649
G01 X30.4523 Y56.0685
G01 X30.5213 Y56.0785
G01 X30.5357 Y56.0814
G01 X30.6033 Y56.0985
G01 X30.6690 Y56.1218
G00 Z1.0000
G00 X30.6774 Y56.0983
G01 F30.00
G01 Z-0.1418
G01 F60.00
G01 X30.6933 Y56.1048
G01 X30.7573 Y56.1354
G01 X30.8182 Y56.1717
G01 X30.8325 Y56.1812
G01 X30.8894 Y56.2236
G01 X30.9421 Y56.2711
G01 X30.9542 Y56.2832
G01 X30.9961 Y56.3294
G01 X31.0070 Y56.3427
G01 X31.0491 Y56.3998
G01 X31.0900 Y56.4680
G01 X31.1240 Y56.5399
G01 X31.1480 Y56.6066
G01 X31.1530 Y56.6231
G01 X31.1682 Y56.6835
G01 X31.1715 Y56.7004
G01 X31.1817 Y56.7706
G01 X31.1854 Y56.8414
G01 X31.1854 Y56.8586
G01 X31.1817 Y56.9294
G01 X31.1701 Y57.0081
G01 X31.1530 Y57.0769
G01 X31.1480 Y57.0934
G01 X31.1240 Y57.1601
G01 X31.0938 Y57.2243
G01 X31.0857 Y57.2395
G01 X31.0491 Y57.3002
G01 X31.0017 Y57.3641
G01 X30.9483 Y57.4230
G01 X22.4356 Y65.9356
G01 X22.4356 Y90.3500
G01 X22.4317 Y90.4294
G01 X22.4215 Y90.4996
G01 X22.4182 Y90.5165
G01 X22.4007 Y90.5852
G01 X22.3770 Y90.6521
G01 X22.3705 Y90.6679
G01 X22.3419 Y90.7282
G01 X22.3357 Y90.7395
G01 X22.3037 Y90.7929
G01 X22.2941 Y90.8072
G01 X22.2517 Y90.8641
G01 X22.1983 Y90.9230
G01 X19.2083 Y93.9130
G01 X19.1494 Y93.9664
G01 X19.0925 Y94.0088
G01 X19.0782 Y94.0183
G01 X19.0173 Y94.0546
G01 X18.9533 Y94.0852
G01 X18.9374 Y94.0917
G01 X18.8746 Y94.1141
G01 X18.8623 Y94.1177
G01 X18.8018 Y94.1329
G01 X18.7849 Y94.1362
G01 X18.7147 Y94.1464
G01 X18.6353 Y94.1503
G01 X12.3653 Y94.1503
G01 X12.2859 Y94.1464
G01 X12.2157 Y94.1362
G01 X12.1989 Y94.1329
G01 X12.1301 Y94.1154
G01 X12.0632 Y94.0917
G01 X12.0474 Y94.0852
G01 X11.9871 Y94.0566
G01 X11.9759 Y94.0504
G01 X11.9224 Y94.0183
G01 X11.9081 Y94.0088
G01 X11.8513 Y93.9664
G01 X11.7923 Y93.9130
G01 X4.5523 Y86.6730
G01 X4.4989 Y86.6141
G01 X4.4516 Y86.5502
G01 X4.4107 Y86.4820
G01 X4.3802 Y86.4179
G01 X4.3736 Y86.4021
G01 X4.3499 Y86.3352
G01 X4.3325 Y86.2665
G01 X4.3291 Y86.2496
G01 X4.3189 Y86.1794
G01 X4.3151 Y86.1043
G01 X4.3150 Y78.6856
G01 X2.3597 Y76.7303
G01 X0.6353 Y76.7303
G01 X0.5602 Y76.7268
G01 X0.5474 Y76.7254
G01 X0.4857 Y76.7162
G01 X0.4689 Y76.7129
G01 X0.4001 Y76.6954
G01 X0.3332 Y76.6717
G01 X0.3174 Y76.6652
G01 X0.2533 Y76.6346
G01 X0.1924 Y76.5983
G01 X0.1816 Y76.5913
G01 X0.1213 Y76.5464
G01 X0.0623 Y76.4930
G01 X0.0089 Y76.4341
G01 X-0.0384 Y76.3702
G01 X-0.0793 Y76.3020
G01 X-0.1133 Y76.2301
G01 X-0.1401 Y76.1552
G01 X-0.1575 Y76.0865
G01 X-0.1609 Y76.0696
G01 X-0.1711 Y75.9994
G01 X-0.1748 Y75.9286
G01 X-0.1748 Y75.9114
G01 X-0.1717 Y75.8491
G01 X-0.1700 Y75.8321
G01 X-0.1594 Y75.7619
G01 X-0.1401 Y75.6848
G01 X-0.1133 Y75.6099
G01 X-0.0813 Y75.5418
G01 X-0.0751 Y75.5305
G01 X-0.0384 Y75.4698
G01 X0.0036 Y75.4127
G01 X0.0145 Y75.3994
G01 X0.0623 Y75.3470
G01 X0.1148 Y75.2992
G01 X0.1280 Y75.2883
G01 X0.1851 Y75.2462
G01 X0.2533 Y75.2054
G01 X0.3174 Y75.1748
G01 X0.3332 Y75.1683
G01 X0.4001 Y75.1446
G01 X0.4689 Y75.1271
G01 X0.4857 Y75.1238
G01 X0.5516 Y75.1141
G01 X0.5645 Y75.1130
G01 X0.6353 Y75.1097
G01 X2.6996 Y75.1097
G01 X2.7747 Y75.1136
G01 X2.8534 Y75.1253
G01 X2.9305 Y75.1446
G01 X3.0014 Y75.1698
G01 X3.0133 Y75.1748
G01 X3.0773 Y75.2054
G01 X3.1455 Y75.2462
G01 X3.2094 Y75.2936
G01 X3.2652 Y75.3440
G01 X5.6983 Y77.7770
G01 X5.7461 Y77.8294
G01 X5.7570 Y77.8427
G01 X5.7991 Y77.8998
G01 X5.8400 Y77.9680
G01 X5.8740 Y78.0399
G01 X5.8980 Y78.1066
G01 X5.9030 Y78.1231
G01 X5.9182 Y78.1835
G01 X5.9215 Y78.2004
G01 X5.9317 Y78.2706
G01 X5.9356 Y78.3457
G01 X5.9356 Y85.7644
G01 X12.7010 Y92.5297
G01 X18.2997 Y92.5297
G01 X20.8150 Y90.0144
G01 X20.8150 Y65.6000
G01 X20.8189 Y65.5206
G01 X20.8291 Y65.4504
G01 X20.8325 Y65.4335
G01 X20.8476 Y65.3731
G01 X20.8512 Y65.3607
G01 X20.8736 Y65.2979
G01 X20.8802 Y65.2821
G01 X20.9107 Y65.2180
G01 X20.9470 Y65.1571
G01 X20.9565 Y65.1428
G01 X20.9989 Y65.0859
G01 X21.0523 Y65.0270
G01 X29.8054 Y56.2740
G01 X29.8613 Y56.2236
G01 X29.9181 Y56.1812
G01 X29.9324 Y56.1717
G01 X29.9933 Y56.1354
G01 X30.0652 Y56.1014
G01 X30.1319 Y56.0773
G01 X30.1484 Y56.0723
G01 X30.2172 Y56.0553
G01 X30.2959 Y56.0436
G01 X30.3667 Y56.0399
G01 X30.3839 Y56.0399
G01 X30.4547 Y56.0436
G01 X30.5249 Y56.0538
G01 X30.5418 Y56.0571
G01 X30.6105 Y56.0746
G01 X30.6774 Y56.0983
G00 Z1.0000
G00 X45.3106 Y52.3954
G01 F30.00
G01 Z-0.1418
G01 F60.00
G01 X45.3219 Y52.4000
G01 X45.3782 Y52.4267
G01 X45.3891 Y52.4325
G01 X45.4477 Y52.4678
G01 X45.5077 Y52.5123
G01 X45.5585 Y52.5581
G01 X45.5672 Y52.5668
G01 X45.6131 Y52.6177
G01 X45.6575 Y52.6776
G01 X45.6959 Y52.7416
G01 X45.7253 Y52.8034
G01 X45.7300 Y52.8148
G01 X45.7529 Y52.8793
G01 X45.7710 Y52.9517
G01 X45.7812 Y53.0194
G01 X45.7824 Y53.0316
G01 X45.7855 Y53.0939
G01 X45.7855 Y53.1061
G01 X45.7820 Y53.1745
G01 X45.7710 Y53.2483
G01 X45.7529 Y53.3207
G01 X45.7300 Y53.3852
G01 X45.7253 Y53.3966
G01 X45.6986 Y53.4529
G01 X45.6928 Y53.4637
G01 X45.6575 Y53.5224
G01 X45.6168 Y53.5775
G01 X45.6090 Y53.5870
G01 X45.5672 Y53.6332
G01 X45.5585 Y53.6419
G01 X45.5077 Y53.6877
G01 X45.4477 Y53.7322
G01 X45.3891 Y53.7675
G01 X45.3782 Y53.7733
G01 X45.3163 Y53.8024
G01 X45.2460 Y53.8276
G01 X45.1736 Y53.8457
G01 X45.1059 Y53.8559
G01 X45.0937 Y53.8571
G01 X45.0253 Y53.8603
G01 X40.4253 Y53.8603
G01 X40.3538 Y53.8569
G01 X40.3447 Y53.8559
G01 X40.2830 Y53.8468
G01 X40.2710 Y53.8444
G01 X40.2046 Y53.8276
G01 X40.1344 Y53.8024
G01 X40.0669 Y53.7705
G01 X40.0081 Y53.7355
G01 X39.9979 Y53.7286
G01 X39.9478 Y53.6915
G01 X39.9383 Y53.6837
G01 X39.8877 Y53.6376
G01 X38.1877 Y51.9376
G01 X38.1376 Y51.8823
G01 X38.0931 Y51.8224
G01 X38.0548 Y51.7584
G01 X38.0229 Y51.6910
G01 X37.9977 Y51.6207
G01 X37.9796 Y51.5483
G01 X37.9687 Y51.4745
G01 X37.9650 Y51.4031
G01 X37.9650 Y45.1149
G01 X31.4855 Y38.6354
G01 X31.4376 Y38.5823
G01 X31.3967 Y38.5274
G01 X31.3899 Y38.5172
G01 X31.3548 Y38.4584
G01 X31.3254 Y38.3966
G01 X31.3207 Y38.3852
G01 X31.2977 Y38.3207
G01 X31.2796 Y38.2483
G01 X31.2687 Y38.1745
G01 X31.2650 Y38.1000
G01 X31.2650 Y8.3000
G01 X31.2687 Y8.2255
G01 X31.2796 Y8.1517
G01 X31.2961 Y8.0852
G01 X31.2997 Y8.0735
G01 X31.3207 Y8.0148
G01 X31.3254 Y8.0034
G01 X31.3548 Y7.9416
G01 X31.3931 Y7.8776
G01 X31.4376 Y7.8177
G01 X31.4855 Y7.7646
G01 X34.6650 Y4.5851
G01 X34.6650 Y1.2000
G01 X34.6682 Y1.1316
G01 X34.6694 Y1.1194
G01 X34.6796 Y1.0517
G01 X34.6977 Y0.9793
G01 X34.7229 Y0.9090
G01 X34.7520 Y0.8471
G01 X34.7578 Y0.8363
G01 X34.7899 Y0.7828
G01 X34.7967 Y0.7726
G01 X34.8376 Y0.7177
G01 X34.8835 Y0.6668
G01 X34.8921 Y0.6581
G01 X34.9383 Y0.6163
G01 X34.9478 Y0.6085
G01 X35.0029 Y0.5678
G01 X35.0669 Y0.5295
G01 X35.1287 Y0.5000
G01 X35.1401 Y0.4954
G01 X35.2046 Y0.4724
G01 X35.2770 Y0.4543
G01 X35.3508 Y0.4433
G01 X35.4253 Y0.4397
G01 X35.4998 Y0.4433
G01 X35.5736 Y0.4543
G01 X35.6460 Y0.4724
G01 X35.7163 Y0.4976
G01 X35.7837 Y0.5295
G01 X35.8477 Y0.5678
G01 X35.9077 Y0.6123
G01 X35.9629 Y0.6624
G01 X36.0131 Y0.7177
G01 X36.0575 Y0.7776
G01 X36.0959 Y0.8416
G01 X36.1278 Y0.9090
G01 X36.1529 Y0.9793
G01 X36.1710 Y1.0517
G01 X36.1820 Y1.1255
G01 X36.1856 Y1.2000
G01 X36.1856 Y4.9000
G01 X36.1824 Y4.9684
G01 X36.1812 Y4.9806
G01 X36.1710 Y5.0483
G01 X36.1529 Y5.1207
G01 X36.1278 Y5.1910
G01 X36.0986 Y5.2529
G01 X36.0928 Y5.2637
G01 X36.0575 Y5.3224
G01 X36.0168 Y5.3775
G01 X36.0090 Y5.3870
G01 X35.9651 Y5.4354
G01 X32.7856 Y8.6149
G01 X32.7856 Y37.7851
G01 X39.2629 Y44.2624
G01 X39.3131 Y44.3177
G01 X39.3540 Y44.3726
G01 X39.3608 Y44.3828
G01 X39.3928 Y44.4363
G01 X39.3973 Y44.4443
G01 X39.4253 Y44.5034
G01 X39.4300 Y44.5148
G01 X39.4529 Y44.5793
G01 X39.4697 Y44.6457
G01 X39.4721 Y44.6577
G01 X39.4820 Y44.7255
G01 X39.4856 Y44.7969
G01 X39.4856 Y51.0851
G01 X40.7403 Y52.3397
G01 X45.0253 Y52.3397
G01 X45.0998 Y52.3433
G01 X45.1736 Y52.3543
G01 X45.2460 Y52.3724
G01 X45.3106 Y52.3954
G00 Z1.0000
G00 X45.3190 Y52.3718
G01 F30.00
G01 Z-0.1418
G01 F60.00
G01 X45.3326 Y52.3774
G01 X45.3889 Y52.4041
G01 X45.4019 Y52.4110
G01 X45.4616 Y52.4470
G01 X45.5235 Y52.4929
G01 X45.5753 Y52.5396
G01 X45.5857 Y52.5500
G01 X45.6324 Y52.6018
G01 X45.6783 Y52.6637
G01 X45.7179 Y52.7298
G01 X45.7479 Y52.7927
G01 X45.7535 Y52.8063
G01 X45.7768 Y52.8720
G01 X45.7955 Y52.9468
G01 X45.8060 Y53.0157
G01 X45.8074 Y53.0304
G01 X45.8105 Y53.0926
G01 X45.8105 Y53.1074
G01 X45.8069 Y53.1770
G01 X45.7955 Y53.2532
G01 X45.7768 Y53.3280
G01 X45.7535 Y53.3937
G01 X45.7479 Y53.4073
G01 X45.7212 Y53.4636
G01 X45.7143 Y53.4766
G01 X45.6783 Y53.5363
G01 X45.6369 Y53.5924
G01 X45.6276 Y53.6038
G01 X45.5857 Y53.6500
G01 X45.5753 Y53.6604
G01 X45.5235 Y53.7071
G01 X45.4616 Y53.7530
G01 X45.4019 Y53.7890
G01 X45.3889 Y53.7959
G01 X45.3258 Y53.8255
G01 X45.2533 Y53.8515
G01 X45.1785 Y53.8702
G01 X45.1096 Y53.8806
G01 X45.0949 Y53.8821
G01 X45.0253 Y53.8853
G01 X40.4253 Y53.8853
G01 X40.3557 Y53.8821
G01 X40.3410 Y53.8806
G01 X40.2794 Y53.8715
G01 X40.2649 Y53.8686
G01 X40.1974 Y53.8515
G01 X40.1248 Y53.8255
G01 X40.0551 Y53.7926
G01 X39.9952 Y53.7569
G01 X39.9830 Y53.7487
G01 X39.9329 Y53.7116
G01 X39.9243 Y53.7047
G01 X39.8700 Y53.6553
G01 X38.1700 Y51.9553
G01 X38.1183 Y51.8982
G01 X38.0723 Y51.8363
G01 X38.0327 Y51.7702
G01 X37.9998 Y51.7005
G01 X37.9738 Y51.6280
G01 X37.9551 Y51.5532
G01 X37.9438 Y51.4770
G01 X37.9400 Y51.4037
G01 X37.9400 Y45.1253
G01 X31.4674 Y38.6527
G01 X31.4183 Y38.5982
G01 X31.3766 Y38.5423
G01 X31.3684 Y38.5301
G01 X31.3327 Y38.4702
G01 X31.3028 Y38.4073
G01 X31.2971 Y38.3937
G01 X31.2738 Y38.3280
G01 X31.2551 Y38.2532
G01 X31.2438 Y38.1770
G01 X31.2400 Y38.1000
G01 X31.2400 Y8.3000
G01 X31.2438 Y8.2230
G01 X31.2551 Y8.1468
G01 X31.2719 Y8.0791
G01 X31.2761 Y8.0650
G01 X31.2971 Y8.0063
G01 X31.3028 Y7.9927
G01 X31.3327 Y7.9298
G01 X31.3723 Y7.8637
G01 X31.4183 Y7.8018
G01 X31.4674 Y7.7473
G01 X34.6400 Y4.5747
G01 X34.6400 Y1.2000
G01 X34.6438 Y1.1230
G01 X34.6538 Y1.0540
G01 X34.6567 Y1.0396
G01 X34.6719 Y0.9791
G01 X34.6761 Y0.9650
G01 X34.6998 Y0.8995
G01 X34.7327 Y0.8298
G01 X34.7723 Y0.7637
G01 X34.8137 Y0.7076
G01 X34.8231 Y0.6962
G01 X34.8700 Y0.6447
G01 X34.9271 Y0.5929
G01 X34.9830 Y0.5513
G01 X34.9952 Y0.5431
G01 X35.0551 Y0.5074
G01 X35.1181 Y0.4774
G01 X35.1317 Y0.4718
G01 X35.1974 Y0.4485
G01 X35.2721 Y0.4298
G01 X35.3483 Y0.4185
G01 X35.4253 Y0.4147
G01 X35.5023 Y0.4185
G01 X35.5785 Y0.4298
G01 X35.6533 Y0.4485
G01 X35.7258 Y0.4745
G01 X35.7955 Y0.5074
G01 X35.8616 Y0.5470
G01 X35.9235 Y0.5929
G01 X35.9806 Y0.6447
G01 X36.0324 Y0.7018
G01 X36.0783 Y0.7637
G01 X36.1179 Y0.8298
G01 X36.1509 Y0.8995
G01 X36.1768 Y0.9720
G01 X36.1955 Y1.0468
G01 X36.2069 Y1.1230
G01 X36.2106 Y1.2000
G01 X36.2106 Y4.9000
G01 X36.2074 Y4.9696
G01 X36.2060 Y4.9843
G01 X36.1955 Y5.0532
G01 X36.1768 Y5.1280
G01 X36.1509 Y5.2005
G01 X36.1212 Y5.2636
G01 X36.1143 Y5.2766
G01 X36.0783 Y5.3363
G01 X36.0369 Y5.3924
G01 X36.0276 Y5.4038
G01 X35.9832 Y5.4527
G01 X32.8106 Y8.6253
G01 X32.8106 Y37.7747
G01 X39.2806 Y44.2447
G01 X39.3324 Y44.3018
G01 X39.3740 Y44.3577
G01 X39.3822 Y44.3699
G01 X39.4143 Y44.4234
G01 X39.4196 Y44.4331
G01 X39.4479 Y44.4927
G01 X39.4535 Y44.5063
G01 X39.4768 Y44.5720
G01 X39.4939 Y44.6396
G01 X39.4968 Y44.6540
G01 X39.5069 Y44.7230
G01 X39.5106 Y44.7963
G01 X39.5106 Y51.0747
G01 X40.7506 Y52.3147
G01 X45.0290 Y52.3147
G01 X45.1023 Y52.3185
G01 X45.1785 Y52.3298
G01 X45.2533 Y52.3485
G01 X45.3190 Y52.3718
G00 Z1.0000
G00 X45.3274 Y52.3483
G01 F30.00
G01 Z-0.1418
G01 F60.00
G01 X45.3433 Y52.3548
G01 X45.3996 Y52.3815
G01 X45.4148 Y52.3896
G01 X45.4755 Y52.4262
G01 X45.5394 Y52.4736
G01 X45.5983 Y52.5270
G01 X45.6461 Y52.5794
G01 X45.6570 Y52.5927
G01 X45.6941 Y52.6428
G01 X45.7037 Y52.6571
G01 X45.7400 Y52.7180
G01 X45.7740 Y52.7899
G01 X45.8007 Y52.8648
G01 X45.8182 Y52.9335
G01 X45.8215 Y52.9504
G01 X45.8307 Y53.0121
G01 X45.8324 Y53.0291
G01 X45.8356 Y53.1000
G01 X45.8317 Y53.1794
G01 X45.8201 Y53.2581
G01 X45.8030 Y53.3269
G01 X45.7980 Y53.3434
G01 X45.7740 Y53.4101
G01 X45.7400 Y53.4820
G01 X45.7037 Y53.5429
G01 X45.6941 Y53.5572
G01 X45.6570 Y53.6073
G01 X45.6461 Y53.6206
G01 X45.5983 Y53.6730
G01 X45.5459 Y53.7208
G01 X45.5326 Y53.7317
G01 X45.4825 Y53.7688
G01 X45.4682 Y53.7783
G01 X45.4073 Y53.8146
G01 X45.3354 Y53.8486
G01 X45.2605 Y53.8754
G01 X45.1918 Y53.8929
G01 X45.1749 Y53.8962
G01 X45.1047 Y53.9064
G01 X45.0253 Y53.9103
G01 X40.4167 Y53.9101
G01 X40.3459 Y53.9064
G01 X40.2672 Y53.8947
G01 X40.1901 Y53.8754
G01 X40.1152 Y53.8486
G01 X40.0433 Y53.8146
G01 X39.9751 Y53.7738
G01 X39.9113 Y53.7264
G01 X39.8523 Y53.6730
G01 X38.1464 Y51.9668
G01 X38.0989 Y51.9141
G01 X38.0565 Y51.8572
G01 X38.0470 Y51.8429
G01 X38.0107 Y51.7820
G01 X37.9802 Y51.7179
G01 X37.9736 Y51.7021
G01 X37.9499 Y51.6352
G01 X37.9315 Y51.5623
G01 X37.9291 Y51.5496
G01 X37.9189 Y51.4794
G01 X37.9150 Y51.4000
G01 X37.9150 Y45.1356
G01 X31.4493 Y38.6699
G01 X31.3989 Y38.6141
G01 X31.3565 Y38.5572
G01 X31.3470 Y38.5429
G01 X31.3107 Y38.4820
G01 X31.2802 Y38.4179
G01 X31.2736 Y38.4021
G01 X31.2499 Y38.3352
G01 X31.2306 Y38.2581
G01 X31.2189 Y38.1794
G01 X31.2150 Y38.1000
G01 X31.2150 Y8.3000
G01 X31.2189 Y8.2206
G01 X31.2306 Y8.1419
G01 X31.2476 Y8.0731
G01 X31.2526 Y8.0566
G01 X31.2736 Y7.9979
G01 X31.2802 Y7.9821
G01 X31.3107 Y7.9180
G01 X31.3516 Y7.8498
G01 X31.3989 Y7.7859
G01 X31.4464 Y7.7332
G01 X34.6150 Y4.5644
G01 X34.6150 Y1.2000
G01 X34.6189 Y1.1206
G01 X34.6291 Y1.0504
G01 X34.6325 Y1.0335
G01 X34.6476 Y0.9731
G01 X34.6526 Y0.9566
G01 X34.6767 Y0.8899
G01 X34.7107 Y0.8180
G01 X34.7516 Y0.7498
G01 X34.7936 Y0.6927
G01 X34.8045 Y0.6794
G01 X34.8523 Y0.6270
G01 X34.9113 Y0.5736
G01 X34.9681 Y0.5312
G01 X34.9824 Y0.5217
G01 X35.0433 Y0.4854
G01 X35.1074 Y0.4548
G01 X35.1232 Y0.4483
G01 X35.1901 Y0.4246
G01 X35.2672 Y0.4053
G01 X35.3459 Y0.3936
G01 X35.4253 Y0.3897
G01 X35.5047 Y0.3936
G01 X35.5834 Y0.4053
G01 X35.6605 Y0.4246
G01 X35.7354 Y0.4514
G01 X35.8073 Y0.4854
G01 X35.8755 Y0.5262
G01 X35.9394 Y0.5736
G01 X35.9983 Y0.6270
G01 X36.0517 Y0.6859
G01 X36.0991 Y0.7498
G01 X36.1400 Y0.8180
G01 X36.1740 Y0.8899
G01 X36.2007 Y0.9648
G01 X36.2201 Y1.0419
G01 X36.2317 Y1.1206
G01 X36.2356 Y1.2000
G01 X36.2356 Y4.9000
G01 X36.2324 Y4.9709
G01 X36.2307 Y4.9879
G01 X36.2201 Y5.0581
G01 X36.2007 Y5.1352
G01 X36.1740 Y5.2101
G01 X36.1438 Y5.2743
G01 X36.1357 Y5.2895
G01 X36.0991 Y5.3502
G01 X36.0570 Y5.4073
G01 X36.0461 Y5.4206
G01 X36.0013 Y5.4699
G01 X32.8356 Y8.6356
G01 X32.8356 Y37.7644
G01 X39.2983 Y44.2270
G01 X39.3517 Y44.2859
G01 X39.3941 Y44.3428
G01 X39.4037 Y44.3571
G01 X39.4357 Y44.4105
G01 X39.4419 Y44.4218
G01 X39.4705 Y44.4821
G01 X39.4770 Y44.4979
G01 X39.5007 Y44.5648
G01 X39.5182 Y44.6335
G01 X39.5215 Y44.6504
G01 X39.5317 Y44.7206
G01 X39.5356 Y44.7957
G01 X39.5356 Y51.0644
G01 X40.7610 Y52.2897
G01 X45.0296 Y52.2897
G01 X45.1047 Y52.2936
G01 X45.1834 Y52.3053
G01 X45.2605 Y52.3246
G01 X45.3274 Y52.3483
G00 Z1.0000
M05
G00 Z1.0000
G00 Z15.00


