(G-CODE GENERATED BY FLATCAM v8.994 - www.flatcam.org - Version Date: 2020/11/7)

(Name: condicionamento_BIA_v02-B_Cu.gbr_iso_combined_cnc)
(Type: G-code from Geometry)
(Units: MM)

(Created on segunda, 07 agosto 2023 at 16:03)

(This preprocessor is the default preprocessor used by FlatCAM.)
(It is made to work with MACH3 compatible motion controllers.)

(TOOL DIAMETER: 0.23 mm)
(Feedrate_XY: 200.0 mm/min)
(Feedrate_Z: 30.0 mm/min)
(Feedrate rapids 1500.0 mm/min)

(Z_Cut: -0.08507 mm)
(Z_Move: 1.0 mm)
(Z Start: None mm)
(Z End: 15.0 mm)
(X,Y End: None mm)
(Steps per circle: 64)
(Preprocessor Geometry: default)

(X range:   -0.5750 ...   87.1653  mm)
(Y range:   -0.5750 ...   99.5754  mm)

(Spindle Speed: 1000.0 RPM)
G21
G90
G94

G01 F200.00

M5
G00 Z1.0000
G00 X0.0000 Y0.0000
(T1)
(M6  )  
(MSG, Change to Tool Dia = 0.23000)
(M0)
G00 Z1.0000

M03 S1000.0
G01 F200.00
G00 X-0.1399 Y3.4191
G01 F30.00
G01 Z-0.0851
G01 F200.00
G01 X-0.1668 Y3.4058
G01 X-0.1767 Y3.4004
G01 X-0.1961 Y3.3887
G01 X-0.2056 Y3.3826
G01 X-0.2240 Y3.3696
G01 X-0.2418 Y3.3557
G01 X-0.2505 Y3.3484
G01 X-0.2589 Y3.3410
G01 X-0.2753 Y3.3254
G01 X-0.2908 Y3.3090
G01 X-0.2983 Y3.3006
G01 X-0.3126 Y3.2831
G01 X-0.3261 Y3.2650
G01 X-0.3325 Y3.2557
G01 X-0.3446 Y3.2366
G01 X-0.3502 Y3.2269
G01 X-0.3557 Y3.2170
G01 X-0.3658 Y3.1968
G01 X-0.3705 Y3.1865
G01 X-0.3792 Y3.1657
G01 X-0.3868 Y3.1444
G01 X-0.3902 Y3.1336
G01 X-0.3962 Y3.1119
G01 X-0.4012 Y3.0899
G01 X-0.4032 Y3.0788
G01 X-0.4065 Y3.0564
G01 X-0.4078 Y3.0452
G01 X-0.4088 Y3.0340
G01 X-0.4099 Y3.0114
G01 X-0.4100 Y1.2001
G01 X-0.4099 Y1.1888
G01 X-0.4088 Y1.1663
G01 X-0.4065 Y1.1438
G01 X-0.4050 Y1.1326
G01 X-0.4012 Y1.1104
G01 X-0.3962 Y1.0883
G01 X-0.3902 Y1.0666
G01 X-0.3831 Y1.0451
G01 X-0.3750 Y1.0241
G01 X-0.3658 Y1.0034
G01 X-0.3557 Y0.9833
G01 X-0.3446 Y0.9636
G01 X-0.3325 Y0.9446
G01 X-0.3195 Y0.9261
G01 X-0.3126 Y0.9171
G01 X-0.2983 Y0.8997
G01 X-0.2908 Y0.8912
G01 X-0.2753 Y0.8748
G01 X-0.2589 Y0.8593
G01 X-0.2418 Y0.8445
G01 X-0.2240 Y0.8306
G01 X-0.2149 Y0.8240
G01 X-0.1961 Y0.8115
G01 X-0.1865 Y0.8056
G01 X-0.1668 Y0.7944
G01 X-0.1568 Y0.7892
G01 X-0.1364 Y0.7796
G01 X-0.1260 Y0.7751
G01 X-0.1050 Y0.7670
G01 X-0.0835 Y0.7599
G01 X-0.0727 Y0.7568
G01 X-0.0618 Y0.7539
G01 X-0.0397 Y0.7490
G01 X-0.0175 Y0.7451
G01 X0.0049 Y0.7423
G01 X0.0274 Y0.7407
G01 X0.0387 Y0.7403
G01 X1.8500 Y0.7401
G01 X1.8726 Y0.7407
G01 X1.8838 Y0.7414
G01 X1.9063 Y0.7436
G01 X1.9286 Y0.7469
G01 X1.9508 Y0.7513
G01 X1.9618 Y0.7539
G01 X1.9835 Y0.7599
G01 X2.0050 Y0.7670
G01 X2.0260 Y0.7751
G01 X2.0467 Y0.7843
G01 X2.0668 Y0.7944
G01 X2.0865 Y0.8056
G01 X2.1056 Y0.8176
G01 X2.1240 Y0.8306
G01 X2.1330 Y0.8375
G01 X2.1505 Y0.8518
G01 X2.1672 Y0.8670
G01 X2.1753 Y0.8748
G01 X2.1908 Y0.8912
G01 X2.2056 Y0.9083
G01 X2.2195 Y0.9261
G01 X2.2325 Y0.9446
G01 X2.2446 Y0.9636
G01 X2.2557 Y0.9833
G01 X2.2658 Y1.0034
G01 X2.2750 Y1.0241
G01 X2.2792 Y1.0346
G01 X2.2868 Y1.0558
G01 X2.2933 Y1.0774
G01 X2.2988 Y1.0993
G01 X2.3032 Y1.1215
G01 X2.3065 Y1.1438
G01 X2.3088 Y1.1663
G01 X2.3099 Y1.1888
G01 X2.3100 Y1.4256
G01 X2.3471 Y1.3636
G01 X2.3592 Y1.3445
G01 X2.3722 Y1.3261
G01 X2.4248 Y1.2551
G01 X2.4387 Y1.2373
G01 X2.4460 Y1.2287
G01 X2.5205 Y1.1465
G01 X2.5364 Y1.1306
G01 X2.5447 Y1.1229
G01 X2.6101 Y1.0636
G01 X2.6272 Y1.0488
G01 X2.6450 Y1.0349
G01 X2.7160 Y0.9823
G01 X2.7344 Y0.9693
G01 X2.7535 Y0.9572
G01 X2.8293 Y0.9118
G01 X2.8489 Y0.9007
G01 X2.8691 Y0.8906
G01 X2.9489 Y0.8528
G01 X2.9592 Y0.8481
G01 X2.9800 Y0.8394
G01 X3.0738 Y0.8058
G01 X3.0845 Y0.8021
G01 X3.1061 Y0.7955
G01 X3.2136 Y0.7686
G01 X3.2358 Y0.7642
G01 X3.2829 Y0.7571
G01 X3.6860 Y0.3551
G01 X3.7018 Y0.3400
G01 X3.7480 Y0.2982
G01 X3.7651 Y0.2834
G01 X3.7740 Y0.2764
G01 X3.8422 Y0.2258
G01 X3.8609 Y0.2132
G01 X3.8705 Y0.2073
G01 X3.9338 Y0.1696
G01 X3.9437 Y0.1641
G01 X3.9638 Y0.1540
G01 X4.0202 Y0.1273
G01 X4.0408 Y0.1182
G01 X4.0619 Y0.1101
G01 X4.1206 Y0.0890
G01 X4.1420 Y0.0820
G01 X4.1638 Y0.0759
G01 X4.2243 Y0.0608
G01 X4.2463 Y0.0558
G01 X4.2686 Y0.0520
G01 X4.3414 Y0.0413
G01 X4.3639 Y0.0391
G01 X4.3752 Y0.0384
G01 X4.4374 Y0.0354
G01 X4.4600 Y0.0348
G01 X29.2200 Y0.0348
G01 X29.2426 Y0.0354
G01 X29.3048 Y0.0384
G01 X29.3274 Y0.0401
G01 X29.3498 Y0.0428
G01 X29.4114 Y0.0520
G01 X29.4337 Y0.0558
G01 X29.4557 Y0.0608
G01 X29.5162 Y0.0759
G01 X29.5380 Y0.0820
G01 X29.5594 Y0.0890
G01 X29.6181 Y0.1101
G01 X29.6392 Y0.1182
G01 X29.6598 Y0.1273
G01 X29.7162 Y0.1540
G01 X29.7363 Y0.1641
G01 X29.7560 Y0.1753
G01 X29.8095 Y0.2073
G01 X29.8285 Y0.2194
G01 X29.8470 Y0.2324
G01 X29.8971 Y0.2695
G01 X29.9149 Y0.2834
G01 X29.9320 Y0.2982
G01 X29.9782 Y0.3400
G01 X29.9945 Y0.3556
G01 X30.1830 Y0.5441
G01 X30.2219 Y0.5462
G01 X30.2443 Y0.5484
G01 X30.3637 Y0.5661
G01 X30.3859 Y0.5705
G01 X30.3969 Y0.5731
G01 X30.4921 Y0.5970
G01 X30.5138 Y0.6030
G01 X30.5246 Y0.6064
G01 X30.6277 Y0.6431
G01 X30.6487 Y0.6513
G01 X30.6694 Y0.6604
G01 X30.7581 Y0.7024
G01 X30.7782 Y0.7125
G01 X30.7979 Y0.7236
G01 X30.8821 Y0.7741
G01 X30.9011 Y0.7862
G01 X30.9104 Y0.7926
G01 X30.9984 Y0.8576
G01 X31.0162 Y0.8715
G01 X31.0333 Y0.8863
G01 X31.1060 Y0.9522
G01 X31.1224 Y0.9677
G01 X31.1379 Y0.9841
G01 X31.2038 Y1.0568
G01 X31.2186 Y1.0739
G01 X31.2325 Y1.0917
G01 X31.2909 Y1.1705
G01 X31.3039 Y1.1890
G01 X31.3160 Y1.2081
G01 X31.3665 Y1.2922
G01 X31.3776 Y1.3119
G01 X31.3878 Y1.3320
G01 X31.4297 Y1.4208
G01 X31.4344 Y1.4310
G01 X31.4431 Y1.4519
G01 X31.4801 Y1.5549
G01 X31.4871 Y1.5763
G01 X31.4932 Y1.5981
G01 X31.5170 Y1.6933
G01 X31.5219 Y1.7153
G01 X31.5258 Y1.7375
G01 X31.5402 Y1.8346
G01 X31.5430 Y1.8570
G01 X31.5446 Y1.8795
G01 X31.5494 Y1.9775
G01 X31.5500 Y2.0001
G01 X31.5494 Y2.0227
G01 X31.5446 Y2.1207
G01 X31.5430 Y2.1432
G01 X31.5402 Y2.1656
G01 X31.5258 Y2.2627
G01 X31.5219 Y2.2849
G01 X31.5170 Y2.3070
G01 X31.4932 Y2.4022
G01 X31.4871 Y2.4239
G01 X31.4801 Y2.4454
G01 X31.4470 Y2.5378
G01 X31.4389 Y2.5588
G01 X31.4297 Y2.5795
G01 X31.3878 Y2.6682
G01 X31.3776 Y2.6884
G01 X31.3665 Y2.7080
G01 X31.3160 Y2.7922
G01 X31.3039 Y2.8113
G01 X31.2909 Y2.8297
G01 X31.2325 Y2.9085
G01 X31.2186 Y2.9263
G01 X31.2038 Y2.9434
G01 X31.1379 Y3.0161
G01 X31.1224 Y3.0325
G01 X31.1060 Y3.0481
G01 X31.0333 Y3.1140
G01 X31.0162 Y3.1287
G01 X30.9984 Y3.1426
G01 X30.9196 Y3.2011
G01 X30.9011 Y3.2141
G01 X30.8821 Y3.2261
G01 X30.7979 Y3.2766
G01 X30.7782 Y3.2877
G01 X30.7581 Y3.2979
G01 X30.6694 Y3.3398
G01 X30.6487 Y3.3490
G01 X30.6277 Y3.3571
G01 X30.5353 Y3.3902
G01 X30.5138 Y3.3973
G01 X30.4921 Y3.4033
G01 X30.3969 Y3.4271
G01 X30.3748 Y3.4321
G01 X30.3526 Y3.4359
G01 X30.2555 Y3.4503
G01 X30.2331 Y3.4531
G01 X30.2106 Y3.4547
G01 X30.1126 Y3.4596
G01 X30.0900 Y3.4601
G01 X30.0674 Y3.4596
G01 X29.9581 Y3.4541
G01 X29.9469 Y3.4531
G01 X29.9245 Y3.4503
G01 X29.8274 Y3.4359
G01 X29.8052 Y3.4321
G01 X29.7831 Y3.4271
G01 X29.6879 Y3.4033
G01 X29.6662 Y3.3973
G01 X29.6447 Y3.3902
G01 X29.5523 Y3.3571
G01 X29.5313 Y3.3490
G01 X29.5106 Y3.3398
G01 X29.4219 Y3.2979
G01 X29.4118 Y3.2929
G01 X29.3919 Y3.2823
G01 X29.2883 Y3.2202
G01 X29.2696 Y3.2077
G01 X29.2604 Y3.2011
G01 X29.1816 Y3.1426
G01 X29.1638 Y3.1287
G01 X29.1467 Y3.1140
G01 X29.0740 Y3.0481
G01 X29.0657 Y3.0404
G01 X29.0497 Y3.0244
G01 X28.9687 Y2.9350
G01 X28.9544 Y2.9175
G01 X28.9475 Y2.9085
G01 X28.8824 Y2.8206
G01 X28.8699 Y2.8018
G01 X28.8640 Y2.7922
G01 X28.8135 Y2.7080
G01 X28.8024 Y2.6884
G01 X28.7922 Y2.6682
G01 X28.7503 Y2.5795
G01 X28.7456 Y2.5692
G01 X28.7369 Y2.5484
G01 X28.6999 Y2.4454
G01 X28.6963 Y2.4347
G01 X28.6897 Y2.4131
G01 X28.6604 Y2.2960
G01 X28.6560 Y2.2739
G01 X28.6487 Y2.2254
G01 X23.4653 Y2.2254
G01 X23.4653 Y2.7958
G01 X23.4878 Y2.8261
G01 X23.5008 Y2.8445
G01 X23.5129 Y2.8636
G01 X23.5500 Y2.9256
G01 X23.5501 Y2.6888
G01 X23.5512 Y2.6663
G01 X23.5535 Y2.6438
G01 X23.5568 Y2.6215
G01 X23.5612 Y2.5993
G01 X23.5667 Y2.5774
G01 X23.5732 Y2.5558
G01 X23.5808 Y2.5346
G01 X23.5895 Y2.5137
G01 X23.5991 Y2.4933
G01 X23.6098 Y2.4734
G01 X23.6214 Y2.4540
G01 X23.6339 Y2.4352
G01 X23.6405 Y2.4261
G01 X23.6544 Y2.4083
G01 X23.6692 Y2.3912
G01 X23.6847 Y2.3748
G01 X23.7011 Y2.3593
G01 X23.7182 Y2.3445
G01 X23.7270 Y2.3375
G01 X23.7451 Y2.3240
G01 X23.7639 Y2.3115
G01 X23.7833 Y2.2999
G01 X23.8032 Y2.2892
G01 X23.8133 Y2.2843
G01 X23.8340 Y2.2751
G01 X23.8550 Y2.2670
G01 X23.8765 Y2.2599
G01 X23.8982 Y2.2539
G01 X23.9203 Y2.2490
G01 X23.9314 Y2.2469
G01 X23.9537 Y2.2436
G01 X23.9649 Y2.2423
G01 X23.9874 Y2.2407
G01 X24.0100 Y2.2401
G01 X25.8100 Y2.2401
G01 X25.8326 Y2.2407
G01 X25.8438 Y2.2414
G01 X25.8663 Y2.2436
G01 X25.8775 Y2.2451
G01 X25.8997 Y2.2490
G01 X25.9218 Y2.2539
G01 X25.9435 Y2.2599
G01 X25.9543 Y2.2633
G01 X25.9756 Y2.2709
G01 X25.9860 Y2.2751
G01 X26.0067 Y2.2843
G01 X26.0268 Y2.2944
G01 X26.0465 Y2.3056
G01 X26.0656 Y2.3176
G01 X26.0840 Y2.3306
G01 X26.1018 Y2.3445
G01 X26.1105 Y2.3518
G01 X26.1272 Y2.3670
G01 X26.1432 Y2.3829
G01 X26.1508 Y2.3912
G01 X26.1656 Y2.4083
G01 X26.1795 Y2.4261
G01 X26.1861 Y2.4352
G01 X26.1986 Y2.4540
G01 X26.2102 Y2.4734
G01 X26.2209 Y2.4933
G01 X26.2258 Y2.5034
G01 X26.2350 Y2.5241
G01 X26.2431 Y2.5451
G01 X26.2502 Y2.5666
G01 X26.2562 Y2.5883
G01 X26.2612 Y2.6104
G01 X26.2632 Y2.6215
G01 X26.2650 Y2.6326
G01 X26.2678 Y2.6550
G01 X26.2694 Y2.6775
G01 X26.2700 Y2.7001
G01 X26.2700 Y3.2311
G01 X30.1830 Y7.1441
G01 X30.2219 Y7.1462
G01 X30.2443 Y7.1484
G01 X30.3637 Y7.1661
G01 X30.3859 Y7.1705
G01 X30.3969 Y7.1731
G01 X30.5030 Y7.1998
G01 X30.5138 Y7.2030
G01 X30.5353 Y7.2101
G01 X30.6277 Y7.2431
G01 X30.6487 Y7.2513
G01 X30.6694 Y7.2604
G01 X30.7581 Y7.3024
G01 X30.7782 Y7.3125
G01 X30.7881 Y7.3180
G01 X30.8821 Y7.3741
G01 X30.9011 Y7.3862
G01 X30.9104 Y7.3926
G01 X31.0074 Y7.4645
G01 X31.0162 Y7.4715
G01 X31.0333 Y7.4863
G01 X31.1143 Y7.5599
G01 X31.1224 Y7.5677
G01 X31.1379 Y7.5841
G01 X31.2038 Y7.6568
G01 X31.2186 Y7.6739
G01 X31.2325 Y7.6917
G01 X31.2909 Y7.7705
G01 X31.3039 Y7.7890
G01 X31.3160 Y7.8081
G01 X31.3722 Y7.9020
G01 X31.3776 Y7.9119
G01 X31.3878 Y7.9320
G01 X31.4297 Y8.0208
G01 X31.4389 Y8.0414
G01 X31.4470 Y8.0625
G01 X31.4801 Y8.1549
G01 X31.4871 Y8.1763
G01 X31.4932 Y8.1981
G01 X31.5170 Y8.2933
G01 X31.5219 Y8.3153
G01 X31.5258 Y8.3375
G01 X31.5402 Y8.4346
G01 X31.5430 Y8.4570
G01 X31.5446 Y8.4795
G01 X31.5494 Y8.5775
G01 X31.5500 Y8.6001
G01 X31.5494 Y8.6227
G01 X31.5446 Y8.7207
G01 X31.5430 Y8.7432
G01 X31.5402 Y8.7656
G01 X31.5258 Y8.8627
G01 X31.5219 Y8.8849
G01 X31.5170 Y8.9070
G01 X31.4932 Y9.0022
G01 X31.4871 Y9.0239
G01 X31.4801 Y9.0454
G01 X31.4470 Y9.1378
G01 X31.4389 Y9.1588
G01 X31.4297 Y9.1795
G01 X31.3878 Y9.2682
G01 X31.3828 Y9.2783
G01 X31.3722 Y9.2982
G01 X31.3160 Y9.3922
G01 X31.3039 Y9.4113
G01 X31.2897 Y9.4315
G01 X37.0100 Y3.7111
G01 X37.0100 Y2.9001
G01 X37.0106 Y2.8775
G01 X37.0122 Y2.8550
G01 X37.0135 Y2.8438
G01 X37.0168 Y2.8215
G01 X37.0212 Y2.7993
G01 X37.0238 Y2.7883
G01 X37.0298 Y2.7666
G01 X37.0369 Y2.7451
G01 X37.0450 Y2.7241
G01 X37.0542 Y2.7034
G01 X37.0591 Y2.6933
G01 X37.0698 Y2.6734
G01 X37.0754 Y2.6636
G01 X37.0875 Y2.6446
G01 X37.1005 Y2.6261
G01 X37.1144 Y2.6083
G01 X37.1292 Y2.5912
G01 X37.1447 Y2.5748
G01 X37.1528 Y2.5670
G01 X37.1611 Y2.5593
G01 X37.1782 Y2.5445
G01 X37.1960 Y2.5306
G01 X37.2144 Y2.5176
G01 X37.2239 Y2.5115
G01 X37.2433 Y2.4999
G01 X37.2532 Y2.4944
G01 X37.2733 Y2.4843
G01 X37.2836 Y2.4796
G01 X37.3044 Y2.4709
G01 X37.3257 Y2.4633
G01 X37.3365 Y2.4599
G01 X37.3473 Y2.4568
G01 X37.3692 Y2.4513
G01 X37.3914 Y2.4469
G01 X37.4137 Y2.4436
G01 X37.4362 Y2.4414
G01 X37.4474 Y2.4407
G01 X37.4700 Y2.4401
G01 X38.2810 Y2.4401
G01 X39.7955 Y0.9256
G01 X39.8118 Y0.9100
G01 X39.8665 Y0.8607
G01 X39.8840 Y0.8464
G01 X39.9430 Y0.8024
G01 X39.9522 Y0.7958
G01 X39.9709 Y0.7832
G01 X40.0340 Y0.7453
G01 X40.0537 Y0.7341
G01 X40.0738 Y0.7240
G01 X40.1302 Y0.6973
G01 X40.1405 Y0.6926
G01 X40.1613 Y0.6840
G01 X40.2306 Y0.6590
G01 X40.2520 Y0.6520
G01 X40.2738 Y0.6459
G01 X40.3453 Y0.6282
G01 X40.3563 Y0.6258
G01 X40.3786 Y0.6220
G01 X40.4402 Y0.6128
G01 X40.4626 Y0.6101
G01 X40.4852 Y0.6084
G01 X40.5474 Y0.6054
G01 X40.5700 Y0.6048
G01 X75.1013 Y0.6049
G01 X75.1748 Y0.6084
G01 X75.1974 Y0.6101
G01 X75.2198 Y0.6128
G01 X75.2814 Y0.6220
G01 X75.2926 Y0.6238
G01 X75.3147 Y0.6282
G01 X75.3862 Y0.6459
G01 X75.4080 Y0.6520
G01 X75.4294 Y0.6590
G01 X75.4881 Y0.6801
G01 X75.5092 Y0.6882
G01 X75.5298 Y0.6973
G01 X75.5862 Y0.7240
G01 X75.6063 Y0.7341
G01 X75.6260 Y0.7453
G01 X75.6891 Y0.7832
G01 X75.7078 Y0.7958
G01 X75.7671 Y0.8395
G01 X75.7849 Y0.8534
G01 X75.8020 Y0.8682
G01 X75.8564 Y0.9177
G01 X76.6894 Y1.7505
G01 X76.6895 Y1.7295
G01 X76.6899 Y1.7182
G01 X76.6947 Y1.6202
G01 X76.6964 Y1.5977
G01 X76.6991 Y1.5753
G01 X76.7135 Y1.4782
G01 X76.7174 Y1.4560
G01 X76.7223 Y1.4339
G01 X76.7462 Y1.3387
G01 X76.7522 Y1.3170
G01 X76.7593 Y1.2955
G01 X76.7923 Y1.2031
G01 X76.8005 Y1.1821
G01 X76.8096 Y1.1614
G01 X76.8516 Y1.0727
G01 X76.8617 Y1.0526
G01 X76.8728 Y1.0329
G01 X76.9233 Y0.9487
G01 X76.9354 Y0.9297
G01 X76.9484 Y0.9112
G01 X77.0068 Y0.8324
G01 X77.0207 Y0.8146
G01 X77.0355 Y0.7975
G01 X77.1014 Y0.7248
G01 X77.1169 Y0.7084
G01 X77.1250 Y0.7005
G01 X77.2060 Y0.6269
G01 X77.2231 Y0.6122
G01 X77.2409 Y0.5983
G01 X77.3197 Y0.5399
G01 X77.3382 Y0.5269
G01 X77.3573 Y0.5148
G01 X77.4414 Y0.4643
G01 X77.4611 Y0.4532
G01 X77.4812 Y0.4430
G01 X77.5802 Y0.3964
G01 X77.5906 Y0.3919
G01 X77.6117 Y0.3838
G01 X77.7041 Y0.3507
G01 X77.7255 Y0.3437
G01 X77.7473 Y0.3376
G01 X77.8534 Y0.3112
G01 X77.8756 Y0.3068
G01 X77.8867 Y0.3050
G01 X77.9950 Y0.2891
G01 X78.0175 Y0.2869
G01 X78.0563 Y0.2848
G01 X78.4803 Y-0.1392
G01 X78.4966 Y-0.1548
G01 X78.5428 Y-0.1966
G01 X78.5599 Y-0.2114
G01 X78.5688 Y-0.2184
G01 X78.6278 Y-0.2624
G01 X78.6463 Y-0.2754
G01 X78.6653 Y-0.2875
G01 X78.7188 Y-0.3195
G01 X78.7385 Y-0.3307
G01 X78.7586 Y-0.3408
G01 X78.8150 Y-0.3675
G01 X78.8356 Y-0.3766
G01 X78.8567 Y-0.3847
G01 X78.9154 Y-0.4058
G01 X78.9368 Y-0.4128
G01 X78.9477 Y-0.4160
G01 X79.0191 Y-0.4340
G01 X79.0411 Y-0.4390
G01 X79.0634 Y-0.4428
G01 X79.1250 Y-0.4520
G01 X79.1362 Y-0.4535
G01 X79.1587 Y-0.4557
G01 X79.2322 Y-0.4594
G01 X79.2548 Y-0.4600
G01 X84.7752 Y-0.4600
G01 X84.7978 Y-0.4594
G01 X84.8600 Y-0.4564
G01 X84.8826 Y-0.4547
G01 X84.9050 Y-0.4520
G01 X84.9666 Y-0.4428
G01 X84.9778 Y-0.4410
G01 X84.9999 Y-0.4366
G01 X85.0714 Y-0.4189
G01 X85.0932 Y-0.4128
G01 X85.1146 Y-0.4058
G01 X85.1733 Y-0.3847
G01 X85.1944 Y-0.3766
G01 X85.2150 Y-0.3675
G01 X85.2714 Y-0.3408
G01 X85.2915 Y-0.3307
G01 X85.3112 Y-0.3195
G01 X85.3647 Y-0.2875
G01 X85.3837 Y-0.2754
G01 X85.4022 Y-0.2624
G01 X85.4612 Y-0.2184
G01 X85.4787 Y-0.2041
G01 X85.4872 Y-0.1966
G01 X85.5334 Y-0.1548
G01 X85.5497 Y-0.1392
G01 X86.7295 Y1.0406
G01 X86.7451 Y1.0570
G01 X86.7869 Y1.1032
G01 X86.8017 Y1.1203
G01 X86.8156 Y1.1381
G01 X86.8527 Y1.1881
G01 X86.8657 Y1.2066
G01 X86.8778 Y1.2257
G01 X86.9099 Y1.2791
G01 X86.9210 Y1.2988
G01 X86.9311 Y1.3190
G01 X86.9578 Y1.3753
G01 X86.9669 Y1.3960
G01 X86.9751 Y1.4170
G01 X86.9961 Y1.4757
G01 X87.0032 Y1.4972
G01 X87.0092 Y1.5189
G01 X87.0243 Y1.5794
G01 X87.0293 Y1.6014
G01 X87.0331 Y1.6237
G01 X87.0423 Y1.6853
G01 X87.0450 Y1.7078
G01 X87.0467 Y1.7303
G01 X87.0498 Y1.7925
G01 X87.0503 Y1.8151
G01 X87.0502 Y71.7514
G01 X87.0467 Y71.8250
G01 X87.0450 Y71.8475
G01 X87.0423 Y71.8699
G01 X87.0331 Y71.9316
G01 X87.0293 Y71.9538
G01 X87.0269 Y71.9648
G01 X87.0092 Y72.0363
G01 X87.0032 Y72.0581
G01 X86.9961 Y72.0795
G01 X86.9711 Y72.1488
G01 X86.9625 Y72.1697
G01 X86.9578 Y72.1799
G01 X86.9311 Y72.2363
G01 X86.9210 Y72.2564
G01 X86.9099 Y72.2761
G01 X86.8719 Y72.3392
G01 X86.8657 Y72.3486
G01 X86.8527 Y72.3671
G01 X86.8156 Y72.4172
G01 X86.8017 Y72.4350
G01 X86.7869 Y72.4521
G01 X86.7374 Y72.5065
G01 X86.2403 Y73.0038
G01 X86.2403 Y79.8451
G01 X86.2398 Y79.8677
G01 X86.2367 Y79.9300
G01 X86.2350 Y79.9525
G01 X86.2323 Y79.9749
G01 X86.2231 Y80.0366
G01 X86.2193 Y80.0588
G01 X86.2169 Y80.0698
G01 X86.1992 Y80.1413
G01 X86.1932 Y80.1631
G01 X86.1861 Y80.1845
G01 X86.1611 Y80.2538
G01 X86.1525 Y80.2747
G01 X86.1162 Y80.3514
G01 X86.1055 Y80.3713
G01 X86.0999 Y80.3811
G01 X86.0619 Y80.4442
G01 X86.0493 Y80.4630
G01 X86.0427 Y80.4721
G01 X86.0056 Y80.5222
G01 X85.9917 Y80.5400
G01 X85.9769 Y80.5571
G01 X85.9351 Y80.6033
G01 X85.9195 Y80.6196
G01 X85.3064 Y81.2325
G01 X85.2435 Y81.2895
G01 X85.2349 Y81.2968
G01 X85.2171 Y81.3107
G01 X85.1670 Y81.3478
G01 X85.1485 Y81.3608
G01 X85.1295 Y81.3729
G01 X85.0760 Y81.4050
G01 X85.0662 Y81.4107
G01 X85.0463 Y81.4213
G01 X84.9695 Y81.4576
G01 X84.9592 Y81.4621
G01 X84.9381 Y81.4702
G01 X84.8687 Y81.4949
G01 X84.8580 Y81.4983
G01 X84.8362 Y81.5043
G01 X84.7757 Y81.5194
G01 X84.7537 Y81.5244
G01 X84.7314 Y81.5282
G01 X84.6586 Y81.5389
G01 X84.6474 Y81.5402
G01 X84.6248 Y81.5418
G01 X84.5626 Y81.5449
G01 X84.5400 Y81.5454
G01 X83.9143 Y81.5454
G01 X83.8749 Y81.5745
G01 X83.8561 Y81.5871
G01 X83.7707 Y81.6384
G01 X83.7511 Y81.6495
G01 X83.7309 Y81.6597
G01 X83.6408 Y81.7021
G01 X83.6200 Y81.7108
G01 X83.5943 Y81.7201
G01 X83.6200 Y81.7294
G01 X83.6408 Y81.7381
G01 X83.7309 Y81.7806
G01 X83.7511 Y81.7907
G01 X83.7707 Y81.8018
G01 X83.8465 Y81.8472
G01 X83.8656 Y81.8593
G01 X83.8840 Y81.8723
G01 X83.9550 Y81.9249
G01 X83.9728 Y81.9388
G01 X83.9899 Y81.9536
G01 X84.0636 Y82.0206
G01 X84.0795 Y82.0365
G01 X84.0872 Y82.0448
G01 X84.1465 Y82.1102
G01 X84.1613 Y82.1273
G01 X84.1752 Y82.1451
G01 X84.2278 Y82.2161
G01 X84.2408 Y82.2345
G01 X84.2529 Y82.2536
G01 X84.2983 Y82.3294
G01 X84.3094 Y82.3490
G01 X84.3196 Y82.3692
G01 X84.3573 Y82.4490
G01 X84.3665 Y82.4697
G01 X84.3707 Y82.4802
G01 X84.4044 Y82.5739
G01 X84.4114 Y82.5953
G01 X84.4175 Y82.6171
G01 X84.4415 Y82.7137
G01 X84.4439 Y82.7248
G01 X84.4477 Y82.7470
G01 X84.4607 Y82.8344
G01 X84.4635 Y82.8568
G01 X84.4651 Y82.8793
G01 X84.4694 Y82.9675
G01 X84.4700 Y82.9901
G01 X84.4694 Y83.0127
G01 X84.4651 Y83.1009
G01 X84.4635 Y83.1234
G01 X84.4607 Y83.1458
G01 X84.4477 Y83.2332
G01 X84.4439 Y83.2554
G01 X84.4389 Y83.2775
G01 X84.4175 Y83.3631
G01 X84.4114 Y83.3849
G01 X84.4044 Y83.4063
G01 X84.3746 Y83.4895
G01 X84.3665 Y83.5106
G01 X84.3620 Y83.5209
G01 X84.3196 Y83.6110
G01 X84.3094 Y83.6312
G01 X84.2983 Y83.6509
G01 X84.2470 Y83.7362
G01 X84.2408 Y83.7457
G01 X84.2278 Y83.7642
G01 X84.1752 Y83.8351
G01 X84.1613 Y83.8529
G01 X84.1465 Y83.8700
G01 X84.0872 Y83.9354
G01 X84.0717 Y83.9518
G01 X84.0553 Y83.9674
G01 X83.9899 Y84.0267
G01 X83.9728 Y84.0414
G01 X83.9550 Y84.0553
G01 X83.8840 Y84.1079
G01 X83.8656 Y84.1209
G01 X83.8465 Y84.1330
G01 X83.7610 Y84.1841
G01 X83.7411 Y84.1947
G01 X83.7309 Y84.1997
G01 X83.6408 Y84.2421
G01 X83.6200 Y84.2508
G01 X83.5943 Y84.2601
G01 X83.6200 Y84.2694
G01 X83.6408 Y84.2781
G01 X83.7309 Y84.3206
G01 X83.7511 Y84.3307
G01 X83.7707 Y84.3418
G01 X83.8465 Y84.3872
G01 X83.8656 Y84.3993
G01 X83.8840 Y84.4123
G01 X83.9550 Y84.4649
G01 X83.9728 Y84.4788
G01 X83.9899 Y84.4936
G01 X84.0636 Y84.5606
G01 X84.0795 Y84.5765
G01 X84.0872 Y84.5848
G01 X84.1465 Y84.6502
G01 X84.1613 Y84.6673
G01 X84.1752 Y84.6851
G01 X84.2278 Y84.7561
G01 X84.2408 Y84.7745
G01 X84.2529 Y84.7936
G01 X84.2983 Y84.8694
G01 X84.3094 Y84.8890
G01 X84.3196 Y84.9092
G01 X84.3573 Y84.9890
G01 X84.3665 Y85.0097
G01 X84.3746 Y85.0307
G01 X84.4044 Y85.1139
G01 X84.4114 Y85.1353
G01 X84.4175 Y85.1571
G01 X84.4389 Y85.2428
G01 X84.4439 Y85.2648
G01 X84.4477 Y85.2870
G01 X84.4607 Y85.3744
G01 X84.4622 Y85.3856
G01 X84.4644 Y85.4081
G01 X84.4694 Y85.5075
G01 X84.4700 Y85.5301
G01 X84.4694 Y85.5527
G01 X84.4651 Y85.6409
G01 X84.4635 Y85.6634
G01 X84.4607 Y85.6858
G01 X84.4477 Y85.7732
G01 X84.4439 Y85.7954
G01 X84.4389 Y85.8175
G01 X84.4175 Y85.9031
G01 X84.4114 Y85.9249
G01 X84.4044 Y85.9463
G01 X84.3746 Y86.0295
G01 X84.3665 Y86.0506
G01 X84.3620 Y86.0609
G01 X84.3196 Y86.1510
G01 X84.3094 Y86.1712
G01 X84.2983 Y86.1909
G01 X84.2470 Y86.2762
G01 X84.2344 Y86.2950
G01 X84.2278 Y86.3042
G01 X84.1752 Y86.3751
G01 X84.1613 Y86.3929
G01 X84.1465 Y86.4100
G01 X84.0872 Y86.4754
G01 X84.0717 Y86.4918
G01 X84.0553 Y86.5074
G01 X83.9899 Y86.5667
G01 X83.9728 Y86.5814
G01 X83.9550 Y86.5953
G01 X83.8840 Y86.6479
G01 X83.8656 Y86.6609
G01 X83.8465 Y86.6730
G01 X83.7610 Y86.7241
G01 X83.7511 Y86.7295
G01 X83.7309 Y86.7397
G01 X83.6408 Y86.7821
G01 X83.6200 Y86.7908
G01 X83.5943 Y86.8001
G01 X83.6200 Y86.8094
G01 X83.6408 Y86.8181
G01 X83.7309 Y86.8606
G01 X83.7511 Y86.8707
G01 X83.7707 Y86.8818
G01 X83.8465 Y86.9272
G01 X83.8656 Y86.9393
G01 X83.8840 Y86.9523
G01 X83.9550 Y87.0049
G01 X83.9728 Y87.0188
G01 X83.9899 Y87.0336
G01 X84.0553 Y87.0929
G01 X84.0717 Y87.1085
G01 X84.0872 Y87.1248
G01 X84.1465 Y87.1902
G01 X84.1613 Y87.2073
G01 X84.1683 Y87.2162
G01 X84.2278 Y87.2961
G01 X84.2408 Y87.3145
G01 X84.2529 Y87.3336
G01 X84.2983 Y87.4094
G01 X84.3094 Y87.4290
G01 X84.3196 Y87.4492
G01 X84.3573 Y87.5290
G01 X84.3665 Y87.5497
G01 X84.3746 Y87.5707
G01 X84.4044 Y87.6539
G01 X84.4114 Y87.6753
G01 X84.4175 Y87.6971
G01 X84.4389 Y87.7828
G01 X84.4439 Y87.8048
G01 X84.4477 Y87.8270
G01 X84.4607 Y87.9144
G01 X84.4635 Y87.9368
G01 X84.4651 Y87.9593
G01 X84.4694 Y88.0475
G01 X84.4700 Y88.0701
G01 X84.4694 Y88.0927
G01 X84.4651 Y88.1809
G01 X84.4635 Y88.2034
G01 X84.4607 Y88.2258
G01 X84.4459 Y88.3243
G01 X84.4415 Y88.3465
G01 X84.4389 Y88.3575
G01 X84.4175 Y88.4431
G01 X84.4114 Y88.4649
G01 X84.4044 Y88.4863
G01 X84.3746 Y88.5695
G01 X84.3665 Y88.5906
G01 X84.3573 Y88.6112
G01 X84.3196 Y88.6910
G01 X84.3094 Y88.7112
G01 X84.2983 Y88.7309
G01 X84.2470 Y88.8162
G01 X84.2344 Y88.8350
G01 X84.2278 Y88.8442
G01 X84.1752 Y88.9151
G01 X84.1613 Y88.9329
G01 X84.1465 Y88.9500
G01 X84.0872 Y89.0154
G01 X84.0717 Y89.0318
G01 X84.0553 Y89.0474
G01 X83.9899 Y89.1067
G01 X83.9728 Y89.1214
G01 X83.9550 Y89.1353
G01 X83.8840 Y89.1879
G01 X83.8656 Y89.2009
G01 X83.8465 Y89.2130
G01 X83.7610 Y89.2641
G01 X83.7511 Y89.2695
G01 X83.7309 Y89.2797
G01 X83.6408 Y89.3221
G01 X83.6200 Y89.3308
G01 X83.5943 Y89.3401
G01 X83.6200 Y89.3494
G01 X83.6408 Y89.3581
G01 X83.7309 Y89.4006
G01 X83.7511 Y89.4107
G01 X83.7707 Y89.4218
G01 X83.8465 Y89.4672
G01 X83.8656 Y89.4793
G01 X83.8840 Y89.4923
G01 X83.9550 Y89.5449
G01 X83.9728 Y89.5588
G01 X83.9899 Y89.5736
G01 X84.0553 Y89.6329
G01 X84.0717 Y89.6485
G01 X84.0872 Y89.6648
G01 X84.1465 Y89.7302
G01 X84.1613 Y89.7473
G01 X84.1683 Y89.7562
G01 X84.2278 Y89.8361
G01 X84.2408 Y89.8545
G01 X84.2529 Y89.8736
G01 X84.2983 Y89.9494
G01 X84.3094 Y89.9690
G01 X84.3196 Y89.9892
G01 X84.3573 Y90.0690
G01 X84.3665 Y90.0897
G01 X84.3746 Y90.1107
G01 X84.4044 Y90.1939
G01 X84.4114 Y90.2153
G01 X84.4175 Y90.2371
G01 X84.4389 Y90.3228
G01 X84.4439 Y90.3448
G01 X84.4477 Y90.3670
G01 X84.4607 Y90.4544
G01 X84.4635 Y90.4768
G01 X84.4651 Y90.4993
G01 X84.4694 Y90.5875
G01 X84.4700 Y90.6101
G01 X84.4699 Y90.6214
G01 X84.4651 Y90.7209
G01 X84.4635 Y90.7434
G01 X84.4607 Y90.7658
G01 X84.4459 Y90.8643
G01 X84.4439 Y90.8754
G01 X84.4389 Y90.8975
G01 X84.4175 Y90.9831
G01 X84.4114 Y91.0049
G01 X84.4044 Y91.0263
G01 X84.3746 Y91.1095
G01 X84.3665 Y91.1306
G01 X84.3573 Y91.1512
G01 X84.3146 Y91.2412
G01 X84.3094 Y91.2512
G01 X84.2983 Y91.2709
G01 X84.2529 Y91.3466
G01 X84.2408 Y91.3657
G01 X84.2278 Y91.3842
G01 X84.1752 Y91.4551
G01 X84.1613 Y91.4729
G01 X84.1465 Y91.4900
G01 X84.0795 Y91.5637
G01 X84.0636 Y91.5797
G01 X84.0553 Y91.5874
G01 X83.9899 Y91.6467
G01 X83.9814 Y91.6541
G01 X83.9640 Y91.6685
G01 X83.8840 Y91.7279
G01 X83.8656 Y91.7409
G01 X83.8465 Y91.7530
G01 X83.7846 Y91.7901
G01 X84.0213 Y91.7903
G01 X84.0438 Y91.7914
G01 X84.0663 Y91.7936
G01 X84.0886 Y91.7969
G01 X84.1108 Y91.8013
G01 X84.1327 Y91.8068
G01 X84.1435 Y91.8099
G01 X84.1650 Y91.8170
G01 X84.1860 Y91.8251
G01 X84.2067 Y91.8343
G01 X84.2268 Y91.8444
G01 X84.2465 Y91.8556
G01 X84.2656 Y91.8676
G01 X84.2749 Y91.8740
G01 X84.2930 Y91.8875
G01 X84.3105 Y91.9018
G01 X84.3189 Y91.9093
G01 X84.3353 Y91.9248
G01 X84.3508 Y91.9412
G01 X84.3656 Y91.9583
G01 X84.3795 Y91.9761
G01 X84.3861 Y91.9852
G01 X84.3986 Y92.0040
G01 X84.4102 Y92.0234
G01 X84.4209 Y92.0433
G01 X84.4305 Y92.0637
G01 X84.4392 Y92.0846
G01 X84.4468 Y92.1058
G01 X84.4533 Y92.1274
G01 X84.4588 Y92.1493
G01 X84.4612 Y92.1604
G01 X84.4650 Y92.1826
G01 X84.4678 Y92.2050
G01 X84.4694 Y92.2275
G01 X84.4700 Y92.2501
G01 X84.4700 Y94.0501
G01 X84.4694 Y94.0727
G01 X84.4688 Y94.0840
G01 X84.4665 Y94.1064
G01 X84.4632 Y94.1288
G01 X84.4588 Y94.1509
G01 X84.4533 Y94.1728
G01 X84.4502 Y94.1836
G01 X84.4431 Y94.2051
G01 X84.4350 Y94.2262
G01 X84.4258 Y94.2468
G01 X84.4157 Y94.2670
G01 X84.4046 Y94.2866
G01 X84.3925 Y94.3057
G01 X84.3795 Y94.3241
G01 X84.3656 Y94.3419
G01 X84.3508 Y94.3590
G01 X84.3353 Y94.3754
G01 X84.3189 Y94.3910
G01 X84.3018 Y94.4057
G01 X84.2840 Y94.4196
G01 X84.2656 Y94.4326
G01 X84.2465 Y94.4447
G01 X84.2268 Y94.4558
G01 X84.2067 Y94.4660
G01 X84.1964 Y94.4707
G01 X84.1756 Y94.4793
G01 X84.1543 Y94.4869
G01 X84.1327 Y94.4935
G01 X84.1108 Y94.4989
G01 X84.0997 Y94.5013
G01 X84.0775 Y94.5051
G01 X84.0551 Y94.5079
G01 X84.0438 Y94.5089
G01 X84.0213 Y94.5100
G01 X79.9987 Y94.5100
G01 X79.9874 Y94.5096
G01 X79.9649 Y94.5079
G01 X79.9425 Y94.5051
G01 X79.9314 Y94.5033
G01 X79.9092 Y94.4989
G01 X79.8982 Y94.4963
G01 X79.8873 Y94.4935
G01 X79.8657 Y94.4869
G01 X79.8444 Y94.4793
G01 X79.8236 Y94.4707
G01 X79.8133 Y94.4660
G01 X79.7932 Y94.4558
G01 X79.7833 Y94.4504
G01 X79.7735 Y94.4447
G01 X79.7544 Y94.4326
G01 X79.7451 Y94.4262
G01 X79.7270 Y94.4128
G01 X79.7095 Y94.3984
G01 X79.7011 Y94.3910
G01 X79.6847 Y94.3754
G01 X79.6692 Y94.3590
G01 X79.6617 Y94.3506
G01 X79.6544 Y94.3419
G01 X79.6405 Y94.3241
G01 X79.6275 Y94.3057
G01 X79.6214 Y94.2962
G01 X79.6098 Y94.2769
G01 X79.6043 Y94.2670
G01 X79.5935 Y94.2454
G01 X77.7437 Y94.2454
G01 X72.8414 Y99.1475
G01 X72.7870 Y99.1971
G01 X72.7699 Y99.2118
G01 X72.7521 Y99.2257
G01 X72.7020 Y99.2628
G01 X72.6835 Y99.2758
G01 X72.6645 Y99.2879
G01 X72.6110 Y99.3200
G01 X72.5913 Y99.3311
G01 X72.5712 Y99.3413
G01 X72.5148 Y99.3679
G01 X72.4942 Y99.3771
G01 X72.4731 Y99.3852
G01 X72.4037 Y99.4099
G01 X72.3930 Y99.4133
G01 X72.3712 Y99.4193
G01 X72.2997 Y99.4371
G01 X72.2776 Y99.4415
G01 X72.2048 Y99.4524
G01 X72.1936 Y99.4539
G01 X72.1711 Y99.4561
G01 X72.0976 Y99.4599
G01 X72.0750 Y99.4604
G01 X13.6550 Y99.4604
G01 X13.6324 Y99.4599
G01 X13.5702 Y99.4568
G01 X13.5476 Y99.4552
G01 X13.5252 Y99.4524
G01 X13.4636 Y99.4432
G01 X13.4413 Y99.4394
G01 X13.4303 Y99.4371
G01 X13.3588 Y99.4193
G01 X13.3370 Y99.4133
G01 X13.3156 Y99.4062
G01 X13.2569 Y99.3852
G01 X13.2358 Y99.3771
G01 X13.2255 Y99.3726
G01 X13.1588 Y99.3413
G01 X13.1387 Y99.3311
G01 X13.1190 Y99.3200
G01 X13.0559 Y99.2820
G01 X13.0465 Y99.2758
G01 X13.0280 Y99.2628
G01 X12.9779 Y99.2257
G01 X12.9601 Y99.2118
G01 X12.9430 Y99.1971
G01 X12.8968 Y99.1552
G01 X12.8805 Y99.1396
G01 X10.4155 Y96.6746
G01 X10.3999 Y96.6583
G01 X10.3581 Y96.6121
G01 X10.3433 Y96.5950
G01 X10.3294 Y96.5772
G01 X10.2857 Y96.5180
G01 X10.2731 Y96.4992
G01 X10.2672 Y96.4896
G01 X10.2351 Y96.4361
G01 X10.2240 Y96.4164
G01 X10.2139 Y96.3963
G01 X10.1825 Y96.3297
G01 X10.1739 Y96.3088
G01 X10.1699 Y96.2982
G01 X10.1489 Y96.2395
G01 X10.1418 Y96.2181
G01 X10.1358 Y96.1963
G01 X10.1207 Y96.1358
G01 X10.1181 Y96.1248
G01 X10.1137 Y96.1027
G01 X10.1012 Y96.0187
G01 X10.1000 Y96.0075
G01 X10.0983 Y95.9850
G01 X10.0952 Y95.9227
G01 X10.0947 Y95.9001
G01 X10.0947 Y94.8797
G01 X10.0818 Y94.8685
G01 X10.0190 Y94.8116
G01 X10.0027 Y94.7960
G01 X9.9871 Y94.7797
G01 X9.9302 Y94.7169
G01 X9.9154 Y94.6998
G01 X9.9016 Y94.6820
G01 X9.8511 Y94.6139
G01 X9.8381 Y94.5955
G01 X9.8260 Y94.5764
G01 X9.7824 Y94.5037
G01 X9.7713 Y94.4841
G01 X9.7611 Y94.4639
G01 X9.7249 Y94.3873
G01 X9.7158 Y94.3666
G01 X9.7076 Y94.3456
G01 X9.6791 Y94.2658
G01 X9.6720 Y94.2443
G01 X9.6660 Y94.2226
G01 X9.6454 Y94.1404
G01 X9.6404 Y94.1183
G01 X9.6366 Y94.0961
G01 X9.6241 Y94.0123
G01 X9.6214 Y93.9899
G01 X9.6204 Y93.9786
G01 X9.6151 Y93.8714
G01 X9.6151 Y93.8488
G01 X9.6156 Y93.8375
G01 X9.6197 Y93.7529
G01 X9.6214 Y93.7304
G01 X9.6241 Y93.7080
G01 X9.6384 Y93.6130
G01 X9.6428 Y93.5909
G01 X9.6454 Y93.5799
G01 X9.6660 Y93.4977
G01 X9.6720 Y93.4759
G01 X9.6791 Y93.4545
G01 X9.7076 Y93.3747
G01 X9.7158 Y93.3536
G01 X9.7249 Y93.3330
G01 X9.7611 Y93.2563
G01 X9.7713 Y93.2362
G01 X9.7824 Y93.2165
G01 X9.8260 Y93.1438
G01 X9.8381 Y93.1248
G01 X9.8511 Y93.1063
G01 X9.9016 Y93.0382
G01 X9.9154 Y93.0204
G01 X9.9302 Y93.0033
G01 X9.9871 Y92.9405
G01 X10.0027 Y92.9242
G01 X10.0190 Y92.9086
G01 X10.0818 Y92.8517
G01 X10.0989 Y92.8370
G01 X10.1167 Y92.8231
G01 X10.1848 Y92.7726
G01 X10.1939 Y92.7660
G01 X10.2127 Y92.7534
G01 X10.2950 Y92.7039
G01 X10.3147 Y92.6928
G01 X10.3348 Y92.6827
G01 X10.4114 Y92.6464
G01 X10.4321 Y92.6373
G01 X10.4531 Y92.6291
G01 X10.5329 Y92.6006
G01 X10.5544 Y92.5935
G01 X10.5662 Y92.5901
G01 X10.5544 Y92.5867
G01 X10.5329 Y92.5796
G01 X10.4531 Y92.5511
G01 X10.4321 Y92.5430
G01 X10.4114 Y92.5338
G01 X10.3348 Y92.4976
G01 X10.3147 Y92.4874
G01 X10.2950 Y92.4763
G01 X10.2223 Y92.4327
G01 X10.2032 Y92.4207
G01 X10.1848 Y92.4077
G01 X10.1167 Y92.3572
G01 X10.0989 Y92.3433
G01 X10.0818 Y92.3285
G01 X10.0190 Y92.2716
G01 X10.0027 Y92.2560
G01 X9.9948 Y92.2480
G01 X9.9302 Y92.1769
G01 X9.9154 Y92.1598
G01 X9.9016 Y92.1420
G01 X9.8511 Y92.0739
G01 X9.8381 Y92.0555
G01 X9.8260 Y92.0364
G01 X9.7824 Y91.9637
G01 X9.7713 Y91.9441
G01 X9.7611 Y91.9239
G01 X9.7249 Y91.8473
G01 X9.7158 Y91.8266
G01 X9.7076 Y91.8056
G01 X9.6791 Y91.7258
G01 X9.6720 Y91.7043
G01 X9.6660 Y91.6826
G01 X9.6454 Y91.6004
G01 X9.6404 Y91.5783
G01 X9.6384 Y91.5672
G01 X9.6241 Y91.4723
G01 X9.6214 Y91.4499
G01 X9.6197 Y91.4273
G01 X9.6151 Y91.3314
G01 X9.6151 Y91.3088
G01 X9.6156 Y91.2975
G01 X9.6197 Y91.2129
G01 X9.6214 Y91.1904
G01 X9.6241 Y91.1680
G01 X9.6366 Y91.0841
G01 X9.6404 Y91.0619
G01 X9.6454 Y91.0399
G01 X9.6660 Y90.9577
G01 X9.6720 Y90.9359
G01 X9.6754 Y90.9251
G01 X9.7076 Y90.8347
G01 X9.7158 Y90.8136
G01 X9.7249 Y90.7930
G01 X9.7611 Y90.7163
G01 X9.7713 Y90.6962
G01 X9.7824 Y90.6765
G01 X9.8260 Y90.6038
G01 X9.8381 Y90.5848
G01 X9.8511 Y90.5663
G01 X9.9016 Y90.4982
G01 X9.9154 Y90.4804
G01 X9.9302 Y90.4633
G01 X9.9948 Y90.3923
G01 X10.0108 Y90.3763
G01 X10.0190 Y90.3686
G01 X10.0818 Y90.3117
G01 X10.0989 Y90.2970
G01 X10.1167 Y90.2831
G01 X10.1848 Y90.2326
G01 X10.2032 Y90.2196
G01 X10.2223 Y90.2075
G01 X10.2950 Y90.1639
G01 X10.3147 Y90.1528
G01 X10.3348 Y90.1427
G01 X10.4114 Y90.1064
G01 X10.4321 Y90.0973
G01 X10.4531 Y90.0891
G01 X10.5329 Y90.0606
G01 X10.5544 Y90.0535
G01 X10.5662 Y90.0501
G01 X10.5544 Y90.0467
G01 X10.5329 Y90.0396
G01 X10.4531 Y90.0111
G01 X10.4321 Y90.0030
G01 X10.4114 Y89.9938
G01 X10.3348 Y89.9576
G01 X10.3147 Y89.9474
G01 X10.2950 Y89.9363
G01 X10.2223 Y89.8927
G01 X10.2032 Y89.8807
G01 X10.1848 Y89.8677
G01 X10.1167 Y89.8172
G01 X10.0989 Y89.8033
G01 X10.0818 Y89.7885
G01 X10.0190 Y89.7316
G01 X10.0027 Y89.7160
G01 X9.9948 Y89.7080
G01 X9.9302 Y89.6369
G01 X9.9154 Y89.6198
G01 X9.9016 Y89.6020
G01 X9.8511 Y89.5339
G01 X9.8381 Y89.5155
G01 X9.8260 Y89.4964
G01 X9.7824 Y89.4237
G01 X9.7713 Y89.4041
G01 X9.7611 Y89.3839
G01 X9.7249 Y89.3073
G01 X9.7158 Y89.2866
G01 X9.7076 Y89.2656
G01 X9.6791 Y89.1858
G01 X9.6720 Y89.1643
G01 X9.6660 Y89.1426
G01 X9.6454 Y89.0604
G01 X9.6404 Y89.0383
G01 X9.6384 Y89.0272
G01 X9.6241 Y88.9323
G01 X9.6214 Y88.9099
G01 X9.6197 Y88.8873
G01 X9.6151 Y88.7914
G01 X9.6151 Y88.7688
G01 X9.6156 Y88.7575
G01 X9.6197 Y88.6729
G01 X9.6214 Y88.6504
G01 X9.6241 Y88.6280
G01 X9.6366 Y88.5441
G01 X9.6404 Y88.5219
G01 X9.6454 Y88.4999
G01 X9.6660 Y88.4177
G01 X9.6688 Y88.4067
G01 X9.6754 Y88.3851
G01 X9.7076 Y88.2947
G01 X9.7158 Y88.2736
G01 X9.7249 Y88.2530
G01 X9.7611 Y88.1763
G01 X9.7713 Y88.1562
G01 X9.7824 Y88.1365
G01 X9.8260 Y88.0638
G01 X9.8381 Y88.0448
G01 X9.8511 Y88.0263
G01 X9.9016 Y87.9582
G01 X9.9154 Y87.9404
G01 X9.9302 Y87.9233
G01 X9.9948 Y87.8523
G01 X10.0108 Y87.8363
G01 X10.0190 Y87.8286
G01 X10.0818 Y87.7717
G01 X10.0989 Y87.7570
G01 X10.1167 Y87.7431
G01 X10.1848 Y87.6926
G01 X10.2032 Y87.6796
G01 X10.2223 Y87.6675
G01 X10.2950 Y87.6239
G01 X10.3147 Y87.6128
G01 X10.3348 Y87.6027
G01 X10.4114 Y87.5664
G01 X10.4321 Y87.5573
G01 X10.4531 Y87.5491
G01 X10.5329 Y87.5206
G01 X10.5544 Y87.5135
G01 X10.5662 Y87.5101
G01 X10.5544 Y87.5067
G01 X10.5329 Y87.4996
G01 X10.4531 Y87.4711
G01 X10.4321 Y87.4630
G01 X10.4114 Y87.4538
G01 X10.3348 Y87.4176
G01 X10.3147 Y87.4074
G01 X10.2950 Y87.3963
G01 X10.2223 Y87.3527
G01 X10.2032 Y87.3407
G01 X10.1848 Y87.3277
G01 X10.1167 Y87.2772
G01 X10.0989 Y87.2633
G01 X10.0818 Y87.2485
G01 X10.0190 Y87.1916
G01 X10.0108 Y87.1839
G01 X9.9948 Y87.1680
G01 X9.9302 Y87.0969
G01 X9.9154 Y87.0798
G01 X9.9016 Y87.0620
G01 X9.8511 Y86.9939
G01 X9.8381 Y86.9755
G01 X9.8260 Y86.9564
G01 X9.7824 Y86.8837
G01 X9.7713 Y86.8641
G01 X9.7611 Y86.8439
G01 X9.7249 Y86.7673
G01 X9.7158 Y86.7466
G01 X9.7076 Y86.7256
G01 X9.6791 Y86.6458
G01 X9.6720 Y86.6243
G01 X9.6660 Y86.6026
G01 X9.6454 Y86.5204
G01 X9.6428 Y86.5094
G01 X9.6384 Y86.4872
G01 X9.6241 Y86.3923
G01 X9.6214 Y86.3699
G01 X9.6197 Y86.3473
G01 X9.6151 Y86.2514
G01 X9.6151 Y86.2288
G01 X9.6156 Y86.2175
G01 X9.6197 Y86.1329
G01 X9.6214 Y86.1104
G01 X9.6241 Y86.0880
G01 X9.6366 Y86.0041
G01 X9.6404 Y85.9819
G01 X9.6454 Y85.9599
G01 X9.6660 Y85.8777
G01 X9.6688 Y85.8667
G01 X9.6754 Y85.8451
G01 X9.7076 Y85.7547
G01 X9.7158 Y85.7336
G01 X9.7249 Y85.7130
G01 X9.7611 Y85.6363
G01 X9.7713 Y85.6162
G01 X9.7824 Y85.5965
G01 X9.8260 Y85.5238
G01 X9.8381 Y85.5048
G01 X9.8511 Y85.4863
G01 X9.9016 Y85.4182
G01 X9.9154 Y85.4004
G01 X9.9302 Y85.3833
G01 X9.9948 Y85.3123
G01 X10.0108 Y85.2963
G01 X10.0190 Y85.2886
G01 X10.0818 Y85.2317
G01 X10.0989 Y85.2170
G01 X10.1167 Y85.2031
G01 X10.1848 Y85.1526
G01 X10.2032 Y85.1396
G01 X10.2223 Y85.1275
G01 X10.2950 Y85.0839
G01 X10.3147 Y85.0728
G01 X10.3348 Y85.0627
G01 X10.4114 Y85.0264
G01 X10.4321 Y85.0173
G01 X10.4531 Y85.0091
G01 X10.5329 Y84.9806
G01 X10.5544 Y84.9735
G01 X10.5662 Y84.9701
G01 X10.5544 Y84.9667
G01 X10.5329 Y84.9596
G01 X10.4531 Y84.9311
G01 X10.4321 Y84.9230
G01 X10.4114 Y84.9138
G01 X10.3348 Y84.8776
G01 X10.3147 Y84.8674
G01 X10.2950 Y84.8563
G01 X10.2223 Y84.8127
G01 X10.2032 Y84.8007
G01 X10.1848 Y84.7877
G01 X10.1167 Y84.7372
G01 X10.0989 Y84.7233
G01 X10.0818 Y84.7085
G01 X10.0190 Y84.6516
G01 X10.0027 Y84.6360
G01 X9.9871 Y84.6197
G01 X9.9302 Y84.5569
G01 X9.9227 Y84.5484
G01 X9.9084 Y84.5310
G01 X9.8511 Y84.4539
G01 X9.8381 Y84.4355
G01 X9.8260 Y84.4164
G01 X9.7767 Y84.3339
G01 X9.7661 Y84.3140
G01 X9.7611 Y84.3039
G01 X9.7249 Y84.2273
G01 X9.7158 Y84.2066
G01 X9.7076 Y84.1856
G01 X9.6791 Y84.1058
G01 X9.6720 Y84.0843
G01 X9.6660 Y84.0626
G01 X9.6454 Y83.9804
G01 X9.6404 Y83.9583
G01 X9.6366 Y83.9361
G01 X9.6241 Y83.8523
G01 X9.6214 Y83.8299
G01 X9.6197 Y83.8073
G01 X9.6156 Y83.7227
G01 X9.6151 Y83.7114
G01 X9.6151 Y83.6888
G01 X9.6197 Y83.5929
G01 X9.6214 Y83.5704
G01 X9.6241 Y83.5480
G01 X9.6366 Y83.4641
G01 X9.6404 Y83.4419
G01 X9.6454 Y83.4199
G01 X9.6660 Y83.3377
G01 X9.6720 Y83.3159
G01 X9.6791 Y83.2945
G01 X9.7076 Y83.2147
G01 X9.7158 Y83.1936
G01 X9.7249 Y83.1730
G01 X9.7611 Y83.0963
G01 X9.7713 Y83.0762
G01 X9.7824 Y83.0565
G01 X9.8319 Y82.9742
G01 X9.8445 Y82.9555
G01 X9.8511 Y82.9463
G01 X9.9016 Y82.8782
G01 X9.9154 Y82.8604
G01 X9.9302 Y82.8433
G01 X9.9871 Y82.7805
G01 X10.0027 Y82.7642
G01 X10.0190 Y82.7486
G01 X10.0818 Y82.6917
G01 X10.0989 Y82.6770
G01 X10.1167 Y82.6631
G01 X10.1939 Y82.6060
G01 X10.2127 Y82.5934
G01 X10.2223 Y82.5875
G01 X10.2950 Y82.5439
G01 X10.3147 Y82.5328
G01 X10.3348 Y82.5227
G01 X10.4114 Y82.4864
G01 X10.4321 Y82.4773
G01 X10.4531 Y82.4691
G01 X10.5329 Y82.4406
G01 X10.5544 Y82.4335
G01 X10.5662 Y82.4301
G01 X10.5544 Y82.4267
G01 X10.5329 Y82.4196
G01 X10.4531 Y82.3911
G01 X10.4321 Y82.3830
G01 X10.4114 Y82.3738
G01 X10.3348 Y82.3376
G01 X10.3147 Y82.3274
G01 X10.2950 Y82.3163
G01 X10.2223 Y82.2727
G01 X10.2032 Y82.2607
G01 X10.1848 Y82.2477
G01 X10.1167 Y82.1972
G01 X10.0989 Y82.1833
G01 X10.0818 Y82.1685
G01 X10.0190 Y82.1116
G01 X10.0027 Y82.0960
G01 X9.9871 Y82.0797
G01 X9.9302 Y82.0169
G01 X9.9154 Y81.9998
G01 X9.9016 Y81.9820
G01 X9.8511 Y81.9139
G01 X9.8381 Y81.8955
G01 X9.8260 Y81.8764
G01 X9.7824 Y81.8037
G01 X9.7713 Y81.7841
G01 X9.7611 Y81.7639
G01 X9.7249 Y81.6873
G01 X9.7158 Y81.6666
G01 X9.7076 Y81.6456
G01 X9.6791 Y81.5658
G01 X9.6720 Y81.5443
G01 X9.6660 Y81.5226
G01 X9.6454 Y81.4404
G01 X9.6404 Y81.4183
G01 X9.6366 Y81.3961
G01 X9.6241 Y81.3123
G01 X9.6214 Y81.2899
G01 X9.6204 Y81.2786
G01 X9.6156 Y81.1827
G01 X9.6150 Y81.1601
G01 X9.6156 Y81.1375
G01 X9.6197 Y81.0529
G01 X9.6214 Y81.0304
G01 X9.6241 Y81.0080
G01 X9.6366 Y80.9241
G01 X9.6404 Y80.9019
G01 X9.6454 Y80.8799
G01 X9.6660 Y80.7977
G01 X9.6720 Y80.7759
G01 X9.6791 Y80.7545
G01 X9.7116 Y80.6641
G01 X9.7158 Y80.6536
G01 X9.7249 Y80.6330
G01 X9.7611 Y80.5563
G01 X9.7713 Y80.5362
G01 X9.7824 Y80.5165
G01 X9.8260 Y80.4438
G01 X9.8381 Y80.4248
G01 X9.8511 Y80.4063
G01 X9.9016 Y80.3382
G01 X9.9154 Y80.3204
G01 X9.9302 Y80.3033
G01 X9.9871 Y80.2405
G01 X10.0027 Y80.2242
G01 X10.0190 Y80.2086
G01 X10.0818 Y80.1517
G01 X10.0989 Y80.1370
G01 X10.1167 Y80.1231
G01 X10.1848 Y80.0726
G01 X10.1939 Y80.0660
G01 X10.2127 Y80.0534
G01 X10.2950 Y80.0039
G01 X10.3147 Y79.9928
G01 X10.3348 Y79.9827
G01 X10.4114 Y79.9464
G01 X10.4321 Y79.9373
G01 X10.4531 Y79.9291
G01 X10.5329 Y79.9006
G01 X10.5544 Y79.8935
G01 X10.5662 Y79.8901
G01 X10.5544 Y79.8867
G01 X10.5329 Y79.8796
G01 X10.4531 Y79.8511
G01 X10.4321 Y79.8430
G01 X10.4114 Y79.8338
G01 X10.3348 Y79.7976
G01 X10.3147 Y79.7874
G01 X10.2950 Y79.7763
G01 X10.2223 Y79.7327
G01 X10.2032 Y79.7207
G01 X10.1848 Y79.7077
G01 X10.1167 Y79.6572
G01 X10.0989 Y79.6433
G01 X10.0818 Y79.6285
G01 X10.0190 Y79.5716
G01 X10.0027 Y79.5560
G01 X9.9871 Y79.5397
G01 X9.9227 Y79.4684
G01 X9.9154 Y79.4598
G01 X9.9016 Y79.4420
G01 X9.8511 Y79.3739
G01 X9.8381 Y79.3555
G01 X9.8260 Y79.3364
G01 X9.7824 Y79.2637
G01 X9.7713 Y79.2441
G01 X9.7611 Y79.2239
G01 X9.7202 Y79.1370
G01 X9.7158 Y79.1266
G01 X9.7076 Y79.1056
G01 X9.6791 Y79.0258
G01 X9.6720 Y79.0043
G01 X9.6660 Y78.9826
G01 X9.6454 Y78.9004
G01 X9.6404 Y78.8783
G01 X9.6366 Y78.8561
G01 X9.6241 Y78.7723
G01 X9.6214 Y78.7499
G01 X9.6204 Y78.7386
G01 X9.6151 Y78.6314
G01 X9.6151 Y78.6088
G01 X9.6156 Y78.5975
G01 X9.6197 Y78.5129
G01 X9.6214 Y78.4904
G01 X9.6241 Y78.4680
G01 X9.6384 Y78.3730
G01 X9.6428 Y78.3509
G01 X9.6454 Y78.3399
G01 X9.6660 Y78.2577
G01 X9.6720 Y78.2359
G01 X9.6791 Y78.2145
G01 X9.7076 Y78.1347
G01 X9.7158 Y78.1136
G01 X9.7249 Y78.0930
G01 X9.7611 Y78.0163
G01 X9.7713 Y77.9962
G01 X9.7824 Y77.9765
G01 X9.8260 Y77.9038
G01 X9.8381 Y77.8848
G01 X9.8511 Y77.8663
G01 X9.9016 Y77.7982
G01 X9.9154 Y77.7804
G01 X9.9302 Y77.7633
G01 X9.9871 Y77.7005
G01 X10.0027 Y77.6842
G01 X10.0190 Y77.6686
G01 X10.0818 Y77.6117
G01 X10.0989 Y77.5970
G01 X10.1167 Y77.5831
G01 X10.1848 Y77.5326
G01 X10.2032 Y77.5196
G01 X10.2127 Y77.5134
G01 X10.2950 Y77.4639
G01 X10.3147 Y77.4528
G01 X10.3348 Y77.4427
G01 X10.4114 Y77.4064
G01 X10.4321 Y77.3973
G01 X10.4531 Y77.3891
G01 X10.5329 Y77.3606
G01 X10.5544 Y77.3535
G01 X10.5662 Y77.3501
G01 X10.5544 Y77.3467
G01 X10.5329 Y77.3396
G01 X10.4531 Y77.3111
G01 X10.4321 Y77.3030
G01 X10.4114 Y77.2938
G01 X10.3348 Y77.2576
G01 X10.3147 Y77.2474
G01 X10.2950 Y77.2363
G01 X10.2223 Y77.1927
G01 X10.2127 Y77.1868
G01 X10.1956 Y77.1754
G01 X9.1437 Y77.1754
G01 X6.2853 Y80.0338
G01 X6.2853 Y95.8110
G01 X6.3049 Y95.8240
G01 X6.3230 Y95.8375
G01 X6.3405 Y95.8518
G01 X6.3572 Y95.8670
G01 X6.3653 Y95.8748
G01 X6.3808 Y95.8912
G01 X6.3956 Y95.9083
G01 X6.4026 Y95.9171
G01 X6.4095 Y95.9261
G01 X6.4225 Y95.9446
G01 X6.4346 Y95.9636
G01 X6.4402 Y95.9734
G01 X6.4509 Y95.9933
G01 X6.4605 Y96.0137
G01 X6.4650 Y96.0241
G01 X6.4731 Y96.0451
G01 X6.4802 Y96.0666
G01 X6.4862 Y96.0883
G01 X6.4888 Y96.0993
G01 X6.4932 Y96.1215
G01 X6.4950 Y96.1326
G01 X6.4978 Y96.1550
G01 X6.4994 Y96.1775
G01 X6.5000 Y96.2001
G01 X6.4999 Y97.9114
G01 X6.4988 Y97.9340
G01 X6.4978 Y97.9452
G01 X6.4965 Y97.9564
G01 X6.4932 Y97.9788
G01 X6.4888 Y98.0009
G01 X6.4833 Y98.0228
G01 X6.4802 Y98.0336
G01 X6.4731 Y98.0551
G01 X6.4692 Y98.0657
G01 X6.4605 Y98.0865
G01 X6.4558 Y98.0968
G01 X6.4457 Y98.1170
G01 X6.4346 Y98.1366
G01 X6.4286 Y98.1462
G01 X6.4161 Y98.1650
G01 X6.4026 Y98.1831
G01 X6.3956 Y98.1919
G01 X6.3883 Y98.2006
G01 X6.3732 Y98.2173
G01 X6.3572 Y98.2333
G01 X6.3489 Y98.2410
G01 X6.3318 Y98.2557
G01 X6.3140 Y98.2696
G01 X6.2956 Y98.2826
G01 X6.2765 Y98.2947
G01 X6.2667 Y98.3004
G01 X6.2468 Y98.3110
G01 X6.2264 Y98.3207
G01 X6.2056 Y98.3293
G01 X6.1843 Y98.3369
G01 X6.1627 Y98.3435
G01 X6.1408 Y98.3489
G01 X6.1297 Y98.3513
G01 X6.1075 Y98.3551
G01 X6.0851 Y98.3579
G01 X6.0626 Y98.3596
G01 X6.0400 Y98.3601
G01 X4.3400 Y98.3601
G01 X4.3174 Y98.3596
G01 X4.2949 Y98.3579
G01 X4.2837 Y98.3567
G01 X4.2614 Y98.3533
G01 X4.2503 Y98.3513
G01 X4.2282 Y98.3463
G01 X4.2173 Y98.3435
G01 X4.2065 Y98.3403
G01 X4.1850 Y98.3332
G01 X4.1640 Y98.3251
G01 X4.1433 Y98.3160
G01 X4.1332 Y98.3110
G01 X4.1232 Y98.3058
G01 X4.1035 Y98.2947
G01 X4.0844 Y98.2826
G01 X4.0660 Y98.2696
G01 X4.0570 Y98.2628
G01 X4.0395 Y98.2484
G01 X4.0228 Y98.2333
G01 X4.0147 Y98.2254
G01 X3.9992 Y98.2090
G01 X3.9844 Y98.1919
G01 X3.9774 Y98.1831
G01 X3.9705 Y98.1741
G01 X3.9575 Y98.1557
G01 X3.9514 Y98.1462
G01 X3.9398 Y98.1269
G01 X3.9291 Y98.1069
G01 X3.9195 Y98.0865
G01 X3.9150 Y98.0762
G01 X3.9108 Y98.0657
G01 X3.9032 Y98.0444
G01 X3.8967 Y98.0228
G01 X3.8938 Y98.0119
G01 X3.8888 Y97.9899
G01 X3.8850 Y97.9676
G01 X3.8835 Y97.9564
G01 X3.8812 Y97.9340
G01 X3.8801 Y97.9114
G01 X3.8800 Y96.2001
G01 X3.8806 Y96.1775
G01 X3.8812 Y96.1663
G01 X3.8835 Y96.1438
G01 X3.8868 Y96.1215
G01 X3.8888 Y96.1104
G01 X3.8938 Y96.0883
G01 X3.8998 Y96.0666
G01 X3.9069 Y96.0451
G01 X3.9150 Y96.0241
G01 X3.9195 Y96.0137
G01 X3.9291 Y95.9933
G01 X3.9398 Y95.9734
G01 X3.9454 Y95.9636
G01 X3.9575 Y95.9446
G01 X3.9639 Y95.9352
G01 X3.9774 Y95.9171
G01 X3.9917 Y95.8997
G01 X3.9992 Y95.8912
G01 X4.0147 Y95.8748
G01 X4.0311 Y95.8593
G01 X4.0395 Y95.8518
G01 X4.0570 Y95.8375
G01 X4.0751 Y95.8240
G01 X4.0947 Y95.8110
G01 X4.0947 Y94.0762
G01 X4.0695 Y94.1037
G01 X4.0536 Y94.1197
G01 X3.9714 Y94.1941
G01 X3.9628 Y94.2014
G01 X3.9450 Y94.2153
G01 X3.8649 Y94.2745
G01 X3.8461 Y94.2871
G01 X3.8365 Y94.2930
G01 X3.7607 Y94.3384
G01 X3.7411 Y94.3495
G01 X3.7209 Y94.3597
G01 X3.6308 Y94.4021
G01 X3.6204 Y94.4066
G01 X3.5994 Y94.4147
G01 X3.5162 Y94.4445
G01 X3.4948 Y94.4516
G01 X3.4730 Y94.4576
G01 X3.3874 Y94.4790
G01 X3.3653 Y94.4840
G01 X3.3431 Y94.4878
G01 X3.2557 Y94.5008
G01 X3.2333 Y94.5036
G01 X3.2108 Y94.5052
G01 X3.1226 Y94.5096
G01 X3.1000 Y94.5101
G01 X0.9000 Y94.5101
G01 X0.8774 Y94.5096
G01 X0.7892 Y94.5052
G01 X0.7779 Y94.5045
G01 X0.7555 Y94.5023
G01 X0.6569 Y94.4878
G01 X0.6347 Y94.4840
G01 X0.6126 Y94.4790
G01 X0.5270 Y94.4576
G01 X0.5052 Y94.4516
G01 X0.4838 Y94.4445
G01 X0.4006 Y94.4147
G01 X0.3796 Y94.4066
G01 X0.3589 Y94.3974
G01 X0.2689 Y94.3547
G01 X0.2490 Y94.3441
G01 X0.2393 Y94.3384
G01 X0.1635 Y94.2930
G01 X0.1444 Y94.2809
G01 X0.1260 Y94.2679
G01 X0.0550 Y94.2153
G01 X0.0372 Y94.2014
G01 X0.0201 Y94.1867
G01 X-0.0536 Y94.1197
G01 X-0.0617 Y94.1118
G01 X-0.0772 Y94.0954
G01 X-0.1440 Y94.0215
G01 X-0.1513 Y94.0129
G01 X-0.1652 Y93.9951
G01 X-0.2178 Y93.9242
G01 X-0.2308 Y93.9057
G01 X-0.2429 Y93.8866
G01 X-0.2883 Y93.8109
G01 X-0.2994 Y93.7912
G01 X-0.3096 Y93.7710
G01 X-0.3473 Y93.6912
G01 X-0.3565 Y93.6706
G01 X-0.3646 Y93.6495
G01 X-0.3944 Y93.5663
G01 X-0.4014 Y93.5449
G01 X-0.4075 Y93.5231
G01 X-0.4289 Y93.4375
G01 X-0.4339 Y93.4154
G01 X-0.4377 Y93.3932
G01 X-0.4507 Y93.3058
G01 X-0.4535 Y93.2834
G01 X-0.4551 Y93.2609
G01 X-0.4594 Y93.1727
G01 X-0.4600 Y93.1501
G01 X-0.4594 Y93.1275
G01 X-0.4551 Y93.0393
G01 X-0.4535 Y93.0168
G01 X-0.4507 Y92.9944
G01 X-0.4377 Y92.9070
G01 X-0.4339 Y92.8848
G01 X-0.4315 Y92.8737
G01 X-0.4046 Y92.7662
G01 X-0.4014 Y92.7553
G01 X-0.3944 Y92.7339
G01 X-0.3646 Y92.6507
G01 X-0.3565 Y92.6297
G01 X-0.3473 Y92.6090
G01 X-0.3096 Y92.5292
G01 X-0.2994 Y92.5090
G01 X-0.2883 Y92.4894
G01 X-0.2429 Y92.4136
G01 X-0.2308 Y92.3945
G01 X-0.2178 Y92.3761
G01 X-0.1652 Y92.3051
G01 X-0.1513 Y92.2873
G01 X-0.1440 Y92.2787
G01 X-0.0772 Y92.2048
G01 X-0.0617 Y92.1885
G01 X-0.0453 Y92.1729
G01 X0.0201 Y92.1136
G01 X0.0286 Y92.1061
G01 X0.0460 Y92.0918
G01 X0.1351 Y92.0257
G01 X0.1539 Y92.0132
G01 X0.1635 Y92.0072
G01 X0.2393 Y91.9618
G01 X0.2589 Y91.9507
G01 X0.2791 Y91.9406
G01 X0.3692 Y91.8981
G01 X0.3900 Y91.8894
G01 X0.4157 Y91.8801
G01 X0.3900 Y91.8708
G01 X0.3692 Y91.8621
G01 X0.2791 Y91.8197
G01 X0.2589 Y91.8095
G01 X0.2490 Y91.8041
G01 X0.1635 Y91.7530
G01 X0.1444 Y91.7409
G01 X0.1260 Y91.7279
G01 X0.0550 Y91.6753
G01 X0.0372 Y91.6614
G01 X0.0201 Y91.6467
G01 X-0.0453 Y91.5874
G01 X-0.0617 Y91.5718
G01 X-0.0772 Y91.5554
G01 X-0.1365 Y91.4900
G01 X-0.1513 Y91.4729
G01 X-0.1652 Y91.4551
G01 X-0.2178 Y91.3842
G01 X-0.2244 Y91.3750
G01 X-0.2370 Y91.3562
G01 X-0.2883 Y91.2709
G01 X-0.2994 Y91.2512
G01 X-0.3096 Y91.2310
G01 X-0.3473 Y91.1512
G01 X-0.3565 Y91.1306
G01 X-0.3646 Y91.1095
G01 X-0.3944 Y91.0263
G01 X-0.4014 Y91.0049
G01 X-0.4075 Y90.9831
G01 X-0.4289 Y90.8975
G01 X-0.4339 Y90.8754
G01 X-0.4359 Y90.8643
G01 X-0.4507 Y90.7658
G01 X-0.4535 Y90.7434
G01 X-0.4551 Y90.7209
G01 X-0.4594 Y90.6327
G01 X-0.4600 Y90.6101
G01 X-0.4594 Y90.5875
G01 X-0.4551 Y90.4993
G01 X-0.4535 Y90.4768
G01 X-0.4507 Y90.4544
G01 X-0.4377 Y90.3670
G01 X-0.4339 Y90.3448
G01 X-0.4289 Y90.3228
G01 X-0.4075 Y90.2371
G01 X-0.4014 Y90.2153
G01 X-0.3944 Y90.1939
G01 X-0.3646 Y90.1107
G01 X-0.3565 Y90.0897
G01 X-0.3473 Y90.0690
G01 X-0.3096 Y89.9892
G01 X-0.2994 Y89.9690
G01 X-0.2883 Y89.9494
G01 X-0.2429 Y89.8736
G01 X-0.2308 Y89.8545
G01 X-0.2178 Y89.8361
G01 X-0.1583 Y89.7562
G01 X-0.1513 Y89.7473
G01 X-0.1365 Y89.7302
G01 X-0.0772 Y89.6648
G01 X-0.0617 Y89.6485
G01 X-0.0453 Y89.6329
G01 X0.0201 Y89.5736
G01 X0.0372 Y89.5588
G01 X0.0550 Y89.5449
G01 X0.1260 Y89.4923
G01 X0.1444 Y89.4793
G01 X0.1635 Y89.4672
G01 X0.2393 Y89.4218
G01 X0.2589 Y89.4107
G01 X0.2791 Y89.4006
G01 X0.3692 Y89.3581
G01 X0.3900 Y89.3494
G01 X0.4157 Y89.3401
G01 X0.3900 Y89.3308
G01 X0.3692 Y89.3221
G01 X0.2791 Y89.2797
G01 X0.2689 Y89.2747
G01 X0.2490 Y89.2641
G01 X0.1635 Y89.2130
G01 X0.1444 Y89.2009
G01 X0.1260 Y89.1879
G01 X0.0550 Y89.1353
G01 X0.0372 Y89.1214
G01 X0.0201 Y89.1067
G01 X-0.0453 Y89.0474
G01 X-0.0617 Y89.0318
G01 X-0.0772 Y89.0154
G01 X-0.1365 Y88.9500
G01 X-0.1513 Y88.9329
G01 X-0.1652 Y88.9151
G01 X-0.2178 Y88.8442
G01 X-0.2308 Y88.8257
G01 X-0.2370 Y88.8162
G01 X-0.2883 Y88.7309
G01 X-0.2994 Y88.7112
G01 X-0.3096 Y88.6910
G01 X-0.3473 Y88.6112
G01 X-0.3565 Y88.5906
G01 X-0.3646 Y88.5695
G01 X-0.3944 Y88.4863
G01 X-0.4014 Y88.4649
G01 X-0.4075 Y88.4431
G01 X-0.4289 Y88.3575
G01 X-0.4339 Y88.3354
G01 X-0.4377 Y88.3132
G01 X-0.4507 Y88.2258
G01 X-0.4522 Y88.2146
G01 X-0.4544 Y88.1922
G01 X-0.4594 Y88.0927
G01 X-0.4600 Y88.0701
G01 X-0.4594 Y88.0475
G01 X-0.4544 Y87.9481
G01 X-0.4535 Y87.9368
G01 X-0.4507 Y87.9144
G01 X-0.4377 Y87.8270
G01 X-0.4339 Y87.8048
G01 X-0.4289 Y87.7828
G01 X-0.4075 Y87.6971
G01 X-0.4014 Y87.6753
G01 X-0.3944 Y87.6539
G01 X-0.3646 Y87.5707
G01 X-0.3565 Y87.5497
G01 X-0.3473 Y87.5290
G01 X-0.3096 Y87.4492
G01 X-0.2994 Y87.4290
G01 X-0.2883 Y87.4094
G01 X-0.2429 Y87.3336
G01 X-0.2308 Y87.3145
G01 X-0.2178 Y87.2961
G01 X-0.1652 Y87.2251
G01 X-0.1513 Y87.2073
G01 X-0.1365 Y87.1902
G01 X-0.0772 Y87.1248
G01 X-0.0617 Y87.1085
G01 X-0.0536 Y87.1006
G01 X0.0201 Y87.0336
G01 X0.0372 Y87.0188
G01 X0.0550 Y87.0049
G01 X0.1260 Y86.9523
G01 X0.1444 Y86.9393
G01 X0.1635 Y86.9272
G01 X0.2393 Y86.8818
G01 X0.2589 Y86.8707
G01 X0.2791 Y86.8606
G01 X0.3692 Y86.8181
G01 X0.3900 Y86.8094
G01 X0.4157 Y86.8001
G01 X0.3900 Y86.7908
G01 X0.3692 Y86.7821
G01 X0.2791 Y86.7397
G01 X0.2689 Y86.7347
G01 X0.2490 Y86.7241
G01 X0.1635 Y86.6730
G01 X0.1444 Y86.6609
G01 X0.1260 Y86.6479
G01 X0.0550 Y86.5953
G01 X0.0372 Y86.5814
G01 X0.0201 Y86.5667
G01 X-0.0453 Y86.5074
G01 X-0.0617 Y86.4918
G01 X-0.0772 Y86.4754
G01 X-0.1365 Y86.4100
G01 X-0.1513 Y86.3929
G01 X-0.1652 Y86.3751
G01 X-0.2178 Y86.3042
G01 X-0.2308 Y86.2857
G01 X-0.2370 Y86.2762
G01 X-0.2883 Y86.1909
G01 X-0.2994 Y86.1712
G01 X-0.3096 Y86.1510
G01 X-0.3520 Y86.0609
G01 X-0.3607 Y86.0401
G01 X-0.3646 Y86.0295
G01 X-0.3944 Y85.9463
G01 X-0.4014 Y85.9249
G01 X-0.4075 Y85.9031
G01 X-0.4289 Y85.8175
G01 X-0.4339 Y85.7954
G01 X-0.4377 Y85.7732
G01 X-0.4507 Y85.6858
G01 X-0.4535 Y85.6634
G01 X-0.4551 Y85.6409
G01 X-0.4594 Y85.5527
G01 X-0.4600 Y85.5301
G01 X-0.4594 Y85.5075
G01 X-0.4551 Y85.4193
G01 X-0.4535 Y85.3968
G01 X-0.4507 Y85.3744
G01 X-0.4377 Y85.2870
G01 X-0.4339 Y85.2648
G01 X-0.4315 Y85.2537
G01 X-0.4075 Y85.1571
G01 X-0.4014 Y85.1353
G01 X-0.3944 Y85.1139
G01 X-0.3607 Y85.0202
G01 X-0.3565 Y85.0097
G01 X-0.3473 Y84.9890
G01 X-0.3096 Y84.9092
G01 X-0.2994 Y84.8890
G01 X-0.2883 Y84.8694
G01 X-0.2429 Y84.7936
G01 X-0.2308 Y84.7745
G01 X-0.2178 Y84.7561
G01 X-0.1652 Y84.6851
G01 X-0.1513 Y84.6673
G01 X-0.1365 Y84.6502
G01 X-0.0772 Y84.5848
G01 X-0.0617 Y84.5685
G01 X-0.0536 Y84.5606
G01 X0.0201 Y84.4936
G01 X0.0372 Y84.4788
G01 X0.0550 Y84.4649
G01 X0.1260 Y84.4123
G01 X0.1444 Y84.3993
G01 X0.1635 Y84.3872
G01 X0.2393 Y84.3418
G01 X0.2589 Y84.3307
G01 X0.2791 Y84.3206
G01 X0.3692 Y84.2781
G01 X0.3900 Y84.2694
G01 X0.4157 Y84.2601
G01 X0.3900 Y84.2508
G01 X0.3692 Y84.2421
G01 X0.2791 Y84.1997
G01 X0.2589 Y84.1895
G01 X0.2490 Y84.1841
G01 X0.1635 Y84.1330
G01 X0.1444 Y84.1209
G01 X0.1260 Y84.1079
G01 X0.0460 Y84.0485
G01 X0.0372 Y84.0414
G01 X0.0201 Y84.0267
G01 X-0.0453 Y83.9674
G01 X-0.0617 Y83.9518
G01 X-0.0772 Y83.9354
G01 X-0.1365 Y83.8700
G01 X-0.1513 Y83.8529
G01 X-0.1652 Y83.8351
G01 X-0.2178 Y83.7642
G01 X-0.2308 Y83.7457
G01 X-0.2429 Y83.7266
G01 X-0.2883 Y83.6509
G01 X-0.2994 Y83.6312
G01 X-0.3096 Y83.6110
G01 X-0.3473 Y83.5312
G01 X-0.3565 Y83.5106
G01 X-0.3646 Y83.4895
G01 X-0.3944 Y83.4063
G01 X-0.4014 Y83.3849
G01 X-0.4075 Y83.3631
G01 X-0.4289 Y83.2775
G01 X-0.4339 Y83.2554
G01 X-0.4377 Y83.2332
G01 X-0.4507 Y83.1458
G01 X-0.4535 Y83.1234
G01 X-0.4551 Y83.1009
G01 X-0.4599 Y83.0014
G01 X-0.4600 Y82.9901
G01 X-0.4594 Y82.9675
G01 X-0.4551 Y82.8793
G01 X-0.4535 Y82.8568
G01 X-0.4507 Y82.8344
G01 X-0.4377 Y82.7470
G01 X-0.4339 Y82.7248
G01 X-0.4289 Y82.7028
G01 X-0.4075 Y82.6171
G01 X-0.4014 Y82.5953
G01 X-0.3944 Y82.5739
G01 X-0.3646 Y82.4907
G01 X-0.3565 Y82.4697
G01 X-0.3473 Y82.4490
G01 X-0.3096 Y82.3692
G01 X-0.2994 Y82.3490
G01 X-0.2883 Y82.3294
G01 X-0.2429 Y82.2536
G01 X-0.2308 Y82.2345
G01 X-0.2244 Y82.2252
G01 X-0.1652 Y82.1451
G01 X-0.1513 Y82.1273
G01 X-0.1365 Y82.1102
G01 X-0.0772 Y82.0448
G01 X-0.0617 Y82.0285
G01 X-0.0453 Y82.0129
G01 X0.0201 Y81.9536
G01 X0.0286 Y81.9461
G01 X0.0460 Y81.9318
G01 X0.1260 Y81.8723
G01 X0.1444 Y81.8593
G01 X0.1635 Y81.8472
G01 X0.2490 Y81.7961
G01 X0.2689 Y81.7855
G01 X0.2791 Y81.7806
G01 X0.3692 Y81.7381
G01 X0.3900 Y81.7294
G01 X0.4157 Y81.7201
G01 X0.3900 Y81.7108
G01 X0.3692 Y81.7021
G01 X0.2791 Y81.6597
G01 X0.2589 Y81.6495
G01 X0.2490 Y81.6441
G01 X0.1635 Y81.5930
G01 X0.1444 Y81.5809
G01 X0.1260 Y81.5679
G01 X0.0460 Y81.5085
G01 X0.0372 Y81.5014
G01 X0.0201 Y81.4867
G01 X-0.0453 Y81.4274
G01 X-0.0617 Y81.4118
G01 X-0.0772 Y81.3954
G01 X-0.1365 Y81.3300
G01 X-0.1513 Y81.3129
G01 X-0.1652 Y81.2951
G01 X-0.2178 Y81.2242
G01 X-0.2308 Y81.2057
G01 X-0.2429 Y81.1866
G01 X-0.2883 Y81.1109
G01 X-0.2994 Y81.0912
G01 X-0.3096 Y81.0710
G01 X-0.3473 Y80.9912
G01 X-0.3565 Y80.9706
G01 X-0.3646 Y80.9495
G01 X-0.3944 Y80.8663
G01 X-0.4014 Y80.8449
G01 X-0.4075 Y80.8231
G01 X-0.4289 Y80.7375
G01 X-0.4339 Y80.7154
G01 X-0.4377 Y80.6932
G01 X-0.4507 Y80.6058
G01 X-0.4535 Y80.5834
G01 X-0.4551 Y80.5609
G01 X-0.4594 Y80.4727
G01 X-0.4599 Y80.4614
G01 X-0.4599 Y80.4388
G01 X-0.4551 Y80.3393
G01 X-0.4535 Y80.3168
G01 X-0.4507 Y80.2944
G01 X-0.4377 Y80.2070
G01 X-0.4339 Y80.1848
G01 X-0.4289 Y80.1628
G01 X-0.4075 Y80.0771
G01 X-0.4014 Y80.0553
G01 X-0.3944 Y80.0339
G01 X-0.3646 Y79.9507
G01 X-0.3565 Y79.9297
G01 X-0.3473 Y79.9090
G01 X-0.3096 Y79.8292
G01 X-0.2994 Y79.8090
G01 X-0.2883 Y79.7894
G01 X-0.2429 Y79.7136
G01 X-0.2370 Y79.7040
G01 X-0.2244 Y79.6852
G01 X-0.1652 Y79.6051
G01 X-0.1513 Y79.5873
G01 X-0.1365 Y79.5702
G01 X-0.0772 Y79.5048
G01 X-0.0617 Y79.4885
G01 X-0.0453 Y79.4729
G01 X0.0201 Y79.4136
G01 X0.0372 Y79.3988
G01 X0.0460 Y79.3918
G01 X0.1260 Y79.3323
G01 X0.1444 Y79.3193
G01 X0.1635 Y79.3072
G01 X0.2490 Y79.2561
G01 X0.2689 Y79.2455
G01 X0.2791 Y79.2406
G01 X0.3692 Y79.1981
G01 X0.3900 Y79.1894
G01 X0.4157 Y79.1801
G01 X0.3900 Y79.1708
G01 X0.3692 Y79.1621
G01 X0.2791 Y79.1197
G01 X0.2589 Y79.1095
G01 X0.2490 Y79.1041
G01 X0.1635 Y79.0530
G01 X0.1444 Y79.0409
G01 X0.1260 Y79.0279
G01 X0.0460 Y78.9685
G01 X0.0372 Y78.9614
G01 X0.0201 Y78.9467
G01 X-0.0453 Y78.8874
G01 X-0.0617 Y78.8718
G01 X-0.0772 Y78.8554
G01 X-0.1365 Y78.7900
G01 X-0.1513 Y78.7729
G01 X-0.1652 Y78.7551
G01 X-0.2178 Y78.6842
G01 X-0.2308 Y78.6657
G01 X-0.2429 Y78.6466
G01 X-0.2883 Y78.5709
G01 X-0.2994 Y78.5512
G01 X-0.3096 Y78.5310
G01 X-0.3473 Y78.4512
G01 X-0.3565 Y78.4306
G01 X-0.3646 Y78.4095
G01 X-0.3944 Y78.3263
G01 X-0.4014 Y78.3049
G01 X-0.4075 Y78.2831
G01 X-0.4289 Y78.1975
G01 X-0.4339 Y78.1754
G01 X-0.4377 Y78.1532
G01 X-0.4507 Y78.0658
G01 X-0.4535 Y78.0434
G01 X-0.4551 Y78.0209
G01 X-0.4594 Y77.9327
G01 X-0.4600 Y77.9101
G01 X-0.4599 Y77.8988
G01 X-0.4551 Y77.7993
G01 X-0.4535 Y77.7768
G01 X-0.4507 Y77.7544
G01 X-0.4377 Y77.6670
G01 X-0.4339 Y77.6448
G01 X-0.4289 Y77.6228
G01 X-0.4075 Y77.5371
G01 X-0.4014 Y77.5153
G01 X-0.3944 Y77.4939
G01 X-0.3646 Y77.4107
G01 X-0.3565 Y77.3897
G01 X-0.3473 Y77.3690
G01 X-0.3096 Y77.2892
G01 X-0.2994 Y77.2690
G01 X-0.2883 Y77.2494
G01 X-0.2429 Y77.1736
G01 X-0.2308 Y77.1545
G01 X-0.2244 Y77.1452
G01 X-0.1652 Y77.0651
G01 X-0.1513 Y77.0473
G01 X-0.1365 Y77.0302
G01 X-0.0772 Y76.9648
G01 X-0.0617 Y76.9485
G01 X-0.0453 Y76.9329
G01 X0.0201 Y76.8736
G01 X0.0286 Y76.8661
G01 X0.0460 Y76.8518
G01 X0.1260 Y76.7923
G01 X0.1444 Y76.7793
G01 X0.1635 Y76.7672
G01 X0.2490 Y76.7161
G01 X0.2689 Y76.7055
G01 X0.2791 Y76.7006
G01 X0.3692 Y76.6581
G01 X0.3900 Y76.6494
G01 X0.4157 Y76.6401
G01 X0.3900 Y76.6308
G01 X0.3692 Y76.6221
G01 X0.2791 Y76.5797
G01 X0.2589 Y76.5695
G01 X0.2490 Y76.5641
G01 X0.1635 Y76.5130
G01 X0.1444 Y76.5009
G01 X0.1260 Y76.4879
G01 X0.0460 Y76.4285
G01 X0.0372 Y76.4214
G01 X0.0201 Y76.4067
G01 X-0.0453 Y76.3474
G01 X-0.0617 Y76.3318
G01 X-0.0772 Y76.3154
G01 X-0.1365 Y76.2500
G01 X-0.1513 Y76.2329
G01 X-0.1652 Y76.2151
G01 X-0.2178 Y76.1442
G01 X-0.2308 Y76.1257
G01 X-0.2429 Y76.1066
G01 X-0.2883 Y76.0309
G01 X-0.2994 Y76.0112
G01 X-0.3096 Y75.9910
G01 X-0.3473 Y75.9112
G01 X-0.3565 Y75.8906
G01 X-0.3646 Y75.8695
G01 X-0.3944 Y75.7863
G01 X-0.4014 Y75.7649
G01 X-0.4075 Y75.7431
G01 X-0.4289 Y75.6575
G01 X-0.4339 Y75.6354
G01 X-0.4377 Y75.6132
G01 X-0.4507 Y75.5258
G01 X-0.4535 Y75.5034
G01 X-0.4551 Y75.4809
G01 X-0.4594 Y75.3927
G01 X-0.4599 Y75.3814
G01 X-0.4599 Y75.3588
G01 X-0.4551 Y75.2593
G01 X-0.4535 Y75.2368
G01 X-0.4507 Y75.2144
G01 X-0.4377 Y75.1270
G01 X-0.4339 Y75.1048
G01 X-0.4289 Y75.0828
G01 X-0.4075 Y74.9971
G01 X-0.4014 Y74.9753
G01 X-0.3944 Y74.9539
G01 X-0.3646 Y74.8707
G01 X-0.3565 Y74.8497
G01 X-0.3473 Y74.8290
G01 X-0.3096 Y74.7492
G01 X-0.2994 Y74.7290
G01 X-0.2883 Y74.7094
G01 X-0.2429 Y74.6336
G01 X-0.2308 Y74.6145
G01 X-0.2244 Y74.6052
G01 X-0.1652 Y74.5251
G01 X-0.1513 Y74.5073
G01 X-0.1365 Y74.4902
G01 X-0.0772 Y74.4248
G01 X-0.0617 Y74.4085
G01 X-0.0453 Y74.3929
G01 X0.0201 Y74.3336
G01 X0.0286 Y74.3261
G01 X0.0460 Y74.3118
G01 X0.1260 Y74.2523
G01 X0.1444 Y74.2393
G01 X0.1635 Y74.2272
G01 X0.2490 Y74.1761
G01 X0.2689 Y74.1655
G01 X0.2791 Y74.1606
G01 X0.3692 Y74.1181
G01 X0.3900 Y74.1094
G01 X0.4157 Y74.1001
G01 X0.3900 Y74.0908
G01 X0.3692 Y74.0821
G01 X0.2791 Y74.0397
G01 X0.2689 Y74.0347
G01 X0.2490 Y74.0241
G01 X0.1635 Y73.9730
G01 X0.1444 Y73.9609
G01 X0.1260 Y73.9479
G01 X0.0460 Y73.8885
G01 X0.0372 Y73.8814
G01 X0.0201 Y73.8667
G01 X-0.0453 Y73.8074
G01 X-0.0617 Y73.7918
G01 X-0.0772 Y73.7754
G01 X-0.1365 Y73.7100
G01 X-0.1513 Y73.6929
G01 X-0.1652 Y73.6751
G01 X-0.2178 Y73.6042
G01 X-0.2308 Y73.5857
G01 X-0.2429 Y73.5666
G01 X-0.2883 Y73.4909
G01 X-0.2994 Y73.4712
G01 X-0.3096 Y73.4510
G01 X-0.3473 Y73.3712
G01 X-0.3565 Y73.3506
G01 X-0.3646 Y73.3295
G01 X-0.3944 Y73.2463
G01 X-0.4014 Y73.2249
G01 X-0.4075 Y73.2031
G01 X-0.4289 Y73.1175
G01 X-0.4339 Y73.0954
G01 X-0.4377 Y73.0732
G01 X-0.4507 Y72.9858
G01 X-0.4535 Y72.9634
G01 X-0.4551 Y72.9409
G01 X-0.4594 Y72.8527
G01 X-0.4600 Y72.8301
G01 X-0.4599 Y72.8188
G01 X-0.4551 Y72.7193
G01 X-0.4535 Y72.6968
G01 X-0.4507 Y72.6744
G01 X-0.4377 Y72.5870
G01 X-0.4339 Y72.5648
G01 X-0.4289 Y72.5428
G01 X-0.4075 Y72.4571
G01 X-0.4014 Y72.4353
G01 X-0.3944 Y72.4139
G01 X-0.3646 Y72.3307
G01 X-0.3565 Y72.3097
G01 X-0.3473 Y72.2890
G01 X-0.3096 Y72.2092
G01 X-0.2994 Y72.1890
G01 X-0.2883 Y72.1694
G01 X-0.2429 Y72.0936
G01 X-0.2308 Y72.0745
G01 X-0.2244 Y72.0652
G01 X-0.1652 Y71.9851
G01 X-0.1513 Y71.9673
G01 X-0.1365 Y71.9502
G01 X-0.0772 Y71.8848
G01 X-0.0617 Y71.8685
G01 X-0.0453 Y71.8529
G01 X0.0201 Y71.7936
G01 X0.0372 Y71.7788
G01 X0.0460 Y71.7718
G01 X0.1260 Y71.7123
G01 X0.1444 Y71.6993
G01 X0.1635 Y71.6872
G01 X0.2490 Y71.6361
G01 X0.2689 Y71.6255
G01 X0.2791 Y71.6206
G01 X0.3692 Y71.5781
G01 X0.3900 Y71.5694
G01 X0.4157 Y71.5601
G01 X0.3900 Y71.5508
G01 X0.3692 Y71.5421
G01 X0.2791 Y71.4997
G01 X0.2689 Y71.4947
G01 X0.2490 Y71.4841
G01 X0.1635 Y71.4330
G01 X0.1444 Y71.4209
G01 X0.1260 Y71.4079
G01 X0.0460 Y71.3485
G01 X0.0372 Y71.3414
G01 X0.0201 Y71.3267
G01 X-0.0453 Y71.2674
G01 X-0.0617 Y71.2518
G01 X-0.0772 Y71.2354
G01 X-0.1365 Y71.1700
G01 X-0.1513 Y71.1529
G01 X-0.1652 Y71.1351
G01 X-0.2178 Y71.0642
G01 X-0.2308 Y71.0457
G01 X-0.2429 Y71.0266
G01 X-0.2883 Y70.9509
G01 X-0.2994 Y70.9312
G01 X-0.3096 Y70.9110
G01 X-0.3473 Y70.8312
G01 X-0.3565 Y70.8106
G01 X-0.3646 Y70.7895
G01 X-0.3944 Y70.7063
G01 X-0.4014 Y70.6849
G01 X-0.4075 Y70.6631
G01 X-0.4289 Y70.5775
G01 X-0.4339 Y70.5554
G01 X-0.4377 Y70.5332
G01 X-0.4507 Y70.4458
G01 X-0.4535 Y70.4234
G01 X-0.4551 Y70.4009
G01 X-0.4594 Y70.3127
G01 X-0.4599 Y70.3014
G01 X-0.4599 Y70.2788
G01 X-0.4551 Y70.1793
G01 X-0.4535 Y70.1568
G01 X-0.4507 Y70.1344
G01 X-0.4377 Y70.0470
G01 X-0.4339 Y70.0248
G01 X-0.4289 Y70.0028
G01 X-0.4075 Y69.9171
G01 X-0.4014 Y69.8953
G01 X-0.3944 Y69.8739
G01 X-0.3646 Y69.7907
G01 X-0.3565 Y69.7697
G01 X-0.3473 Y69.7490
G01 X-0.3096 Y69.6692
G01 X-0.2994 Y69.6490
G01 X-0.2883 Y69.6294
G01 X-0.2429 Y69.5536
G01 X-0.2308 Y69.5345
G01 X-0.2244 Y69.5252
G01 X-0.1652 Y69.4451
G01 X-0.1513 Y69.4273
G01 X-0.1365 Y69.4102
G01 X-0.0772 Y69.3448
G01 X-0.0617 Y69.3285
G01 X-0.0453 Y69.3129
G01 X0.0201 Y69.2536
G01 X0.0286 Y69.2461
G01 X0.0460 Y69.2318
G01 X0.1260 Y69.1723
G01 X0.1444 Y69.1593
G01 X0.1635 Y69.1472
G01 X0.2490 Y69.0961
G01 X0.2689 Y69.0855
G01 X0.2791 Y69.0806
G01 X0.3692 Y69.0381
G01 X0.3900 Y69.0294
G01 X0.4157 Y69.0201
G01 X0.3900 Y69.0108
G01 X0.3692 Y69.0021
G01 X0.2791 Y68.9597
G01 X0.2589 Y68.9495
G01 X0.2490 Y68.9441
G01 X0.1635 Y68.8930
G01 X0.1444 Y68.8809
G01 X0.1260 Y68.8679
G01 X0.0460 Y68.8085
G01 X0.0372 Y68.8014
G01 X0.0201 Y68.7867
G01 X-0.0453 Y68.7274
G01 X-0.0617 Y68.7118
G01 X-0.0772 Y68.6954
G01 X-0.1365 Y68.6300
G01 X-0.1513 Y68.6129
G01 X-0.1652 Y68.5951
G01 X-0.2178 Y68.5242
G01 X-0.2308 Y68.5057
G01 X-0.2429 Y68.4866
G01 X-0.2883 Y68.4109
G01 X-0.2994 Y68.3912
G01 X-0.3096 Y68.3710
G01 X-0.3473 Y68.2912
G01 X-0.3565 Y68.2706
G01 X-0.3646 Y68.2495
G01 X-0.3944 Y68.1663
G01 X-0.4014 Y68.1449
G01 X-0.4075 Y68.1231
G01 X-0.4289 Y68.0375
G01 X-0.4339 Y68.0154
G01 X-0.4377 Y67.9932
G01 X-0.4507 Y67.9058
G01 X-0.4535 Y67.8834
G01 X-0.4551 Y67.8609
G01 X-0.4594 Y67.7727
G01 X-0.4599 Y67.7614
G01 X-0.4599 Y67.7388
G01 X-0.4551 Y67.6393
G01 X-0.4535 Y67.6168
G01 X-0.4507 Y67.5944
G01 X-0.4377 Y67.5070
G01 X-0.4339 Y67.4848
G01 X-0.4289 Y67.4628
G01 X-0.4075 Y67.3771
G01 X-0.4014 Y67.3553
G01 X-0.3944 Y67.3339
G01 X-0.3646 Y67.2507
G01 X-0.3565 Y67.2297
G01 X-0.3473 Y67.2090
G01 X-0.3096 Y67.1292
G01 X-0.2994 Y67.1090
G01 X-0.2883 Y67.0894
G01 X-0.2429 Y67.0136
G01 X-0.2370 Y67.0040
G01 X-0.2244 Y66.9852
G01 X-0.1652 Y66.9051
G01 X-0.1513 Y66.8873
G01 X-0.1365 Y66.8702
G01 X-0.0772 Y66.8048
G01 X-0.0617 Y66.7885
G01 X-0.0453 Y66.7729
G01 X0.0201 Y66.7136
G01 X0.0372 Y66.6988
G01 X0.0460 Y66.6918
G01 X0.1260 Y66.6323
G01 X0.1444 Y66.6193
G01 X0.1635 Y66.6072
G01 X0.2490 Y66.5561
G01 X0.2689 Y66.5455
G01 X0.2791 Y66.5406
G01 X0.3692 Y66.4981
G01 X0.3900 Y66.4894
G01 X0.4157 Y66.4801
G01 X0.3900 Y66.4708
G01 X0.3692 Y66.4621
G01 X0.2791 Y66.4197
G01 X0.2689 Y66.4147
G01 X0.2490 Y66.4041
G01 X0.1635 Y66.3530
G01 X0.1444 Y66.3409
G01 X0.1260 Y66.3279
G01 X0.0460 Y66.2685
G01 X0.0372 Y66.2614
G01 X0.0201 Y66.2467
G01 X-0.0453 Y66.1874
G01 X-0.0617 Y66.1718
G01 X-0.0772 Y66.1554
G01 X-0.1365 Y66.0900
G01 X-0.1513 Y66.0729
G01 X-0.1652 Y66.0551
G01 X-0.2178 Y65.9842
G01 X-0.2308 Y65.9657
G01 X-0.2429 Y65.9466
G01 X-0.2883 Y65.8709
G01 X-0.2994 Y65.8512
G01 X-0.3096 Y65.8310
G01 X-0.3473 Y65.7512
G01 X-0.3565 Y65.7306
G01 X-0.3646 Y65.7095
G01 X-0.3944 Y65.6263
G01 X-0.4014 Y65.6049
G01 X-0.4075 Y65.5831
G01 X-0.4289 Y65.4975
G01 X-0.4339 Y65.4754
G01 X-0.4377 Y65.4532
G01 X-0.4507 Y65.3658
G01 X-0.4535 Y65.3434
G01 X-0.4551 Y65.3209
G01 X-0.4594 Y65.2327
G01 X-0.4599 Y65.2214
G01 X-0.4599 Y65.1988
G01 X-0.4551 Y65.0993
G01 X-0.4535 Y65.0768
G01 X-0.4507 Y65.0544
G01 X-0.4377 Y64.9670
G01 X-0.4339 Y64.9448
G01 X-0.4289 Y64.9228
G01 X-0.4075 Y64.8371
G01 X-0.4014 Y64.8153
G01 X-0.3944 Y64.7939
G01 X-0.3646 Y64.7107
G01 X-0.3565 Y64.6897
G01 X-0.3473 Y64.6690
G01 X-0.3096 Y64.5892
G01 X-0.2994 Y64.5690
G01 X-0.2883 Y64.5494
G01 X-0.2429 Y64.4736
G01 X-0.2308 Y64.4545
G01 X-0.2244 Y64.4452
G01 X-0.1652 Y64.3651
G01 X-0.1513 Y64.3473
G01 X-0.1365 Y64.3302
G01 X-0.0772 Y64.2648
G01 X-0.0617 Y64.2485
G01 X-0.0453 Y64.2329
G01 X0.0201 Y64.1736
G01 X0.0286 Y64.1661
G01 X0.0460 Y64.1518
G01 X0.1260 Y64.0923
G01 X0.1444 Y64.0793
G01 X0.1635 Y64.0672
G01 X0.2490 Y64.0161
G01 X0.2689 Y64.0055
G01 X0.2791 Y64.0006
G01 X0.3692 Y63.9581
G01 X0.3900 Y63.9494
G01 X0.4157 Y63.9401
G01 X0.3900 Y63.9308
G01 X0.3692 Y63.9221
G01 X0.2791 Y63.8797
G01 X0.2589 Y63.8695
G01 X0.2490 Y63.8641
G01 X0.1635 Y63.8130
G01 X0.1444 Y63.8009
G01 X0.1260 Y63.7879
G01 X0.0460 Y63.7285
G01 X0.0372 Y63.7214
G01 X0.0201 Y63.7067
G01 X-0.0453 Y63.6474
G01 X-0.0617 Y63.6318
G01 X-0.0772 Y63.6154
G01 X-0.1365 Y63.5500
G01 X-0.1513 Y63.5329
G01 X-0.1652 Y63.5151
G01 X-0.2178 Y63.4442
G01 X-0.2308 Y63.4257
G01 X-0.2429 Y63.4066
G01 X-0.2883 Y63.3309
G01 X-0.2994 Y63.3112
G01 X-0.3096 Y63.2910
G01 X-0.3473 Y63.2112
G01 X-0.3565 Y63.1906
G01 X-0.3646 Y63.1695
G01 X-0.3944 Y63.0863
G01 X-0.4014 Y63.0649
G01 X-0.4075 Y63.0431
G01 X-0.4289 Y62.9575
G01 X-0.4339 Y62.9354
G01 X-0.4377 Y62.9132
G01 X-0.4507 Y62.8258
G01 X-0.4535 Y62.8034
G01 X-0.4551 Y62.7809
G01 X-0.4594 Y62.6927
G01 X-0.4599 Y62.6814
G01 X-0.4599 Y62.6588
G01 X-0.4551 Y62.5593
G01 X-0.4535 Y62.5368
G01 X-0.4507 Y62.5144
G01 X-0.4377 Y62.4270
G01 X-0.4339 Y62.4048
G01 X-0.4289 Y62.3828
G01 X-0.4075 Y62.2971
G01 X-0.4014 Y62.2753
G01 X-0.3944 Y62.2539
G01 X-0.3646 Y62.1707
G01 X-0.3565 Y62.1497
G01 X-0.3473 Y62.1290
G01 X-0.3096 Y62.0492
G01 X-0.2994 Y62.0290
G01 X-0.2883 Y62.0094
G01 X-0.2429 Y61.9336
G01 X-0.2370 Y61.9240
G01 X-0.2244 Y61.9052
G01 X-0.1652 Y61.8251
G01 X-0.1513 Y61.8073
G01 X-0.1365 Y61.7902
G01 X-0.0772 Y61.7248
G01 X-0.0617 Y61.7085
G01 X-0.0453 Y61.6929
G01 X0.0201 Y61.6336
G01 X0.0286 Y61.6261
G01 X0.0460 Y61.6118
G01 X0.1260 Y61.5523
G01 X0.1444 Y61.5393
G01 X0.1635 Y61.5272
G01 X0.2490 Y61.4761
G01 X0.2689 Y61.4655
G01 X0.2791 Y61.4606
G01 X0.3692 Y61.4181
G01 X0.3900 Y61.4094
G01 X0.4157 Y61.4001
G01 X0.3900 Y61.3908
G01 X0.3692 Y61.3821
G01 X0.2791 Y61.3397
G01 X0.2589 Y61.3295
G01 X0.2490 Y61.3241
G01 X0.1635 Y61.2730
G01 X0.1444 Y61.2609
G01 X0.1260 Y61.2479
G01 X0.0460 Y61.1885
G01 X0.0286 Y61.1741
G01 X0.0201 Y61.1667
G01 X-0.0453 Y61.1074
G01 X-0.0617 Y61.0918
G01 X-0.0772 Y61.0754
G01 X-0.1365 Y61.0100
G01 X-0.1513 Y60.9929
G01 X-0.1652 Y60.9751
G01 X-0.2178 Y60.9042
G01 X-0.2308 Y60.8857
G01 X-0.2429 Y60.8666
G01 X-0.2883 Y60.7909
G01 X-0.2994 Y60.7712
G01 X-0.3096 Y60.7510
G01 X-0.3473 Y60.6712
G01 X-0.3565 Y60.6506
G01 X-0.3646 Y60.6295
G01 X-0.3944 Y60.5463
G01 X-0.4014 Y60.5249
G01 X-0.4075 Y60.5031
G01 X-0.4289 Y60.4175
G01 X-0.4339 Y60.3954
G01 X-0.4377 Y60.3732
G01 X-0.4507 Y60.2858
G01 X-0.4535 Y60.2634
G01 X-0.4551 Y60.2409
G01 X-0.4594 Y60.1527
G01 X-0.4599 Y60.1414
G01 X-0.4599 Y60.1188
G01 X-0.4551 Y60.0193
G01 X-0.4535 Y59.9968
G01 X-0.4507 Y59.9744
G01 X-0.4377 Y59.8870
G01 X-0.4339 Y59.8648
G01 X-0.4289 Y59.8428
G01 X-0.4075 Y59.7571
G01 X-0.4014 Y59.7353
G01 X-0.3944 Y59.7139
G01 X-0.3646 Y59.6307
G01 X-0.3565 Y59.6097
G01 X-0.3473 Y59.5890
G01 X-0.3096 Y59.5092
G01 X-0.2994 Y59.4890
G01 X-0.2883 Y59.4694
G01 X-0.2429 Y59.3936
G01 X-0.2308 Y59.3745
G01 X-0.2244 Y59.3652
G01 X-0.1652 Y59.2851
G01 X-0.1513 Y59.2673
G01 X-0.1365 Y59.2502
G01 X-0.0772 Y59.1848
G01 X-0.0617 Y59.1685
G01 X-0.0453 Y59.1529
G01 X0.0201 Y59.0936
G01 X0.0372 Y59.0788
G01 X0.0460 Y59.0718
G01 X0.1260 Y59.0123
G01 X0.1444 Y58.9993
G01 X0.1635 Y58.9872
G01 X0.2490 Y58.9361
G01 X0.2589 Y58.9307
G01 X0.2791 Y58.9206
G01 X0.3692 Y58.8781
G01 X0.3900 Y58.8694
G01 X0.4157 Y58.8601
G01 X0.3900 Y58.8508
G01 X0.3692 Y58.8421
G01 X0.2791 Y58.7997
G01 X0.2589 Y58.7895
G01 X0.2490 Y58.7841
G01 X0.1635 Y58.7330
G01 X0.1444 Y58.7209
G01 X0.1260 Y58.7079
G01 X0.0460 Y58.6485
G01 X0.0372 Y58.6414
G01 X0.0201 Y58.6267
G01 X-0.0453 Y58.5674
G01 X-0.0617 Y58.5518
G01 X-0.0772 Y58.5354
G01 X-0.1365 Y58.4700
G01 X-0.1513 Y58.4529
G01 X-0.1652 Y58.4351
G01 X-0.2178 Y58.3642
G01 X-0.2308 Y58.3457
G01 X-0.2429 Y58.3266
G01 X-0.2883 Y58.2509
G01 X-0.2994 Y58.2312
G01 X-0.3096 Y58.2110
G01 X-0.3473 Y58.1312
G01 X-0.3565 Y58.1106
G01 X-0.3646 Y58.0895
G01 X-0.3944 Y58.0063
G01 X-0.4014 Y57.9849
G01 X-0.4075 Y57.9631
G01 X-0.4289 Y57.8775
G01 X-0.4339 Y57.8554
G01 X-0.4377 Y57.8332
G01 X-0.4507 Y57.7458
G01 X-0.4535 Y57.7234
G01 X-0.4551 Y57.7009
G01 X-0.4594 Y57.6127
G01 X-0.4599 Y57.6014
G01 X-0.4599 Y57.5788
G01 X-0.4551 Y57.4793
G01 X-0.4535 Y57.4568
G01 X-0.4507 Y57.4344
G01 X-0.4377 Y57.3470
G01 X-0.4339 Y57.3248
G01 X-0.4289 Y57.3028
G01 X-0.4075 Y57.2171
G01 X-0.4014 Y57.1953
G01 X-0.3944 Y57.1739
G01 X-0.3646 Y57.0907
G01 X-0.3565 Y57.0697
G01 X-0.3473 Y57.0490
G01 X-0.3096 Y56.9692
G01 X-0.2994 Y56.9490
G01 X-0.2883 Y56.9294
G01 X-0.2429 Y56.8536
G01 X-0.2370 Y56.8440
G01 X-0.2244 Y56.8252
G01 X-0.1652 Y56.7451
G01 X-0.1513 Y56.7273
G01 X-0.1365 Y56.7102
G01 X-0.0772 Y56.6448
G01 X-0.0617 Y56.6285
G01 X-0.0453 Y56.6129
G01 X0.0201 Y56.5536
G01 X0.0286 Y56.5461
G01 X0.0460 Y56.5318
G01 X0.1260 Y56.4723
G01 X0.1444 Y56.4593
G01 X0.1635 Y56.4472
G01 X0.2490 Y56.3961
G01 X0.2689 Y56.3855
G01 X0.2791 Y56.3806
G01 X0.3692 Y56.3381
G01 X0.3900 Y56.3294
G01 X0.4157 Y56.3201
G01 X0.3900 Y56.3108
G01 X0.3692 Y56.3021
G01 X0.2791 Y56.2597
G01 X0.2589 Y56.2495
G01 X0.2490 Y56.2441
G01 X0.1635 Y56.1930
G01 X0.1444 Y56.1809
G01 X0.1260 Y56.1679
G01 X0.0460 Y56.1085
G01 X0.0286 Y56.0941
G01 X0.0201 Y56.0867
G01 X-0.0453 Y56.0274
G01 X-0.0617 Y56.0118
G01 X-0.0772 Y55.9954
G01 X-0.1365 Y55.9300
G01 X-0.1513 Y55.9129
G01 X-0.1652 Y55.8951
G01 X-0.2244 Y55.8150
G01 X-0.2308 Y55.8057
G01 X-0.2429 Y55.7866
G01 X-0.2883 Y55.7109
G01 X-0.2994 Y55.6912
G01 X-0.3096 Y55.6710
G01 X-0.3473 Y55.5912
G01 X-0.3565 Y55.5706
G01 X-0.3646 Y55.5495
G01 X-0.3944 Y55.4663
G01 X-0.4014 Y55.4449
G01 X-0.4075 Y55.4231
G01 X-0.4289 Y55.3375
G01 X-0.4339 Y55.3154
G01 X-0.4377 Y55.2932
G01 X-0.4507 Y55.2058
G01 X-0.4535 Y55.1834
G01 X-0.4551 Y55.1609
G01 X-0.4594 Y55.0727
G01 X-0.4600 Y55.0501
G01 X-0.4594 Y55.0275
G01 X-0.4551 Y54.9393
G01 X-0.4535 Y54.9168
G01 X-0.4507 Y54.8944
G01 X-0.4377 Y54.8070
G01 X-0.4339 Y54.7848
G01 X-0.4289 Y54.7628
G01 X-0.4075 Y54.6771
G01 X-0.4014 Y54.6553
G01 X-0.3944 Y54.6339
G01 X-0.3646 Y54.5507
G01 X-0.3565 Y54.5297
G01 X-0.3473 Y54.5090
G01 X-0.3096 Y54.4292
G01 X-0.2994 Y54.4090
G01 X-0.2883 Y54.3894
G01 X-0.2429 Y54.3136
G01 X-0.2308 Y54.2945
G01 X-0.2244 Y54.2852
G01 X-0.1652 Y54.2051
G01 X-0.1513 Y54.1873
G01 X-0.1365 Y54.1702
G01 X-0.0772 Y54.1048
G01 X-0.0617 Y54.0885
G01 X-0.0453 Y54.0729
G01 X0.0201 Y54.0136
G01 X0.0372 Y53.9988
G01 X0.0460 Y53.9918
G01 X0.1260 Y53.9323
G01 X0.1444 Y53.9193
G01 X0.1635 Y53.9072
G01 X0.2490 Y53.8561
G01 X0.2689 Y53.8455
G01 X0.2791 Y53.8406
G01 X0.3692 Y53.7981
G01 X0.3900 Y53.7894
G01 X0.4157 Y53.7801
G01 X0.3900 Y53.7708
G01 X0.3692 Y53.7621
G01 X0.2791 Y53.7197
G01 X0.2589 Y53.7095
G01 X0.2490 Y53.7041
G01 X0.1635 Y53.6530
G01 X0.1444 Y53.6409
G01 X0.1260 Y53.6279
G01 X0.0460 Y53.5685
G01 X0.0286 Y53.5541
G01 X0.0201 Y53.5467
G01 X-0.0453 Y53.4874
G01 X-0.0617 Y53.4718
G01 X-0.0772 Y53.4554
G01 X-0.1365 Y53.3900
G01 X-0.1513 Y53.3729
G01 X-0.1652 Y53.3551
G01 X-0.2244 Y53.2750
G01 X-0.2308 Y53.2657
G01 X-0.2429 Y53.2466
G01 X-0.2883 Y53.1709
G01 X-0.2994 Y53.1512
G01 X-0.3096 Y53.1310
G01 X-0.3473 Y53.0512
G01 X-0.3565 Y53.0306
G01 X-0.3646 Y53.0095
G01 X-0.3944 Y52.9263
G01 X-0.4014 Y52.9049
G01 X-0.4075 Y52.8831
G01 X-0.4289 Y52.7975
G01 X-0.4339 Y52.7754
G01 X-0.4377 Y52.7532
G01 X-0.4507 Y52.6658
G01 X-0.4535 Y52.6434
G01 X-0.4551 Y52.6209
G01 X-0.4594 Y52.5327
G01 X-0.4600 Y52.5101
G01 X-0.4594 Y52.4875
G01 X-0.4551 Y52.3993
G01 X-0.4535 Y52.3768
G01 X-0.4507 Y52.3544
G01 X-0.4377 Y52.2670
G01 X-0.4339 Y52.2448
G01 X-0.4289 Y52.2228
G01 X-0.4075 Y52.1371
G01 X-0.4014 Y52.1153
G01 X-0.3944 Y52.0939
G01 X-0.3646 Y52.0107
G01 X-0.3565 Y51.9897
G01 X-0.3473 Y51.9690
G01 X-0.3096 Y51.8892
G01 X-0.2994 Y51.8690
G01 X-0.2883 Y51.8494
G01 X-0.2429 Y51.7736
G01 X-0.2370 Y51.7640
G01 X-0.2244 Y51.7452
G01 X-0.1652 Y51.6651
G01 X-0.1513 Y51.6473
G01 X-0.1365 Y51.6302
G01 X-0.0772 Y51.5648
G01 X-0.0617 Y51.5485
G01 X-0.0453 Y51.5329
G01 X0.0201 Y51.4736
G01 X0.0372 Y51.4588
G01 X0.0460 Y51.4518
G01 X0.1260 Y51.3923
G01 X0.1444 Y51.3793
G01 X0.1635 Y51.3672
G01 X0.2490 Y51.3161
G01 X0.2589 Y51.3107
G01 X0.2791 Y51.3006
G01 X0.3692 Y51.2581
G01 X0.3900 Y51.2494
G01 X0.4157 Y51.2401
G01 X0.3900 Y51.2308
G01 X0.3692 Y51.2221
G01 X0.2791 Y51.1797
G01 X0.2589 Y51.1695
G01 X0.2490 Y51.1641
G01 X0.1635 Y51.1130
G01 X0.1444 Y51.1009
G01 X0.1260 Y51.0879
G01 X0.0460 Y51.0285
G01 X0.0372 Y51.0214
G01 X0.0201 Y51.0067
G01 X-0.0453 Y50.9474
G01 X-0.0617 Y50.9318
G01 X-0.0772 Y50.9154
G01 X-0.1365 Y50.8500
G01 X-0.1513 Y50.8329
G01 X-0.1652 Y50.8151
G01 X-0.2244 Y50.7350
G01 X-0.2308 Y50.7257
G01 X-0.2429 Y50.7066
G01 X-0.2883 Y50.6309
G01 X-0.2994 Y50.6112
G01 X-0.3096 Y50.5910
G01 X-0.3473 Y50.5112
G01 X-0.3565 Y50.4906
G01 X-0.3646 Y50.4695
G01 X-0.3944 Y50.3863
G01 X-0.4014 Y50.3649
G01 X-0.4075 Y50.3431
G01 X-0.4289 Y50.2575
G01 X-0.4339 Y50.2354
G01 X-0.4377 Y50.2132
G01 X-0.4507 Y50.1258
G01 X-0.4535 Y50.1034
G01 X-0.4551 Y50.0809
G01 X-0.4594 Y49.9927
G01 X-0.4600 Y49.9701
G01 X-0.4594 Y49.9475
G01 X-0.4551 Y49.8593
G01 X-0.4535 Y49.8368
G01 X-0.4507 Y49.8144
G01 X-0.4377 Y49.7270
G01 X-0.4339 Y49.7048
G01 X-0.4289 Y49.6828
G01 X-0.4075 Y49.5971
G01 X-0.4014 Y49.5753
G01 X-0.3944 Y49.5539
G01 X-0.3646 Y49.4707
G01 X-0.3565 Y49.4497
G01 X-0.3473 Y49.4290
G01 X-0.3096 Y49.3492
G01 X-0.2994 Y49.3290
G01 X-0.2883 Y49.3094
G01 X-0.2429 Y49.2336
G01 X-0.2308 Y49.2145
G01 X-0.2244 Y49.2052
G01 X-0.1652 Y49.1251
G01 X-0.1513 Y49.1073
G01 X-0.1365 Y49.0902
G01 X-0.0772 Y49.0248
G01 X-0.0617 Y49.0085
G01 X-0.0453 Y48.9929
G01 X0.0201 Y48.9336
G01 X0.0372 Y48.9188
G01 X0.0460 Y48.9118
G01 X0.1260 Y48.8523
G01 X0.1444 Y48.8393
G01 X0.1635 Y48.8272
G01 X0.2490 Y48.7761
G01 X0.2589 Y48.7707
G01 X0.2791 Y48.7606
G01 X0.3692 Y48.7181
G01 X0.3900 Y48.7094
G01 X0.4157 Y48.7001
G01 X0.3900 Y48.6908
G01 X0.3692 Y48.6821
G01 X0.2791 Y48.6397
G01 X0.2589 Y48.6295
G01 X0.2490 Y48.6241
G01 X0.1635 Y48.5730
G01 X0.1444 Y48.5609
G01 X0.1260 Y48.5479
G01 X0.0460 Y48.4885
G01 X0.0286 Y48.4741
G01 X0.0201 Y48.4667
G01 X-0.0453 Y48.4074
G01 X-0.0617 Y48.3918
G01 X-0.0772 Y48.3754
G01 X-0.1365 Y48.3100
G01 X-0.1513 Y48.2929
G01 X-0.1652 Y48.2751
G01 X-0.2244 Y48.1950
G01 X-0.2308 Y48.1857
G01 X-0.2429 Y48.1666
G01 X-0.2883 Y48.0909
G01 X-0.2994 Y48.0712
G01 X-0.3096 Y48.0510
G01 X-0.3473 Y47.9712
G01 X-0.3565 Y47.9506
G01 X-0.3646 Y47.9295
G01 X-0.3944 Y47.8463
G01 X-0.4014 Y47.8249
G01 X-0.4075 Y47.8031
G01 X-0.4289 Y47.7175
G01 X-0.4339 Y47.6954
G01 X-0.4377 Y47.6732
G01 X-0.4507 Y47.5858
G01 X-0.4535 Y47.5634
G01 X-0.4551 Y47.5409
G01 X-0.4594 Y47.4527
G01 X-0.4600 Y47.4301
G01 X-0.4594 Y47.4075
G01 X-0.4551 Y47.3193
G01 X-0.4535 Y47.2968
G01 X-0.4507 Y47.2744
G01 X-0.4377 Y47.1870
G01 X-0.4339 Y47.1648
G01 X-0.4289 Y47.1428
G01 X-0.4075 Y47.0571
G01 X-0.4014 Y47.0353
G01 X-0.3944 Y47.0139
G01 X-0.3646 Y46.9307
G01 X-0.3565 Y46.9097
G01 X-0.3473 Y46.8890
G01 X-0.3096 Y46.8092
G01 X-0.2994 Y46.7890
G01 X-0.2883 Y46.7694
G01 X-0.2429 Y46.6936
G01 X-0.2370 Y46.6840
G01 X-0.2244 Y46.6652
G01 X-0.1652 Y46.5851
G01 X-0.1513 Y46.5673
G01 X-0.1365 Y46.5502
G01 X-0.0772 Y46.4848
G01 X-0.0617 Y46.4685
G01 X-0.0453 Y46.4529
G01 X0.0201 Y46.3936
G01 X0.0372 Y46.3788
G01 X0.0460 Y46.3718
G01 X0.1260 Y46.3123
G01 X0.1444 Y46.2993
G01 X0.1635 Y46.2872
G01 X0.2490 Y46.2361
G01 X0.2589 Y46.2307
G01 X0.2791 Y46.2206
G01 X0.3692 Y46.1781
G01 X0.3900 Y46.1694
G01 X0.4157 Y46.1601
G01 X0.3900 Y46.1508
G01 X0.3692 Y46.1421
G01 X0.2791 Y46.0997
G01 X0.2589 Y46.0895
G01 X0.2490 Y46.0841
G01 X0.1635 Y46.0330
G01 X0.1444 Y46.0209
G01 X0.1260 Y46.0079
G01 X0.0460 Y45.9485
G01 X0.0372 Y45.9414
G01 X0.0201 Y45.9267
G01 X-0.0453 Y45.8674
G01 X-0.0617 Y45.8518
G01 X-0.0772 Y45.8354
G01 X-0.1365 Y45.7700
G01 X-0.1513 Y45.7529
G01 X-0.1652 Y45.7351
G01 X-0.2244 Y45.6550
G01 X-0.2308 Y45.6457
G01 X-0.2429 Y45.6266
G01 X-0.2883 Y45.5509
G01 X-0.2994 Y45.5312
G01 X-0.3096 Y45.5110
G01 X-0.3473 Y45.4312
G01 X-0.3565 Y45.4106
G01 X-0.3646 Y45.3895
G01 X-0.3944 Y45.3063
G01 X-0.4014 Y45.2849
G01 X-0.4075 Y45.2631
G01 X-0.4289 Y45.1775
G01 X-0.4339 Y45.1554
G01 X-0.4377 Y45.1332
G01 X-0.4507 Y45.0458
G01 X-0.4535 Y45.0234
G01 X-0.4551 Y45.0009
G01 X-0.4594 Y44.9127
G01 X-0.4600 Y44.8901
G01 X-0.4594 Y44.8675
G01 X-0.4551 Y44.7793
G01 X-0.4535 Y44.7568
G01 X-0.4507 Y44.7344
G01 X-0.4377 Y44.6470
G01 X-0.4339 Y44.6248
G01 X-0.4289 Y44.6028
G01 X-0.4075 Y44.5171
G01 X-0.4014 Y44.4953
G01 X-0.3944 Y44.4739
G01 X-0.3646 Y44.3907
G01 X-0.3565 Y44.3697
G01 X-0.3473 Y44.3490
G01 X-0.3096 Y44.2692
G01 X-0.2994 Y44.2490
G01 X-0.2883 Y44.2294
G01 X-0.2429 Y44.1536
G01 X-0.2370 Y44.1440
G01 X-0.2244 Y44.1252
G01 X-0.1652 Y44.0451
G01 X-0.1513 Y44.0273
G01 X-0.1365 Y44.0102
G01 X-0.0772 Y43.9448
G01 X-0.0617 Y43.9285
G01 X-0.0453 Y43.9129
G01 X0.0201 Y43.8536
G01 X0.0286 Y43.8461
G01 X0.0460 Y43.8318
G01 X0.1260 Y43.7723
G01 X0.1444 Y43.7593
G01 X0.1635 Y43.7472
G01 X0.2490 Y43.6961
G01 X0.2689 Y43.6855
G01 X0.2791 Y43.6806
G01 X0.3692 Y43.6381
G01 X0.3900 Y43.6294
G01 X0.4157 Y43.6201
G01 X0.3900 Y43.6108
G01 X0.3692 Y43.6021
G01 X0.2791 Y43.5597
G01 X0.2589 Y43.5495
G01 X0.2490 Y43.5441
G01 X0.1635 Y43.4930
G01 X0.1444 Y43.4809
G01 X0.1260 Y43.4679
G01 X0.0460 Y43.4085
G01 X0.0286 Y43.3941
G01 X0.0201 Y43.3867
G01 X-0.0453 Y43.3274
G01 X-0.0617 Y43.3118
G01 X-0.0772 Y43.2954
G01 X-0.1365 Y43.2300
G01 X-0.1513 Y43.2129
G01 X-0.1652 Y43.1951
G01 X-0.2244 Y43.1150
G01 X-0.2308 Y43.1057
G01 X-0.2429 Y43.0866
G01 X-0.2883 Y43.0109
G01 X-0.2994 Y42.9912
G01 X-0.3096 Y42.9710
G01 X-0.3473 Y42.8912
G01 X-0.3565 Y42.8706
G01 X-0.3646 Y42.8495
G01 X-0.3944 Y42.7663
G01 X-0.4014 Y42.7449
G01 X-0.4075 Y42.7231
G01 X-0.4289 Y42.6375
G01 X-0.4339 Y42.6154
G01 X-0.4377 Y42.5932
G01 X-0.4507 Y42.5058
G01 X-0.4535 Y42.4834
G01 X-0.4551 Y42.4609
G01 X-0.4594 Y42.3727
G01 X-0.4600 Y42.3501
G01 X-0.4594 Y42.3275
G01 X-0.4551 Y42.2393
G01 X-0.4535 Y42.2168
G01 X-0.4507 Y42.1944
G01 X-0.4377 Y42.1070
G01 X-0.4339 Y42.0848
G01 X-0.4289 Y42.0628
G01 X-0.4075 Y41.9771
G01 X-0.4014 Y41.9553
G01 X-0.3944 Y41.9339
G01 X-0.3646 Y41.8507
G01 X-0.3565 Y41.8297
G01 X-0.3473 Y41.8090
G01 X-0.3096 Y41.7292
G01 X-0.2994 Y41.7090
G01 X-0.2883 Y41.6894
G01 X-0.2429 Y41.6136
G01 X-0.2370 Y41.6040
G01 X-0.2244 Y41.5852
G01 X-0.1652 Y41.5051
G01 X-0.1513 Y41.4873
G01 X-0.1365 Y41.4702
G01 X-0.0772 Y41.4048
G01 X-0.0617 Y41.3885
G01 X-0.0453 Y41.3729
G01 X0.0201 Y41.3136
G01 X0.0372 Y41.2988
G01 X0.0460 Y41.2918
G01 X0.1260 Y41.2323
G01 X0.1444 Y41.2193
G01 X0.1635 Y41.2072
G01 X0.2490 Y41.1561
G01 X0.2589 Y41.1507
G01 X0.2791 Y41.1406
G01 X0.3692 Y41.0981
G01 X0.3900 Y41.0894
G01 X0.4157 Y41.0801
G01 X0.3900 Y41.0708
G01 X0.3692 Y41.0621
G01 X0.2791 Y41.0197
G01 X0.2589 Y41.0095
G01 X0.2490 Y41.0041
G01 X0.1635 Y40.9530
G01 X0.1444 Y40.9409
G01 X0.1260 Y40.9279
G01 X0.0460 Y40.8685
G01 X0.0372 Y40.8614
G01 X0.0201 Y40.8467
G01 X-0.0453 Y40.7874
G01 X-0.0617 Y40.7718
G01 X-0.0772 Y40.7554
G01 X-0.1365 Y40.6900
G01 X-0.1513 Y40.6729
G01 X-0.1652 Y40.6551
G01 X-0.2244 Y40.5750
G01 X-0.2308 Y40.5657
G01 X-0.2429 Y40.5466
G01 X-0.2883 Y40.4709
G01 X-0.2994 Y40.4512
G01 X-0.3096 Y40.4310
G01 X-0.3473 Y40.3512
G01 X-0.3565 Y40.3306
G01 X-0.3646 Y40.3095
G01 X-0.3944 Y40.2263
G01 X-0.4014 Y40.2049
G01 X-0.4075 Y40.1831
G01 X-0.4289 Y40.0975
G01 X-0.4339 Y40.0754
G01 X-0.4377 Y40.0532
G01 X-0.4507 Y39.9658
G01 X-0.4535 Y39.9434
G01 X-0.4551 Y39.9209
G01 X-0.4594 Y39.8327
G01 X-0.4600 Y39.8101
G01 X-0.4594 Y39.7875
G01 X-0.4551 Y39.6993
G01 X-0.4535 Y39.6768
G01 X-0.4507 Y39.6544
G01 X-0.4377 Y39.5670
G01 X-0.4339 Y39.5448
G01 X-0.4289 Y39.5228
G01 X-0.4075 Y39.4371
G01 X-0.4014 Y39.4153
G01 X-0.3944 Y39.3939
G01 X-0.3646 Y39.3107
G01 X-0.3565 Y39.2897
G01 X-0.3473 Y39.2690
G01 X-0.3096 Y39.1892
G01 X-0.2994 Y39.1690
G01 X-0.2883 Y39.1494
G01 X-0.2429 Y39.0736
G01 X-0.2370 Y39.0640
G01 X-0.2244 Y39.0452
G01 X-0.1652 Y38.9651
G01 X-0.1513 Y38.9473
G01 X-0.1365 Y38.9302
G01 X-0.0772 Y38.8648
G01 X-0.0617 Y38.8485
G01 X-0.0453 Y38.8329
G01 X0.0201 Y38.7736
G01 X0.0286 Y38.7661
G01 X0.0460 Y38.7518
G01 X0.1260 Y38.6923
G01 X0.1444 Y38.6793
G01 X0.1635 Y38.6672
G01 X0.2490 Y38.6161
G01 X0.2689 Y38.6055
G01 X0.2791 Y38.6006
G01 X0.3692 Y38.5581
G01 X0.3900 Y38.5494
G01 X0.4157 Y38.5401
G01 X0.3900 Y38.5308
G01 X0.3692 Y38.5221
G01 X0.2791 Y38.4797
G01 X0.2589 Y38.4695
G01 X0.2490 Y38.4641
G01 X0.1635 Y38.4130
G01 X0.1444 Y38.4009
G01 X0.1260 Y38.3879
G01 X0.0460 Y38.3285
G01 X0.0286 Y38.3141
G01 X0.0201 Y38.3067
G01 X-0.0453 Y38.2474
G01 X-0.0617 Y38.2318
G01 X-0.0772 Y38.2154
G01 X-0.1365 Y38.1500
G01 X-0.1513 Y38.1329
G01 X-0.1652 Y38.1151
G01 X-0.2244 Y38.0350
G01 X-0.2308 Y38.0257
G01 X-0.2429 Y38.0066
G01 X-0.2883 Y37.9309
G01 X-0.2994 Y37.9112
G01 X-0.3096 Y37.8910
G01 X-0.3473 Y37.8112
G01 X-0.3565 Y37.7906
G01 X-0.3646 Y37.7695
G01 X-0.3944 Y37.6863
G01 X-0.4014 Y37.6649
G01 X-0.4075 Y37.6431
G01 X-0.4289 Y37.5575
G01 X-0.4339 Y37.5354
G01 X-0.4377 Y37.5132
G01 X-0.4507 Y37.4258
G01 X-0.4535 Y37.4034
G01 X-0.4551 Y37.3809
G01 X-0.4594 Y37.2927
G01 X-0.4600 Y37.2701
G01 X-0.4594 Y37.2475
G01 X-0.4551 Y37.1593
G01 X-0.4535 Y37.1368
G01 X-0.4507 Y37.1144
G01 X-0.4377 Y37.0270
G01 X-0.4339 Y37.0048
G01 X-0.4289 Y36.9828
G01 X-0.4075 Y36.8971
G01 X-0.4014 Y36.8753
G01 X-0.3944 Y36.8539
G01 X-0.3646 Y36.7707
G01 X-0.3565 Y36.7497
G01 X-0.3473 Y36.7290
G01 X-0.3096 Y36.6492
G01 X-0.2994 Y36.6290
G01 X-0.2883 Y36.6094
G01 X-0.2429 Y36.5336
G01 X-0.2308 Y36.5145
G01 X-0.2244 Y36.5052
G01 X-0.1652 Y36.4251
G01 X-0.1513 Y36.4073
G01 X-0.1365 Y36.3902
G01 X-0.0772 Y36.3248
G01 X-0.0617 Y36.3085
G01 X-0.0453 Y36.2929
G01 X0.0201 Y36.2336
G01 X0.0372 Y36.2188
G01 X0.0460 Y36.2118
G01 X0.1260 Y36.1523
G01 X0.1444 Y36.1393
G01 X0.1635 Y36.1272
G01 X0.2490 Y36.0761
G01 X0.2689 Y36.0655
G01 X0.2791 Y36.0606
G01 X0.3692 Y36.0181
G01 X0.3900 Y36.0094
G01 X0.4157 Y36.0001
G01 X0.3900 Y35.9908
G01 X0.3692 Y35.9821
G01 X0.2791 Y35.9397
G01 X0.2589 Y35.9295
G01 X0.2490 Y35.9241
G01 X0.1635 Y35.8730
G01 X0.1444 Y35.8609
G01 X0.1260 Y35.8479
G01 X0.0460 Y35.7885
G01 X0.0372 Y35.7814
G01 X0.0201 Y35.7667
G01 X-0.0453 Y35.7074
G01 X-0.0617 Y35.6918
G01 X-0.0772 Y35.6754
G01 X-0.1365 Y35.6100
G01 X-0.1513 Y35.5929
G01 X-0.1652 Y35.5751
G01 X-0.2244 Y35.4950
G01 X-0.2308 Y35.4857
G01 X-0.2429 Y35.4666
G01 X-0.2883 Y35.3909
G01 X-0.2994 Y35.3712
G01 X-0.3096 Y35.3510
G01 X-0.3473 Y35.2712
G01 X-0.3565 Y35.2506
G01 X-0.3646 Y35.2295
G01 X-0.3944 Y35.1463
G01 X-0.4014 Y35.1249
G01 X-0.4075 Y35.1031
G01 X-0.4289 Y35.0175
G01 X-0.4339 Y34.9954
G01 X-0.4377 Y34.9732
G01 X-0.4507 Y34.8858
G01 X-0.4535 Y34.8634
G01 X-0.4551 Y34.8409
G01 X-0.4594 Y34.7527
G01 X-0.4600 Y34.7301
G01 X-0.4594 Y34.7075
G01 X-0.4551 Y34.6193
G01 X-0.4535 Y34.5968
G01 X-0.4507 Y34.5744
G01 X-0.4377 Y34.4870
G01 X-0.4339 Y34.4648
G01 X-0.4289 Y34.4428
G01 X-0.4075 Y34.3571
G01 X-0.4014 Y34.3353
G01 X-0.3944 Y34.3139
G01 X-0.3646 Y34.2307
G01 X-0.3565 Y34.2097
G01 X-0.3473 Y34.1890
G01 X-0.3096 Y34.1092
G01 X-0.2994 Y34.0890
G01 X-0.2883 Y34.0694
G01 X-0.2429 Y33.9936
G01 X-0.2370 Y33.9840
G01 X-0.2244 Y33.9652
G01 X-0.1652 Y33.8851
G01 X-0.1513 Y33.8673
G01 X-0.1365 Y33.8502
G01 X-0.0772 Y33.7848
G01 X-0.0617 Y33.7685
G01 X-0.0453 Y33.7529
G01 X0.0201 Y33.6936
G01 X0.0372 Y33.6788
G01 X0.0460 Y33.6718
G01 X0.1260 Y33.6123
G01 X0.1444 Y33.5993
G01 X0.1635 Y33.5872
G01 X0.2490 Y33.5361
G01 X0.2589 Y33.5307
G01 X0.2791 Y33.5206
G01 X0.3692 Y33.4781
G01 X0.3900 Y33.4694
G01 X0.4157 Y33.4601
G01 X0.3900 Y33.4508
G01 X0.3692 Y33.4421
G01 X0.2791 Y33.3997
G01 X0.2589 Y33.3895
G01 X0.2490 Y33.3841
G01 X0.1635 Y33.3330
G01 X0.1444 Y33.3209
G01 X0.1260 Y33.3079
G01 X0.0460 Y33.2485
G01 X0.0372 Y33.2414
G01 X0.0201 Y33.2267
G01 X-0.0453 Y33.1674
G01 X-0.0617 Y33.1518
G01 X-0.0772 Y33.1354
G01 X-0.1365 Y33.0700
G01 X-0.1513 Y33.0529
G01 X-0.1652 Y33.0351
G01 X-0.2244 Y32.9550
G01 X-0.2308 Y32.9457
G01 X-0.2429 Y32.9266
G01 X-0.2883 Y32.8509
G01 X-0.2994 Y32.8312
G01 X-0.3096 Y32.8110
G01 X-0.3473 Y32.7312
G01 X-0.3565 Y32.7106
G01 X-0.3646 Y32.6895
G01 X-0.3944 Y32.6063
G01 X-0.4014 Y32.5849
G01 X-0.4075 Y32.5631
G01 X-0.4289 Y32.4775
G01 X-0.4339 Y32.4554
G01 X-0.4377 Y32.4332
G01 X-0.4507 Y32.3458
G01 X-0.4535 Y32.3234
G01 X-0.4551 Y32.3009
G01 X-0.4594 Y32.2127
G01 X-0.4600 Y32.1901
G01 X-0.4594 Y32.1675
G01 X-0.4551 Y32.0793
G01 X-0.4535 Y32.0568
G01 X-0.4507 Y32.0344
G01 X-0.4377 Y31.9470
G01 X-0.4339 Y31.9248
G01 X-0.4289 Y31.9028
G01 X-0.4075 Y31.8171
G01 X-0.4014 Y31.7953
G01 X-0.3944 Y31.7739
G01 X-0.3646 Y31.6907
G01 X-0.3565 Y31.6697
G01 X-0.3473 Y31.6490
G01 X-0.3096 Y31.5692
G01 X-0.2994 Y31.5490
G01 X-0.2883 Y31.5294
G01 X-0.2429 Y31.4536
G01 X-0.2308 Y31.4345
G01 X-0.2244 Y31.4252
G01 X-0.1652 Y31.3451
G01 X-0.1513 Y31.3273
G01 X-0.1365 Y31.3102
G01 X-0.0772 Y31.2448
G01 X-0.0617 Y31.2285
G01 X-0.0453 Y31.2129
G01 X0.0201 Y31.1536
G01 X0.0286 Y31.1461
G01 X0.0460 Y31.1318
G01 X0.1260 Y31.0723
G01 X0.1444 Y31.0593
G01 X0.1635 Y31.0472
G01 X0.2490 Y30.9961
G01 X0.2689 Y30.9855
G01 X0.2791 Y30.9806
G01 X0.3692 Y30.9381
G01 X0.3900 Y30.9294
G01 X0.4157 Y30.9201
G01 X0.3900 Y30.9108
G01 X0.3692 Y30.9021
G01 X0.2791 Y30.8597
G01 X0.2589 Y30.8495
G01 X0.2490 Y30.8441
G01 X0.1635 Y30.7930
G01 X0.1444 Y30.7809
G01 X0.1260 Y30.7679
G01 X0.0460 Y30.7085
G01 X0.0372 Y30.7014
G01 X0.0201 Y30.6867
G01 X-0.0453 Y30.6274
G01 X-0.0617 Y30.6118
G01 X-0.0772 Y30.5954
G01 X-0.1365 Y30.5300
G01 X-0.1513 Y30.5129
G01 X-0.1652 Y30.4951
G01 X-0.2244 Y30.4150
G01 X-0.2370 Y30.3962
G01 X-0.2429 Y30.3866
G01 X-0.2883 Y30.3109
G01 X-0.2994 Y30.2912
G01 X-0.3096 Y30.2710
G01 X-0.3473 Y30.1912
G01 X-0.3565 Y30.1706
G01 X-0.3646 Y30.1495
G01 X-0.3944 Y30.0663
G01 X-0.4014 Y30.0449
G01 X-0.4075 Y30.0231
G01 X-0.4289 Y29.9375
G01 X-0.4339 Y29.9154
G01 X-0.4377 Y29.8932
G01 X-0.4507 Y29.8058
G01 X-0.4535 Y29.7834
G01 X-0.4551 Y29.7609
G01 X-0.4594 Y29.6727
G01 X-0.4600 Y29.6501
G01 X-0.4594 Y29.6275
G01 X-0.4551 Y29.5393
G01 X-0.4535 Y29.5168
G01 X-0.4507 Y29.4944
G01 X-0.4377 Y29.4070
G01 X-0.4339 Y29.3848
G01 X-0.4289 Y29.3628
G01 X-0.4075 Y29.2771
G01 X-0.4014 Y29.2553
G01 X-0.3944 Y29.2339
G01 X-0.3646 Y29.1507
G01 X-0.3565 Y29.1297
G01 X-0.3473 Y29.1090
G01 X-0.3096 Y29.0292
G01 X-0.2994 Y29.0090
G01 X-0.2883 Y28.9894
G01 X-0.2429 Y28.9136
G01 X-0.2308 Y28.8945
G01 X-0.2244 Y28.8852
G01 X-0.1652 Y28.8051
G01 X-0.1513 Y28.7873
G01 X-0.1365 Y28.7702
G01 X-0.0772 Y28.7048
G01 X-0.0617 Y28.6885
G01 X-0.0453 Y28.6729
G01 X0.0201 Y28.6136
G01 X0.0286 Y28.6061
G01 X0.0460 Y28.5918
G01 X0.1260 Y28.5323
G01 X0.1444 Y28.5193
G01 X0.1635 Y28.5072
G01 X0.2490 Y28.4561
G01 X0.2689 Y28.4455
G01 X0.2791 Y28.4406
G01 X0.3692 Y28.3981
G01 X0.3900 Y28.3894
G01 X0.4157 Y28.3801
G01 X0.3900 Y28.3708
G01 X0.3692 Y28.3621
G01 X0.2791 Y28.3197
G01 X0.2689 Y28.3147
G01 X0.2490 Y28.3041
G01 X0.1635 Y28.2530
G01 X0.1444 Y28.2409
G01 X0.1260 Y28.2279
G01 X0.0460 Y28.1685
G01 X0.0286 Y28.1541
G01 X0.0201 Y28.1467
G01 X-0.0453 Y28.0874
G01 X-0.0617 Y28.0718
G01 X-0.0772 Y28.0554
G01 X-0.1365 Y27.9900
G01 X-0.1513 Y27.9729
G01 X-0.1652 Y27.9551
G01 X-0.2244 Y27.8750
G01 X-0.2370 Y27.8562
G01 X-0.2429 Y27.8466
G01 X-0.2883 Y27.7709
G01 X-0.2994 Y27.7512
G01 X-0.3096 Y27.7310
G01 X-0.3473 Y27.6512
G01 X-0.3565 Y27.6306
G01 X-0.3646 Y27.6095
G01 X-0.3944 Y27.5263
G01 X-0.4014 Y27.5049
G01 X-0.4075 Y27.4831
G01 X-0.4289 Y27.3975
G01 X-0.4339 Y27.3754
G01 X-0.4377 Y27.3532
G01 X-0.4507 Y27.2658
G01 X-0.4535 Y27.2434
G01 X-0.4551 Y27.2209
G01 X-0.4594 Y27.1327
G01 X-0.4600 Y27.1101
G01 X-0.4594 Y27.0875
G01 X-0.4551 Y26.9993
G01 X-0.4535 Y26.9768
G01 X-0.4507 Y26.9544
G01 X-0.4377 Y26.8670
G01 X-0.4339 Y26.8448
G01 X-0.4289 Y26.8228
G01 X-0.4075 Y26.7371
G01 X-0.4014 Y26.7153
G01 X-0.3944 Y26.6939
G01 X-0.3646 Y26.6107
G01 X-0.3565 Y26.5897
G01 X-0.3473 Y26.5690
G01 X-0.3096 Y26.4892
G01 X-0.2994 Y26.4690
G01 X-0.2883 Y26.4494
G01 X-0.2429 Y26.3736
G01 X-0.2370 Y26.3640
G01 X-0.2244 Y26.3452
G01 X-0.1652 Y26.2651
G01 X-0.1513 Y26.2473
G01 X-0.1365 Y26.2302
G01 X-0.0772 Y26.1648
G01 X-0.0617 Y26.1485
G01 X-0.0453 Y26.1329
G01 X0.0201 Y26.0736
G01 X0.0286 Y26.0661
G01 X0.0460 Y26.0518
G01 X0.1260 Y25.9923
G01 X0.1444 Y25.9793
G01 X0.1635 Y25.9672
G01 X0.2490 Y25.9161
G01 X0.2689 Y25.9055
G01 X0.2791 Y25.9006
G01 X0.3692 Y25.8581
G01 X0.3900 Y25.8494
G01 X0.4157 Y25.8401
G01 X0.3900 Y25.8308
G01 X0.3692 Y25.8221
G01 X0.2791 Y25.7797
G01 X0.2589 Y25.7695
G01 X0.2490 Y25.7641
G01 X0.1635 Y25.7130
G01 X0.1444 Y25.7009
G01 X0.1260 Y25.6879
G01 X0.0460 Y25.6285
G01 X0.0372 Y25.6214
G01 X0.0201 Y25.6067
G01 X-0.0453 Y25.5474
G01 X-0.0617 Y25.5318
G01 X-0.0772 Y25.5154
G01 X-0.1365 Y25.4500
G01 X-0.1513 Y25.4329
G01 X-0.1652 Y25.4151
G01 X-0.2244 Y25.3350
G01 X-0.2370 Y25.3162
G01 X-0.2429 Y25.3066
G01 X-0.2883 Y25.2309
G01 X-0.2994 Y25.2112
G01 X-0.3096 Y25.1910
G01 X-0.3473 Y25.1112
G01 X-0.3565 Y25.0906
G01 X-0.3646 Y25.0695
G01 X-0.3944 Y24.9863
G01 X-0.4014 Y24.9649
G01 X-0.4075 Y24.9431
G01 X-0.4289 Y24.8575
G01 X-0.4339 Y24.8354
G01 X-0.4377 Y24.8132
G01 X-0.4507 Y24.7258
G01 X-0.4535 Y24.7034
G01 X-0.4551 Y24.6809
G01 X-0.4594 Y24.5927
G01 X-0.4600 Y24.5701
G01 X-0.4594 Y24.5475
G01 X-0.4551 Y24.4593
G01 X-0.4535 Y24.4368
G01 X-0.4507 Y24.4144
G01 X-0.4377 Y24.3270
G01 X-0.4339 Y24.3048
G01 X-0.4289 Y24.2828
G01 X-0.4075 Y24.1971
G01 X-0.4014 Y24.1753
G01 X-0.3944 Y24.1539
G01 X-0.3646 Y24.0707
G01 X-0.3565 Y24.0497
G01 X-0.3473 Y24.0290
G01 X-0.3096 Y23.9492
G01 X-0.2994 Y23.9290
G01 X-0.2883 Y23.9094
G01 X-0.2429 Y23.8336
G01 X-0.2308 Y23.8145
G01 X-0.2244 Y23.8052
G01 X-0.1652 Y23.7251
G01 X-0.1513 Y23.7073
G01 X-0.1365 Y23.6902
G01 X-0.0772 Y23.6248
G01 X-0.0617 Y23.6085
G01 X-0.0453 Y23.5929
G01 X0.0201 Y23.5336
G01 X0.0286 Y23.5261
G01 X0.0460 Y23.5118
G01 X0.1260 Y23.4523
G01 X0.1444 Y23.4393
G01 X0.1635 Y23.4272
G01 X0.2490 Y23.3761
G01 X0.2689 Y23.3655
G01 X0.2791 Y23.3606
G01 X0.3692 Y23.3181
G01 X0.3900 Y23.3094
G01 X0.4157 Y23.3001
G01 X0.3900 Y23.2908
G01 X0.3692 Y23.2821
G01 X0.2791 Y23.2397
G01 X0.2689 Y23.2347
G01 X0.2490 Y23.2241
G01 X0.1635 Y23.1730
G01 X0.1444 Y23.1609
G01 X0.1260 Y23.1479
G01 X0.0460 Y23.0885
G01 X0.0286 Y23.0741
G01 X0.0201 Y23.0667
G01 X-0.0453 Y23.0074
G01 X-0.0617 Y22.9918
G01 X-0.0772 Y22.9754
G01 X-0.1365 Y22.9100
G01 X-0.1513 Y22.8929
G01 X-0.1652 Y22.8751
G01 X-0.2244 Y22.7950
G01 X-0.2370 Y22.7762
G01 X-0.2429 Y22.7666
G01 X-0.2883 Y22.6909
G01 X-0.2994 Y22.6712
G01 X-0.3096 Y22.6510
G01 X-0.3473 Y22.5712
G01 X-0.3565 Y22.5506
G01 X-0.3646 Y22.5295
G01 X-0.3944 Y22.4463
G01 X-0.4014 Y22.4249
G01 X-0.4075 Y22.4031
G01 X-0.4289 Y22.3175
G01 X-0.4339 Y22.2954
G01 X-0.4377 Y22.2732
G01 X-0.4507 Y22.1858
G01 X-0.4535 Y22.1634
G01 X-0.4551 Y22.1409
G01 X-0.4594 Y22.0527
G01 X-0.4600 Y22.0301
G01 X-0.4594 Y22.0075
G01 X-0.4551 Y21.9193
G01 X-0.4535 Y21.8968
G01 X-0.4507 Y21.8744
G01 X-0.4377 Y21.7870
G01 X-0.4339 Y21.7648
G01 X-0.4289 Y21.7428
G01 X-0.4075 Y21.6571
G01 X-0.4014 Y21.6353
G01 X-0.3944 Y21.6139
G01 X-0.3646 Y21.5307
G01 X-0.3565 Y21.5097
G01 X-0.3473 Y21.4890
G01 X-0.3096 Y21.4092
G01 X-0.2994 Y21.3890
G01 X-0.2883 Y21.3694
G01 X-0.2429 Y21.2936
G01 X-0.2370 Y21.2840
G01 X-0.2244 Y21.2652
G01 X-0.1652 Y21.1851
G01 X-0.1513 Y21.1673
G01 X-0.1365 Y21.1502
G01 X-0.0772 Y21.0848
G01 X-0.0617 Y21.0685
G01 X-0.0453 Y21.0529
G01 X0.0201 Y20.9936
G01 X0.0286 Y20.9861
G01 X0.0460 Y20.9718
G01 X0.1260 Y20.9123
G01 X0.1444 Y20.8993
G01 X0.1635 Y20.8872
G01 X0.2490 Y20.8361
G01 X0.2589 Y20.8307
G01 X0.2791 Y20.8206
G01 X0.3692 Y20.7781
G01 X0.3900 Y20.7694
G01 X0.4157 Y20.7601
G01 X0.3900 Y20.7508
G01 X0.3692 Y20.7421
G01 X0.2791 Y20.6997
G01 X0.2589 Y20.6895
G01 X0.2490 Y20.6841
G01 X0.1635 Y20.6330
G01 X0.1444 Y20.6209
G01 X0.1260 Y20.6079
G01 X0.0460 Y20.5485
G01 X0.0372 Y20.5414
G01 X0.0201 Y20.5267
G01 X-0.0453 Y20.4674
G01 X-0.0617 Y20.4518
G01 X-0.0772 Y20.4354
G01 X-0.1365 Y20.3700
G01 X-0.1513 Y20.3529
G01 X-0.1652 Y20.3351
G01 X-0.2244 Y20.2550
G01 X-0.2370 Y20.2362
G01 X-0.2429 Y20.2266
G01 X-0.2883 Y20.1509
G01 X-0.2994 Y20.1312
G01 X-0.3096 Y20.1110
G01 X-0.3473 Y20.0312
G01 X-0.3565 Y20.0106
G01 X-0.3646 Y19.9895
G01 X-0.3944 Y19.9063
G01 X-0.4014 Y19.8849
G01 X-0.4075 Y19.8631
G01 X-0.4289 Y19.7775
G01 X-0.4339 Y19.7554
G01 X-0.4377 Y19.7332
G01 X-0.4507 Y19.6458
G01 X-0.4535 Y19.6234
G01 X-0.4551 Y19.6009
G01 X-0.4594 Y19.5127
G01 X-0.4600 Y19.4901
G01 X-0.4594 Y19.4675
G01 X-0.4551 Y19.3793
G01 X-0.4535 Y19.3568
G01 X-0.4507 Y19.3344
G01 X-0.4377 Y19.2470
G01 X-0.4339 Y19.2248
G01 X-0.4289 Y19.2028
G01 X-0.4075 Y19.1171
G01 X-0.4014 Y19.0953
G01 X-0.3944 Y19.0739
G01 X-0.3646 Y18.9907
G01 X-0.3565 Y18.9697
G01 X-0.3473 Y18.9490
G01 X-0.3096 Y18.8692
G01 X-0.2994 Y18.8490
G01 X-0.2883 Y18.8294
G01 X-0.2429 Y18.7536
G01 X-0.2308 Y18.7345
G01 X-0.2244 Y18.7252
G01 X-0.1652 Y18.6451
G01 X-0.1513 Y18.6273
G01 X-0.1365 Y18.6102
G01 X-0.0772 Y18.5448
G01 X-0.0617 Y18.5285
G01 X-0.0453 Y18.5129
G01 X0.0201 Y18.4536
G01 X0.0372 Y18.4388
G01 X0.0460 Y18.4318
G01 X0.1260 Y18.3723
G01 X0.1444 Y18.3593
G01 X0.1635 Y18.3472
G01 X0.2490 Y18.2961
G01 X0.2689 Y18.2855
G01 X0.2791 Y18.2806
G01 X0.3692 Y18.2381
G01 X0.3900 Y18.2294
G01 X0.4157 Y18.2201
G01 X0.3900 Y18.2108
G01 X0.3692 Y18.2021
G01 X0.2791 Y18.1597
G01 X0.2589 Y18.1495
G01 X0.2490 Y18.1441
G01 X0.1635 Y18.0930
G01 X0.1444 Y18.0809
G01 X0.1260 Y18.0679
G01 X0.0460 Y18.0085
G01 X0.0372 Y18.0014
G01 X0.0201 Y17.9867
G01 X-0.0453 Y17.9274
G01 X-0.0617 Y17.9118
G01 X-0.0772 Y17.8954
G01 X-0.1365 Y17.8300
G01 X-0.1513 Y17.8129
G01 X-0.1652 Y17.7951
G01 X-0.2244 Y17.7150
G01 X-0.2308 Y17.7057
G01 X-0.2429 Y17.6866
G01 X-0.2883 Y17.6109
G01 X-0.2994 Y17.5912
G01 X-0.3096 Y17.5710
G01 X-0.3473 Y17.4912
G01 X-0.3565 Y17.4706
G01 X-0.3646 Y17.4495
G01 X-0.3944 Y17.3663
G01 X-0.4014 Y17.3449
G01 X-0.4075 Y17.3231
G01 X-0.4289 Y17.2375
G01 X-0.4339 Y17.2154
G01 X-0.4377 Y17.1932
G01 X-0.4507 Y17.1058
G01 X-0.4535 Y17.0834
G01 X-0.4551 Y17.0609
G01 X-0.4594 Y16.9727
G01 X-0.4600 Y16.9501
G01 X-0.4594 Y16.9275
G01 X-0.4551 Y16.8393
G01 X-0.4535 Y16.8168
G01 X-0.4507 Y16.7944
G01 X-0.4377 Y16.7070
G01 X-0.4339 Y16.6848
G01 X-0.4289 Y16.6628
G01 X-0.4075 Y16.5771
G01 X-0.4014 Y16.5553
G01 X-0.3944 Y16.5339
G01 X-0.3646 Y16.4507
G01 X-0.3565 Y16.4297
G01 X-0.3473 Y16.4090
G01 X-0.3096 Y16.3292
G01 X-0.2994 Y16.3090
G01 X-0.2883 Y16.2894
G01 X-0.2429 Y16.2136
G01 X-0.2308 Y16.1945
G01 X-0.2244 Y16.1852
G01 X-0.1652 Y16.1051
G01 X-0.1513 Y16.0873
G01 X-0.1365 Y16.0702
G01 X-0.0772 Y16.0048
G01 X-0.0617 Y15.9885
G01 X-0.0453 Y15.9729
G01 X0.0201 Y15.9136
G01 X0.0372 Y15.8988
G01 X0.0460 Y15.8918
G01 X0.1260 Y15.8323
G01 X0.1444 Y15.8193
G01 X0.1635 Y15.8072
G01 X0.2490 Y15.7561
G01 X0.2589 Y15.7507
G01 X0.2791 Y15.7406
G01 X0.3692 Y15.6981
G01 X0.3900 Y15.6894
G01 X0.4157 Y15.6801
G01 X0.3900 Y15.6708
G01 X0.3692 Y15.6621
G01 X0.2791 Y15.6197
G01 X0.2689 Y15.6147
G01 X0.2490 Y15.6041
G01 X0.1635 Y15.5530
G01 X0.1444 Y15.5409
G01 X0.1260 Y15.5279
G01 X0.0460 Y15.4685
G01 X0.0372 Y15.4614
G01 X0.0201 Y15.4467
G01 X-0.0453 Y15.3874
G01 X-0.0617 Y15.3718
G01 X-0.0772 Y15.3554
G01 X-0.1365 Y15.2900
G01 X-0.1513 Y15.2729
G01 X-0.1652 Y15.2551
G01 X-0.2244 Y15.1750
G01 X-0.2370 Y15.1562
G01 X-0.2429 Y15.1466
G01 X-0.2883 Y15.0709
G01 X-0.2994 Y15.0512
G01 X-0.3096 Y15.0310
G01 X-0.3473 Y14.9512
G01 X-0.3565 Y14.9306
G01 X-0.3646 Y14.9095
G01 X-0.3944 Y14.8263
G01 X-0.4014 Y14.8049
G01 X-0.4075 Y14.7831
G01 X-0.4289 Y14.6975
G01 X-0.4339 Y14.6754
G01 X-0.4377 Y14.6532
G01 X-0.4507 Y14.5658
G01 X-0.4535 Y14.5434
G01 X-0.4551 Y14.5209
G01 X-0.4594 Y14.4327
G01 X-0.4600 Y14.4101
G01 X-0.4594 Y14.3875
G01 X-0.4551 Y14.2993
G01 X-0.4535 Y14.2768
G01 X-0.4507 Y14.2544
G01 X-0.4377 Y14.1670
G01 X-0.4339 Y14.1448
G01 X-0.4289 Y14.1228
G01 X-0.4075 Y14.0371
G01 X-0.4014 Y14.0153
G01 X-0.3944 Y13.9939
G01 X-0.3646 Y13.9107
G01 X-0.3565 Y13.8897
G01 X-0.3473 Y13.8690
G01 X-0.3096 Y13.7892
G01 X-0.2994 Y13.7690
G01 X-0.2883 Y13.7494
G01 X-0.2429 Y13.6736
G01 X-0.2308 Y13.6545
G01 X-0.2244 Y13.6452
G01 X-0.1652 Y13.5651
G01 X-0.1513 Y13.5473
G01 X-0.1365 Y13.5302
G01 X-0.0772 Y13.4648
G01 X-0.0617 Y13.4485
G01 X-0.0453 Y13.4329
G01 X0.0201 Y13.3736
G01 X0.0372 Y13.3588
G01 X0.0460 Y13.3518
G01 X0.1260 Y13.2923
G01 X0.1444 Y13.2793
G01 X0.1635 Y13.2672
G01 X0.2490 Y13.2161
G01 X0.2689 Y13.2055
G01 X0.2791 Y13.2006
G01 X0.3692 Y13.1581
G01 X0.3900 Y13.1494
G01 X0.4157 Y13.1401
G01 X0.3900 Y13.1308
G01 X0.3692 Y13.1221
G01 X0.2791 Y13.0797
G01 X0.2689 Y13.0747
G01 X0.2490 Y13.0641
G01 X0.1635 Y13.0130
G01 X0.1444 Y13.0009
G01 X0.1260 Y12.9879
G01 X0.0460 Y12.9285
G01 X0.0286 Y12.9141
G01 X0.0201 Y12.9067
G01 X-0.0453 Y12.8474
G01 X-0.0617 Y12.8318
G01 X-0.0772 Y12.8154
G01 X-0.1365 Y12.7500
G01 X-0.1513 Y12.7329
G01 X-0.1652 Y12.7151
G01 X-0.2244 Y12.6350
G01 X-0.2308 Y12.6257
G01 X-0.2429 Y12.6066
G01 X-0.2883 Y12.5309
G01 X-0.2994 Y12.5112
G01 X-0.3096 Y12.4910
G01 X-0.3473 Y12.4112
G01 X-0.3565 Y12.3906
G01 X-0.3646 Y12.3695
G01 X-0.3944 Y12.2863
G01 X-0.4014 Y12.2649
G01 X-0.4075 Y12.2431
G01 X-0.4289 Y12.1575
G01 X-0.4339 Y12.1354
G01 X-0.4377 Y12.1132
G01 X-0.4507 Y12.0258
G01 X-0.4535 Y12.0034
G01 X-0.4551 Y11.9809
G01 X-0.4594 Y11.8927
G01 X-0.4600 Y11.8701
G01 X-0.4594 Y11.8475
G01 X-0.4551 Y11.7593
G01 X-0.4535 Y11.7368
G01 X-0.4507 Y11.7144
G01 X-0.4377 Y11.6270
G01 X-0.4339 Y11.6048
G01 X-0.4289 Y11.5828
G01 X-0.4075 Y11.4971
G01 X-0.4014 Y11.4753
G01 X-0.3944 Y11.4539
G01 X-0.3646 Y11.3707
G01 X-0.3565 Y11.3497
G01 X-0.3473 Y11.3290
G01 X-0.3096 Y11.2492
G01 X-0.2994 Y11.2290
G01 X-0.2883 Y11.2094
G01 X-0.2429 Y11.1336
G01 X-0.2370 Y11.1240
G01 X-0.2244 Y11.1052
G01 X-0.1652 Y11.0251
G01 X-0.1513 Y11.0073
G01 X-0.1365 Y10.9902
G01 X-0.0772 Y10.9248
G01 X-0.0617 Y10.9085
G01 X-0.0453 Y10.8929
G01 X0.0201 Y10.8336
G01 X0.0372 Y10.8188
G01 X0.0460 Y10.8118
G01 X0.1260 Y10.7523
G01 X0.1444 Y10.7393
G01 X0.1635 Y10.7272
G01 X0.2490 Y10.6761
G01 X0.2689 Y10.6655
G01 X0.2791 Y10.6606
G01 X0.3692 Y10.6181
G01 X0.3900 Y10.6094
G01 X0.4157 Y10.6001
G01 X0.3900 Y10.5908
G01 X0.3692 Y10.5821
G01 X0.2791 Y10.5397
G01 X0.2689 Y10.5347
G01 X0.2490 Y10.5241
G01 X0.1635 Y10.4730
G01 X0.1444 Y10.4609
G01 X0.1260 Y10.4479
G01 X0.0460 Y10.3885
G01 X0.0372 Y10.3814
G01 X0.0201 Y10.3667
G01 X-0.0453 Y10.3074
G01 X-0.0617 Y10.2918
G01 X-0.0772 Y10.2754
G01 X-0.1365 Y10.2100
G01 X-0.1513 Y10.1929
G01 X-0.1652 Y10.1751
G01 X-0.2244 Y10.0950
G01 X-0.2370 Y10.0762
G01 X-0.2429 Y10.0666
G01 X-0.2883 Y9.9909
G01 X-0.2994 Y9.9712
G01 X-0.3096 Y9.9510
G01 X-0.3473 Y9.8712
G01 X-0.3565 Y9.8506
G01 X-0.3646 Y9.8295
G01 X-0.3944 Y9.7463
G01 X-0.4014 Y9.7249
G01 X-0.4075 Y9.7031
G01 X-0.4289 Y9.6175
G01 X-0.4339 Y9.5954
G01 X-0.4377 Y9.5732
G01 X-0.4507 Y9.4858
G01 X-0.4535 Y9.4634
G01 X-0.4551 Y9.4409
G01 X-0.4594 Y9.3527
G01 X-0.4600 Y9.3301
G01 X-0.4594 Y9.3075
G01 X-0.4551 Y9.2193
G01 X-0.4535 Y9.1968
G01 X-0.4507 Y9.1744
G01 X-0.4377 Y9.0870
G01 X-0.4339 Y9.0648
G01 X-0.4289 Y9.0428
G01 X-0.4075 Y8.9571
G01 X-0.4014 Y8.9353
G01 X-0.3944 Y8.9139
G01 X-0.3646 Y8.8307
G01 X-0.3565 Y8.8097
G01 X-0.3473 Y8.7890
G01 X-0.3096 Y8.7092
G01 X-0.2994 Y8.6890
G01 X-0.2883 Y8.6694
G01 X-0.2429 Y8.5936
G01 X-0.2308 Y8.5745
G01 X-0.2244 Y8.5652
G01 X-0.1652 Y8.4851
G01 X-0.1513 Y8.4673
G01 X-0.1365 Y8.4502
G01 X-0.0772 Y8.3848
G01 X-0.0617 Y8.3685
G01 X-0.0453 Y8.3529
G01 X0.0201 Y8.2936
G01 X0.0372 Y8.2788
G01 X0.0460 Y8.2718
G01 X0.1260 Y8.2123
G01 X0.1444 Y8.1993
G01 X0.1635 Y8.1872
G01 X0.2490 Y8.1361
G01 X0.2589 Y8.1307
G01 X0.2791 Y8.1206
G01 X0.3692 Y8.0781
G01 X0.3900 Y8.0694
G01 X0.4157 Y8.0601
G01 X0.3900 Y8.0508
G01 X0.3692 Y8.0421
G01 X0.2791 Y7.9997
G01 X0.2689 Y7.9947
G01 X0.2490 Y7.9841
G01 X0.1635 Y7.9330
G01 X0.1444 Y7.9209
G01 X0.1260 Y7.9079
G01 X0.0460 Y7.8485
G01 X0.0372 Y7.8414
G01 X0.0201 Y7.8267
G01 X-0.0453 Y7.7674
G01 X-0.0617 Y7.7518
G01 X-0.0772 Y7.7354
G01 X-0.1365 Y7.6700
G01 X-0.1513 Y7.6529
G01 X-0.1652 Y7.6351
G01 X-0.2178 Y7.5642
G01 X-0.2308 Y7.5457
G01 X-0.2429 Y7.5266
G01 X-0.2883 Y7.4509
G01 X-0.2994 Y7.4312
G01 X-0.3096 Y7.4110
G01 X-0.3473 Y7.3312
G01 X-0.3565 Y7.3106
G01 X-0.3646 Y7.2895
G01 X-0.3944 Y7.2063
G01 X-0.4014 Y7.1849
G01 X-0.4075 Y7.1631
G01 X-0.4289 Y7.0775
G01 X-0.4339 Y7.0554
G01 X-0.4377 Y7.0332
G01 X-0.4507 Y6.9458
G01 X-0.4535 Y6.9234
G01 X-0.4551 Y6.9009
G01 X-0.4594 Y6.8127
G01 X-0.4599 Y6.8014
G01 X-0.4599 Y6.7788
G01 X-0.4544 Y6.6681
G01 X-0.4522 Y6.6456
G01 X-0.4507 Y6.6344
G01 X-0.4377 Y6.5470
G01 X-0.4339 Y6.5248
G01 X-0.4289 Y6.5028
G01 X-0.4075 Y6.4171
G01 X-0.4014 Y6.3953
G01 X-0.3944 Y6.3739
G01 X-0.3646 Y6.2907
G01 X-0.3565 Y6.2697
G01 X-0.3473 Y6.2490
G01 X-0.3096 Y6.1692
G01 X-0.2994 Y6.1490
G01 X-0.2883 Y6.1294
G01 X-0.2429 Y6.0536
G01 X-0.2308 Y6.0345
G01 X-0.2178 Y6.0161
G01 X-0.1652 Y5.9451
G01 X-0.1513 Y5.9273
G01 X-0.1365 Y5.9102
G01 X-0.0772 Y5.8448
G01 X-0.0617 Y5.8285
G01 X-0.0453 Y5.8129
G01 X0.0201 Y5.7536
G01 X0.0372 Y5.7388
G01 X0.0550 Y5.7249
G01 X0.1260 Y5.6723
G01 X0.1444 Y5.6593
G01 X0.1539 Y5.6532
G01 X0.2393 Y5.6018
G01 X0.2490 Y5.5961
G01 X0.2689 Y5.5855
G01 X0.3692 Y5.5381
G01 X0.3900 Y5.5294
G01 X0.4006 Y5.5255
G01 X0.4838 Y5.4958
G01 X0.5052 Y5.4887
G01 X0.5270 Y5.4827
G01 X0.6126 Y5.4612
G01 X0.6347 Y5.4562
G01 X0.6458 Y5.4542
G01 X0.7443 Y5.4394
G01 X0.7667 Y5.4367
G01 X0.7892 Y5.4350
G01 X0.8774 Y5.4307
G01 X0.9000 Y5.4301
G01 X1.6697 Y5.4301
G01 X1.6313 Y5.4163
G01 X1.6105 Y5.4076
G01 X1.5337 Y5.3713
G01 X1.5237 Y5.3661
G01 X1.5040 Y5.3550
G01 X1.4409 Y5.3170
G01 X1.4315 Y5.3108
G01 X1.4130 Y5.2978
G01 X1.3540 Y5.2539
G01 X1.3365 Y5.2395
G01 X1.2818 Y5.1902
G01 X1.2655 Y5.1746
G01 X0.1755 Y4.0846
G01 X0.1599 Y4.0683
G01 X0.1181 Y4.0221
G01 X0.1033 Y4.0050
G01 X0.0963 Y3.9962
G01 X0.0523 Y3.9371
G01 X0.0393 Y3.9186
G01 X0.0272 Y3.8996
G01 X-0.0049 Y3.8461
G01 X-0.0160 Y3.8264
G01 X-0.0261 Y3.8063
G01 X-0.0528 Y3.7499
G01 X-0.0619 Y3.7293
G01 X-0.0701 Y3.7082
G01 X-0.0947 Y3.6388
G01 X-0.1013 Y3.6172
G01 X-0.1042 Y3.6063
G01 X-0.1193 Y3.5458
G01 X-0.1243 Y3.5238
G01 X-0.1281 Y3.5016
G01 X-0.1373 Y3.4399
G01 X-0.1399 Y3.4191
G00 Z1.0000
G00 X-0.2456 Y3.4933
G01 F30.00
G01 Z-0.0851
G01 F200.00
G01 X-0.2695 Y3.4782
G01 X-0.2811 Y3.4702
G01 X-0.2925 Y3.4620
G01 X-0.3148 Y3.4446
G01 X-0.3361 Y3.4262
G01 X-0.3465 Y3.4166
G01 X-0.3664 Y3.3966
G01 X-0.3854 Y3.3757
G01 X-0.3945 Y3.3649
G01 X-0.4118 Y3.3426
G01 X-0.4281 Y3.3196
G01 X-0.4432 Y3.2957
G01 X-0.4503 Y3.2835
G01 X-0.4571 Y3.2712
G01 X-0.4698 Y3.2460
G01 X-0.4812 Y3.2202
G01 X-0.4914 Y3.1938
G01 X-0.4960 Y3.1805
