(G-CODE GENERATED BY FLATCAM v8.994 - www.flatcam.org - Version Date: 2020/11/7)

(Name: condicionamento_BIA_v02-B_Cu.gbr_iso_combined_cnc)
(Type: G-code from Geometry)
(Units: MM)

(Created on sexta, 04 agosto 2023 at 15:08)

(This preprocessor is the default preprocessor used by FlatCAM.)
(It is made to work with MACH3 compatible motion controllers.)

(TOOL DIAMETER: 0.25 mm)
(Feedrate_XY: 120.0 mm/min)
(Feedrate_Z: 60.0 mm/min)
(Feedrate rapids 1500.0 mm/min)

(Z_Cut: -0.14178 mm)
(Z_Move: 1.0 mm)
(Z Start: None mm)
(Z End: 15.0 mm)
(X,Y End: None mm)
(Steps per circle: 64)
(Preprocessor Geometry: default)

(X range:   -0.7250 ...   86.5053  mm)
(Y range:   -0.7250 ...   99.2656  mm)

(Spindle Speed: 1000.0 RPM)
G21
G90
G94

G01 F120.00

M5
G00 Z15.0000
G00 X0.0000 Y0.0000
T1
M6    
(MSG, Change to Tool Dia = 0.25000)
M0
G00 Z15.0000

M03 S1000.0
G01 F120.00
G00 X2.3879 Y0.5113
G01 F60.00
G01 Z-0.1418
G01 F120.00
G01 X2.4346 Y0.4601
G01 X2.4598 Y0.4349
G01 X2.5273 Y0.3734
G01 X2.5543 Y0.3501
G01 X2.5823 Y0.3282
G01 X2.6414 Y0.2844
G01 X2.6705 Y0.2639
G01 X2.7006 Y0.2449
G01 X2.7637 Y0.2070
G01 X2.7947 Y0.1895
G01 X2.8265 Y0.1735
G01 X2.9092 Y0.1346
G01 X2.9421 Y0.1210
G01 X3.0280 Y0.0900
G01 X3.0618 Y0.0788
G01 X3.0961 Y0.0693
G01 X3.1496 Y0.0560
G01 X3.4989 Y-0.2923
G01 X3.5239 Y-0.3161
G01 X3.5701 Y-0.3580
G01 X3.5834 Y-0.3698
G01 X3.6109 Y-0.3923
G01 X3.6896 Y-0.4507
G01 X3.7192 Y-0.4704
G01 X3.7878 Y-0.5118
G01 X3.8032 Y-0.5208
G01 X3.8345 Y-0.5376
G01 X3.9069 Y-0.5720
G01 X3.9394 Y-0.5865
G01 X3.9726 Y-0.5993
G01 X4.0313 Y-0.6203
G01 X4.0651 Y-0.6314
G01 X4.0822 Y-0.6364
G01 X4.1772 Y-0.6602
G01 X4.1946 Y-0.6639
G01 X4.2297 Y-0.6699
G01 X4.2913 Y-0.6791
G01 X4.3267 Y-0.6834
G01 X4.3622 Y-0.6861
G01 X4.4244 Y-0.6891
G01 X4.4600 Y-0.6900
G01 X29.2200 Y-0.6900
G01 X29.2556 Y-0.6891
G01 X29.3356 Y-0.6850
G01 X29.3533 Y-0.6834
G01 X29.3887 Y-0.6791
G01 X29.4503 Y-0.6699
G01 X29.4854 Y-0.6639
G01 X29.5201 Y-0.6561
G01 X29.5806 Y-0.6409
G01 X29.6149 Y-0.6314
G01 X29.6487 Y-0.6203
G01 X29.7240 Y-0.5931
G01 X29.7569 Y-0.5794
G01 X29.8295 Y-0.5454
G01 X29.8612 Y-0.5294
G01 X29.8922 Y-0.5118
G01 X29.9457 Y-0.4798
G01 X29.9758 Y-0.4607
G01 X30.0048 Y-0.4403
G01 X30.0691 Y-0.3923
G01 X30.0966 Y-0.3698
G01 X30.1099 Y-0.3580
G01 X30.1692 Y-0.3040
G01 X30.3027 Y-0.1708
G01 X30.3915 Y-0.1576
G01 X30.4265 Y-0.1515
G01 X30.4613 Y-0.1437
G01 X30.5564 Y-0.1199
G01 X30.5907 Y-0.1104
G01 X30.6077 Y-0.1050
G01 X30.7336 Y-0.0600
G01 X30.7501 Y-0.0534
G01 X30.7827 Y-0.0390
G01 X30.8714 Y0.0030
G01 X30.9032 Y0.0190
G01 X30.9341 Y0.0365
G01 X31.0183 Y0.0870
G01 X31.0484 Y0.1060
G01 X31.0630 Y0.1161
G01 X31.1563 Y0.1850
G01 X31.1843 Y0.2069
G01 X31.2113 Y0.2301
G01 X31.2840 Y0.2960
G01 X31.3098 Y0.3206
G01 X31.3222 Y0.3333
G01 X31.4002 Y0.4190
G01 X31.4234 Y0.4460
G01 X31.4453 Y0.4740
G01 X31.5142 Y0.5673
G01 X31.5340 Y0.5969
G01 X31.5433 Y0.6120
G01 X31.5938 Y0.6962
G01 X31.6113 Y0.7272
G01 X31.6273 Y0.7589
G01 X31.6767 Y0.8638
G01 X31.6903 Y0.8967
G01 X31.7296 Y1.0058
G01 X31.7407 Y1.0396
G01 X31.7502 Y1.0739
G01 X31.7782 Y1.1864
G01 X31.7851 Y1.2213
G01 X31.8023 Y1.3359
G01 X31.8047 Y1.3536
G01 X31.8082 Y1.3890
G01 X31.8141 Y1.5047
G01 X31.8150 Y1.5403
G01 X31.8141 Y1.5759
G01 X31.8093 Y1.6739
G01 X31.8067 Y1.7094
G01 X31.8023 Y1.7447
G01 X31.7879 Y1.8418
G01 X31.7819 Y1.8768
G01 X31.7741 Y1.9116
G01 X31.7502 Y2.0068
G01 X31.7407 Y2.0411
G01 X31.7296 Y2.0748
G01 X31.6903 Y2.1839
G01 X31.6767 Y2.2168
G01 X31.6693 Y2.2330
G01 X31.6273 Y2.3217
G01 X31.6113 Y2.3535
G01 X31.5938 Y2.3844
G01 X31.5433 Y2.4686
G01 X31.5243 Y2.4987
G01 X31.5038 Y2.5278
G01 X31.4453 Y2.6066
G01 X31.4234 Y2.6346
G01 X31.4002 Y2.6616
G01 X31.3343 Y2.7343
G01 X31.3098 Y2.7601
G01 X31.2840 Y2.7846
G01 X31.1979 Y2.8623
G01 X31.1843 Y2.8738
G01 X31.1563 Y2.8957
G01 X31.0630 Y2.9645
G01 X31.0334 Y2.9843
G01 X31.0183 Y2.9936
G01 X30.9341 Y3.0441
G01 X30.9032 Y3.0616
G01 X30.8714 Y3.0776
G01 X30.7827 Y3.1196
G01 X30.7665 Y3.1270
G01 X30.7336 Y3.1406
G01 X30.6077 Y3.1857
G01 X30.5737 Y3.1960
G01 X30.4613 Y3.2244
G01 X30.4265 Y3.2322
G01 X30.4090 Y3.2354
G01 X30.2768 Y3.2550
G01 X30.2591 Y3.2570
G01 X30.2236 Y3.2596
G01 X30.1078 Y3.2651
G01 X30.0722 Y3.2651
G01 X30.0544 Y3.2644
G01 X29.9564 Y3.2596
G01 X29.9209 Y3.2570
G01 X29.8856 Y3.2527
G01 X29.7710 Y3.2354
G01 X29.7361 Y3.2285
G01 X29.6236 Y3.2005
G01 X29.5893 Y3.1910
G01 X29.5723 Y3.1857
G01 X29.4631 Y3.1468
G01 X29.4299 Y3.1340
G01 X29.3973 Y3.1196
G01 X29.3086 Y3.0776
G01 X29.2768 Y3.0616
G01 X29.2613 Y3.0531
G01 X29.1617 Y2.9936
G01 X29.1316 Y2.9746
G01 X29.1025 Y2.9541
G01 X29.0096 Y2.8849
G01 X28.9821 Y2.8623
G01 X28.9687 Y2.8505
G01 X28.8960 Y2.7846
G01 X28.8702 Y2.7601
G01 X28.8457 Y2.7343
G01 X28.7680 Y2.6483
G01 X28.7454 Y2.6208
G01 X28.6762 Y2.5278
G01 X28.6658 Y2.5133
G01 X28.6460 Y2.4838
G01 X28.5862 Y2.3844
G01 X28.5687 Y2.3535
G01 X28.5527 Y2.3217
G01 X28.5107 Y2.2330
G01 X28.4963 Y2.2004
G01 X28.4835 Y2.1672
G01 X28.4504 Y2.0748
G01 X28.4447 Y2.0580
G01 X28.4363 Y2.0306
G01 X26.0517 Y2.0306
G01 X26.0774 Y2.0593
G01 X26.1000 Y2.0868
G01 X26.1575 Y2.1640
G01 X26.1679 Y2.1784
G01 X26.1877 Y2.2080
G01 X26.2374 Y2.2905
G01 X26.2549 Y2.3214
G01 X26.2709 Y2.3532
G01 X26.3103 Y2.4368
G01 X30.3027 Y6.4292
G01 X30.3915 Y6.4424
G01 X30.4265 Y6.4485
G01 X30.4613 Y6.4563
G01 X30.5564 Y6.4801
G01 X30.5907 Y6.4896
G01 X30.6245 Y6.5008
G01 X30.7169 Y6.5338
G01 X30.7501 Y6.5466
G01 X30.7827 Y6.5610
G01 X30.8874 Y6.6108
G01 X30.9187 Y6.6276
G01 X31.0183 Y6.6870
G01 X31.0484 Y6.7060
G01 X31.0775 Y6.7265
G01 X31.1704 Y6.7958
G01 X31.1979 Y6.8183
G01 X31.2840 Y6.8960
G01 X31.3098 Y6.9206
G01 X31.3222 Y6.9333
G01 X31.4002 Y7.0190
G01 X31.4234 Y7.0460
G01 X31.4453 Y7.0740
G01 X31.5038 Y7.1529
G01 X31.5243 Y7.1820
G01 X31.5433 Y7.2120
G01 X31.5938 Y7.2962
G01 X31.6113 Y7.3272
G01 X31.6273 Y7.3589
G01 X31.6767 Y7.4638
G01 X31.6903 Y7.4967
G01 X31.6965 Y7.5134
G01 X31.7296 Y7.6058
G01 X31.7407 Y7.6396
G01 X31.7502 Y7.6739
G01 X31.7782 Y7.7864
G01 X31.7851 Y7.8213
G01 X31.7879 Y7.8388
G01 X31.8047 Y7.9536
G01 X31.8082 Y7.9890
G01 X31.8126 Y8.0739
G01 X36.8950 Y2.9915
G01 X36.8952 Y2.4225
G01 X36.8959 Y2.4047
G01 X36.8985 Y2.3693
G01 X36.9028 Y2.3339
G01 X36.9089 Y2.2989
G01 X36.9126 Y2.2815
G01 X36.9213 Y2.2470
G01 X36.9316 Y2.2129
G01 X36.9374 Y2.1961
G01 X36.9502 Y2.1629
G01 X36.9572 Y2.1465
G01 X36.9646 Y2.1303
G01 X36.9806 Y2.0986
G01 X36.9981 Y2.0676
G01 X37.0172 Y2.0375
G01 X37.0273 Y2.0229
G01 X37.0484 Y1.9943
G01 X37.0710 Y1.9668
G01 X37.0828 Y1.9534
G01 X37.1073 Y1.9277
G01 X37.1201 Y1.9152
G01 X37.1464 Y1.8913
G01 X37.1601 Y1.8799
G01 X37.1740 Y1.8688
G01 X37.2025 Y1.8476
G01 X37.2321 Y1.8278
G01 X37.2473 Y1.8185
G01 X37.2782 Y1.8009
G01 X37.3100 Y1.7849
G01 X37.3262 Y1.7775
G01 X37.3426 Y1.7705
G01 X37.3758 Y1.7577
G01 X37.3926 Y1.7519
G01 X37.4266 Y1.7416
G01 X37.4438 Y1.7370
G01 X37.4786 Y1.7292
G01 X37.5136 Y1.7232
G01 X37.5489 Y1.7188
G01 X37.5844 Y1.7162
G01 X37.6022 Y1.7155
G01 X38.1712 Y1.7153
G01 X39.6081 Y0.2784
G01 X39.6339 Y0.2539
G01 X39.6801 Y0.2120
G01 X39.7070 Y0.1888
G01 X39.7351 Y0.1669
G01 X39.7852 Y0.1297
G01 X39.8142 Y0.1093
G01 X39.8443 Y0.0902
G01 X39.8978 Y0.0582
G01 X39.9132 Y0.0492
G01 X39.9445 Y0.0324
G01 X40.0169 Y-0.0020
G01 X40.0494 Y-0.0165
G01 X40.0826 Y-0.0293
G01 X40.1582 Y-0.0561
G01 X40.1751 Y-0.0614
G01 X40.2094 Y-0.0709
G01 X40.2699 Y-0.0861
G01 X40.3046 Y-0.0939
G01 X40.3397 Y-0.0999
G01 X40.4190 Y-0.1115
G01 X40.4367 Y-0.1134
G01 X40.4722 Y-0.1161
G01 X40.5344 Y-0.1191
G01 X40.5700 Y-0.1200
G01 X75.1078 Y-0.1198
G01 X75.1878 Y-0.1161
G01 X75.2233 Y-0.1134
G01 X75.2587 Y-0.1091
G01 X75.3203 Y-0.0999
G01 X75.3379 Y-0.0971
G01 X75.3728 Y-0.0902
G01 X75.4506 Y-0.0709
G01 X75.4849 Y-0.0614
G01 X75.5187 Y-0.0503
G01 X75.5940 Y-0.0231
G01 X75.6269 Y-0.0094
G01 X75.6431 Y-0.0020
G01 X75.6995 Y0.0246
G01 X75.7312 Y0.0406
G01 X75.7622 Y0.0582
G01 X75.8157 Y0.0902
G01 X75.8458 Y0.1093
G01 X75.8604 Y0.1193
G01 X75.9391 Y0.1777
G01 X75.9666 Y0.2002
G01 X76.0392 Y0.2660
G01 X76.5124 Y0.7390
G01 X76.5428 Y0.6541
G01 X76.5556 Y0.6209
G01 X76.5700 Y0.5883
G01 X76.6120 Y0.4996
G01 X76.6280 Y0.4678
G01 X76.6455 Y0.4369
G01 X76.6960 Y0.3527
G01 X76.7150 Y0.3226
G01 X76.7355 Y0.2935
G01 X76.7940 Y0.2147
G01 X76.8159 Y0.1867
G01 X76.8391 Y0.1597
G01 X76.9171 Y0.0740
G01 X76.9423 Y0.0488
G01 X77.0280 Y-0.0292
G01 X77.0550 Y-0.0524
G01 X77.0830 Y-0.0743
G01 X77.1763 Y-0.1432
G01 X77.2059 Y-0.1630
G01 X77.2210 Y-0.1723
G01 X77.3052 Y-0.2228
G01 X77.3362 Y-0.2403
G01 X77.3679 Y-0.2563
G01 X77.4567 Y-0.2983
G01 X77.4892 Y-0.3127
G01 X77.5224 Y-0.3255
G01 X77.6316 Y-0.3644
G01 X77.6486 Y-0.3697
G01 X77.6829 Y-0.3792
G01 X77.7781 Y-0.4031
G01 X77.8128 Y-0.4109
G01 X77.8479 Y-0.4169
G01 X77.9525 Y-0.4324
G01 X78.0246 Y-0.4857
G01 X78.0392 Y-0.4957
G01 X78.0693 Y-0.5148
G01 X78.1228 Y-0.5468
G01 X78.1538 Y-0.5644
G01 X78.1855 Y-0.5804
G01 X78.2419 Y-0.6070
G01 X78.2744 Y-0.6215
G01 X78.2910 Y-0.6281
G01 X78.3832 Y-0.6611
G01 X78.4001 Y-0.6664
G01 X78.4344 Y-0.6759
G01 X78.4949 Y-0.6911
G01 X78.5296 Y-0.6989
G01 X78.5647 Y-0.7049
G01 X78.6263 Y-0.7141
G01 X78.6617 Y-0.7184
G01 X78.6972 Y-0.7211
G01 X78.7594 Y-0.7241
G01 X78.7950 Y-0.7250
G01 X84.0586 Y-0.7248
G01 X84.1386 Y-0.7211
G01 X84.1741 Y-0.7184
G01 X84.2094 Y-0.7141
G01 X84.2887 Y-0.7021
G01 X84.3236 Y-0.6952
G01 X84.4014 Y-0.6759
G01 X84.4357 Y-0.6664
G01 X84.4695 Y-0.6553
G01 X84.5282 Y-0.6343
G01 X84.5614 Y-0.6215
G01 X84.5939 Y-0.6070
G01 X84.6503 Y-0.5804
G01 X84.6820 Y-0.5644
G01 X84.7130 Y-0.5468
G01 X84.7665 Y-0.5148
G01 X84.7965 Y-0.4957
G01 X84.8256 Y-0.4753
G01 X84.8757 Y-0.4381
G01 X84.8899 Y-0.4273
G01 X84.9174 Y-0.4048
G01 X84.9769 Y-0.3511
G01 X85.0027 Y-0.3266
G01 X86.1069 Y0.7776
G01 X86.1314 Y0.8034
G01 X86.1851 Y0.8629
G01 X86.2077 Y0.8904
G01 X86.2660 Y0.9691
G01 X86.2858 Y0.9987
G01 X86.3272 Y1.0673
G01 X86.3447 Y1.0983
G01 X86.3607 Y1.1301
G01 X86.3948 Y1.2026
G01 X86.4084 Y1.2355
G01 X86.4146 Y1.2522
G01 X86.4414 Y1.3277
G01 X86.4517 Y1.3617
G01 X86.4755 Y1.4567
G01 X86.4824 Y1.4916
G01 X86.4944 Y1.5709
G01 X86.4988 Y1.6062
G01 X86.5014 Y1.6417
G01 X86.5044 Y1.7040
G01 X86.5053 Y1.7395
G01 X86.5051 Y78.2873
G01 X86.5014 Y78.3674
G01 X86.4988 Y78.4029
G01 X86.4944 Y78.4382
G01 X86.4853 Y78.4999
G01 X86.4792 Y78.5349
G01 X86.4714 Y78.5696
G01 X86.4562 Y78.6301
G01 X86.4467 Y78.6644
G01 X86.4356 Y78.6982
G01 X86.4146 Y78.7569
G01 X86.4018 Y78.7901
G01 X86.3873 Y78.8226
G01 X86.3529 Y78.8950
G01 X86.3361 Y78.9264
G01 X86.2951 Y78.9952
G01 X86.2761 Y79.0253
G01 X86.2556 Y79.0544
G01 X86.2184 Y79.1045
G01 X86.1965 Y79.1325
G01 X86.1733 Y79.1595
G01 X86.1314 Y79.2056
G01 X86.1069 Y79.2314
G01 X84.3861 Y80.9522
G01 X84.3734 Y80.9646
G01 X84.3354 Y80.9993
G01 X84.3049 Y81.0314
G01 X84.2912 Y81.0448
G01 X84.2227 Y81.1073
G01 X84.2093 Y81.1191
G01 X84.1818 Y81.1416
G01 X84.1086 Y81.1962
G01 X84.0795 Y81.2167
G01 X84.0494 Y81.2358
G01 X84.0085 Y81.2603
G01 X84.0494 Y81.2849
G01 X84.0795 Y81.3039
G01 X84.1086 Y81.3244
G01 X84.1818 Y81.3790
G01 X84.2093 Y81.4016
G01 X84.2227 Y81.4134
G01 X84.2772 Y81.4628
G01 X84.3030 Y81.4873
G01 X84.3275 Y81.5131
G01 X84.3887 Y81.5810
G01 X84.4002 Y81.5946
G01 X84.4221 Y81.6226
G01 X84.4659 Y81.6818
G01 X84.4864 Y81.7109
G01 X84.5055 Y81.7409
G01 X84.5433 Y81.8040
G01 X84.5523 Y81.8194
G01 X84.5690 Y81.8508
G01 X84.6083 Y81.9333
G01 X84.6227 Y81.9659
G01 X84.6355 Y81.9991
G01 X84.6603 Y82.0684
G01 X84.6715 Y82.1021
G01 X84.6764 Y82.1192
G01 X84.7030 Y82.2252
G01 X84.7067 Y82.2426
G01 X84.7127 Y82.2776
G01 X84.7235 Y82.3504
G01 X84.7279 Y82.3857
G01 X84.7305 Y82.4212
G01 X84.7341 Y82.4947
G01 X84.7350 Y82.5303
G01 X84.7348 Y82.5481
G01 X84.7305 Y82.6394
G01 X84.7279 Y82.6749
G01 X84.7235 Y82.7102
G01 X84.7099 Y82.8006
G01 X84.7030 Y82.8355
G01 X84.6989 Y82.8528
G01 X84.6810 Y82.9242
G01 X84.6715 Y82.9585
G01 X84.6603 Y82.9923
G01 X84.6293 Y83.0783
G01 X84.6157 Y83.1111
G01 X84.5768 Y83.1938
G01 X84.5608 Y83.2256
G01 X84.5523 Y83.2412
G01 X84.5055 Y83.3197
G01 X84.4864 Y83.3498
G01 X84.4659 Y83.3789
G01 X84.4221 Y83.4380
G01 X84.4113 Y83.4522
G01 X84.3887 Y83.4797
G01 X84.3154 Y83.5606
G01 X84.2902 Y83.5857
G01 X84.2772 Y83.5978
G01 X84.2093 Y83.6591
G01 X84.1818 Y83.6816
G01 X84.1086 Y83.7362
G01 X84.0795 Y83.7567
G01 X84.0494 Y83.7758
G01 X84.0085 Y83.8003
G01 X84.0494 Y83.8249
G01 X84.0795 Y83.8439
G01 X84.1086 Y83.8644
G01 X84.1818 Y83.9190
G01 X84.2093 Y83.9416
G01 X84.2227 Y83.9534
G01 X84.2772 Y84.0028
G01 X84.3030 Y84.0273
G01 X84.3275 Y84.0531
G01 X84.3887 Y84.1210
G01 X84.4113 Y84.1485
G01 X84.4221 Y84.1626
G01 X84.4659 Y84.2218
G01 X84.4864 Y84.2509
G01 X84.5055 Y84.2809
G01 X84.5433 Y84.3440
G01 X84.5523 Y84.3594
G01 X84.5690 Y84.3908
G01 X84.6083 Y84.4733
G01 X84.6227 Y84.5059
G01 X84.6355 Y84.5391
G01 X84.6603 Y84.6084
G01 X84.6715 Y84.6421
G01 X84.6764 Y84.6592
G01 X84.7030 Y84.7652
G01 X84.7099 Y84.8001
G01 X84.7127 Y84.8176
G01 X84.7235 Y84.8904
G01 X84.7279 Y84.9257
G01 X84.7305 Y84.9612
G01 X84.7341 Y85.0347
G01 X84.7350 Y85.0703
G01 X84.7348 Y85.0881
G01 X84.7305 Y85.1794
G01 X84.7279 Y85.2149
G01 X84.7235 Y85.2502
G01 X84.7099 Y85.3406
G01 X84.7030 Y85.3755
G01 X84.6989 Y85.3928
G01 X84.6810 Y85.4642
G01 X84.6715 Y85.4985
G01 X84.6603 Y85.5323
G01 X84.6293 Y85.6183
G01 X84.6157 Y85.6511
G01 X84.5768 Y85.7338
G01 X84.5690 Y85.7498
G01 X84.5523 Y85.7812
G01 X84.5055 Y85.8597
G01 X84.4864 Y85.8898
G01 X84.4659 Y85.9189
G01 X84.4221 Y85.9780
G01 X84.4002 Y86.0060
G01 X84.3887 Y86.0197
G01 X84.3154 Y86.1006
G01 X84.3030 Y86.1133
G01 X84.2772 Y86.1378
G01 X84.2093 Y86.1991
G01 X84.1818 Y86.2216
G01 X84.1086 Y86.2762
G01 X84.0795 Y86.2967
G01 X84.0494 Y86.3158
G01 X84.0085 Y86.3403
G01 X84.0494 Y86.3649
G01 X84.0795 Y86.3839
G01 X84.1086 Y86.4044
G01 X84.1818 Y86.4590
G01 X84.2093 Y86.4816
G01 X84.2227 Y86.4934
G01 X84.2902 Y86.5549
G01 X84.3154 Y86.5801
G01 X84.3275 Y86.5931
G01 X84.3769 Y86.6476
G01 X84.4002 Y86.6746
G01 X84.4221 Y86.7026
G01 X84.4659 Y86.7618
G01 X84.4764 Y86.7762
G01 X84.4961 Y86.8058
G01 X84.5523 Y86.8994
G01 X84.5608 Y86.9150
G01 X84.5768 Y86.9468
G01 X84.6083 Y87.0133
G01 X84.6227 Y87.0459
G01 X84.6355 Y87.0791
G01 X84.6603 Y87.1484
G01 X84.6661 Y87.1652
G01 X84.6764 Y87.1992
G01 X84.6989 Y87.2878
G01 X84.7067 Y87.3226
G01 X84.7127 Y87.3576
G01 X84.7235 Y87.4304
G01 X84.7259 Y87.4481
G01 X84.7294 Y87.4835
G01 X84.7341 Y87.5747
G01 X84.7350 Y87.6103
G01 X84.7341 Y87.6459
G01 X84.7305 Y87.7194
G01 X84.7279 Y87.7549
G01 X84.7259 Y87.7726
G01 X84.7127 Y87.8630
G01 X84.7067 Y87.8981
G01 X84.6989 Y87.9328
G01 X84.6764 Y88.0214
G01 X84.6661 Y88.0555
G01 X84.6603 Y88.0723
G01 X84.6355 Y88.1416
G01 X84.6227 Y88.1748
G01 X84.6083 Y88.2073
G01 X84.5690 Y88.2898
G01 X84.5523 Y88.3212
G01 X84.5055 Y88.3997
G01 X84.4864 Y88.4298
G01 X84.4659 Y88.4589
G01 X84.4221 Y88.5180
G01 X84.4002 Y88.5460
G01 X84.3769 Y88.5730
G01 X84.3154 Y88.6406
G01 X84.3030 Y88.6533
G01 X84.2772 Y88.6778
G01 X84.2093 Y88.7391
G01 X84.1818 Y88.7616
G01 X84.1086 Y88.8162
G01 X84.0795 Y88.8367
G01 X84.0494 Y88.8558
G01 X84.0085 Y88.8803
G01 X84.0494 Y88.9049
G01 X84.0795 Y88.9239
G01 X84.1086 Y88.9444
G01 X84.1818 Y88.9990
G01 X84.2093 Y89.0216
G01 X84.2227 Y89.0334
G01 X84.2902 Y89.0949
G01 X84.3154 Y89.1201
G01 X84.3275 Y89.1331
G01 X84.3769 Y89.1876
G01 X84.4002 Y89.2146
G01 X84.4221 Y89.2426
G01 X84.4659 Y89.3018
G01 X84.4864 Y89.3309
G01 X84.4961 Y89.3458
G01 X84.5523 Y89.4394
G01 X84.5690 Y89.4708
G01 X84.5768 Y89.4868
G01 X84.6083 Y89.5533
G01 X84.6227 Y89.5859
G01 X84.6355 Y89.6191
G01 X84.6603 Y89.6884
G01 X84.6661 Y89.7052
G01 X84.6764 Y89.7392
G01 X84.7030 Y89.8452
G01 X84.7067 Y89.8626
G01 X84.7127 Y89.8976
G01 X84.7235 Y89.9704
G01 X84.7279 Y90.0057
G01 X84.7305 Y90.0412
G01 X84.7341 Y90.1147
G01 X84.7350 Y90.1503
G01 X84.7348 Y90.1681
G01 X84.7294 Y90.2772
G01 X84.7259 Y90.3126
G01 X84.7235 Y90.3302
G01 X84.7127 Y90.4030
G01 X84.7067 Y90.4381
G01 X84.6989 Y90.4728
G01 X84.6810 Y90.5442
G01 X84.6715 Y90.5785
G01 X84.6661 Y90.5955
G01 X84.6293 Y90.6983
G01 X84.6157 Y90.7311
G01 X84.6083 Y90.7473
G01 X84.5768 Y90.8138
G01 X84.5608 Y90.8456
G01 X84.5433 Y90.8766
G01 X84.5055 Y90.9397
G01 X84.4961 Y90.9549
G01 X84.4764 Y90.9845
G01 X84.4113 Y91.0722
G01 X84.3887 Y91.0997
G01 X84.3769 Y91.1130
G01 X84.3275 Y91.1675
G01 X84.3030 Y91.1933
G01 X84.2772 Y91.2178
G01 X84.2390 Y91.2525
G01 X84.2709 Y91.2639
G01 X84.2874 Y91.2705
G01 X84.3038 Y91.2775
G01 X84.3360 Y91.2927
G01 X84.3674 Y91.3095
G01 X84.3827 Y91.3185
G01 X84.4128 Y91.3375
G01 X84.4275 Y91.3476
G01 X84.4560 Y91.3688
G01 X84.4699 Y91.3799
G01 X84.4836 Y91.3913
G01 X84.5099 Y91.4152
G01 X84.5227 Y91.4277
G01 X84.5472 Y91.4534
G01 X84.5590 Y91.4668
G01 X84.5816 Y91.4943
G01 X84.5923 Y91.5084
G01 X84.6128 Y91.5375
G01 X84.6319 Y91.5676
G01 X84.6494 Y91.5986
G01 X84.6576 Y91.6143
G01 X84.6728 Y91.6465
G01 X84.6798 Y91.6629
G01 X84.6926 Y91.6961
G01 X84.6984 Y91.7129
G01 X84.7087 Y91.7470
G01 X84.7133 Y91.7642
G01 X84.7174 Y91.7815
G01 X84.7243 Y91.8164
G01 X84.7295 Y91.8516
G01 X84.7315 Y91.8693
G01 X84.7341 Y91.9047
G01 X84.7350 Y91.9403
G01 X84.7350 Y93.4403
G01 X84.7341 Y93.4759
G01 X84.7315 Y93.5114
G01 X84.7295 Y93.5291
G01 X84.7243 Y93.5643
G01 X84.7211 Y93.5818
G01 X84.7133 Y93.6165
G01 X84.7038 Y93.6508
G01 X84.6926 Y93.6846
G01 X84.6798 Y93.7178
G01 X84.6654 Y93.7503
G01 X84.6494 Y93.7821
G01 X84.6319 Y93.8130
G01 X84.6128 Y93.8431
G01 X84.5923 Y93.8722
G01 X84.5704 Y93.9003
G01 X84.5472 Y93.9272
G01 X84.5227 Y93.9530
G01 X84.4969 Y93.9775
G01 X84.4836 Y93.9893
G01 X84.4560 Y94.0119
G01 X84.4419 Y94.0226
G01 X84.4128 Y94.0431
G01 X84.3827 Y94.0622
G01 X84.3674 Y94.0711
G01 X84.3360 Y94.0879
G01 X84.3038 Y94.1031
G01 X84.2709 Y94.1167
G01 X84.2374 Y94.1287
G01 X84.2205 Y94.1341
G01 X84.1862 Y94.1436
G01 X84.1514 Y94.1514
G01 X84.1164 Y94.1575
G01 X84.0811 Y94.1618
G01 X84.0456 Y94.1644
G01 X84.0100 Y94.1653
G01 X79.9922 Y94.1651
G01 X79.9744 Y94.1644
G01 X79.9389 Y94.1618
G01 X79.9036 Y94.1575
G01 X79.8861 Y94.1546
G01 X79.8512 Y94.1477
G01 X79.8338 Y94.1436
G01 X79.7995 Y94.1341
G01 X79.7658 Y94.1229
G01 X79.7491 Y94.1167
G01 X79.7326 Y94.1101
G01 X79.7000 Y94.0957
G01 X79.6840 Y94.0879
G01 X79.6526 Y94.0711
G01 X79.6373 Y94.0622
G01 X79.6187 Y94.0506
G01 X77.8535 Y94.0506
G01 X73.0369 Y98.8672
G01 X73.0111 Y98.8917
G01 X72.9649 Y98.9336
G01 X72.9380 Y98.9569
G01 X72.9099 Y98.9788
G01 X72.8598 Y99.0159
G01 X72.8308 Y99.0364
G01 X72.8007 Y99.0554
G01 X72.7472 Y99.0875
G01 X72.7162 Y99.1050
G01 X72.6845 Y99.1210
G01 X72.6119 Y99.1551
G01 X72.5790 Y99.1687
G01 X72.4868 Y99.2017
G01 X72.4528 Y99.2120
G01 X72.3751 Y99.2317
G01 X72.3404 Y99.2395
G01 X72.3053 Y99.2456
G01 X72.2260 Y99.2571
G01 X72.1906 Y99.2606
G01 X72.1106 Y99.2648
G01 X72.0750 Y99.2656
G01 X13.6550 Y99.2656
G01 X13.6194 Y99.2648
G01 X13.5572 Y99.2617
G01 X13.5217 Y99.2591
G01 X13.4863 Y99.2547
G01 X13.4247 Y99.2456
G01 X13.4071 Y99.2428
G01 X13.3722 Y99.2358
G01 X13.2944 Y99.2166
G01 X13.2601 Y99.2071
G01 X13.2263 Y99.1959
G01 X13.1676 Y99.1749
G01 X13.1510 Y99.1687
G01 X13.1181 Y99.1551
G01 X13.0455 Y99.1210
G01 X13.0138 Y99.1050
G01 X12.9828 Y99.0875
G01 X12.9142 Y99.0461
G01 X12.8846 Y99.0263
G01 X12.8702 Y99.0159
G01 X12.8201 Y98.9788
G01 X12.7920 Y98.9569
G01 X12.7651 Y98.9336
G01 X12.7189 Y98.8917
G01 X12.6931 Y98.8672
G01 X10.2281 Y96.4022
G01 X10.2036 Y96.3764
G01 X10.1617 Y96.3302
G01 X10.1385 Y96.3033
G01 X10.1166 Y96.2752
G01 X10.0690 Y96.2107
G01 X10.0492 Y96.1812
G01 X10.0399 Y96.1660
G01 X10.0078 Y96.1125
G01 X9.9903 Y96.0816
G01 X9.9743 Y96.0498
G01 X9.9477 Y95.9934
G01 X9.9402 Y95.9772
G01 X9.9266 Y95.9444
G01 X9.8936 Y95.8522
G01 X9.8883 Y95.8352
G01 X9.8788 Y95.8009
G01 X9.8636 Y95.7404
G01 X9.8558 Y95.7057
G01 X9.8497 Y95.6706
G01 X9.8406 Y95.6090
G01 X9.8382 Y95.5913
G01 X9.8347 Y95.5559
G01 X9.8306 Y95.4759
G01 X9.8297 Y95.4403
G01 X9.8297 Y94.5376
G01 X9.8153 Y94.5236
G01 X9.8029 Y94.5109
G01 X9.7338 Y94.4351
G01 X9.7106 Y94.4081
G01 X9.6887 Y94.3801
G01 X9.6382 Y94.3120
G01 X9.6177 Y94.2829
G01 X9.5987 Y94.2528
G01 X9.5551 Y94.1801
G01 X9.5376 Y94.1492
G01 X9.5216 Y94.1174
G01 X9.4853 Y94.0408
G01 X9.4709 Y94.0082
G01 X9.4581 Y93.9750
G01 X9.4296 Y93.8953
G01 X9.4184 Y93.8615
G01 X9.4134 Y93.8444
G01 X9.3883 Y93.7450
G01 X9.3805 Y93.7102
G01 X9.3744 Y93.6752
G01 X9.3620 Y93.5913
G01 X9.3576 Y93.5560
G01 X9.3550 Y93.5205
G01 X9.3509 Y93.4359
G01 X9.3500 Y93.4003
G01 X9.3502 Y93.3825
G01 X9.3550 Y93.2801
G01 X9.3576 Y93.2446
G01 X9.3620 Y93.2093
G01 X9.3773 Y93.1079
G01 X9.3805 Y93.0904
G01 X9.3883 Y93.0557
G01 X9.4089 Y92.9735
G01 X9.4184 Y92.9392
G01 X9.4296 Y92.9054
G01 X9.4643 Y92.8089
G01 X9.4779 Y92.7760
G01 X9.5216 Y92.6832
G01 X9.5376 Y92.6515
G01 X9.5551 Y92.6205
G01 X9.5987 Y92.5478
G01 X9.6177 Y92.5177
G01 X9.6382 Y92.4886
G01 X9.6995 Y92.4064
G01 X9.7221 Y92.3789
G01 X9.7338 Y92.3656
G01 X9.8029 Y92.2897
G01 X9.8280 Y92.2646
G01 X9.9172 Y92.1838
G01 X9.9447 Y92.1612
G01 X9.9860 Y92.1303
G01 X9.9447 Y92.0994
G01 X9.9172 Y92.0769
G01 X9.8280 Y91.9961
G01 X9.8153 Y91.9836
G01 X9.7908 Y91.9579
G01 X9.7221 Y91.8817
G01 X9.6995 Y91.8542
G01 X9.6887 Y91.8401
G01 X9.6382 Y91.7720
G01 X9.6177 Y91.7429
G01 X9.5987 Y91.7128
G01 X9.5551 Y91.6401
G01 X9.5376 Y91.6092
G01 X9.5294 Y91.5934
G01 X9.4779 Y91.4846
G01 X9.4643 Y91.4517
G01 X9.4581 Y91.4350
G01 X9.4296 Y91.3553
G01 X9.4184 Y91.3215
G01 X9.4089 Y91.2872
G01 X9.3883 Y91.2050
G01 X9.3805 Y91.1702
G01 X9.3773 Y91.1527
G01 X9.3596 Y91.0337
G01 X9.3576 Y91.0160
G01 X9.3550 Y90.9805
G01 X9.3509 Y90.8959
G01 X9.3500 Y90.8603
G01 X9.3509 Y90.8247
G01 X9.3550 Y90.7401
G01 X9.3561 Y90.7223
G01 X9.3596 Y90.6869
G01 X9.3773 Y90.5679
G01 X9.3805 Y90.5504
G01 X9.3883 Y90.5157
G01 X9.4089 Y90.4335
G01 X9.4184 Y90.3992
G01 X9.4296 Y90.3654
G01 X9.4581 Y90.2856
G01 X9.4709 Y90.2524
G01 X9.4779 Y90.2360
G01 X9.5294 Y90.1273
G01 X9.5462 Y90.0959
G01 X9.5551 Y90.0805
G01 X9.5987 Y90.0078
G01 X9.6177 Y89.9777
G01 X9.6382 Y89.9486
G01 X9.6887 Y89.8806
G01 X9.7106 Y89.8525
G01 X9.7221 Y89.8389
G01 X9.7908 Y89.7628
G01 X9.8153 Y89.7370
G01 X9.8280 Y89.7246
G01 X9.9172 Y89.6438
G01 X9.9447 Y89.6212
G01 X9.9860 Y89.5903
G01 X9.9447 Y89.5594
G01 X9.9172 Y89.5369
G01 X9.8280 Y89.4561
G01 X9.8029 Y89.4309
G01 X9.7908 Y89.4179
G01 X9.7221 Y89.3417
G01 X9.7106 Y89.3281
G01 X9.6887 Y89.3001
G01 X9.6382 Y89.2320
G01 X9.6177 Y89.2029
G01 X9.5987 Y89.1728
G01 X9.5551 Y89.1001
G01 X9.5376 Y89.0692
G01 X9.5294 Y89.0534
G01 X9.4779 Y88.9446
G01 X9.4643 Y88.9117
G01 X9.4581 Y88.8950
G01 X9.4296 Y88.8153
G01 X9.4184 Y88.7815
G01 X9.4089 Y88.7472
G01 X9.3883 Y88.6650
G01 X9.3805 Y88.6302
G01 X9.3773 Y88.6127
G01 X9.3596 Y88.4937
G01 X9.3576 Y88.4760
G01 X9.3550 Y88.4405
G01 X9.3509 Y88.3559
G01 X9.3500 Y88.3203
G01 X9.3509 Y88.2847
G01 X9.3550 Y88.2001
G01 X9.3561 Y88.1823
G01 X9.3596 Y88.1469
G01 X9.3773 Y88.0279
G01 X9.3805 Y88.0104
G01 X9.3883 Y87.9757
G01 X9.4089 Y87.8935
G01 X9.4184 Y87.8592
G01 X9.4296 Y87.8254
G01 X9.4581 Y87.7456
G01 X9.4709 Y87.7124
G01 X9.4779 Y87.6960
G01 X9.5294 Y87.5873
G01 X9.5462 Y87.5559
G01 X9.5551 Y87.5405
G01 X9.5987 Y87.4678
G01 X9.6177 Y87.4377
G01 X9.6382 Y87.4086
G01 X9.6887 Y87.3406
G01 X9.6995 Y87.3264
G01 X9.7221 Y87.2989
G01 X9.7908 Y87.2228
G01 X9.8153 Y87.1970
G01 X9.8280 Y87.1846
G01 X9.9172 Y87.1038
G01 X9.9447 Y87.0812
G01 X9.9860 Y87.0503
G01 X9.9447 Y87.0194
G01 X9.9172 Y86.9969
G01 X9.8280 Y86.9161
G01 X9.8029 Y86.8909
G01 X9.7908 Y86.8779
G01 X9.7221 Y86.8017
G01 X9.7106 Y86.7881
G01 X9.6887 Y86.7601
G01 X9.6382 Y86.6920
G01 X9.6177 Y86.6629
G01 X9.5987 Y86.6328
G01 X9.5551 Y86.5601
G01 X9.5462 Y86.5448
G01 X9.5294 Y86.5134
G01 X9.4779 Y86.4046
G01 X9.4643 Y86.3717
G01 X9.4581 Y86.3550
G01 X9.4296 Y86.2753
G01 X9.4184 Y86.2415
G01 X9.4089 Y86.2072
G01 X9.3883 Y86.1250
G01 X9.3842 Y86.1076
G01 X9.3773 Y86.0727
G01 X9.3596 Y85.9537
G01 X9.3576 Y85.9360
G01 X9.3550 Y85.9005
G01 X9.3509 Y85.8159
G01 X9.3500 Y85.7803
G01 X9.3509 Y85.7447
G01 X9.3550 Y85.6601
G01 X9.3561 Y85.6423
G01 X9.3596 Y85.6069
G01 X9.3773 Y85.4879
G01 X9.3805 Y85.4704
G01 X9.3883 Y85.4357
G01 X9.4089 Y85.3535
G01 X9.4184 Y85.3192
G01 X9.4296 Y85.2854
G01 X9.4581 Y85.2056
G01 X9.4709 Y85.1724
G01 X9.4779 Y85.1560
G01 X9.5294 Y85.0473
G01 X9.5462 Y85.0159
G01 X9.5551 Y85.0005
G01 X9.5987 Y84.9278
G01 X9.6177 Y84.8977
G01 X9.6382 Y84.8686
G01 X9.6887 Y84.8006
G01 X9.6995 Y84.7864
G01 X9.7221 Y84.7589
G01 X9.7908 Y84.6828
G01 X9.8153 Y84.6570
G01 X9.8280 Y84.6446
G01 X9.9172 Y84.5638
G01 X9.9447 Y84.5412
G01 X9.9860 Y84.5103
G01 X9.9447 Y84.4794
G01 X9.9172 Y84.4569
G01 X9.8280 Y84.3761
G01 X9.8153 Y84.3636
G01 X9.7908 Y84.3379
G01 X9.7221 Y84.2617
G01 X9.6995 Y84.2342
G01 X9.6887 Y84.2201
G01 X9.6382 Y84.1520
G01 X9.6177 Y84.1229
G01 X9.5987 Y84.0928
G01 X9.5551 Y84.0201
G01 X9.5462 Y84.0048
G01 X9.5294 Y83.9734
G01 X9.4779 Y83.8646
G01 X9.4709 Y83.8482
G01 X9.4581 Y83.8150
G01 X9.4296 Y83.7353
G01 X9.4184 Y83.7015
G01 X9.4089 Y83.6672
G01 X9.3883 Y83.5850
G01 X9.3805 Y83.5502
G01 X9.3773 Y83.5327
G01 X9.3596 Y83.4137
G01 X9.3561 Y83.3783
G01 X9.3550 Y83.3605
G01 X9.3502 Y83.2581
G01 X9.3500 Y83.2403
G01 X9.3509 Y83.2047
G01 X9.3550 Y83.1201
G01 X9.3576 Y83.0846
G01 X9.3620 Y83.0493
G01 X9.3773 Y82.9479
G01 X9.3805 Y82.9304
G01 X9.3883 Y82.8957
G01 X9.4089 Y82.8135
G01 X9.4184 Y82.7792
G01 X9.4296 Y82.7454
G01 X9.4581 Y82.6656
G01 X9.4709 Y82.6324
G01 X9.4779 Y82.6160
G01 X9.5294 Y82.5073
G01 X9.5376 Y82.4915
G01 X9.5551 Y82.4605
G01 X9.5987 Y82.3878
G01 X9.6177 Y82.3577
G01 X9.6382 Y82.3286
G01 X9.6887 Y82.2606
G01 X9.7106 Y82.2325
G01 X9.7221 Y82.2189
G01 X9.7908 Y82.1428
G01 X9.8153 Y82.1170
G01 X9.8280 Y82.1046
G01 X9.9172 Y82.0238
G01 X9.9447 Y82.0012
G01 X9.9860 Y81.9703
G01 X9.9447 Y81.9394
G01 X9.9172 Y81.9169
G01 X9.8280 Y81.8361
G01 X9.8153 Y81.8236
G01 X9.7908 Y81.7979
G01 X9.7221 Y81.7217
G01 X9.7106 Y81.7081
G01 X9.6887 Y81.6801
G01 X9.6382 Y81.6120
G01 X9.6177 Y81.5829
G01 X9.5987 Y81.5528
G01 X9.5551 Y81.4801
G01 X9.5462 Y81.4648
G01 X9.5294 Y81.4334
G01 X9.4779 Y81.3246
G01 X9.4709 Y81.3082
G01 X9.4581 Y81.2750
G01 X9.4296 Y81.1953
G01 X9.4184 Y81.1615
G01 X9.4089 Y81.1272
G01 X9.3883 Y81.0450
G01 X9.3805 Y81.0102
G01 X9.3773 Y80.9927
G01 X9.3596 Y80.8737
G01 X9.3561 Y80.8383
G01 X9.3550 Y80.8205
G01 X9.3502 Y80.7181
G01 X9.3500 Y80.7003
G01 X9.3509 Y80.6647
G01 X9.3550 Y80.5801
G01 X9.3576 Y80.5446
G01 X9.3620 Y80.5093
G01 X9.3773 Y80.4079
G01 X9.3805 Y80.3904
G01 X9.3883 Y80.3557
G01 X9.4089 Y80.2735
G01 X9.4184 Y80.2392
G01 X9.4296 Y80.2054
G01 X9.4581 Y80.1256
G01 X9.4709 Y80.0924
G01 X9.4779 Y80.0760
G01 X9.5294 Y79.9673
G01 X9.5462 Y79.9359
G01 X9.5551 Y79.9205
G01 X9.5987 Y79.8478
G01 X9.6177 Y79.8177
G01 X9.6382 Y79.7886
G01 X9.6887 Y79.7206
G01 X9.7106 Y79.6925
G01 X9.7221 Y79.6789
G01 X9.7908 Y79.6028
G01 X9.8029 Y79.5897
G01 X9.8280 Y79.5646
G01 X9.9172 Y79.4838
G01 X9.9447 Y79.4612
G01 X9.9860 Y79.4303
G01 X9.9447 Y79.3994
G01 X9.9172 Y79.3769
G01 X9.8280 Y79.2961
G01 X9.8153 Y79.2836
G01 X9.7908 Y79.2579
G01 X9.7221 Y79.1817
G01 X9.6995 Y79.1542
G01 X9.6887 Y79.1401
G01 X9.6382 Y79.0720
G01 X9.6177 Y79.0429
G01 X9.5987 Y79.0128
G01 X9.5551 Y78.9401
G01 X9.5376 Y78.9092
G01 X9.5294 Y78.8934
G01 X9.4853 Y78.8008
G01 X9.4779 Y78.7846
G01 X9.4643 Y78.7517
G01 X9.4238 Y78.6384
G01 X9.4184 Y78.6215
G01 X9.4089 Y78.5872
G01 X9.3842 Y78.4876
G01 X9.3773 Y78.4527
G01 X9.3744 Y78.4352
G01 X9.3620 Y78.3513
G01 X9.3576 Y78.3160
G01 X9.3550 Y78.2805
G01 X9.3509 Y78.1959
G01 X9.3500 Y78.1603
G01 X9.3502 Y78.1425
G01 X9.3561 Y78.0223
G01 X9.3596 Y77.9869
G01 X9.3620 Y77.9693
G01 X9.3744 Y77.8855
G01 X9.3805 Y77.8504
G01 X9.3883 Y77.8157
G01 X9.4089 Y77.7335
G01 X9.4184 Y77.6992
G01 X9.4296 Y77.6654
G01 X9.4581 Y77.5856
G01 X9.4709 Y77.5524
G01 X9.4779 Y77.5360
G01 X9.5216 Y77.4432
G01 X9.5376 Y77.4115
G01 X9.5551 Y77.3805
G01 X9.5987 Y77.3078
G01 X9.6080 Y77.2927
G01 X9.6278 Y77.2631
G01 X9.6887 Y77.1806
G01 X9.6995 Y77.1664
G01 X9.7221 Y77.1389
G01 X9.8029 Y77.0497
G01 X9.8280 Y77.0246
G01 X9.8762 Y76.9806
G01 X9.2535 Y76.9806
G01 X6.5503 Y79.6838
G01 X6.5503 Y95.2254
G01 X6.5651 Y95.2404
G01 X6.5772 Y95.2534
G01 X6.6004 Y95.2804
G01 X6.6223 Y95.3084
G01 X6.6428 Y95.3375
G01 X6.6619 Y95.3676
G01 X6.6794 Y95.3986
G01 X6.6954 Y95.4303
G01 X6.7098 Y95.4629
G01 X6.7226 Y95.4961
G01 X6.7338 Y95.5299
G01 X6.7433 Y95.5642
G01 X6.7511 Y95.5989
G01 X6.7572 Y95.6339
G01 X6.7615 Y95.6693
G01 X6.7641 Y95.7047
G01 X6.7650 Y95.7403
G01 X6.7650 Y97.4403
G01 X6.7641 Y97.4759
G01 X6.7615 Y97.5114
G01 X6.7572 Y97.5467
G01 X6.7543 Y97.5643
G01 X6.7474 Y97.5992
G01 X6.7387 Y97.6337
G01 X6.7338 Y97.6508
G01 X6.7226 Y97.6846
G01 X6.7164 Y97.7012
G01 X6.7028 Y97.7341
G01 X6.6876 Y97.7663
G01 X6.6708 Y97.7977
G01 X6.6619 Y97.8130
G01 X6.6428 Y97.8431
G01 X6.6327 Y97.8578
G01 X6.6116 Y97.8864
G01 X6.5890 Y97.9139
G01 X6.5772 Y97.9272
G01 X6.5651 Y97.9402
G01 X6.5399 Y97.9654
G01 X6.5269 Y97.9775
G01 X6.4999 Y98.0008
G01 X6.4719 Y98.0226
G01 X6.4575 Y98.0331
G01 X6.4279 Y98.0528
G01 X6.3974 Y98.0711
G01 X6.3660 Y98.0879
G01 X6.3500 Y98.0957
G01 X6.3174 Y98.1101
G01 X6.3009 Y98.1167
G01 X6.2674 Y98.1287
G01 X6.2334 Y98.1391
G01 X6.1988 Y98.1477
G01 X6.1814 Y98.1514
G01 X6.1464 Y98.1575
G01 X6.1287 Y98.1599
G01 X6.0933 Y98.1634
G01 X6.0578 Y98.1651
G01 X4.3400 Y98.1653
G01 X4.3044 Y98.1644
G01 X4.2867 Y98.1634
G01 X4.2513 Y98.1599
G01 X4.2161 Y98.1546
G01 X4.1812 Y98.1477
G01 X4.1466 Y98.1391
G01 X4.1126 Y98.1287
G01 X4.0791 Y98.1167
G01 X4.0626 Y98.1101
G01 X4.0300 Y98.0957
G01 X3.9982 Y98.0797
G01 X3.9673 Y98.0622
G01 X3.9372 Y98.0431
G01 X3.9081 Y98.0226
G01 X3.8801 Y98.0008
G01 X3.8531 Y97.9775
G01 X3.8273 Y97.9530
G01 X3.8028 Y97.9272
G01 X3.7796 Y97.9003
G01 X3.7577 Y97.8722
G01 X3.7473 Y97.8578
G01 X3.7275 Y97.8282
G01 X3.7181 Y97.8130
G01 X3.7006 Y97.7821
G01 X3.6924 Y97.7663
G01 X3.6772 Y97.7341
G01 X3.6636 Y97.7012
G01 X3.6574 Y97.6846
G01 X3.6462 Y97.6508
G01 X3.6413 Y97.6337
G01 X3.6326 Y97.5992
G01 X3.6257 Y97.5643
G01 X3.6228 Y97.5467
G01 X3.6185 Y97.5114
G01 X3.6170 Y97.4937
G01 X3.6152 Y97.4581
G01 X3.6150 Y97.4403
G01 X3.6152 Y95.7225
G01 X3.6170 Y95.6870
G01 X3.6205 Y95.6516
G01 X3.6257 Y95.6164
G01 X3.6326 Y95.5815
G01 X3.6413 Y95.5470
G01 X3.6516 Y95.5129
G01 X3.6636 Y95.4794
G01 X3.6772 Y95.4465
G01 X3.6924 Y95.4143
G01 X3.7092 Y95.3830
G01 X3.7275 Y95.3524
G01 X3.7473 Y95.3229
G01 X3.7684 Y95.2943
G01 X3.7910 Y95.2668
G01 X3.8149 Y95.2404
G01 X3.8297 Y95.2254
G01 X3.8297 Y94.0465
G01 X3.7979 Y94.0596
G01 X3.7813 Y94.0658
G01 X3.7120 Y94.0906
G01 X3.6782 Y94.1018
G01 X3.6439 Y94.1113
G01 X3.5725 Y94.1292
G01 X3.5378 Y94.1370
G01 X3.5027 Y94.1431
G01 X3.4299 Y94.1539
G01 X3.3946 Y94.1582
G01 X3.3591 Y94.1608
G01 X3.2678 Y94.1651
G01 X0.7500 Y94.1653
G01 X0.7144 Y94.1644
G01 X0.6409 Y94.1608
G01 X0.6054 Y94.1582
G01 X0.5701 Y94.1539
G01 X0.4973 Y94.1431
G01 X0.4622 Y94.1370
G01 X0.4275 Y94.1292
G01 X0.3561 Y94.1113
G01 X0.3218 Y94.1018
G01 X0.2880 Y94.0906
G01 X0.2187 Y94.0658
G01 X0.1855 Y94.0530
G01 X0.1530 Y94.0386
G01 X0.0865 Y94.0072
G01 X0.0547 Y93.9912
G01 X0.0237 Y93.9736
G01 X-0.0394 Y93.9358
G01 X-0.0695 Y93.9167
G01 X-0.0986 Y93.8962
G01 X-0.1577 Y93.8524
G01 X-0.1857 Y93.8305
G01 X-0.2127 Y93.8073
G01 X-0.2672 Y93.7578
G01 X-0.2930 Y93.7333
G01 X-0.3175 Y93.7075
G01 X-0.3787 Y93.6397
G01 X-0.4013 Y93.6122
G01 X-0.4121 Y93.5980
G01 X-0.4559 Y93.5389
G01 X-0.4764 Y93.5098
G01 X-0.4955 Y93.4797
G01 X-0.5333 Y93.4166
G01 X-0.5508 Y93.3856
G01 X-0.5668 Y93.3538
G01 X-0.5983 Y93.2873
G01 X-0.6057 Y93.2711
G01 X-0.6193 Y93.2383
G01 X-0.6561 Y93.1355
G01 X-0.6615 Y93.1185
G01 X-0.6710 Y93.0842
G01 X-0.6889 Y93.0128
G01 X-0.6967 Y92.9781
G01 X-0.7027 Y92.9430
G01 X-0.7135 Y92.8702
G01 X-0.7179 Y92.8349
G01 X-0.7194 Y92.8172
G01 X-0.7241 Y92.7259
G01 X-0.7248 Y92.7081
G01 X-0.7248 Y92.6725
G01 X-0.7194 Y92.5635
G01 X-0.7179 Y92.5457
G01 X-0.7135 Y92.5104
G01 X-0.6999 Y92.4201
G01 X-0.6930 Y92.3852
G01 X-0.6889 Y92.3678
G01 X-0.6710 Y92.2964
G01 X-0.6615 Y92.2621
G01 X-0.6503 Y92.2284
G01 X-0.6255 Y92.1591
G01 X-0.6127 Y92.1259
G01 X-0.5983 Y92.0933
G01 X-0.5668 Y92.0268
G01 X-0.5508 Y91.9950
G01 X-0.5333 Y91.9640
G01 X-0.4955 Y91.9009
G01 X-0.4764 Y91.8709
G01 X-0.4664 Y91.8562
G01 X-0.4121 Y91.7826
G01 X-0.3902 Y91.7546
G01 X-0.3669 Y91.7276
G01 X-0.3175 Y91.6731
G01 X-0.2930 Y91.6473
G01 X-0.2802 Y91.6349
G01 X-0.2127 Y91.5734
G01 X-0.1857 Y91.5501
G01 X-0.1718 Y91.5390
G01 X-0.0986 Y91.4844
G01 X-0.0695 Y91.4639
G01 X-0.0394 Y91.4449
G01 X0.0015 Y91.4203
G01 X-0.0394 Y91.3958
G01 X-0.0695 Y91.3767
G01 X-0.0986 Y91.3562
G01 X-0.1718 Y91.3016
G01 X-0.1993 Y91.2791
G01 X-0.2672 Y91.2178
G01 X-0.2802 Y91.2057
G01 X-0.3054 Y91.1806
G01 X-0.3669 Y91.1130
G01 X-0.3902 Y91.0860
G01 X-0.4121 Y91.0580
G01 X-0.4559 Y90.9989
G01 X-0.4764 Y90.9698
G01 X-0.4955 Y90.9397
G01 X-0.5423 Y90.8612
G01 X-0.5590 Y90.8298
G01 X-0.5983 Y90.7473
G01 X-0.6127 Y90.7148
G01 X-0.6255 Y90.6816
G01 X-0.6503 Y90.6123
G01 X-0.6615 Y90.5785
G01 X-0.6664 Y90.5614
G01 X-0.6889 Y90.4728
G01 X-0.6967 Y90.4381
G01 X-0.7027 Y90.4030
G01 X-0.7159 Y90.3126
G01 X-0.7179 Y90.2949
G01 X-0.7205 Y90.2594
G01 X-0.7241 Y90.1859
G01 X-0.7250 Y90.1503
G01 X-0.7241 Y90.1147
G01 X-0.7194 Y90.0235
G01 X-0.7159 Y89.9881
G01 X-0.7135 Y89.9704
G01 X-0.7027 Y89.8976
G01 X-0.6967 Y89.8626
G01 X-0.6889 Y89.8278
G01 X-0.6664 Y89.7392
G01 X-0.6615 Y89.7221
G01 X-0.6503 Y89.6884
G01 X-0.6255 Y89.6191
G01 X-0.6127 Y89.5859
G01 X-0.5983 Y89.5533
G01 X-0.5668 Y89.4868
G01 X-0.5508 Y89.4550
G01 X-0.5423 Y89.4394
G01 X-0.4861 Y89.3458
G01 X-0.4764 Y89.3309
G01 X-0.4559 Y89.3018
G01 X-0.4121 Y89.2426
G01 X-0.3902 Y89.2146
G01 X-0.3669 Y89.1876
G01 X-0.3175 Y89.1331
G01 X-0.2930 Y89.1073
G01 X-0.2802 Y89.0949
G01 X-0.2127 Y89.0334
G01 X-0.1993 Y89.0216
G01 X-0.1718 Y88.9990
G01 X-0.0986 Y88.9444
G01 X-0.0695 Y88.9239
G01 X-0.0394 Y88.9049
G01 X0.0015 Y88.8803
G01 X-0.0394 Y88.8558
G01 X-0.0695 Y88.8367
G01 X-0.0986 Y88.8162
G01 X-0.1718 Y88.7616
G01 X-0.1993 Y88.7391
G01 X-0.2672 Y88.6778
G01 X-0.2802 Y88.6657
G01 X-0.3054 Y88.6406
G01 X-0.3669 Y88.5730
G01 X-0.3902 Y88.5460
G01 X-0.4121 Y88.5180
G01 X-0.4559 Y88.4589
G01 X-0.4764 Y88.4298
G01 X-0.4861 Y88.4149
G01 X-0.5333 Y88.3366
G01 X-0.5508 Y88.3056
G01 X-0.5668 Y88.2738
G01 X-0.5983 Y88.2073
G01 X-0.6127 Y88.1748
G01 X-0.6255 Y88.1416
G01 X-0.6503 Y88.0723
G01 X-0.6615 Y88.0385
G01 X-0.6664 Y88.0214
G01 X-0.6889 Y87.9328
G01 X-0.6967 Y87.8981
G01 X-0.7027 Y87.8630
G01 X-0.7159 Y87.7726
G01 X-0.7194 Y87.7372
G01 X-0.7205 Y87.7194
G01 X-0.7241 Y87.6459
G01 X-0.7250 Y87.6103
G01 X-0.7241 Y87.5747
G01 X-0.7205 Y87.5012
G01 X-0.7179 Y87.4657
G01 X-0.7159 Y87.4481
G01 X-0.7027 Y87.3576
G01 X-0.6967 Y87.3226
G01 X-0.6889 Y87.2878
G01 X-0.6710 Y87.2164
G01 X-0.6664 Y87.1992
G01 X-0.6561 Y87.1652
G01 X-0.6255 Y87.0791
G01 X-0.6127 Y87.0459
G01 X-0.5983 Y87.0133
G01 X-0.5668 Y86.9468
G01 X-0.5508 Y86.9150
G01 X-0.5423 Y86.8994
G01 X-0.4861 Y86.8058
G01 X-0.4664 Y86.7762
G01 X-0.4559 Y86.7618
G01 X-0.4121 Y86.7026
G01 X-0.3902 Y86.6746
G01 X-0.3669 Y86.6476
G01 X-0.3175 Y86.5931
G01 X-0.3054 Y86.5801
G01 X-0.2802 Y86.5549
G01 X-0.2127 Y86.4934
G01 X-0.1857 Y86.4701
G01 X-0.1718 Y86.4590
G01 X-0.0986 Y86.4044
G01 X-0.0695 Y86.3839
G01 X-0.0394 Y86.3649
G01 X0.0015 Y86.3403
G01 X-0.0394 Y86.3158
G01 X-0.0695 Y86.2967
G01 X-0.0986 Y86.2762
G01 X-0.1718 Y86.2216
G01 X-0.1993 Y86.1991
G01 X-0.2672 Y86.1378
G01 X-0.2930 Y86.1133
G01 X-0.3054 Y86.1006
G01 X-0.3669 Y86.0330
G01 X-0.3902 Y86.0060
G01 X-0.4121 Y85.9780
G01 X-0.4559 Y85.9189
G01 X-0.4764 Y85.8898
G01 X-0.4861 Y85.8749
G01 X-0.5423 Y85.7812
G01 X-0.5590 Y85.7498
G01 X-0.5668 Y85.7338
G01 X-0.6057 Y85.6511
G01 X-0.6193 Y85.6183
G01 X-0.6503 Y85.5323
G01 X-0.6615 Y85.4985
G01 X-0.6710 Y85.4642
G01 X-0.6889 Y85.3928
G01 X-0.6967 Y85.3581
G01 X-0.6999 Y85.3406
G01 X-0.7135 Y85.2502
G01 X-0.7179 Y85.2149
G01 X-0.7205 Y85.1794
G01 X-0.7248 Y85.0881
G01 X-0.7250 Y85.0703
G01 X-0.7241 Y85.0347
G01 X-0.7205 Y84.9612
G01 X-0.7179 Y84.9257
G01 X-0.7135 Y84.8904
G01 X-0.7027 Y84.8176
G01 X-0.6967 Y84.7826
G01 X-0.6930 Y84.7652
G01 X-0.6664 Y84.6592
G01 X-0.6615 Y84.6421
G01 X-0.6503 Y84.6084
G01 X-0.6255 Y84.5391
G01 X-0.6127 Y84.5059
G01 X-0.5983 Y84.4733
G01 X-0.5590 Y84.3908
G01 X-0.5423 Y84.3594
G01 X-0.5333 Y84.3440
G01 X-0.4955 Y84.2809
G01 X-0.4764 Y84.2509
G01 X-0.4559 Y84.2218
G01 X-0.4121 Y84.1626
G01 X-0.4013 Y84.1485
G01 X-0.3787 Y84.1210
G01 X-0.3175 Y84.0531
G01 X-0.2930 Y84.0273
G01 X-0.2672 Y84.0028
G01 X-0.2127 Y83.9534
G01 X-0.1857 Y83.9301
G01 X-0.1718 Y83.9190
G01 X-0.0986 Y83.8644
G01 X-0.0695 Y83.8439
G01 X-0.0394 Y83.8249
G01 X0.0015 Y83.8003
G01 X-0.0394 Y83.7758
G01 X-0.0695 Y83.7567
G01 X-0.0986 Y83.7362
G01 X-0.1718 Y83.6816
G01 X-0.1993 Y83.6591
G01 X-0.2672 Y83.5978
G01 X-0.2930 Y83.5733
G01 X-0.3054 Y83.5606
G01 X-0.3669 Y83.4930
G01 X-0.3902 Y83.4660
G01 X-0.4121 Y83.4380
G01 X-0.4559 Y83.3789
G01 X-0.4664 Y83.3645
G01 X-0.4861 Y83.3349
G01 X-0.5423 Y83.2412
G01 X-0.5590 Y83.2098
G01 X-0.5668 Y83.1938
G01 X-0.6057 Y83.1111
G01 X-0.6193 Y83.0783
G01 X-0.6503 Y82.9923
G01 X-0.6615 Y82.9585
G01 X-0.6710 Y82.9242
G01 X-0.6889 Y82.8528
G01 X-0.6930 Y82.8355
G01 X-0.6999 Y82.8006
G01 X-0.7135 Y82.7102
G01 X-0.7179 Y82.6749
G01 X-0.7205 Y82.6394
G01 X-0.7241 Y82.5659
G01 X-0.7248 Y82.5481
G01 X-0.7248 Y82.5125
G01 X-0.7194 Y82.4035
G01 X-0.7179 Y82.3857
G01 X-0.7135 Y82.3504
G01 X-0.7027 Y82.2776
G01 X-0.6967 Y82.2426
G01 X-0.6889 Y82.2078
G01 X-0.6710 Y82.1364
G01 X-0.6615 Y82.1021
G01 X-0.6561 Y82.0852
G01 X-0.6255 Y81.9991
G01 X-0.6127 Y81.9659
G01 X-0.5983 Y81.9333
G01 X-0.5668 Y81.8668
G01 X-0.5508 Y81.8350
G01 X-0.5423 Y81.8194
G01 X-0.4955 Y81.7409
G01 X-0.4764 Y81.7109
G01 X-0.4559 Y81.6818
G01 X-0.4121 Y81.6226
G01 X-0.3902 Y81.5946
G01 X-0.3787 Y81.5810
G01 X-0.3054 Y81.5001
G01 X-0.2802 Y81.4749
G01 X-0.2672 Y81.4628
G01 X-0.1993 Y81.4016
G01 X-0.1718 Y81.3790
G01 X-0.0986 Y81.3244
G01 X-0.0695 Y81.3039
G01 X-0.0394 Y81.2849
G01 X0.0015 Y81.2603
G01 X-0.0394 Y81.2358
G01 X-0.0695 Y81.2167
G01 X-0.0986 Y81.1962
G01 X-0.1718 Y81.1416
G01 X-0.1993 Y81.1191
G01 X-0.2672 Y81.0578
G01 X-0.2930 Y81.0333
G01 X-0.3054 Y81.0206
G01 X-0.3669 Y80.9530
G01 X-0.3902 Y80.9260
G01 X-0.4121 Y80.8980
G01 X-0.4559 Y80.8389
G01 X-0.4764 Y80.8098
G01 X-0.4861 Y80.7949
G01 X-0.5423 Y80.7012
G01 X-0.5508 Y80.6856
G01 X-0.5668 Y80.6538
G01 X-0.6057 Y80.5711
G01 X-0.6193 Y80.5383
G01 X-0.6503 Y80.4523
G01 X-0.6615 Y80.4185
G01 X-0.6710 Y80.3842
G01 X-0.6889 Y80.3128
G01 X-0.6967 Y80.2781
G01 X-0.6999 Y80.2606
G01 X-0.7135 Y80.1702
G01 X-0.7179 Y80.1349
G01 X-0.7205 Y80.0994
G01 X-0.7241 Y80.0259
G01 X-0.7250 Y79.9903
G01 X-0.7248 Y79.9725
G01 X-0.7194 Y79.8635
G01 X-0.7159 Y79.8281
G01 X-0.7135 Y79.8104
G01 X-0.7027 Y79.7376
G01 X-0.6967 Y79.7026
G01 X-0.6889 Y79.6678
G01 X-0.6710 Y79.5964
G01 X-0.6664 Y79.5792
G01 X-0.6561 Y79.5452
G01 X-0.6255 Y79.4591
G01 X-0.6127 Y79.4259
G01 X-0.5983 Y79.3933
G01 X-0.5668 Y79.3268
G01 X-0.5590 Y79.3108
G01 X-0.5423 Y79.2794
G01 X-0.4955 Y79.2009
G01 X-0.4764 Y79.1709
G01 X-0.4559 Y79.1418
G01 X-0.4121 Y79.0826
G01 X-0.4013 Y79.0685
G01 X-0.3787 Y79.0410
G01 X-0.3054 Y78.9601
G01 X-0.2930 Y78.9473
G01 X-0.2672 Y78.9228
G01 X-0.1993 Y78.8616
G01 X-0.1718 Y78.8390
G01 X-0.0986 Y78.7844
G01 X-0.0695 Y78.7639
G01 X-0.0394 Y78.7449
G01 X0.0015 Y78.7203
G01 X-0.0394 Y78.6958
G01 X-0.0695 Y78.6767
G01 X-0.0986 Y78.6562
G01 X-0.1718 Y78.6016
G01 X-0.1993 Y78.5791
G01 X-0.2672 Y78.5178
G01 X-0.2930 Y78.4933
G01 X-0.3054 Y78.4806
G01 X-0.3669 Y78.4130
G01 X-0.3902 Y78.3860
G01 X-0.4121 Y78.3580
G01 X-0.4559 Y78.2989
G01 X-0.4664 Y78.2845
G01 X-0.4861 Y78.2549
G01 X-0.5423 Y78.1612
G01 X-0.5590 Y78.1298
G01 X-0.5668 Y78.1138
G01 X-0.6057 Y78.0311
G01 X-0.6193 Y77.9983
G01 X-0.6503 Y77.9123
G01 X-0.6615 Y77.8785
G01 X-0.6710 Y77.8442
G01 X-0.6889 Y77.7728
G01 X-0.6930 Y77.7555
G01 X-0.6999 Y77.7206
G01 X-0.7135 Y77.6302
G01 X-0.7179 Y77.5949
G01 X-0.7205 Y77.5594
G01 X-0.7241 Y77.4859
G01 X-0.7248 Y77.4681
G01 X-0.7248 Y77.4325
G01 X-0.7194 Y77.3235
G01 X-0.7179 Y77.3057
G01 X-0.7135 Y77.2704
G01 X-0.7027 Y77.1976
G01 X-0.6967 Y77.1626
G01 X-0.6889 Y77.1278
G01 X-0.6710 Y77.0564
G01 X-0.6615 Y77.0221
G01 X-0.6561 Y77.0052
G01 X-0.6255 Y76.9191
G01 X-0.6127 Y76.8859
G01 X-0.5983 Y76.8533
G01 X-0.5668 Y76.7868
G01 X-0.5590 Y76.7708
G01 X-0.5423 Y76.7394
G01 X-0.4955 Y76.6609
G01 X-0.4764 Y76.6309
G01 X-0.4559 Y76.6018
G01 X-0.4121 Y76.5426
G01 X-0.4013 Y76.5285
G01 X-0.3787 Y76.5010
G01 X-0.3054 Y76.4201
G01 X-0.2930 Y76.4073
G01 X-0.2672 Y76.3828
G01 X-0.1993 Y76.3216
G01 X-0.1718 Y76.2990
G01 X-0.0986 Y76.2444
G01 X-0.0695 Y76.2239
G01 X-0.0394 Y76.2049
G01 X0.0015 Y76.1803
G01 X-0.0394 Y76.1558
G01 X-0.0695 Y76.1367
G01 X-0.0986 Y76.1162
G01 X-0.1718 Y76.0616
G01 X-0.1993 Y76.0391
G01 X-0.2672 Y75.9778
G01 X-0.2930 Y75.9533
G01 X-0.3054 Y75.9406
G01 X-0.3669 Y75.8730
G01 X-0.3902 Y75.8460
G01 X-0.4121 Y75.8180
G01 X-0.4559 Y75.7589
G01 X-0.4764 Y75.7298
G01 X-0.4861 Y75.7149
G01 X-0.5423 Y75.6212
G01 X-0.5508 Y75.6056
G01 X-0.5668 Y75.5738
G01 X-0.6057 Y75.4911
G01 X-0.6193 Y75.4583
G01 X-0.6503 Y75.3723
G01 X-0.6615 Y75.3385
G01 X-0.6710 Y75.3042
G01 X-0.6889 Y75.2328
G01 X-0.6967 Y75.1981
G01 X-0.6999 Y75.1806
G01 X-0.7135 Y75.0902
G01 X-0.7179 Y75.0549
G01 X-0.7205 Y75.0194
G01 X-0.7241 Y74.9459
G01 X-0.7248 Y74.9281
G01 X-0.7248 Y74.8925
G01 X-0.7194 Y74.7835
G01 X-0.7159 Y74.7481
G01 X-0.7135 Y74.7304
G01 X-0.7027 Y74.6576
G01 X-0.6967 Y74.6226
G01 X-0.6889 Y74.5878
G01 X-0.6710 Y74.5164
G01 X-0.6664 Y74.4992
G01 X-0.6561 Y74.4652
G01 X-0.6255 Y74.3791
G01 X-0.6127 Y74.3459
G01 X-0.5983 Y74.3133
G01 X-0.5668 Y74.2468
G01 X-0.5508 Y74.2150
G01 X-0.5423 Y74.1994
G01 X-0.4955 Y74.1209
G01 X-0.4764 Y74.0909
G01 X-0.4559 Y74.0618
G01 X-0.4121 Y74.0026
G01 X-0.4013 Y73.9885
G01 X-0.3787 Y73.9610
G01 X-0.3054 Y73.8801
G01 X-0.2930 Y73.8673
G01 X-0.2672 Y73.8428
G01 X-0.1993 Y73.7816
G01 X-0.1718 Y73.7590
G01 X-0.0986 Y73.7044
G01 X-0.0695 Y73.6839
G01 X-0.0394 Y73.6649
G01 X0.0015 Y73.6403
G01 X-0.0394 Y73.6158
G01 X-0.0695 Y73.5967
G01 X-0.0986 Y73.5762
G01 X-0.1718 Y73.5216
G01 X-0.1993 Y73.4991
G01 X-0.2672 Y73.4378
G01 X-0.2930 Y73.4133
G01 X-0.3054 Y73.4006
G01 X-0.3669 Y73.3330
G01 X-0.3902 Y73.3060
G01 X-0.4121 Y73.2780
G01 X-0.4559 Y73.2189
G01 X-0.4764 Y73.1898
G01 X-0.4861 Y73.1749
G01 X-0.5423 Y73.0812
G01 X-0.5590 Y73.0498
G01 X-0.5668 Y73.0338
G01 X-0.6057 Y72.9511
G01 X-0.6193 Y72.9183
G01 X-0.6503 Y72.8323
G01 X-0.6615 Y72.7985
G01 X-0.6710 Y72.7642
G01 X-0.6889 Y72.6928
G01 X-0.6930 Y72.6755
G01 X-0.6999 Y72.6406
G01 X-0.7135 Y72.5502
G01 X-0.7179 Y72.5149
G01 X-0.7205 Y72.4794
G01 X-0.7241 Y72.4059
G01 X-0.7248 Y72.3881
G01 X-0.7248 Y72.3525
G01 X-0.7194 Y72.2435
G01 X-0.7179 Y72.2257
G01 X-0.7135 Y72.1904
G01 X-0.7027 Y72.1176
G01 X-0.6967 Y72.0826
G01 X-0.6889 Y72.0478
G01 X-0.6710 Y71.9764
G01 X-0.6615 Y71.9421
G01 X-0.6561 Y71.9252
G01 X-0.6255 Y71.8391
G01 X-0.6127 Y71.8059
G01 X-0.5983 Y71.7733
G01 X-0.5668 Y71.7068
G01 X-0.5590 Y71.6908
G01 X-0.5423 Y71.6594
G01 X-0.4955 Y71.5809
G01 X-0.4764 Y71.5509
G01 X-0.4559 Y71.5218
G01 X-0.4121 Y71.4626
G01 X-0.4013 Y71.4485
G01 X-0.3787 Y71.4210
G01 X-0.3054 Y71.3401
G01 X-0.2930 Y71.3273
G01 X-0.2672 Y71.3028
G01 X-0.1993 Y71.2416
G01 X-0.1718 Y71.2190
G01 X-0.0986 Y71.1644
G01 X-0.0695 Y71.1439
G01 X-0.0394 Y71.1249
G01 X0.0015 Y71.1003
G01 X-0.0394 Y71.0758
G01 X-0.0695 Y71.0567
G01 X-0.0986 Y71.0362
G01 X-0.1718 Y70.9816
G01 X-0.1993 Y70.9591
G01 X-0.2672 Y70.8978
G01 X-0.2930 Y70.8733
G01 X-0.3054 Y70.8606
G01 X-0.3669 Y70.7930
G01 X-0.3902 Y70.7660
G01 X-0.4121 Y70.7380
G01 X-0.4559 Y70.6789
G01 X-0.4764 Y70.6498
G01 X-0.4861 Y70.6349
G01 X-0.5423 Y70.5412
G01 X-0.5590 Y70.5098
G01 X-0.5668 Y70.4938
G01 X-0.6057 Y70.4111
G01 X-0.6193 Y70.3783
G01 X-0.6503 Y70.2923
G01 X-0.6615 Y70.2585
G01 X-0.6710 Y70.2242
G01 X-0.6889 Y70.1528
G01 X-0.6967 Y70.1181
G01 X-0.6999 Y70.1006
G01 X-0.7135 Y70.0102
G01 X-0.7179 Y69.9749
G01 X-0.7205 Y69.9394
G01 X-0.7241 Y69.8659
G01 X-0.7248 Y69.8481
G01 X-0.7248 Y69.8125
G01 X-0.7194 Y69.7035
G01 X-0.7159 Y69.6681
G01 X-0.7135 Y69.6504
G01 X-0.7027 Y69.5776
G01 X-0.6967 Y69.5426
G01 X-0.6889 Y69.5078
G01 X-0.6710 Y69.4364
G01 X-0.6615 Y69.4021
G01 X-0.6561 Y69.3852
G01 X-0.6255 Y69.2991
G01 X-0.6127 Y69.2659
G01 X-0.5983 Y69.2333
G01 X-0.5668 Y69.1668
G01 X-0.5508 Y69.1350
G01 X-0.5423 Y69.1194
G01 X-0.4955 Y69.0409
G01 X-0.4764 Y69.0109
G01 X-0.4559 Y68.9818
G01 X-0.4121 Y68.9226
G01 X-0.4013 Y68.9085
G01 X-0.3787 Y68.8810
G01 X-0.3054 Y68.8001
G01 X-0.2930 Y68.7873
G01 X-0.2672 Y68.7628
G01 X-0.1993 Y68.7016
G01 X-0.1718 Y68.6790
G01 X-0.0986 Y68.6244
G01 X-0.0695 Y68.6039
G01 X-0.0394 Y68.5849
G01 X0.0015 Y68.5603
G01 X-0.0394 Y68.5358
G01 X-0.0695 Y68.5167
G01 X-0.0986 Y68.4962
G01 X-0.1718 Y68.4416
G01 X-0.1993 Y68.4191
G01 X-0.2672 Y68.3578
G01 X-0.2930 Y68.3333
G01 X-0.3054 Y68.3206
G01 X-0.3669 Y68.2530
G01 X-0.3902 Y68.2260
G01 X-0.4121 Y68.1980
G01 X-0.4559 Y68.1389
G01 X-0.4764 Y68.1098
G01 X-0.4861 Y68.0949
G01 X-0.5423 Y68.0012
G01 X-0.5590 Y67.9698
G01 X-0.5668 Y67.9538
G01 X-0.6057 Y67.8711
G01 X-0.6193 Y67.8383
G01 X-0.6503 Y67.7523
G01 X-0.6615 Y67.7185
G01 X-0.6710 Y67.6842
G01 X-0.6889 Y67.6128
G01 X-0.6930 Y67.5955
G01 X-0.6999 Y67.5606
G01 X-0.7135 Y67.4702
G01 X-0.7179 Y67.4349
G01 X-0.7205 Y67.3994
G01 X-0.7241 Y67.3259
G01 X-0.7248 Y67.3081
G01 X-0.7248 Y67.2725
G01 X-0.7194 Y67.1635
G01 X-0.7179 Y67.1457
G01 X-0.7135 Y67.1104
G01 X-0.7027 Y67.0376
G01 X-0.6967 Y67.0026
G01 X-0.6889 Y66.9678
G01 X-0.6710 Y66.8964
G01 X-0.6615 Y66.8621
G01 X-0.6561 Y66.8452
G01 X-0.6255 Y66.7591
G01 X-0.6127 Y66.7259
G01 X-0.5983 Y66.6933
G01 X-0.5668 Y66.6268
G01 X-0.5590 Y66.6108
G01 X-0.5423 Y66.5794
G01 X-0.4955 Y66.5009
G01 X-0.4764 Y66.4709
G01 X-0.4559 Y66.4418
G01 X-0.4121 Y66.3826
G01 X-0.4013 Y66.3685
G01 X-0.3787 Y66.3410
G01 X-0.3054 Y66.2601
G01 X-0.2930 Y66.2473
G01 X-0.2672 Y66.2228
G01 X-0.1993 Y66.1616
G01 X-0.1718 Y66.1390
G01 X-0.0986 Y66.0844
G01 X-0.0695 Y66.0639
G01 X-0.0394 Y66.0449
G01 X0.0015 Y66.0203
G01 X-0.0394 Y65.9958
G01 X-0.0695 Y65.9767
G01 X-0.0986 Y65.9562
G01 X-0.1718 Y65.9016
G01 X-0.1993 Y65.8791
G01 X-0.2672 Y65.8178
G01 X-0.2930 Y65.7933
G01 X-0.3054 Y65.7806
G01 X-0.3669 Y65.7130
G01 X-0.3902 Y65.6860
G01 X-0.4121 Y65.6580
G01 X-0.4559 Y65.5989
G01 X-0.4764 Y65.5698
G01 X-0.4861 Y65.5549
G01 X-0.5423 Y65.4612
G01 X-0.5590 Y65.4298
G01 X-0.5668 Y65.4138
G01 X-0.6057 Y65.3311
G01 X-0.6193 Y65.2983
G01 X-0.6503 Y65.2123
G01 X-0.6615 Y65.1785
G01 X-0.6710 Y65.1442
G01 X-0.6889 Y65.0728
G01 X-0.6930 Y65.0555
G01 X-0.6999 Y65.0206
G01 X-0.7135 Y64.9302
G01 X-0.7179 Y64.8949
G01 X-0.7205 Y64.8594
G01 X-0.7241 Y64.7859
G01 X-0.7248 Y64.7681
G01 X-0.7248 Y64.7325
G01 X-0.7194 Y64.6235
G01 X-0.7159 Y64.5881
G01 X-0.7135 Y64.5704
G01 X-0.7027 Y64.4976
G01 X-0.6967 Y64.4626
G01 X-0.6889 Y64.4278
G01 X-0.6710 Y64.3564
G01 X-0.6615 Y64.3221
G01 X-0.6561 Y64.3052
G01 X-0.6255 Y64.2191
G01 X-0.6127 Y64.1859
G01 X-0.5983 Y64.1533
G01 X-0.5668 Y64.0868
G01 X-0.5508 Y64.0550
G01 X-0.5423 Y64.0394
G01 X-0.4955 Y63.9609
G01 X-0.4764 Y63.9309
G01 X-0.4559 Y63.9018
G01 X-0.4121 Y63.8426
G01 X-0.3902 Y63.8146
G01 X-0.3787 Y63.8010
G01 X-0.3054 Y63.7201
G01 X-0.2802 Y63.6949
G01 X-0.2672 Y63.6828
G01 X-0.1993 Y63.6216
G01 X-0.1718 Y63.5990
G01 X-0.0986 Y63.5444
G01 X-0.0695 Y63.5239
G01 X-0.0394 Y63.5049
G01 X0.0015 Y63.4803
G01 X-0.0394 Y63.4558
G01 X-0.0695 Y63.4367
G01 X-0.0986 Y63.4162
G01 X-0.1718 Y63.3616
G01 X-0.1993 Y63.3391
G01 X-0.2672 Y63.2778
G01 X-0.2930 Y63.2533
G01 X-0.3054 Y63.2406
G01 X-0.3669 Y63.1730
G01 X-0.3902 Y63.1460
G01 X-0.4121 Y63.1180
G01 X-0.4559 Y63.0589
G01 X-0.4664 Y63.0445
G01 X-0.4861 Y63.0149
G01 X-0.5423 Y62.9212
G01 X-0.5590 Y62.8898
G01 X-0.5668 Y62.8738
G01 X-0.5983 Y62.8073
G01 X-0.6127 Y62.7748
G01 X-0.6255 Y62.7416
G01 X-0.6561 Y62.6555
G01 X-0.6615 Y62.6385
G01 X-0.6710 Y62.6042
G01 X-0.6889 Y62.5328
G01 X-0.6967 Y62.4981
G01 X-0.7027 Y62.4630
G01 X-0.7135 Y62.3902
G01 X-0.7179 Y62.3549
G01 X-0.7194 Y62.3372
G01 X-0.7241 Y62.2459
G01 X-0.7250 Y62.2103
G01 X-0.7241 Y62.1747
G01 X-0.7194 Y62.0835
G01 X-0.7179 Y62.0657
G01 X-0.7135 Y62.0304
G01 X-0.7027 Y61.9576
G01 X-0.6967 Y61.9226
G01 X-0.6889 Y61.8878
G01 X-0.6710 Y61.8164
G01 X-0.6615 Y61.7821
G01 X-0.6561 Y61.7652
G01 X-0.6255 Y61.6791
G01 X-0.6127 Y61.6459
G01 X-0.5983 Y61.6133
G01 X-0.5668 Y61.5468
G01 X-0.5508 Y61.5150
G01 X-0.5423 Y61.4994
G01 X-0.4955 Y61.4209
G01 X-0.4764 Y61.3909
G01 X-0.4559 Y61.3618
G01 X-0.4121 Y61.3026
G01 X-0.4013 Y61.2885
G01 X-0.3787 Y61.2610
G01 X-0.3054 Y61.1801
G01 X-0.2802 Y61.1549
G01 X-0.2672 Y61.1428
G01 X-0.1993 Y61.0816
G01 X-0.1718 Y61.0590
G01 X-0.0986 Y61.0044
G01 X-0.0695 Y60.9839
G01 X-0.0394 Y60.9649
G01 X0.0015 Y60.9403
G01 X-0.0394 Y60.9158
G01 X-0.0695 Y60.8967
G01 X-0.0986 Y60.8762
G01 X-0.1718 Y60.8216
G01 X-0.1993 Y60.7991
G01 X-0.2672 Y60.7378
G01 X-0.2802 Y60.7257
G01 X-0.3054 Y60.7006
G01 X-0.3669 Y60.6330
G01 X-0.3902 Y60.6060
G01 X-0.4121 Y60.5780
G01 X-0.4559 Y60.5189
G01 X-0.4664 Y60.5045
G01 X-0.4861 Y60.4749
G01 X-0.5423 Y60.3812
G01 X-0.5508 Y60.3656
G01 X-0.5668 Y60.3338
G01 X-0.5983 Y60.2673
G01 X-0.6127 Y60.2348
G01 X-0.6255 Y60.2016
G01 X-0.6561 Y60.1155
G01 X-0.6615 Y60.0985
G01 X-0.6710 Y60.0642
G01 X-0.6889 Y59.9928
G01 X-0.6967 Y59.9581
G01 X-0.7027 Y59.9230
G01 X-0.7135 Y59.8502
G01 X-0.7179 Y59.8149
G01 X-0.7194 Y59.7972
G01 X-0.7241 Y59.7059
G01 X-0.7250 Y59.6703
G01 X-0.7241 Y59.6347
G01 X-0.7194 Y59.5435
G01 X-0.7159 Y59.5081
G01 X-0.7135 Y59.4904
G01 X-0.7027 Y59.4176
G01 X-0.6967 Y59.3826
G01 X-0.6889 Y59.3478
G01 X-0.6710 Y59.2764
G01 X-0.6615 Y59.2421
G01 X-0.6561 Y59.2252
G01 X-0.6255 Y59.1391
G01 X-0.6127 Y59.1059
G01 X-0.5983 Y59.0733
G01 X-0.5668 Y59.0068
G01 X-0.5508 Y58.9750
G01 X-0.5423 Y58.9594
G01 X-0.4955 Y58.8809
G01 X-0.4764 Y58.8509
G01 X-0.4559 Y58.8218
G01 X-0.4121 Y58.7626
G01 X-0.3902 Y58.7346
G01 X-0.3787 Y58.7210
G01 X-0.3054 Y58.6401
G01 X-0.2802 Y58.6149
G01 X-0.2672 Y58.6028
G01 X-0.1993 Y58.5416
G01 X-0.1718 Y58.5190
G01 X-0.0986 Y58.4644
G01 X-0.0695 Y58.4439
G01 X-0.0394 Y58.4249
G01 X0.0015 Y58.4003
G01 X-0.0394 Y58.3758
G01 X-0.0695 Y58.3567
G01 X-0.0986 Y58.3362
G01 X-0.1718 Y58.2816
G01 X-0.1993 Y58.2591
G01 X-0.2672 Y58.1978
G01 X-0.2930 Y58.1733
G01 X-0.3054 Y58.1606
G01 X-0.3669 Y58.0930
G01 X-0.3902 Y58.0660
G01 X-0.4121 Y58.0380
G01 X-0.4559 Y57.9789
G01 X-0.4764 Y57.9498
G01 X-0.4861 Y57.9349
G01 X-0.5423 Y57.8412
G01 X-0.5590 Y57.8098
G01 X-0.5668 Y57.7938
G01 X-0.5983 Y57.7273
G01 X-0.6127 Y57.6948
G01 X-0.6255 Y57.6616
G01 X-0.6561 Y57.5755
G01 X-0.6664 Y57.5414
G01 X-0.6710 Y57.5242
G01 X-0.6889 Y57.4528
G01 X-0.6967 Y57.4181
G01 X-0.7027 Y57.3830
G01 X-0.7135 Y57.3102
G01 X-0.7159 Y57.2926
G01 X-0.7194 Y57.2572
G01 X-0.7241 Y57.1659
G01 X-0.7250 Y57.1303
G01 X-0.7241 Y57.0947
G01 X-0.7194 Y57.0035
G01 X-0.7179 Y56.9857
G01 X-0.7135 Y56.9504
G01 X-0.7027 Y56.8776
G01 X-0.6967 Y56.8426
G01 X-0.6889 Y56.8078
G01 X-0.6710 Y56.7364
G01 X-0.6664 Y56.7192
G01 X-0.6561 Y56.6852
G01 X-0.6255 Y56.5991
G01 X-0.6127 Y56.5659
G01 X-0.5983 Y56.5333
G01 X-0.5668 Y56.4668
G01 X-0.5508 Y56.4350
G01 X-0.5423 Y56.4194
G01 X-0.4955 Y56.3409
G01 X-0.4764 Y56.3109
G01 X-0.4559 Y56.2818
G01 X-0.4121 Y56.2226
G01 X-0.4013 Y56.2085
G01 X-0.3787 Y56.1810
G01 X-0.3054 Y56.1001
G01 X-0.2802 Y56.0749
G01 X-0.2672 Y56.0628
G01 X-0.1993 Y56.0016
G01 X-0.1718 Y55.9790
G01 X-0.0986 Y55.9244
G01 X-0.0695 Y55.9039
G01 X-0.0394 Y55.8849
G01 X0.0015 Y55.8603
G01 X-0.0394 Y55.8358
G01 X-0.0695 Y55.8167
G01 X-0.0986 Y55.7962
G01 X-0.1718 Y55.7416
G01 X-0.1993 Y55.7191
G01 X-0.2672 Y55.6578
G01 X-0.2802 Y55.6457
G01 X-0.3054 Y55.6206
G01 X-0.3669 Y55.5530
G01 X-0.3902 Y55.5260
G01 X-0.4121 Y55.4980
G01 X-0.4559 Y55.4389
G01 X-0.4664 Y55.4245
G01 X-0.4861 Y55.3949
G01 X-0.5423 Y55.3012
G01 X-0.5508 Y55.2856
G01 X-0.5668 Y55.2538
G01 X-0.5983 Y55.1873
G01 X-0.6127 Y55.1548
G01 X-0.6255 Y55.1216
G01 X-0.6561 Y55.0355
G01 X-0.6615 Y55.0185
G01 X-0.6710 Y54.9842
G01 X-0.6889 Y54.9128
G01 X-0.6967 Y54.8781
G01 X-0.7027 Y54.8430
G01 X-0.7135 Y54.7702
G01 X-0.7159 Y54.7526
G01 X-0.7194 Y54.7172
G01 X-0.7241 Y54.6259
G01 X-0.7250 Y54.5903
G01 X-0.7241 Y54.5547
G01 X-0.7194 Y54.4635
G01 X-0.7159 Y54.4281
G01 X-0.7135 Y54.4104
G01 X-0.7027 Y54.3376
G01 X-0.6967 Y54.3026
G01 X-0.6889 Y54.2678
G01 X-0.6710 Y54.1964
G01 X-0.6615 Y54.1621
G01 X-0.6561 Y54.1452
G01 X-0.6255 Y54.0591
G01 X-0.6127 Y54.0259
G01 X-0.5983 Y53.9933
G01 X-0.5668 Y53.9268
G01 X-0.5508 Y53.8950
G01 X-0.5423 Y53.8794
G01 X-0.4955 Y53.8009
G01 X-0.4764 Y53.7709
G01 X-0.4559 Y53.7418
G01 X-0.4121 Y53.6826
G01 X-0.4013 Y53.6685
G01 X-0.3787 Y53.6410
G01 X-0.3054 Y53.5601
G01 X-0.2930 Y53.5473
G01 X-0.2672 Y53.5228
G01 X-0.1993 Y53.4616
G01 X-0.1718 Y53.4390
G01 X-0.0986 Y53.3844
G01 X-0.0695 Y53.3639
G01 X-0.0394 Y53.3449
G01 X0.0015 Y53.3203
G01 X-0.0394 Y53.2958
G01 X-0.0695 Y53.2767
G01 X-0.0986 Y53.2562
G01 X-0.1718 Y53.2016
G01 X-0.1993 Y53.1791
G01 X-0.2672 Y53.1178
G01 X-0.2930 Y53.0933
G01 X-0.3054 Y53.0806
G01 X-0.3669 Y53.0130
G01 X-0.3902 Y52.9860
G01 X-0.4121 Y52.9580
G01 X-0.4559 Y52.8989
G01 X-0.4764 Y52.8698
G01 X-0.4861 Y52.8549
G01 X-0.5423 Y52.7612
G01 X-0.5590 Y52.7298
G01 X-0.5668 Y52.7138
G01 X-0.5983 Y52.6473
G01 X-0.6127 Y52.6148
G01 X-0.6255 Y52.5816
G01 X-0.6561 Y52.4955
G01 X-0.6615 Y52.4785
G01 X-0.6710 Y52.4442
G01 X-0.6889 Y52.3728
G01 X-0.6967 Y52.3381
G01 X-0.7027 Y52.3030
G01 X-0.7135 Y52.2302
G01 X-0.7179 Y52.1949
G01 X-0.7194 Y52.1772
G01 X-0.7241 Y52.0859
G01 X-0.7250 Y52.0503
G01 X-0.7241 Y52.0147
G01 X-0.7194 Y51.9235
G01 X-0.7179 Y51.9057
G01 X-0.7135 Y51.8704
G01 X-0.7027 Y51.7976
G01 X-0.6967 Y51.7626
G01 X-0.6889 Y51.7278
G01 X-0.6710 Y51.6564
G01 X-0.6664 Y51.6392
G01 X-0.6561 Y51.6052
G01 X-0.6255 Y51.5191
G01 X-0.6127 Y51.4859
G01 X-0.5983 Y51.4533
G01 X-0.5668 Y51.3868
G01 X-0.5508 Y51.3550
G01 X-0.5423 Y51.3394
G01 X-0.4955 Y51.2609
G01 X-0.4764 Y51.2309
G01 X-0.4559 Y51.2018
G01 X-0.4121 Y51.1426
G01 X-0.4013 Y51.1285
G01 X-0.3787 Y51.1010
G01 X-0.3054 Y51.0201
G01 X-0.2802 Y50.9949
G01 X-0.2672 Y50.9828
G01 X-0.1993 Y50.9216
G01 X-0.1718 Y50.8990
G01 X-0.0986 Y50.8444
G01 X-0.0695 Y50.8239
G01 X-0.0394 Y50.8049
G01 X0.0015 Y50.7803
G01 X-0.0394 Y50.7558
G01 X-0.0695 Y50.7367
G01 X-0.0986 Y50.7162
G01 X-0.1718 Y50.6616
G01 X-0.1993 Y50.6391
G01 X-0.2672 Y50.5778
G01 X-0.2802 Y50.5657
G01 X-0.3054 Y50.5406
G01 X-0.3669 Y50.4730
G01 X-0.3902 Y50.4460
G01 X-0.4121 Y50.4180
G01 X-0.4559 Y50.3589
G01 X-0.4664 Y50.3445
G01 X-0.4861 Y50.3149
G01 X-0.5423 Y50.2212
G01 X-0.5590 Y50.1898
G01 X-0.5668 Y50.1738
G01 X-0.5983 Y50.1073
G01 X-0.6127 Y50.0748
G01 X-0.6255 Y50.0416
G01 X-0.6561 Y49.9555
G01 X-0.6615 Y49.9385
G01 X-0.6710 Y49.9042
G01 X-0.6889 Y49.8328
G01 X-0.6967 Y49.7981
G01 X-0.7027 Y49.7630
G01 X-0.7135 Y49.6902
G01 X-0.7159 Y49.6726
G01 X-0.7194 Y49.6372
G01 X-0.7241 Y49.5459
G01 X-0.7250 Y49.5103
G01 X-0.7241 Y49.4747
G01 X-0.7194 Y49.3835
G01 X-0.7159 Y49.3481
G01 X-0.7135 Y49.3304
G01 X-0.7027 Y49.2576
G01 X-0.6967 Y49.2226
G01 X-0.6889 Y49.1878
G01 X-0.6710 Y49.1164
G01 X-0.6615 Y49.0821
G01 X-0.6561 Y49.0652
G01 X-0.6255 Y48.9791
G01 X-0.6127 Y48.9459
G01 X-0.5983 Y48.9133
G01 X-0.5668 Y48.8468
G01 X-0.5508 Y48.8150
G01 X-0.5423 Y48.7994
G01 X-0.4955 Y48.7209
G01 X-0.4764 Y48.6909
G01 X-0.4559 Y48.6618
G01 X-0.4121 Y48.6026
G01 X-0.4013 Y48.5885
G01 X-0.3787 Y48.5610
G01 X-0.3054 Y48.4801
G01 X-0.2930 Y48.4673
G01 X-0.2672 Y48.4428
G01 X-0.1993 Y48.3816
G01 X-0.1718 Y48.3590
G01 X-0.0986 Y48.3044
G01 X-0.0695 Y48.2839
G01 X-0.0394 Y48.2649
G01 X0.0015 Y48.2403
G01 X-0.0394 Y48.2158
G01 X-0.0695 Y48.1967
G01 X-0.0986 Y48.1762
G01 X-0.1718 Y48.1216
G01 X-0.1993 Y48.0991
G01 X-0.2672 Y48.0378
G01 X-0.2930 Y48.0133
G01 X-0.3054 Y48.0006
G01 X-0.3669 Y47.9330
G01 X-0.3902 Y47.9060
G01 X-0.4121 Y47.8780
G01 X-0.4559 Y47.8189
G01 X-0.4664 Y47.8045
G01 X-0.4861 Y47.7749
G01 X-0.5423 Y47.6812
G01 X-0.5590 Y47.6498
G01 X-0.5668 Y47.6338
G01 X-0.5983 Y47.5673
G01 X-0.6127 Y47.5348
G01 X-0.6255 Y47.5016
G01 X-0.6561 Y47.4155
G01 X-0.6664 Y47.3814
G01 X-0.6710 Y47.3642
G01 X-0.6889 Y47.2928
G01 X-0.6967 Y47.2581
G01 X-0.7027 Y47.2230
G01 X-0.7135 Y47.1502
G01 X-0.7179 Y47.1149
G01 X-0.7194 Y47.0972
G01 X-0.7241 Y47.0059
G01 X-0.7250 Y46.9703
G01 X-0.7241 Y46.9347
G01 X-0.7194 Y46.8435
G01 X-0.7159 Y46.8081
G01 X-0.7135 Y46.7904
G01 X-0.7027 Y46.7176
G01 X-0.6967 Y46.6826
G01 X-0.6889 Y46.6478
G01 X-0.6710 Y46.5764
G01 X-0.6615 Y46.5421
G01 X-0.6561 Y46.5252
G01 X-0.6255 Y46.4391
G01 X-0.6127 Y46.4059
G01 X-0.5983 Y46.3733
G01 X-0.5668 Y46.3068
G01 X-0.5508 Y46.2750
G01 X-0.5423 Y46.2594
G01 X-0.4955 Y46.1809
G01 X-0.4764 Y46.1509
G01 X-0.4559 Y46.1218
G01 X-0.4121 Y46.0626
G01 X-0.4013 Y46.0485
G01 X-0.3787 Y46.0210
G01 X-0.3054 Y45.9401
G01 X-0.2802 Y45.9149
G01 X-0.2672 Y45.9028
G01 X-0.1993 Y45.8416
G01 X-0.1718 Y45.8190
G01 X-0.0986 Y45.7644
G01 X-0.0695 Y45.7439
G01 X-0.0394 Y45.7249
G01 X0.0015 Y45.7003
G01 X-0.0394 Y45.6758
G01 X-0.0695 Y45.6567
G01 X-0.0986 Y45.6362
G01 X-0.1718 Y45.5816
G01 X-0.1993 Y45.5591
G01 X-0.2672 Y45.4978
G01 X-0.2802 Y45.4857
G01 X-0.3054 Y45.4606
G01 X-0.3669 Y45.3930
G01 X-0.3902 Y45.3660
G01 X-0.4121 Y45.3380
G01 X-0.4559 Y45.2789
G01 X-0.4664 Y45.2645
G01 X-0.4861 Y45.2349
G01 X-0.5423 Y45.1412
G01 X-0.5590 Y45.1098
G01 X-0.5668 Y45.0938
G01 X-0.5983 Y45.0273
G01 X-0.6127 Y44.9948
G01 X-0.6255 Y44.9616
G01 X-0.6561 Y44.8755
G01 X-0.6615 Y44.8585
G01 X-0.6710 Y44.8242
G01 X-0.6889 Y44.7528
G01 X-0.6967 Y44.7181
G01 X-0.7027 Y44.6830
G01 X-0.7135 Y44.6102
G01 X-0.7179 Y44.5749
G01 X-0.7194 Y44.5572
G01 X-0.7241 Y44.4659
G01 X-0.7250 Y44.4303
G01 X-0.7241 Y44.3947
G01 X-0.7194 Y44.3035
G01 X-0.7159 Y44.2681
G01 X-0.7135 Y44.2504
G01 X-0.7027 Y44.1776
G01 X-0.6967 Y44.1426
G01 X-0.6889 Y44.1078
G01 X-0.6710 Y44.0364
G01 X-0.6664 Y44.0192
G01 X-0.6561 Y43.9852
G01 X-0.6255 Y43.8991
G01 X-0.6127 Y43.8659
G01 X-0.5983 Y43.8333
G01 X-0.5668 Y43.7668
G01 X-0.5508 Y43.7350
G01 X-0.5423 Y43.7194
G01 X-0.4955 Y43.6409
G01 X-0.4764 Y43.6109
G01 X-0.4559 Y43.5818
G01 X-0.4121 Y43.5226
G01 X-0.4013 Y43.5085
G01 X-0.3787 Y43.4810
G01 X-0.3054 Y43.4001
G01 X-0.2802 Y43.3749
G01 X-0.2672 Y43.3628
G01 X-0.1993 Y43.3016
G01 X-0.1718 Y43.2790
G01 X-0.0986 Y43.2244
G01 X-0.0695 Y43.2039
G01 X-0.0394 Y43.1849
G01 X0.0015 Y43.1603
G01 X-0.0394 Y43.1358
G01 X-0.0695 Y43.1167
G01 X-0.0986 Y43.0962
G01 X-0.1718 Y43.0416
G01 X-0.1993 Y43.0191
G01 X-0.2672 Y42.9578
G01 X-0.2930 Y42.9333
G01 X-0.3054 Y42.9206
G01 X-0.3669 Y42.8530
G01 X-0.3902 Y42.8260
G01 X-0.4121 Y42.7980
G01 X-0.4559 Y42.7389
G01 X-0.4664 Y42.7245
G01 X-0.4861 Y42.6949
G01 X-0.5423 Y42.6012
G01 X-0.5508 Y42.5856
G01 X-0.5668 Y42.5538
G01 X-0.5983 Y42.4873
G01 X-0.6127 Y42.4548
G01 X-0.6255 Y42.4216
G01 X-0.6561 Y42.3355
G01 X-0.6615 Y42.3185
G01 X-0.6710 Y42.2842
G01 X-0.6889 Y42.2128
G01 X-0.6967 Y42.1781
G01 X-0.7027 Y42.1430
G01 X-0.7135 Y42.0702
G01 X-0.7179 Y42.0349
G01 X-0.7194 Y42.0172
G01 X-0.7241 Y41.9259
G01 X-0.7250 Y41.8903
G01 X-0.7241 Y41.8547
G01 X-0.7194 Y41.7635
G01 X-0.7159 Y41.7281
G01 X-0.7135 Y41.7104
G01 X-0.7027 Y41.6376
G01 X-0.6967 Y41.6026
G01 X-0.6889 Y41.5678
G01 X-0.6710 Y41.4964
G01 X-0.6615 Y41.4621
G01 X-0.6561 Y41.4452
G01 X-0.6255 Y41.3591
G01 X-0.6127 Y41.3259
G01 X-0.5983 Y41.2933
G01 X-0.5668 Y41.2268
G01 X-0.5508 Y41.1950
G01 X-0.5423 Y41.1794
G01 X-0.4955 Y41.1009
G01 X-0.4764 Y41.0709
G01 X-0.4559 Y41.0418
G01 X-0.4121 Y40.9826
G01 X-0.3902 Y40.9546
G01 X-0.3787 Y40.9410
G01 X-0.3054 Y40.8601
G01 X-0.2802 Y40.8349
G01 X-0.2672 Y40.8228
G01 X-0.1993 Y40.7616
G01 X-0.1718 Y40.7390
G01 X-0.0986 Y40.6844
G01 X-0.0695 Y40.6639
G01 X-0.0394 Y40.6449
G01 X0.0015 Y40.6203
G01 X-0.0394 Y40.5958
G01 X-0.0695 Y40.5767
G01 X-0.0986 Y40.5562
G01 X-0.1718 Y40.5016
G01 X-0.1993 Y40.4791
G01 X-0.2672 Y40.4178
G01 X-0.2930 Y40.3933
G01 X-0.3054 Y40.3806
G01 X-0.3669 Y40.3130
G01 X-0.3902 Y40.2860
G01 X-0.4121 Y40.2580
G01 X-0.4559 Y40.1989
G01 X-0.4764 Y40.1698
G01 X-0.4861 Y40.1549
G01 X-0.5423 Y40.0612
G01 X-0.5590 Y40.0298
G01 X-0.5668 Y40.0138
G01 X-0.5983 Y39.9473
G01 X-0.6127 Y39.9148
G01 X-0.6255 Y39.8816
G01 X-0.6561 Y39.7955
G01 X-0.6615 Y39.7785
G01 X-0.6710 Y39.7442
G01 X-0.6889 Y39.6728
G01 X-0.6967 Y39.6381
G01 X-0.7027 Y39.6030
G01 X-0.7135 Y39.5302
G01 X-0.7179 Y39.4949
G01 X-0.7194 Y39.4772
G01 X-0.7241 Y39.3859
G01 X-0.7250 Y39.3503
G01 X-0.7241 Y39.3147
G01 X-0.7194 Y39.2235
G01 X-0.7179 Y39.2057
G01 X-0.7135 Y39.1704
G01 X-0.7027 Y39.0976
G01 X-0.6967 Y39.0626
G01 X-0.6889 Y39.0278
G01 X-0.6710 Y38.9564
G01 X-0.6615 Y38.9221
G01 X-0.6561 Y38.9052
G01 X-0.6255 Y38.8191
G01 X-0.6127 Y38.7859
G01 X-0.5983 Y38.7533
G01 X-0.5668 Y38.6868
G01 X-0.5508 Y38.6550
G01 X-0.5423 Y38.6394
G01 X-0.4955 Y38.5609
G01 X-0.4764 Y38.5309
G01 X-0.4559 Y38.5018
G01 X-0.4121 Y38.4426
G01 X-0.4013 Y38.4285
G01 X-0.3787 Y38.4010
G01 X-0.3054 Y38.3201
G01 X-0.2802 Y38.2949
G01 X-0.2672 Y38.2828
G01 X-0.1993 Y38.2216
G01 X-0.1718 Y38.1990
G01 X-0.0986 Y38.1444
G01 X-0.0695 Y38.1239
G01 X-0.0394 Y38.1049
G01 X0.0015 Y38.0803
G01 X-0.0394 Y38.0558
G01 X-0.0695 Y38.0367
G01 X-0.0986 Y38.0162
G01 X-0.1718 Y37.9616
G01 X-0.1993 Y37.9391
G01 X-0.2672 Y37.8778
G01 X-0.2802 Y37.8657
G01 X-0.3054 Y37.8406
G01 X-0.3669 Y37.7730
G01 X-0.3902 Y37.7460
G01 X-0.4121 Y37.7180
G01 X-0.4559 Y37.6589
G01 X-0.4664 Y37.6445
G01 X-0.4861 Y37.6149
G01 X-0.5423 Y37.5212
G01 X-0.5508 Y37.5056
G01 X-0.5668 Y37.4738
G01 X-0.5983 Y37.4073
G01 X-0.6127 Y37.3748
G01 X-0.6255 Y37.3416
G01 X-0.6561 Y37.2555
G01 X-0.6615 Y37.2385
G01 X-0.6710 Y37.2042
G01 X-0.6889 Y37.1328
G01 X-0.6967 Y37.0981
G01 X-0.7027 Y37.0630
G01 X-0.7135 Y36.9902
G01 X-0.7179 Y36.9549
G01 X-0.7194 Y36.9372
G01 X-0.7241 Y36.8459
G01 X-0.7250 Y36.8103
G01 X-0.7241 Y36.7747
G01 X-0.7194 Y36.6835
G01 X-0.7159 Y36.6481
G01 X-0.7135 Y36.6304
G01 X-0.7027 Y36.5576
G01 X-0.6967 Y36.5226
G01 X-0.6889 Y36.4878
G01 X-0.6710 Y36.4164
G01 X-0.6615 Y36.3821
G01 X-0.6561 Y36.3652
G01 X-0.6255 Y36.2791
G01 X-0.6127 Y36.2459
G01 X-0.5983 Y36.2133
G01 X-0.5668 Y36.1468
G01 X-0.5508 Y36.1150
G01 X-0.5423 Y36.0994
G01 X-0.4955 Y36.0209
G01 X-0.4764 Y35.9909
G01 X-0.4559 Y35.9618
G01 X-0.4121 Y35.9026
G01 X-0.3902 Y35.8746
G01 X-0.3787 Y35.8610
G01 X-0.3054 Y35.7801
G01 X-0.2802 Y35.7549
G01 X-0.2672 Y35.7428
G01 X-0.1993 Y35.6816
G01 X-0.1718 Y35.6590
G01 X-0.0986 Y35.6044
G01 X-0.0695 Y35.5839
G01 X-0.0394 Y35.5649
G01 X0.0015 Y35.5403
G01 X-0.0394 Y35.5158
G01 X-0.0695 Y35.4967
G01 X-0.0986 Y35.4762
G01 X-0.1718 Y35.4216
G01 X-0.1993 Y35.3991
G01 X-0.2672 Y35.3378
G01 X-0.2930 Y35.3133
G01 X-0.3054 Y35.3006
G01 X-0.3669 Y35.2330
G01 X-0.3902 Y35.2060
G01 X-0.4121 Y35.1780
G01 X-0.4559 Y35.1189
G01 X-0.4764 Y35.0898
G01 X-0.4861 Y35.0749
G01 X-0.5423 Y34.9812
G01 X-0.5590 Y34.9498
G01 X-0.5668 Y34.9338
G01 X-0.5983 Y34.8673
G01 X-0.6127 Y34.8348
G01 X-0.6255 Y34.8016
G01 X-0.6561 Y34.7155
G01 X-0.6664 Y34.6814
G01 X-0.6710 Y34.6642
G01 X-0.6889 Y34.5928
G01 X-0.6967 Y34.5581
G01 X-0.7027 Y34.5230
G01 X-0.7135 Y34.4502
G01 X-0.7159 Y34.4326
G01 X-0.7194 Y34.3972
G01 X-0.7241 Y34.3059
G01 X-0.7250 Y34.2703
G01 X-0.7241 Y34.2347
G01 X-0.7194 Y34.1435
G01 X-0.7179 Y34.1257
G01 X-0.7135 Y34.0904
G01 X-0.7027 Y34.0176
G01 X-0.6967 Y33.9826
G01 X-0.6889 Y33.9478
G01 X-0.6710 Y33.8764
G01 X-0.6664 Y33.8592
G01 X-0.6561 Y33.8252
G01 X-0.6255 Y33.7391
G01 X-0.6127 Y33.7059
G01 X-0.5983 Y33.6733
G01 X-0.5668 Y33.6068
G01 X-0.5508 Y33.5750
G01 X-0.5423 Y33.5594
G01 X-0.4955 Y33.4809
G01 X-0.4764 Y33.4509
G01 X-0.4559 Y33.4218
G01 X-0.4121 Y33.3626
G01 X-0.4013 Y33.3485
G01 X-0.3787 Y33.3210
G01 X-0.3054 Y33.2401
G01 X-0.2802 Y33.2149
G01 X-0.2672 Y33.2028
G01 X-0.1993 Y33.1416
G01 X-0.1718 Y33.1190
G01 X-0.0986 Y33.0644
G01 X-0.0695 Y33.0439
G01 X-0.0394 Y33.0249
G01 X0.0015 Y33.0003
G01 X-0.0394 Y32.9758
G01 X-0.0695 Y32.9567
G01 X-0.0986 Y32.9362
G01 X-0.1718 Y32.8816
G01 X-0.1993 Y32.8591
G01 X-0.2672 Y32.7978
G01 X-0.2802 Y32.7857
G01 X-0.3054 Y32.7606
G01 X-0.3669 Y32.6930
G01 X-0.3902 Y32.6660
G01 X-0.4121 Y32.6380
G01 X-0.4559 Y32.5789
G01 X-0.4664 Y32.5645
G01 X-0.4861 Y32.5349
G01 X-0.5423 Y32.4412
G01 X-0.5508 Y32.4256
G01 X-0.5668 Y32.3938
G01 X-0.5983 Y32.3273
G01 X-0.6127 Y32.2948
G01 X-0.6255 Y32.2616
G01 X-0.6561 Y32.1755
G01 X-0.6615 Y32.1585
G01 X-0.6710 Y32.1242
G01 X-0.6889 Y32.0528
G01 X-0.6967 Y32.0181
G01 X-0.7027 Y31.9830
G01 X-0.7135 Y31.9102
G01 X-0.7179 Y31.8749
G01 X-0.7194 Y31.8572
G01 X-0.7241 Y31.7659
G01 X-0.7250 Y31.7303
G01 X-0.7241 Y31.6947
G01 X-0.7194 Y31.6035
G01 X-0.7159 Y31.5681
G01 X-0.7135 Y31.5504
G01 X-0.7027 Y31.4776
G01 X-0.6967 Y31.4426
G01 X-0.6889 Y31.4078
G01 X-0.6710 Y31.3364
G01 X-0.6615 Y31.3021
G01 X-0.6561 Y31.2852
G01 X-0.6255 Y31.1991
G01 X-0.6127 Y31.1659
G01 X-0.5983 Y31.1333
G01 X-0.5668 Y31.0668
G01 X-0.5590 Y31.0508
G01 X-0.5423 Y31.0194
G01 X-0.4955 Y30.9409
G01 X-0.4764 Y30.9109
G01 X-0.4559 Y30.8818
G01 X-0.4121 Y30.8226
G01 X-0.4013 Y30.8085
G01 X-0.3787 Y30.7810
G01 X-0.3054 Y30.7001
G01 X-0.2930 Y30.6873
G01 X-0.2672 Y30.6628
G01 X-0.1993 Y30.6016
G01 X-0.1718 Y30.5790
G01 X-0.0986 Y30.5244
G01 X-0.0695 Y30.5039
G01 X-0.0394 Y30.4849
G01 X0.0015 Y30.4603
G01 X-0.0394 Y30.4358
G01 X-0.0695 Y30.4167
G01 X-0.0986 Y30.3962
G01 X-0.1718 Y30.3416
G01 X-0.1993 Y30.3191
G01 X-0.2672 Y30.2578
G01 X-0.2802 Y30.2457
G01 X-0.3054 Y30.2206
G01 X-0.3669 Y30.1530
G01 X-0.3902 Y30.1260
G01 X-0.4121 Y30.0980
G01 X-0.4559 Y30.0389
G01 X-0.4664 Y30.0245
G01 X-0.4861 Y29.9949
G01 X-0.5423 Y29.9012
G01 X-0.5590 Y29.8698
G01 X-0.5668 Y29.8538
G01 X-0.5983 Y29.7873
G01 X-0.6127 Y29.7548
G01 X-0.6255 Y29.7216
G01 X-0.6561 Y29.6355
G01 X-0.6664 Y29.6014
G01 X-0.6710 Y29.5842
G01 X-0.6889 Y29.5128
G01 X-0.6967 Y29.4781
G01 X-0.7027 Y29.4430
G01 X-0.7135 Y29.3702
G01 X-0.7179 Y29.3349
G01 X-0.7194 Y29.3172
G01 X-0.7241 Y29.2259
G01 X-0.7250 Y29.1903
G01 X-0.7241 Y29.1547
G01 X-0.7194 Y29.0635
G01 X-0.7159 Y29.0281
G01 X-0.7135 Y29.0104
G01 X-0.7027 Y28.9376
G01 X-0.6967 Y28.9026
G01 X-0.6889 Y28.8678
G01 X-0.6710 Y28.7964
G01 X-0.6615 Y28.7621
G01 X-0.6561 Y28.7452
G01 X-0.6255 Y28.6591
G01 X-0.6127 Y28.6259
G01 X-0.5983 Y28.5933
G01 X-0.5668 Y28.5268
G01 X-0.5590 Y28.5108
G01 X-0.5423 Y28.4794
G01 X-0.4955 Y28.4009
G01 X-0.4764 Y28.3709
G01 X-0.4559 Y28.3418
G01 X-0.4121 Y28.2826
G01 X-0.3902 Y28.2546
G01 X-0.3787 Y28.2410
G01 X-0.3054 Y28.1601
G01 X-0.2930 Y28.1473
G01 X-0.2672 Y28.1228
G01 X-0.1993 Y28.0616
G01 X-0.1718 Y28.0390
G01 X-0.0986 Y27.9844
G01 X-0.0695 Y27.9639
G01 X-0.0394 Y27.9449
G01 X0.0015 Y27.9203
G01 X-0.0394 Y27.8958
G01 X-0.0695 Y27.8767
G01 X-0.0986 Y27.8562
G01 X-0.1718 Y27.8016
G01 X-0.1993 Y27.7791
G01 X-0.2672 Y27.7178
G01 X-0.2802 Y27.7057
G01 X-0.3054 Y27.6806
G01 X-0.3669 Y27.6130
G01 X-0.3902 Y27.5860
G01 X-0.4121 Y27.5580
G01 X-0.4559 Y27.4989
G01 X-0.4764 Y27.4698
G01 X-0.4861 Y27.4549
G01 X-0.5423 Y27.3612
G01 X-0.5508 Y27.3456
G01 X-0.5668 Y27.3138
G01 X-0.5983 Y27.2473
G01 X-0.6127 Y27.2148
G01 X-0.6255 Y27.1816
G01 X-0.6561 Y27.0955
G01 X-0.6615 Y27.0785
G01 X-0.6710 Y27.0442
G01 X-0.6889 Y26.9728
G01 X-0.6967 Y26.9381
G01 X-0.7027 Y26.9030
G01 X-0.7135 Y26.8302
G01 X-0.7179 Y26.7949
G01 X-0.7194 Y26.7772
G01 X-0.7241 Y26.6859
G01 X-0.7250 Y26.6503
G01 X-0.7241 Y26.6147
G01 X-0.7194 Y26.5235
G01 X-0.7159 Y26.4881
G01 X-0.7135 Y26.4704
G01 X-0.7027 Y26.3976
G01 X-0.6967 Y26.3626
G01 X-0.6889 Y26.3278
G01 X-0.6710 Y26.2564
G01 X-0.6615 Y26.2221
G01 X-0.6561 Y26.2052
G01 X-0.6255 Y26.1191
G01 X-0.6127 Y26.0859
G01 X-0.5983 Y26.0533
G01 X-0.5668 Y25.9868
G01 X-0.5590 Y25.9708
G01 X-0.5423 Y25.9394
G01 X-0.4955 Y25.8609
G01 X-0.4764 Y25.8309
G01 X-0.4559 Y25.8018
G01 X-0.4121 Y25.7426
G01 X-0.4013 Y25.7285
G01 X-0.3787 Y25.7010
G01 X-0.3054 Y25.6201
G01 X-0.2930 Y25.6073
G01 X-0.2672 Y25.5828
G01 X-0.1993 Y25.5216
G01 X-0.1718 Y25.4990
G01 X-0.0986 Y25.4444
G01 X-0.0695 Y25.4239
G01 X-0.0394 Y25.4049
G01 X0.0015 Y25.3803
G01 X-0.0394 Y25.3558
G01 X-0.0695 Y25.3367
G01 X-0.0986 Y25.3162
G01 X-0.1718 Y25.2616
G01 X-0.1993 Y25.2391
G01 X-0.2672 Y25.1778
G01 X-0.2802 Y25.1657
G01 X-0.3054 Y25.1406
G01 X-0.3669 Y25.0730
G01 X-0.3902 Y25.0460
G01 X-0.4121 Y25.0180
G01 X-0.4559 Y24.9589
G01 X-0.4664 Y24.9445
G01 X-0.4861 Y24.9149
G01 X-0.5423 Y24.8212
G01 X-0.5590 Y24.7898
G01 X-0.5668 Y24.7738
G01 X-0.5983 Y24.7073
G01 X-0.6127 Y24.6748
G01 X-0.6255 Y24.6416
G01 X-0.6561 Y24.5555
G01 X-0.6615 Y24.5385
G01 X-0.6710 Y24.5042
G01 X-0.6889 Y24.4328
G01 X-0.6967 Y24.3981
G01 X-0.7027 Y24.3630
G01 X-0.7135 Y24.2902
G01 X-0.7179 Y24.2549
G01 X-0.7194 Y24.2372
G01 X-0.7241 Y24.1459
G01 X-0.7250 Y24.1103
G01 X-0.7241 Y24.0747
G01 X-0.7194 Y23.9835
G01 X-0.7159 Y23.9481
G01 X-0.7135 Y23.9304
G01 X-0.7027 Y23.8576
G01 X-0.6967 Y23.8226
G01 X-0.6889 Y23.7878
G01 X-0.6710 Y23.7164
G01 X-0.6615 Y23.6821
G01 X-0.6561 Y23.6652
G01 X-0.6255 Y23.5791
G01 X-0.6127 Y23.5459
G01 X-0.5983 Y23.5133
G01 X-0.5668 Y23.4468
G01 X-0.5590 Y23.4308
G01 X-0.5423 Y23.3994
G01 X-0.4955 Y23.3209
G01 X-0.4764 Y23.2909
G01 X-0.4559 Y23.2618
G01 X-0.4121 Y23.2026
G01 X-0.3902 Y23.1746
G01 X-0.3787 Y23.1610
G01 X-0.3054 Y23.0801
G01 X-0.2930 Y23.0673
G01 X-0.2672 Y23.0428
G01 X-0.1993 Y22.9816
G01 X-0.1718 Y22.9590
G01 X-0.0986 Y22.9044
G01 X-0.0695 Y22.8839
G01 X-0.0394 Y22.8649
G01 X0.0015 Y22.8403
G01 X-0.0394 Y22.8158
G01 X-0.0695 Y22.7967
G01 X-0.0986 Y22.7762
G01 X-0.1718 Y22.7216
G01 X-0.1993 Y22.6991
G01 X-0.2672 Y22.6378
G01 X-0.2802 Y22.6257
G01 X-0.3054 Y22.6006
G01 X-0.3669 Y22.5330
G01 X-0.3902 Y22.5060
G01 X-0.4121 Y22.4780
G01 X-0.4559 Y22.4189
G01 X-0.4764 Y22.3898
G01 X-0.4861 Y22.3749
G01 X-0.5423 Y22.2812
G01 X-0.5508 Y22.2656
G01 X-0.5668 Y22.2338
G01 X-0.5983 Y22.1673
G01 X-0.6127 Y22.1348
G01 X-0.6255 Y22.1016
G01 X-0.6561 Y22.0155
G01 X-0.6664 Y21.9814
G01 X-0.6710 Y21.9642
G01 X-0.6889 Y21.8928
G01 X-0.6967 Y21.8581
G01 X-0.7027 Y21.8230
G01 X-0.7135 Y21.7502
G01 X-0.7179 Y21.7149
G01 X-0.7194 Y21.6972
G01 X-0.7241 Y21.6059
G01 X-0.7250 Y21.5703
G01 X-0.7241 Y21.5347
G01 X-0.7194 Y21.4435
G01 X-0.7159 Y21.4081
G01 X-0.7135 Y21.3904
G01 X-0.7027 Y21.3176
G01 X-0.6967 Y21.2826
G01 X-0.6889 Y21.2478
G01 X-0.6710 Y21.1764
G01 X-0.6664 Y21.1592
G01 X-0.6561 Y21.1252
G01 X-0.6255 Y21.0391
G01 X-0.6127 Y21.0059
G01 X-0.5983 Y20.9733
G01 X-0.5668 Y20.9068
G01 X-0.5590 Y20.8908
G01 X-0.5423 Y20.8594
G01 X-0.4861 Y20.7658
G01 X-0.4664 Y20.7362
G01 X-0.4559 Y20.7218
G01 X-0.4121 Y20.6626
G01 X-0.3902 Y20.6346
G01 X-0.3669 Y20.6076
G01 X-0.3054 Y20.5401
G01 X-0.2930 Y20.5273
G01 X-0.2672 Y20.5028
G01 X-0.1993 Y20.4416
G01 X-0.1718 Y20.4190
G01 X-0.0986 Y20.3644
G01 X-0.0695 Y20.3439
G01 X-0.0394 Y20.3249
G01 X0.0015 Y20.3003
G01 X-0.0394 Y20.2758
G01 X-0.0695 Y20.2567
G01 X-0.0986 Y20.2362
G01 X-0.1718 Y20.1816
G01 X-0.1993 Y20.1591
G01 X-0.2672 Y20.0978
G01 X-0.2802 Y20.0857
G01 X-0.3054 Y20.0606
G01 X-0.3669 Y19.9930
G01 X-0.3902 Y19.9660
G01 X-0.4121 Y19.9380
G01 X-0.4559 Y19.8789
G01 X-0.4664 Y19.8645
G01 X-0.4861 Y19.8349
G01 X-0.5423 Y19.7412
G01 X-0.5508 Y19.7256
G01 X-0.5668 Y19.6938
G01 X-0.5983 Y19.6273
G01 X-0.6127 Y19.5948
G01 X-0.6255 Y19.5616
G01 X-0.6561 Y19.4755
G01 X-0.6615 Y19.4585
G01 X-0.6710 Y19.4242
G01 X-0.6889 Y19.3528
G01 X-0.6967 Y19.3181
G01 X-0.7027 Y19.2830
G01 X-0.7135 Y19.2102
G01 X-0.7179 Y19.1749
G01 X-0.7194 Y19.1572
G01 X-0.7241 Y19.0659
G01 X-0.7250 Y19.0303
G01 X-0.7241 Y18.9947
G01 X-0.7194 Y18.9035
G01 X-0.7159 Y18.8681
G01 X-0.7135 Y18.8504
G01 X-0.7027 Y18.7776
G01 X-0.6967 Y18.7426
G01 X-0.6889 Y18.7078
G01 X-0.6710 Y18.6364
G01 X-0.6615 Y18.6021
G01 X-0.6561 Y18.5852
G01 X-0.6255 Y18.4991
G01 X-0.6127 Y18.4659
G01 X-0.5983 Y18.4333
G01 X-0.5668 Y18.3668
G01 X-0.5590 Y18.3508
G01 X-0.5423 Y18.3194
G01 X-0.4861 Y18.2258
G01 X-0.4664 Y18.1962
G01 X-0.4559 Y18.1818
G01 X-0.4121 Y18.1226
G01 X-0.3902 Y18.0946
G01 X-0.3669 Y18.0676
G01 X-0.3054 Y18.0001
G01 X-0.2802 Y17.9749
G01 X-0.2672 Y17.9628
G01 X-0.1993 Y17.9016
G01 X-0.1718 Y17.8790
G01 X-0.0986 Y17.8244
G01 X-0.0695 Y17.8039
G01 X-0.0394 Y17.7849
G01 X0.0015 Y17.7603
G01 X-0.0394 Y17.7358
G01 X-0.0695 Y17.7167
G01 X-0.0986 Y17.6962
G01 X-0.1718 Y17.6416
G01 X-0.1993 Y17.6191
G01 X-0.2672 Y17.5578
G01 X-0.2802 Y17.5457
G01 X-0.3054 Y17.5206
G01 X-0.3669 Y17.4530
G01 X-0.3902 Y17.4260
G01 X-0.4121 Y17.3980
G01 X-0.4559 Y17.3389
G01 X-0.4664 Y17.3245
G01 X-0.4861 Y17.2949
G01 X-0.5423 Y17.2012
G01 X-0.5590 Y17.1698
G01 X-0.5668 Y17.1538
G01 X-0.5983 Y17.0873
G01 X-0.6127 Y17.0548
G01 X-0.6255 Y17.0216
G01 X-0.6561 Y16.9355
G01 X-0.6664 Y16.9014
G01 X-0.6710 Y16.8842
G01 X-0.6889 Y16.8128
G01 X-0.6967 Y16.7781
G01 X-0.7027 Y16.7430
G01 X-0.7135 Y16.6702
G01 X-0.7179 Y16.6349
G01 X-0.7194 Y16.6172
G01 X-0.7241 Y16.5259
G01 X-0.7250 Y16.4903
G01 X-0.7241 Y16.4547
G01 X-0.7194 Y16.3635
G01 X-0.7159 Y16.3281
G01 X-0.7135 Y16.3104
G01 X-0.7027 Y16.2376
G01 X-0.6967 Y16.2026
G01 X-0.6889 Y16.1678
G01 X-0.6710 Y16.0964
G01 X-0.6664 Y16.0792
G01 X-0.6561 Y16.0452
G01 X-0.6255 Y15.9591
G01 X-0.6127 Y15.9259
G01 X-0.5983 Y15.8933
G01 X-0.5668 Y15.8268
G01 X-0.5508 Y15.7950
G01 X-0.5423 Y15.7794
G01 X-0.4861 Y15.6858
G01 X-0.4764 Y15.6709
G01 X-0.4559 Y15.6418
G01 X-0.4121 Y15.5826
G01 X-0.3902 Y15.5546
G01 X-0.3669 Y15.5276
G01 X-0.3054 Y15.4601
G01 X-0.2930 Y15.4473
G01 X-0.2672 Y15.4228
G01 X-0.1993 Y15.3616
G01 X-0.1718 Y15.3390
G01 X-0.0986 Y15.2844
G01 X-0.0695 Y15.2639
G01 X-0.0394 Y15.2449
G01 X0.0015 Y15.2203
G01 X-0.0394 Y15.1958
G01 X-0.0695 Y15.1767
G01 X-0.0986 Y15.1562
G01 X-0.1718 Y15.1016
G01 X-0.1993 Y15.0791
G01 X-0.2672 Y15.0178
G01 X-0.2802 Y15.0057
G01 X-0.3054 Y14.9806
G01 X-0.3669 Y14.9130
G01 X-0.3902 Y14.8860
G01 X-0.4121 Y14.8580
G01 X-0.4559 Y14.7989
G01 X-0.4764 Y14.7698
G01 X-0.4861 Y14.7549
G01 X-0.5423 Y14.6612
G01 X-0.5508 Y14.6456
G01 X-0.5668 Y14.6138
G01 X-0.5983 Y14.5473
G01 X-0.6127 Y14.5148
G01 X-0.6255 Y14.4816
G01 X-0.6561 Y14.3955
G01 X-0.6615 Y14.3785
G01 X-0.6710 Y14.3442
G01 X-0.6889 Y14.2728
G01 X-0.6967 Y14.2381
G01 X-0.7027 Y14.2030
G01 X-0.7135 Y14.1302
G01 X-0.7159 Y14.1126
G01 X-0.7194 Y14.0772
G01 X-0.7241 Y13.9859
G01 X-0.7250 Y13.9503
G01 X-0.7241 Y13.9147
G01 X-0.7194 Y13.8235
G01 X-0.7179 Y13.8057
G01 X-0.7135 Y13.7704
G01 X-0.7027 Y13.6976
G01 X-0.6967 Y13.6626
G01 X-0.6889 Y13.6278
G01 X-0.6710 Y13.5564
G01 X-0.6615 Y13.5221
G01 X-0.6561 Y13.5052
G01 X-0.6255 Y13.4191
G01 X-0.6127 Y13.3859
G01 X-0.5983 Y13.3533
G01 X-0.5668 Y13.2868
G01 X-0.5508 Y13.2550
G01 X-0.5423 Y13.2394
G01 X-0.4861 Y13.1458
G01 X-0.4664 Y13.1162
G01 X-0.4559 Y13.1018
G01 X-0.4121 Y13.0426
G01 X-0.3902 Y13.0146
G01 X-0.3669 Y12.9876
G01 X-0.3054 Y12.9201
G01 X-0.2930 Y12.9073
G01 X-0.2672 Y12.8828
G01 X-0.1993 Y12.8216
G01 X-0.1718 Y12.7990
G01 X-0.0986 Y12.7444
G01 X-0.0695 Y12.7239
G01 X-0.0394 Y12.7049
G01 X0.0015 Y12.6803
G01 X-0.0394 Y12.6558
G01 X-0.0695 Y12.6367
G01 X-0.0986 Y12.6162
G01 X-0.1718 Y12.5616
G01 X-0.1993 Y12.5391
G01 X-0.2672 Y12.4778
G01 X-0.2802 Y12.4657
G01 X-0.3054 Y12.4406
G01 X-0.3669 Y12.3730
G01 X-0.3902 Y12.3460
G01 X-0.4121 Y12.3180
G01 X-0.4559 Y12.2589
G01 X-0.4764 Y12.2298
G01 X-0.4861 Y12.2149
G01 X-0.5423 Y12.1212
G01 X-0.5508 Y12.1056
G01 X-0.5668 Y12.0738
G01 X-0.5983 Y12.0073
G01 X-0.6127 Y11.9748
G01 X-0.6255 Y11.9416
G01 X-0.6561 Y11.8555
G01 X-0.6615 Y11.8385
G01 X-0.6710 Y11.8042
G01 X-0.6889 Y11.7328
G01 X-0.6967 Y11.6981
G01 X-0.7027 Y11.6630
G01 X-0.7135 Y11.5902
G01 X-0.7179 Y11.5549
G01 X-0.7194 Y11.5372
G01 X-0.7241 Y11.4459
G01 X-0.7250 Y11.4103
G01 X-0.7241 Y11.3747
G01 X-0.7194 Y11.2835
G01 X-0.7179 Y11.2657
G01 X-0.7135 Y11.2304
G01 X-0.7027 Y11.1576
G01 X-0.6967 Y11.1226
G01 X-0.6889 Y11.0878
G01 X-0.6710 Y11.0164
G01 X-0.6664 Y10.9992
G01 X-0.6561 Y10.9652
G01 X-0.6255 Y10.8791
G01 X-0.6127 Y10.8459
G01 X-0.5983 Y10.8133
G01 X-0.5668 Y10.7468
G01 X-0.5508 Y10.7150
G01 X-0.5423 Y10.6994
G01 X-0.4861 Y10.6058
G01 X-0.4664 Y10.5762
G01 X-0.4559 Y10.5618
G01 X-0.4121 Y10.5026
G01 X-0.3902 Y10.4746
G01 X-0.3669 Y10.4476
G01 X-0.3054 Y10.3801
G01 X-0.2930 Y10.3673
G01 X-0.2672 Y10.3428
G01 X-0.1993 Y10.2816
G01 X-0.1718 Y10.2590
G01 X-0.0986 Y10.2044
G01 X-0.0695 Y10.1839
G01 X-0.0394 Y10.1649
G01 X0.0015 Y10.1403
G01 X-0.0394 Y10.1158
G01 X-0.0695 Y10.0967
G01 X-0.0986 Y10.0762
G01 X-0.1718 Y10.0216
G01 X-0.1993 Y9.9991
G01 X-0.2672 Y9.9378
G01 X-0.2802 Y9.9257
G01 X-0.3054 Y9.9006
G01 X-0.3669 Y9.8330
G01 X-0.3902 Y9.8060
G01 X-0.4121 Y9.7780
G01 X-0.4559 Y9.7189
G01 X-0.4764 Y9.6898
G01 X-0.4861 Y9.6749
G01 X-0.5423 Y9.5812
G01 X-0.5590 Y9.5498
G01 X-0.5668 Y9.5338
G01 X-0.5983 Y9.4673
G01 X-0.6127 Y9.4348
G01 X-0.6255 Y9.4016
G01 X-0.6561 Y9.3155
G01 X-0.6664 Y9.2814
G01 X-0.6710 Y9.2642
G01 X-0.6889 Y9.1928
G01 X-0.6967 Y9.1581
G01 X-0.7027 Y9.1230
G01 X-0.7135 Y9.0502
G01 X-0.7159 Y9.0326
G01 X-0.7194 Y8.9972
G01 X-0.7241 Y8.9059
G01 X-0.7250 Y8.8703
G01 X-0.7241 Y8.8347
G01 X-0.7194 Y8.7435
G01 X-0.7179 Y8.7257
G01 X-0.7135 Y8.6904
G01 X-0.7027 Y8.6176
G01 X-0.6967 Y8.5826
G01 X-0.6889 Y8.5478
G01 X-0.6710 Y8.4764
G01 X-0.6615 Y8.4421
G01 X-0.6561 Y8.4252
G01 X-0.6255 Y8.3391
G01 X-0.6127 Y8.3059
G01 X-0.5983 Y8.2733
G01 X-0.5668 Y8.2068
G01 X-0.5508 Y8.1750
G01 X-0.5423 Y8.1594
G01 X-0.4861 Y8.0658
G01 X-0.4764 Y8.0509
G01 X-0.4559 Y8.0218
G01 X-0.4121 Y7.9626
G01 X-0.3902 Y7.9346
G01 X-0.3669 Y7.9076
G01 X-0.3054 Y7.8401
G01 X-0.2802 Y7.8149
G01 X-0.2672 Y7.8028
G01 X-0.1993 Y7.7416
G01 X-0.1718 Y7.7190
G01 X-0.0986 Y7.6644
G01 X-0.0695 Y7.6439
G01 X-0.0394 Y7.6249
G01 X0.0015 Y7.6003
G01 X-0.0394 Y7.5758
G01 X-0.0695 Y7.5567
G01 X-0.0986 Y7.5362
G01 X-0.1718 Y7.4816
G01 X-0.1993 Y7.4591
G01 X-0.2672 Y7.3978
G01 X-0.2802 Y7.3857
G01 X-0.3054 Y7.3606
G01 X-0.3669 Y7.2930
G01 X-0.3902 Y7.2660
G01 X-0.4121 Y7.2380
G01 X-0.4559 Y7.1789
G01 X-0.4764 Y7.1498
G01 X-0.4861 Y7.1349
G01 X-0.5423 Y7.0412
G01 X-0.5590 Y7.0098
G01 X-0.5668 Y6.9938
G01 X-0.5983 Y6.9273
G01 X-0.6127 Y6.8948
G01 X-0.6255 Y6.8616
G01 X-0.6561 Y6.7755
G01 X-0.6615 Y6.7585
G01 X-0.6710 Y6.7242
G01 X-0.6889 Y6.6528
G01 X-0.6967 Y6.6181
G01 X-0.7027 Y6.5830
G01 X-0.7159 Y6.4926
G01 X-0.7194 Y6.4572
G01 X-0.7205 Y6.4394
G01 X-0.7248 Y6.3481
G01 X-0.7248 Y6.3125
G01 X-0.7205 Y6.2212
G01 X-0.7179 Y6.1857
G01 X-0.7135 Y6.1504
G01 X-0.7027 Y6.0776
G01 X-0.6967 Y6.0426
G01 X-0.6930 Y6.0252
G01 X-0.6710 Y5.9364
G01 X-0.6615 Y5.9021
G01 X-0.6503 Y5.8684
G01 X-0.6193 Y5.7824
G01 X-0.6057 Y5.7495
G01 X-0.5983 Y5.7333
G01 X-0.5668 Y5.6668
G01 X-0.5508 Y5.6350
G01 X-0.5333 Y5.6040
G01 X-0.4955 Y5.5409
G01 X-0.4764 Y5.5109
G01 X-0.4664 Y5.4962
G01 X-0.4121 Y5.4226
G01 X-0.3902 Y5.3946
G01 X-0.3669 Y5.3676
G01 X-0.3175 Y5.3131
G01 X-0.3054 Y5.3001
G01 X-0.2802 Y5.2749
G01 X-0.2127 Y5.2134
G01 X-0.1857 Y5.1901
G01 X-0.1577 Y5.1682
G01 X-0.0986 Y5.1244
G01 X-0.0841 Y5.1140
G01 X-0.0546 Y5.0942
G01 X0.0237 Y5.0470
G01 X0.0547 Y5.0295
G01 X0.0865 Y5.0135
G01 X0.1530 Y4.9820
G01 X0.1855 Y4.9676
G01 X0.2187 Y4.9548
G01 X0.2880 Y4.9300
G01 X0.3218 Y4.9188
G01 X0.3561 Y4.9093
G01 X0.4275 Y4.8915
G01 X0.4622 Y4.8837
G01 X0.4973 Y4.8776
G01 X0.5701 Y4.8668
G01 X0.6054 Y4.8624
G01 X0.6409 Y4.8598
G01 X0.7144 Y4.8562
G01 X0.7500 Y4.8553
G01 X1.9654 Y4.8553
G01 X0.3754 Y3.2653
G01 X0.1822 Y3.2651
G01 X0.1644 Y3.2644
G01 X0.1289 Y3.2618
G01 X0.0936 Y3.2575
G01 X0.0586 Y3.2514
G01 X0.0412 Y3.2477
G01 X0.0066 Y3.2391
G01 X-0.0105 Y3.2341
G01 X-0.0442 Y3.2229
G01 X-0.0609 Y3.2167
G01 X-0.0774 Y3.2101
G01 X-0.1100 Y3.1957
G01 X-0.1418 Y3.1797
G01 X-0.1574 Y3.1711
G01 X-0.1727 Y3.1622
G01 X-0.2028 Y3.1431
G01 X-0.2319 Y3.1226
G01 X-0.2599 Y3.1007
G01 X-0.2869 Y3.0775
G01 X-0.2999 Y3.0654
G01 X-0.3251 Y3.0402
G01 X-0.3372 Y3.0272
G01 X-0.3604 Y3.0003
G01 X-0.3823 Y2.9722
G01 X-0.3927 Y2.9578
G01 X-0.4125 Y2.9282
G01 X-0.4308 Y2.8977
G01 X-0.4394 Y2.8821
G01 X-0.4554 Y2.8503
G01 X-0.4698 Y2.8178
G01 X-0.4826 Y2.7846
G01 X-0.4938 Y2.7508
G01 X-0.4987 Y2.7337
G01 X-0.5074 Y2.6992
G01 X-0.5143 Y2.6643
G01 X-0.5195 Y2.6291
G01 X-0.5215 Y2.6114
G01 X-0.5241 Y2.5759
G01 X-0.5250 Y2.5403
G01 X-0.5250 Y0.7403
G01 X-0.5248 Y0.7225
G01 X-0.5230 Y0.6870
G01 X-0.5195 Y0.6516
G01 X-0.5143 Y0.6164
G01 X-0.5074 Y0.5815
G01 X-0.5033 Y0.5642
G01 X-0.4938 Y0.5299
G01 X-0.4826 Y0.4961
G01 X-0.4764 Y0.4794
G01 X-0.4698 Y0.4629
G01 X-0.4554 Y0.4303
G01 X-0.4394 Y0.3986
G01 X-0.4308 Y0.3830
G01 X-0.4125 Y0.3524
G01 X-0.3927 Y0.3229
G01 X-0.3716 Y0.2943
G01 X-0.3490 Y0.2668
G01 X-0.3251 Y0.2404
G01 X-0.2999 Y0.2152
G01 X-0.2869 Y0.2031
G01 X-0.2599 Y0.1799
G01 X-0.2319 Y0.1580
G01 X-0.2028 Y0.1375
G01 X-0.1879 Y0.1278
G01 X-0.1574 Y0.1095
G01 X-0.1418 Y0.1009
G01 X-0.1100 Y0.0849
G01 X-0.0774 Y0.0705
G01 X-0.0442 Y0.0577
G01 X-0.0274 Y0.0519
G01 X0.0066 Y0.0416
G01 X0.0412 Y0.0329
G01 X0.0761 Y0.0260
G01 X0.1113 Y0.0208
G01 X0.1467 Y0.0173
G01 X0.1644 Y0.0162
G01 X0.2000 Y0.0153
G01 X1.7000 Y0.0153
G01 X1.7356 Y0.0162
G01 X1.7711 Y0.0188
G01 X1.7887 Y0.0208
G01 X1.8064 Y0.0232
G01 X1.8414 Y0.0292
G01 X1.8762 Y0.0370
G01 X1.8934 Y0.0416
G01 X1.9105 Y0.0465
G01 X1.9442 Y0.0577
G01 X1.9609 Y0.0639
G01 X1.9938 Y0.0775
G01 X2.0260 Y0.0927
G01 X2.0418 Y0.1009
G01 X2.0727 Y0.1185
G01 X2.0879 Y0.1278
G01 X2.1175 Y0.1476
G01 X2.1319 Y0.1580
G01 X2.1460 Y0.1688
G01 X2.1736 Y0.1913
G01 X2.1869 Y0.2031
G01 X2.2127 Y0.2277
G01 X2.2251 Y0.2404
G01 X2.2490 Y0.2668
G01 X2.2604 Y0.2804
G01 X2.2823 Y0.3084
G01 X2.2927 Y0.3229
G01 X2.3125 Y0.3524
G01 X2.3308 Y0.3830
G01 X2.3394 Y0.3986
G01 X2.3554 Y0.4303
G01 X2.3628 Y0.4465
G01 X2.3764 Y0.4794
G01 X2.3879 Y0.5113
G00 Z1.0000
G00 X3.4373 Y0.6178
G01 F60.00
G01 Z-0.1418
G01 F120.00
G01 X3.9246 Y0.1305
G01 X3.9777 Y0.0826
G01 X4.0351 Y0.0399
G01 X4.0428 Y0.0349
G01 X4.0963 Y0.0028
G01 X4.1071 Y-0.0030
G01 X4.1690 Y-0.0321
G01 X4.2393 Y-0.0573
G01 X4.3057 Y-0.0740
G01 X4.3177 Y-0.0764
G01 X4.3855 Y-0.0863
G01 X4.4569 Y-0.0900
G01 X29.2231 Y-0.0900
G01 X29.2945 Y-0.0863
G01 X29.3623 Y-0.0764
G01 X29.3743 Y-0.0740
G01 X29.4407 Y-0.0573
G01 X29.5052 Y-0.0343
G01 X29.5166 Y-0.0296
G01 X29.5784 Y-0.0002
G01 X29.6398 Y0.0365
G01 X29.6474 Y0.0417
G01 X29.7023 Y0.0826
G01 X29.7554 Y0.1305
G01 X30.0424 Y0.4175
G01 X30.0839 Y0.4155
G01 X30.0931 Y0.4154
G01 X30.1942 Y0.4203
G01 X30.2033 Y0.4211
G01 X30.3095 Y0.4369
G01 X30.4107 Y0.4621
G01 X30.4195 Y0.4647
G01 X30.5205 Y0.5010
G01 X30.6203 Y0.5482
G01 X30.7150 Y0.6049
G01 X30.8037 Y0.6707
G01 X30.8855 Y0.7448
G01 X30.9556 Y0.8220
G01 X30.9634 Y0.8315
G01 X31.0254 Y0.9153
G01 X31.0791 Y1.0047
G01 X31.0849 Y1.0155
G01 X31.1269 Y1.1042
G01 X31.1316 Y1.1155
G01 X31.1666 Y1.2137
G01 X31.1934 Y1.3208
G01 X31.2096 Y1.4300
G01 X31.2148 Y1.5342
G01 X31.2150 Y1.5434
G01 X31.2096 Y1.6506
G01 X31.1934 Y1.7598
G01 X31.1666 Y1.8669
G01 X31.1294 Y1.9708
G01 X31.0822 Y2.0706
G01 X31.0254 Y2.1653
G01 X30.9596 Y2.2540
G01 X30.8855 Y2.3358
G01 X30.8037 Y2.4100
G01 X30.7150 Y2.4757
G01 X30.6203 Y2.5325
G01 X30.5205 Y2.5797
G01 X30.4166 Y2.6169
G01 X30.3095 Y2.6437
G01 X30.2003 Y2.6599
G01 X30.0961 Y2.6652
G01 X30.0869 Y2.6653
G01 X29.9797 Y2.6599
G01 X29.8705 Y2.6437
G01 X29.7634 Y2.6169
G01 X29.6595 Y2.5797
G01 X29.5597 Y2.5325
G01 X29.4650 Y2.4757
G01 X29.3763 Y2.4100
G01 X29.2989 Y2.3400
G01 X29.2924 Y2.3336
G01 X29.2204 Y2.2540
G01 X29.1546 Y2.1653
G01 X29.0978 Y2.0706
G01 X29.0518 Y1.9737
G01 X29.0484 Y1.9651
G01 X29.0134 Y1.8669
G01 X28.9880 Y1.7658
G01 X28.9861 Y1.7568
G01 X28.9712 Y1.6567
G01 X28.9702 Y1.6475
G01 X28.9650 Y1.5434
G01 X28.9652 Y1.5342
G01 X28.9672 Y1.4928
G01 X28.9051 Y1.4306
G01 X23.1303 Y1.4306
G01 X23.1303 Y2.5143
G01 X23.1408 Y2.5290
G01 X23.1858 Y2.6043
G01 X23.2221 Y2.6807
G01 X23.2268 Y2.6921
G01 X23.2552 Y2.7718
G01 X23.2759 Y2.8539
G01 X23.2783 Y2.8659
G01 X23.2898 Y2.9436
G01 X23.2910 Y2.9558
G01 X23.2950 Y3.0403
G01 X23.2948 Y3.4465
G01 X23.2910 Y3.5249
G01 X23.2898 Y3.5371
G01 X23.2772 Y3.6208
G01 X23.2568 Y3.7029
G01 X23.2532 Y3.7147
G01 X23.2268 Y3.7886
G01 X23.2221 Y3.7999
G01 X23.1858 Y3.8764
G01 X23.1391 Y3.9542
G01 X23.0850 Y4.0271
G01 X23.0283 Y4.0899
G01 X23.0196 Y4.0986
G01 X22.9615 Y4.1513
G01 X22.9520 Y4.1591
G01 X22.8839 Y4.2094
G01 X22.8060 Y4.2561
G01 X22.7240 Y4.2949
G01 X22.6443 Y4.3236
G01 X22.6326 Y4.3271
G01 X22.5564 Y4.3462
G01 X22.5444 Y4.3486
G01 X22.4607 Y4.3609
G01 X22.3700 Y4.3653
G01 X22.2793 Y4.3609
G01 X22.1956 Y4.3486
G01 X22.1836 Y4.3462
G01 X22.1074 Y4.3271
G01 X22.0957 Y4.3236
G01 X22.0160 Y4.2949
G01 X21.9340 Y4.2561
G01 X21.8561 Y4.2094
G01 X21.7880 Y4.1591
G01 X21.7785 Y4.1513
G01 X21.7204 Y4.0986
G01 X21.7117 Y4.0899
G01 X21.6550 Y4.0271
G01 X21.6009 Y3.9542
G01 X21.5542 Y3.8764
G01 X21.5179 Y3.7999
G01 X21.5132 Y3.7886
G01 X21.4868 Y3.7147
G01 X21.4832 Y3.7029
G01 X21.4628 Y3.6208
G01 X21.4502 Y3.5371
G01 X21.4490 Y3.5249
G01 X21.4452 Y3.4465
G01 X21.4450 Y3.0403
G01 X21.4490 Y2.9558
G01 X21.4502 Y2.9436
G01 X21.4617 Y2.8659
G01 X21.4641 Y2.8539
G01 X21.4848 Y2.7718
G01 X21.5132 Y2.6921
G01 X21.5179 Y2.6807
G01 X21.5542 Y2.6043
G01 X21.5992 Y2.5290
G01 X21.6097 Y2.5143
G01 X21.6097 Y1.4306
G01 X11.1503 Y1.4306
G01 X11.1503 Y15.8903
G01 X11.1467 Y15.9648
G01 X11.1368 Y16.0326
G01 X11.1344 Y16.0446
G01 X11.1192 Y16.1051
G01 X11.1157 Y16.1169
G01 X11.0924 Y16.1813
G01 X11.0605 Y16.2487
G01 X11.0255 Y16.3075
G01 X11.0186 Y16.3177
G01 X10.9777 Y16.3727
G01 X10.9319 Y16.4235
G01 X8.7503 Y18.6053
G01 X8.7503 Y19.8127
G01 X8.7811 Y19.8406
G01 X8.7876 Y19.8470
G01 X8.8577 Y19.9243
G01 X8.8634 Y19.9315
G01 X8.9219 Y20.0103
G01 X8.9271 Y20.0179
G01 X8.9822 Y20.1100
G01 X9.0269 Y20.2042
G01 X9.0316 Y20.2155
G01 X9.0656 Y20.3108
G01 X9.0682 Y20.3197
G01 X9.0920 Y20.4149
G01 X9.0944 Y20.4269
G01 X9.1096 Y20.5300
G01 X9.1148 Y20.6342
G01 X9.1148 Y20.6465
G01 X9.1096 Y20.7506
G01 X9.0944 Y20.8537
G01 X9.0920 Y20.8658
G01 X9.0666 Y20.9669
G01 X9.0294 Y21.0708
G01 X8.9822 Y21.1706
G01 X8.9287 Y21.2602
G01 X8.9219 Y21.2704
G01 X8.8634 Y21.3492
G01 X8.8556 Y21.3587
G01 X8.7855 Y21.4358
G01 X8.7037 Y21.5100
G01 X8.6150 Y21.5757
G01 X8.5203 Y21.6325
G01 X8.4205 Y21.6797
G01 X8.3224 Y21.7150
G01 X8.3107 Y21.7185
G01 X8.2155 Y21.7424
G01 X8.2034 Y21.7447
G01 X8.1003 Y21.7599
G01 X7.9961 Y21.7652
G01 X7.9869 Y21.7653
G01 X7.8797 Y21.7599
G01 X7.7705 Y21.7437
G01 X7.6634 Y21.7169
G01 X7.5595 Y21.6797
G01 X7.4597 Y21.6325
G01 X7.3650 Y21.5757
G01 X7.2763 Y21.5100
G01 X7.1989 Y21.4400
G01 X7.1903 Y21.4314
G01 X7.1244 Y21.3587
G01 X7.1166 Y21.3492
G01 X7.0546 Y21.2653
G01 X7.0009 Y21.1760
G01 X6.9951 Y21.1652
G01 X6.9506 Y21.0708
G01 X6.9154 Y20.9727
G01 X6.9118 Y20.9610
G01 X6.8866 Y20.8598
G01 X6.8704 Y20.7506
G01 X6.8650 Y20.6403
G01 X6.8702 Y20.5331
G01 X6.8712 Y20.5240
G01 X6.8866 Y20.4208
G01 X6.9134 Y20.3137
G01 X6.9506 Y20.2098
G01 X6.9964 Y20.1127
G01 X7.0009 Y20.1047
G01 X7.0546 Y20.0153
G01 X7.1184 Y19.9290
G01 X7.1244 Y19.9220
G01 X7.1924 Y19.8470
G01 X7.1989 Y19.8406
G01 X7.2297 Y19.8127
G01 X7.2298 Y18.2842
G01 X7.2329 Y18.2219
G01 X7.2341 Y18.2097
G01 X7.2443 Y18.1420
G01 X7.2608 Y18.0755
G01 X7.2643 Y18.0638
G01 X7.2876 Y17.9994
G01 X7.3167 Y17.9374
G01 X7.3209 Y17.9292
G01 X7.3578 Y17.8679
G01 X7.3985 Y17.8128
G01 X7.4063 Y17.8033
G01 X7.4524 Y17.7527
G01 X9.6297 Y15.5754
G01 X9.6297 Y1.4306
G01 X4.7749 Y1.4306
G01 X4.3626 Y1.8430
G01 X4.3612 Y1.8700
G01 X4.3604 Y1.8791
G01 X4.3487 Y1.9580
G01 X4.3468 Y1.9670
G01 X4.3282 Y2.0414
G01 X4.3254 Y2.0501
G01 X4.2984 Y2.1252
G01 X4.2631 Y2.2001
G01 X4.2587 Y2.2081
G01 X4.2175 Y2.2764
G01 X4.1664 Y2.3454
G01 X4.1087 Y2.4090
G01 X4.0497 Y2.4627
G01 X4.0403 Y2.4705
G01 X3.9761 Y2.5179
G01 X3.9025 Y2.5620
G01 X3.8248 Y2.5987
G01 X3.7440 Y2.6276
G01 X3.6607 Y2.6485
G01 X3.5758 Y2.6611
G01 X3.4900 Y2.6653
G01 X3.4104 Y2.6616
G01 X3.4012 Y2.6608
G01 X3.3193 Y2.6485
G01 X3.2419 Y2.6293
G01 X3.2302 Y2.6257
G01 X3.1552 Y2.5987
G01 X3.0830 Y2.5648
G01 X3.0722 Y2.5590
G01 X3.0091 Y2.5211
G01 X2.9989 Y2.5143
G01 X2.9349 Y2.4667
G01 X2.8713 Y2.4090
G01 X2.8136 Y2.3454
G01 X2.7625 Y2.2764
G01 X2.7183 Y2.2028
G01 X2.6816 Y2.1252
G01 X2.6527 Y2.0443
G01 X2.6318 Y1.9610
G01 X2.6192 Y1.8761
G01 X2.6150 Y1.7934
G01 X2.6150 Y1.4872
G01 X2.6192 Y1.4046
G01 X2.6318 Y1.3196
G01 X2.6527 Y1.2363
G01 X2.6816 Y1.1555
G01 X2.7183 Y1.0778
G01 X2.7625 Y1.0042
G01 X2.8136 Y0.9352
G01 X2.8691 Y0.8738
G01 X2.8757 Y0.8674
G01 X2.9349 Y0.8139
G01 X3.0039 Y0.7628
G01 X3.0775 Y0.7186
G01 X3.1523 Y0.6831
G01 X3.1609 Y0.6797
G01 X3.2360 Y0.6530
G01 X3.3163 Y0.6328
G01 X3.3253 Y0.6311
G01 X3.4012 Y0.6199
G01 X3.4104 Y0.6191
G01 X3.4373 Y0.6178
G00 Z1.0000
G00 X3.5845 Y5.1006
G01 F60.00
G01 Z-0.1418
G01 F120.00
G01 X5.3749 Y5.1006
G01 X5.4705 Y5.1962
G01 X5.4399 Y5.1899
G01 X5.3527 Y5.1770
G01 X5.3399 Y5.1756
G01 X5.3142 Y5.1737
G01 X5.2390 Y5.1702
G01 X3.7767 Y5.1700
G01 X3.7498 Y5.1574
G01 X3.7379 Y5.1524
G01 X3.7139 Y5.1431
G01 X3.6324 Y5.1141
G01 X3.6077 Y5.1066
G01 X3.5845 Y5.1006
G00 Z1.0000
G00 X3.3616 Y7.6003
G01 F60.00
G01 Z-0.1418
G01 F120.00
G01 X3.3750 Y7.5992
G01 X3.4005 Y7.5960
G01 X3.4734 Y7.5852
G01 X3.4987 Y7.5808
G01 X3.5239 Y7.5752
G01 X3.6077 Y7.5540
G01 X3.6201 Y7.5504
G01 X3.6446 Y7.5423
G01 X3.7260 Y7.5130
G01 X3.7498 Y7.5032
G01 X3.7767 Y7.4906
G01 X4.7455 Y7.4906
G01 X6.2797 Y9.0248
G01 X6.2797 Y10.1704
G01 X6.2625 Y10.1443
G01 X6.2100 Y10.0735
G01 X6.1936 Y10.0536
G01 X6.1851 Y10.0439
G01 X6.1345 Y9.9883
G01 X4.3134 Y8.1670
G01 X4.2953 Y8.1409
G01 X4.2514 Y8.0818
G01 X4.2356 Y8.0615
G01 X4.2188 Y8.0420
G01 X4.1693 Y7.9874
G01 X4.1516 Y7.9688
G01 X4.1329 Y7.9510
G01 X4.0687 Y7.8930
G01 X4.0488 Y7.8767
G01 X3.9794 Y7.8250
G01 X3.9584 Y7.8102
G01 X3.9366 Y7.7964
G01 X3.8735 Y7.7586
G01 X3.8510 Y7.7459
G01 X3.8280 Y7.7343
G01 X3.7615 Y7.7028
G01 X3.7379 Y7.6924
G01 X3.7139 Y7.6831
G01 X3.6446 Y7.6583
G01 X3.6201 Y7.6502
G01 X3.5953 Y7.6433
G01 X3.5239 Y7.6255
G01 X3.4987 Y7.6198
G01 X3.4734 Y7.6154
G01 X3.3878 Y7.6029
G01 X3.3616 Y7.6003
G00 Z1.0000
G00 X4.1339 Y7.6906
G01 F60.00
G01 Z-0.1418
G01 F120.00
G01 X4.6627 Y7.6906
G01 X6.0797 Y9.1076
G01 X6.0797 Y9.6504
G01 X4.4684 Y8.0391
G01 X4.4559 Y8.0218
G01 X4.4121 Y7.9626
G01 X4.3902 Y7.9346
G01 X4.3669 Y7.9076
G01 X4.3175 Y7.8531
G01 X4.2930 Y7.8273
G01 X4.2672 Y7.8028
G01 X4.1993 Y7.7416
G01 X4.1718 Y7.7190
G01 X4.1339 Y7.6906
G00 Z1.0000
G00 X4.1200 Y11.3185
G01 F60.00
G01 Z-0.1418
G01 F120.00
G01 X4.1212 Y11.3307
G01 X4.1250 Y11.4103
G01 X4.1208 Y11.4961
G01 X4.1082 Y11.5810
G01 X4.0873 Y11.6643
G01 X4.0584 Y11.7452
G01 X4.0217 Y11.8228
G01 X3.9775 Y11.8964
G01 X3.9302 Y11.9606
G01 X3.9224 Y11.9701
G01 X3.8729 Y12.0246
G01 X3.8643 Y12.0333
G01 X3.8051 Y12.0867
G01 X3.7411 Y12.1343
G01 X3.7309 Y12.1411
G01 X3.6625 Y12.1820
G01 X3.5905 Y12.2162
G01 X3.5791 Y12.2209
G01 X3.5040 Y12.2476
G01 X3.4207 Y12.2685
G01 X3.3358 Y12.2811
G01 X3.2531 Y12.2853
G01 X0.7469 Y12.2853
G01 X0.6704 Y12.2816
G01 X0.6581 Y12.2804
G01 X0.5793 Y12.2685
G01 X0.5019 Y12.2493
G01 X0.4902 Y12.2457
G01 X0.4209 Y12.2209
G01 X0.4095 Y12.2162
G01 X0.3375 Y12.1820
G01 X0.2639 Y12.1379
G01 X0.1949 Y12.0867
G01 X0.1357 Y12.0333
G01 X0.1271 Y12.0246
G01 X0.0776 Y11.9701
G01 X0.0698 Y11.9606
G01 X0.0225 Y11.8964
G01 X-0.0217 Y11.8228
G01 X-0.0584 Y11.7452
G01 X-0.0854 Y11.6701
G01 X-0.0890 Y11.6584
G01 X-0.1068 Y11.5870
G01 X-0.1092 Y11.5750
G01 X-0.1208 Y11.4961
G01 X-0.1250 Y11.4134
G01 X-0.1248 Y11.4042
G01 X-0.1208 Y11.3246
G01 X-0.1082 Y11.2396
G01 X-0.0873 Y11.1563
G01 X-0.0584 Y11.0755
G01 X-0.0217 Y10.9978
G01 X0.0225 Y10.9242
G01 X0.0736 Y10.8552
G01 X0.1313 Y10.7916
G01 X0.1949 Y10.7339
G01 X0.2639 Y10.6828
G01 X0.3375 Y10.6386
G01 X0.4152 Y10.6019
G01 X0.4960 Y10.5730
G01 X0.5793 Y10.5521
G01 X0.6642 Y10.5395
G01 X0.7469 Y10.5354
G01 X3.2500 Y10.5353
G01 X3.3358 Y10.5395
G01 X3.4147 Y10.5511
G01 X3.4237 Y10.5528
G01 X3.5040 Y10.5730
G01 X3.5791 Y10.5997
G01 X3.5905 Y10.6044
G01 X3.6625 Y10.6386
G01 X3.7361 Y10.6828
G01 X3.8003 Y10.7302
G01 X3.8097 Y10.7379
G01 X3.8643 Y10.7874
G01 X3.8729 Y10.7960
G01 X3.9264 Y10.8552
G01 X3.9740 Y10.9192
G01 X3.9808 Y10.9294
G01 X4.0187 Y10.9925
G01 X4.0244 Y11.0033
G01 X4.0584 Y11.0755
G01 X4.0873 Y11.1563
G01 X4.1082 Y11.2396
G01 X4.1200 Y11.3185
G00 Z1.0000
G00 X3.3616 Y12.6803
G01 F60.00
G01 Z-0.1418
G01 F120.00
G01 X3.3750 Y12.6792
G01 X3.4005 Y12.6760
G01 X3.4861 Y12.6632
G01 X3.5113 Y12.6582
G01 X3.5953 Y12.6373
G01 X3.6201 Y12.6304
G01 X3.6446 Y12.6223
G01 X3.7260 Y12.5930
G01 X3.7379 Y12.5883
G01 X3.7615 Y12.5778
G01 X3.8280 Y12.5464
G01 X3.8510 Y12.5348
G01 X3.8735 Y12.5221
G01 X3.9366 Y12.4842
G01 X3.9584 Y12.4704
G01 X3.9794 Y12.4556
G01 X4.0385 Y12.4118
G01 X4.0589 Y12.3959
G01 X4.0784 Y12.3791
G01 X4.1447 Y12.3186
G01 X4.1447 Y13.0420
G01 X4.0784 Y12.9816
G01 X4.0589 Y12.9647
G01 X4.0385 Y12.9489
G01 X3.9794 Y12.9050
G01 X3.9584 Y12.8902
G01 X3.9366 Y12.8764
G01 X3.8735 Y12.8386
G01 X3.8510 Y12.8259
G01 X3.8280 Y12.8143
G01 X3.7615 Y12.7828
G01 X3.7498 Y12.7774
G01 X3.7260 Y12.7676
G01 X3.6446 Y12.7383
G01 X3.6201 Y12.7302
G01 X3.5953 Y12.7233
G01 X3.5113 Y12.7025
G01 X3.4861 Y12.6975
G01 X3.4005 Y12.6846
G01 X3.3750 Y12.6815
G01 X3.3616 Y12.6803
G00 Z1.0000
G00 X4.1200 Y13.8585
G01 F60.00
G01 Z-0.1418
G01 F120.00
G01 X4.1212 Y13.8707
G01 X4.1250 Y13.9503
G01 X4.1208 Y14.0361
G01 X4.1082 Y14.1210
G01 X4.0873 Y14.2043
G01 X4.0584 Y14.2852
G01 X4.0217 Y14.3628
G01 X3.9775 Y14.4364
G01 X3.9302 Y14.5006
G01 X3.9224 Y14.5101
G01 X3.8729 Y14.5646
G01 X3.8643 Y14.5733
G01 X3.8051 Y14.6267
G01 X3.7411 Y14.6743
G01 X3.7309 Y14.6811
G01 X3.6625 Y14.7220
G01 X3.5905 Y14.7562
G01 X3.5791 Y14.7609
G01 X3.5040 Y14.7876
G01 X3.4207 Y14.8085
G01 X3.3358 Y14.8211
G01 X3.2531 Y14.8253
G01 X0.7469 Y14.8253
G01 X0.6704 Y14.8216
G01 X0.6581 Y14.8204
G01 X0.5793 Y14.8085
G01 X0.5019 Y14.7893
G01 X0.4902 Y14.7857
G01 X0.4209 Y14.7609
G01 X0.4095 Y14.7562
G01 X0.3375 Y14.7220
G01 X0.2639 Y14.6779
G01 X0.1949 Y14.6267
G01 X0.1357 Y14.5733
G01 X0.1271 Y14.5646
G01 X0.0776 Y14.5101
G01 X0.0698 Y14.5006
G01 X0.0225 Y14.4364
G01 X-0.0217 Y14.3628
G01 X-0.0584 Y14.2852
G01 X-0.0854 Y14.2101
G01 X-0.0890 Y14.1984
G01 X-0.1068 Y14.1270
G01 X-0.1092 Y14.1150
G01 X-0.1208 Y14.0361
G01 X-0.1250 Y13.9534
G01 X-0.1248 Y13.9442
G01 X-0.1208 Y13.8646
G01 X-0.1082 Y13.7796
G01 X-0.0873 Y13.6963
G01 X-0.0584 Y13.6155
G01 X-0.0217 Y13.5378
G01 X0.0225 Y13.4642
G01 X0.0736 Y13.3952
G01 X0.1313 Y13.3316
G01 X0.1949 Y13.2739
G01 X0.2639 Y13.2228
G01 X0.3375 Y13.1786
G01 X0.4152 Y13.1419
G01 X0.4960 Y13.1130
G01 X0.5793 Y13.0921
G01 X0.6642 Y13.0795
G01 X0.7469 Y13.0754
G01 X3.2500 Y13.0753
G01 X3.3358 Y13.0795
G01 X3.4147 Y13.0911
G01 X3.4237 Y13.0928
G01 X3.5040 Y13.1130
G01 X3.5791 Y13.1397
G01 X3.5905 Y13.1444
G01 X3.6625 Y13.1786
G01 X3.7361 Y13.2228
G01 X3.8003 Y13.2702
G01 X3.8097 Y13.2779
G01 X3.8643 Y13.3274
G01 X3.8729 Y13.3360
G01 X3.9264 Y13.3952
G01 X3.9740 Y13.4592
G01 X3.9808 Y13.4694
G01 X4.0187 Y13.5325
G01 X4.0244 Y13.5433
G01 X4.0584 Y13.6155
G01 X4.0873 Y13.6963
G01 X4.1082 Y13.7796
G01 X4.1200 Y13.8585
G00 Z1.0000
G00 X4.3179 Y13.8291
G01 F60.00
G01 Z-0.1418
G01 F120.00
G01 X4.3198 Y13.8449
G01 X4.3210 Y13.8609
G01 X4.3246 Y13.9344
G01 X4.3250 Y13.9503
G01 X4.3246 Y13.9663
G01 X4.3210 Y14.0398
G01 X4.3198 Y14.0557
G01 X4.3179 Y14.0715
G01 X4.3071 Y14.1443
G01 X4.3043 Y14.1600
G01 X4.3008 Y14.1756
G01 X4.2830 Y14.2470
G01 X4.2787 Y14.2624
G01 X4.2737 Y14.2775
G01 X4.2489 Y14.3468
G01 X4.2432 Y14.3617
G01 X4.2367 Y14.3763
G01 X4.2052 Y14.4428
G01 X4.1981 Y14.4571
G01 X4.1902 Y14.4709
G01 X4.1524 Y14.5341
G01 X4.1438 Y14.5476
G01 X4.1346 Y14.5606
G01 X4.0908 Y14.6197
G01 X4.0810 Y14.6323
G01 X4.0706 Y14.6444
G01 X4.0157 Y14.7047
G01 X3.9986 Y14.7215
G01 X3.9441 Y14.7709
G01 X3.9320 Y14.7813
G01 X3.9194 Y14.7911
G01 X3.8603 Y14.8350
G01 X3.8406 Y14.8485
G01 X3.7637 Y14.8945
G01 X3.7425 Y14.9056
G01 X3.6760 Y14.9370
G01 X3.6614 Y14.9435
G01 X3.6465 Y14.9492
G01 X3.5772 Y14.9740
G01 X3.5621 Y14.9790
G01 X3.5467 Y14.9833
G01 X3.4753 Y15.0012
G01 X3.4597 Y15.0047
G01 X3.4440 Y15.0074
G01 X3.3712 Y15.0182
G01 X3.3554 Y15.0201
G01 X3.3395 Y15.0213
G01 X3.2580 Y15.0252
G01 X0.7420 Y15.0252
G01 X0.6605 Y15.0213
G01 X0.6446 Y15.0201
G01 X0.6288 Y15.0182
G01 X0.5560 Y15.0074
G01 X0.5403 Y15.0047
G01 X0.5247 Y15.0012
G01 X0.4533 Y14.9833
G01 X0.4379 Y14.9790
G01 X0.4228 Y14.9740
G01 X0.3535 Y14.9492
G01 X0.3386 Y14.9435
G01 X0.3240 Y14.9370
G01 X0.2575 Y14.9056
G01 X0.2432 Y14.8984
G01 X0.2294 Y14.8905
G01 X0.1662 Y14.8527
G01 X0.1528 Y14.8441
G01 X0.1397 Y14.8350
G01 X0.0806 Y14.7911
G01 X0.0680 Y14.7813
G01 X0.0559 Y14.7709
G01 X0.0014 Y14.7215
G01 X-0.0101 Y14.7105
G01 X-0.0211 Y14.6989
G01 X-0.0759 Y14.6384
G01 X-0.0908 Y14.6197
G01 X-0.1346 Y14.5606
G01 X-0.1438 Y14.5476
G01 X-0.1524 Y14.5341
G01 X-0.1902 Y14.4709
G01 X-0.1981 Y14.4571
G01 X-0.2052 Y14.4428
G01 X-0.2367 Y14.3763
G01 X-0.2432 Y14.3617
G01 X-0.2489 Y14.3468
G01 X-0.2737 Y14.2775
G01 X-0.2787 Y14.2624
G01 X-0.2830 Y14.2470
G01 X-0.3027 Y14.1678
G01 X-0.3071 Y14.1443
G01 X-0.3179 Y14.0715
G01 X-0.3198 Y14.0557
G01 X-0.3210 Y14.0398
G01 X-0.3249 Y13.9583
G01 X-0.3246 Y13.9344
G01 X-0.3210 Y13.8609
G01 X-0.3198 Y13.8449
G01 X-0.3179 Y13.8291
G01 X-0.3071 Y13.7563
G01 X-0.3043 Y13.7406
G01 X-0.3008 Y13.7250
G01 X-0.2830 Y13.6536
G01 X-0.2787 Y13.6383
G01 X-0.2737 Y13.6231
G01 X-0.2489 Y13.5538
G01 X-0.2432 Y13.5389
G01 X-0.2367 Y13.5243
G01 X-0.2052 Y13.4578
G01 X-0.1981 Y13.4436
G01 X-0.1902 Y13.4297
G01 X-0.1524 Y13.3666
G01 X-0.1438 Y13.3531
G01 X-0.1346 Y13.3400
G01 X-0.0908 Y13.2809
G01 X-0.0810 Y13.2683
G01 X-0.0706 Y13.2563
G01 X-0.0211 Y13.2017
G01 X-0.0101 Y13.1902
G01 X0.0014 Y13.1792
G01 X0.0559 Y13.1298
G01 X0.0680 Y13.1193
G01 X0.0806 Y13.1095
G01 X0.1397 Y13.0657
G01 X0.1528 Y13.0565
G01 X0.1662 Y13.0480
G01 X0.2294 Y13.0101
G01 X0.2432 Y13.0023
G01 X0.2575 Y12.9951
G01 X0.3240 Y12.9636
G01 X0.3386 Y12.9571
G01 X0.3535 Y12.9514
G01 X0.4228 Y12.9266
G01 X0.4379 Y12.9216
G01 X0.4533 Y12.9174
G01 X0.5247 Y12.8995
G01 X0.5403 Y12.8960
G01 X0.5560 Y12.8932
G01 X0.6288 Y12.8824
G01 X0.6446 Y12.8805
G01 X0.6605 Y12.8793
G01 X0.7420 Y12.8754
G01 X3.2580 Y12.8754
G01 X3.3474 Y12.8798
G01 X3.3712 Y12.8824
G01 X3.4440 Y12.8932
G01 X3.4597 Y12.8960
G01 X3.4753 Y12.8995
G01 X3.5544 Y12.9194
G01 X3.5772 Y12.9266
G01 X3.6465 Y12.9514
G01 X3.6614 Y12.9571
G01 X3.6760 Y12.9636
G01 X3.7425 Y12.9951
G01 X3.7568 Y13.0023
G01 X3.7706 Y13.0101
G01 X3.8338 Y13.0480
G01 X3.8472 Y13.0565
G01 X3.8603 Y13.0657
G01 X3.9194 Y13.1095
G01 X3.9320 Y13.1193
G01 X3.9441 Y13.1298
G01 X3.9986 Y13.1792
G01 X4.0101 Y13.1902
G01 X4.0211 Y13.2017
G01 X4.0706 Y13.2563
G01 X4.0810 Y13.2683
G01 X4.0908 Y13.2809
G01 X4.1346 Y13.3400
G01 X4.1438 Y13.3531
G01 X4.1524 Y13.3666
G01 X4.1902 Y13.4297
G01 X4.1981 Y13.4436
G01 X4.2052 Y13.4578
G01 X4.2367 Y13.5243
G01 X4.2432 Y13.5389
G01 X4.2489 Y13.5538
G01 X4.2737 Y13.6231
G01 X4.2787 Y13.6383
G01 X4.2830 Y13.6536
G01 X4.3008 Y13.7250
G01 X4.3043 Y13.7406
G01 X4.3071 Y13.7563
G01 X4.3179 Y13.8291
G00 Z1.0000
G00 X6.0653 Y12.9728
G01 F60.00
G01 Z-0.1418
G01 F120.00
G01 X6.1595 Y12.9869
G01 X6.2666 Y13.0138
G01 X6.3705 Y13.0510
G01 X6.4703 Y13.0982
G01 X6.5650 Y13.1549
G01 X6.6537 Y13.2207
G01 X6.7355 Y13.2948
G01 X6.8096 Y13.3766
G01 X6.8754 Y13.4653
G01 X6.9322 Y13.5600
G01 X6.9794 Y13.6598
G01 X7.0166 Y13.7637
G01 X7.0434 Y13.8708
G01 X7.0596 Y13.9800
G01 X7.0650 Y14.0903
G01 X7.0596 Y14.2006
G01 X7.0434 Y14.3098
G01 X7.0166 Y14.4169
G01 X6.9794 Y14.5208
G01 X6.9322 Y14.6206
G01 X6.8754 Y14.7153
G01 X6.8096 Y14.8040
G01 X6.7355 Y14.8858
G01 X6.6537 Y14.9600
G01 X6.5650 Y15.0257
G01 X6.4703 Y15.0825
G01 X6.3705 Y15.1297
G01 X6.2666 Y15.1669
G01 X6.1595 Y15.1937
G01 X6.0503 Y15.2099
G01 X5.9400 Y15.2153
G01 X5.8297 Y15.2099
G01 X5.7205 Y15.1937
G01 X5.6134 Y15.1669
G01 X5.5095 Y15.1297
G01 X5.4097 Y15.0825
G01 X5.3150 Y15.0257
G01 X5.2263 Y14.9600
G01 X5.1445 Y14.8858
G01 X5.0704 Y14.8040
G01 X5.0046 Y14.7153
G01 X4.9478 Y14.6206
G01 X4.9006 Y14.5208
G01 X4.8644 Y14.4198
G01 X4.8618 Y14.4110
G01 X4.8366 Y14.3098
G01 X4.8208 Y14.2036
G01 X4.8200 Y14.1945
G01 X4.8150 Y14.0934
G01 X4.8152 Y14.0842
G01 X4.8172 Y14.0428
G01 X4.7652 Y13.9907
G01 X4.7192 Y13.9400
G01 X4.7135 Y13.9328
G01 X4.6728 Y13.8777
G01 X4.6345 Y13.8137
G01 X4.6050 Y13.7519
G01 X4.6004 Y13.7406
G01 X4.5774 Y13.6760
G01 X4.5606 Y13.6096
G01 X4.5582 Y13.5976
G01 X4.5483 Y13.5298
G01 X4.5447 Y13.4584
G01 X4.5447 Y11.1145
G01 X3.1755 Y9.7453
G01 X0.7500 Y9.7453
G01 X0.6704 Y9.7416
G01 X0.6581 Y9.7404
G01 X0.5793 Y9.7285
G01 X0.5019 Y9.7093
G01 X0.4902 Y9.7057
G01 X0.4152 Y9.6787
G01 X0.3430 Y9.6448
G01 X0.3322 Y9.6390
G01 X0.2664 Y9.5995
G01 X0.2589 Y9.5943
G01 X0.1949 Y9.5467
G01 X0.1313 Y9.4890
G01 X0.0736 Y9.4254
G01 X0.0225 Y9.3564
G01 X-0.0217 Y9.2828
G01 X-0.0584 Y9.2052
G01 X-0.0873 Y9.1243
G01 X-0.1068 Y9.0470
G01 X-0.1092 Y9.0350
G01 X-0.1208 Y8.9561
G01 X-0.1248 Y8.8765
G01 X-0.1248 Y8.8642
G01 X-0.1212 Y8.7907
G01 X-0.1200 Y8.7785
G01 X-0.1082 Y8.6996
