(G-CODE GENERATED BY FLATCAM v8.994 - www.flatcam.org - Version Date: 2020/11/7)

(Name: condicionamento_BIA_v02-B_Cu.gbr_iso_combined_cnc)
(Type: G-code from Geometry)
(Units: MM)

(Created on terça, 01 agosto 2023 at 17:40)

(This preprocessor is the default preprocessor used by FlatCAM.)
(It is made to work with MACH3 compatible motion controllers.)

(TOOL DIAMETER: 0.25 mm)
(Feedrate_XY: 60.0 mm/min)
(Feedrate_Z: 60.0 mm/min)
(Feedrate rapids 1500.0 mm/min)

(Z_Cut: -0.14178 mm)
(Z_Move: 1.0 mm)
(Z Start: None mm)
(Z End: 15.0 mm)
(X,Y End: None mm)
(Steps per circle: 64)
(Preprocessor Geometry: default)

(X range:   -0.1750 ...   85.0651  mm)
(Y range:   -0.1750 ...   99.1106  mm)

(Spindle Speed: 1000.0 RPM)
G21
G90
G94

G01 F60.00

M5
G00 Z15.0000
G00 X0.0000 Y0.0000
T1
M6    
(MSG, Change to Tool Dia = 0.25000)
M0
G00 Z15.0000

M03 S1000.0
G01 F60.00
G00 X0.1068 Y3.0603
G01 F60.00
G01 Z-0.1418
G01 F60.00
G01 X-0.0000 Y3.0603
G01 X-0.0092 Y3.0600
G01 X-0.0183 Y3.0590
G01 X-0.0304 Y3.0566
G01 X-0.0421 Y3.0530
G01 X-0.0534 Y3.0483
G01 X-0.0669 Y3.0409
G01 X-0.0745 Y3.0357
G01 X-0.0816 Y3.0300
G01 X-0.0926 Y3.0193
G01 X-0.1022 Y3.0073
G01 X-0.1102 Y2.9942
G01 X-0.1166 Y2.9803
G01 X-0.1213 Y2.9657
G01 X-0.1232 Y2.9567
G01 X-0.1244 Y2.9476
G01 X-0.1250 Y2.9353
G01 X-0.1250 Y1.1353
G01 X-0.1247 Y1.1261
G01 X-0.1236 Y1.1170
G01 X-0.1220 Y1.1079
G01 X-0.1196 Y1.0990
G01 X-0.1155 Y1.0875
G01 X-0.1117 Y1.0791
G01 X-0.1072 Y1.0711
G01 X-0.1022 Y1.0633
G01 X-0.0926 Y1.0514
G01 X-0.0816 Y1.0407
G01 X-0.0694 Y1.0314
G01 X-0.0589 Y1.0251
G01 X-0.0450 Y1.0187
G01 X-0.0304 Y1.0141
G01 X-0.0183 Y1.0117
G01 X-0.0031 Y1.0104
G01 X1.5000 Y1.0103
G01 X1.5123 Y1.0109
G01 X1.5274 Y1.0134
G01 X1.5392 Y1.0166
G01 X1.5507 Y1.0210
G01 X1.5643 Y1.0281
G01 X1.5720 Y1.0331
G01 X1.5793 Y1.0387
G01 X1.5862 Y1.0448
G01 X1.5926 Y1.0514
G01 X1.6022 Y1.0633
G01 X1.6072 Y1.0711
G01 X1.6117 Y1.0791
G01 X1.6155 Y1.0875
G01 X1.6187 Y1.0961
G01 X1.6213 Y1.1049
G01 X1.6232 Y1.1139
G01 X1.6248 Y1.1292
G01 X1.6250 Y2.4557
G01 X5.1443 Y5.9750
G01 X7.2279 Y5.9750
G01 X7.2558 Y5.9443
G01 X7.2622 Y5.9377
G01 X7.3395 Y5.8677
G01 X7.3466 Y5.8619
G01 X7.4255 Y5.8034
G01 X7.4331 Y5.7982
G01 X7.5252 Y5.7432
G01 X7.6194 Y5.6984
G01 X7.6307 Y5.6937
G01 X7.7231 Y5.6607
G01 X7.7319 Y5.6579
G01 X7.8360 Y5.6319
G01 X7.9391 Y5.6165
G01 X7.9513 Y5.6153
G01 X8.0555 Y5.6103
G01 X8.1597 Y5.6153
G01 X8.1719 Y5.6165
G01 X8.2750 Y5.6319
G01 X8.3821 Y5.6588
G01 X8.4860 Y5.6960
G01 X8.5858 Y5.7432
G01 X8.6805 Y5.7999
G01 X8.7644 Y5.8619
G01 X8.7738 Y5.8697
G01 X8.8466 Y5.9356
G01 X8.8552 Y5.9443
G01 X8.9251 Y6.0216
G01 X8.9874 Y6.1053
G01 X8.9942 Y6.1155
G01 X9.0477 Y6.2050
G01 X9.0924 Y6.2992
G01 X9.0971 Y6.3105
G01 X9.1321 Y6.4087
G01 X9.1589 Y6.5158
G01 X9.1751 Y6.6250
G01 X9.1805 Y6.7353
G01 X9.1751 Y6.8456
G01 X9.1589 Y6.9548
G01 X9.1321 Y7.0619
G01 X9.0971 Y7.1601
G01 X9.0937 Y7.1687
G01 X9.0477 Y7.2656
G01 X8.9942 Y7.3552
G01 X8.9874 Y7.3654
G01 X8.9251 Y7.4490
G01 X8.8552 Y7.5264
G01 X8.8466 Y7.5350
G01 X8.7692 Y7.6050
G01 X8.6855 Y7.6672
G01 X8.6753 Y7.6740
G01 X8.5858 Y7.7275
G01 X8.4916 Y7.7722
G01 X8.4803 Y7.7769
G01 X8.3821 Y7.8119
G01 X8.2810 Y7.8374
G01 X8.2689 Y7.8397
G01 X8.1719 Y7.8541
G01 X8.1597 Y7.8554
G01 X8.0555 Y7.8603
G01 X7.9513 Y7.8554
G01 X7.9391 Y7.8541
G01 X7.8421 Y7.8397
G01 X7.8300 Y7.8374
G01 X7.7289 Y7.8119
G01 X7.6278 Y7.7758
G01 X7.6194 Y7.7722
G01 X7.5252 Y7.7275
G01 X7.4357 Y7.6740
G01 X7.4280 Y7.6690
G01 X7.3466 Y7.6087
G01 X7.3395 Y7.6030
G01 X7.2622 Y7.5330
G01 X7.2558 Y7.5264
G01 X7.2279 Y7.4956
G01 X4.8263 Y7.4956
G01 X4.7548 Y7.4920
G01 X4.6810 Y7.4810
G01 X4.6086 Y7.4629
G01 X4.5441 Y7.4400
G01 X4.5356 Y7.4366
G01 X4.4709 Y7.4059
G01 X4.4069 Y7.3675
G01 X4.3470 Y7.3231
G01 X4.2917 Y7.2729
G01 X0.2124 Y3.1936
G01 X0.1663 Y3.1430
G01 X0.1603 Y3.1359
G01 X0.1196 Y3.0809
G01 X0.1068 Y3.0603
G00 Z1.0000
G00 X0.0927 Y3.0853
G01 F60.00
G01 Z-0.1418
G01 F60.00
G01 X-0.0000 Y3.0853
G01 X-0.0110 Y3.0849
G01 X-0.0184 Y3.0842
G01 X-0.0329 Y3.0817
G01 X-0.0471 Y3.0777
G01 X-0.0608 Y3.0724
G01 X-0.0739 Y3.0658
G01 X-0.0802 Y3.0620
G01 X-0.0894 Y3.0558
G01 X-0.0952 Y3.0513
G01 X-0.1034 Y3.0440
G01 X-0.1136 Y3.0333
G01 X-0.1205 Y3.0247
G01 X-0.1247 Y3.0187
G01 X-0.1287 Y3.0124
G01 X-0.1340 Y3.0028
G01 X-0.1371 Y2.9961
G01 X-0.1412 Y2.9859
G01 X-0.1446 Y2.9753
G01 X-0.1464 Y2.9682
G01 X-0.1484 Y2.9573
G01 X-0.1493 Y2.9500
G01 X-0.1500 Y2.9353
G01 X-0.1500 Y1.1316
G01 X-0.1493 Y1.1206
G01 X-0.1478 Y1.1097
G01 X-0.1455 Y1.0989
G01 X-0.1424 Y1.0883
G01 X-0.1386 Y1.0779
G01 X-0.1340 Y1.0679
G01 X-0.1287 Y1.0582
G01 X-0.1226 Y1.0489
G01 X-0.1183 Y1.0430
G01 X-0.1111 Y1.0346
G01 X-0.1061 Y1.0293
G01 X-0.0980 Y1.0217
G01 X-0.0894 Y1.0148
G01 X-0.0833 Y1.0106
G01 X-0.0707 Y1.0030
G01 X-0.0574 Y0.9967
G01 X-0.0505 Y0.9941
G01 X-0.0400 Y0.9908
G01 X-0.0293 Y0.9882
G01 X-0.0220 Y0.9869
G01 X-0.0110 Y0.9857
G01 X-0.0037 Y0.9854
G01 X1.5000 Y0.9853
G01 X1.5147 Y0.9860
G01 X1.5293 Y0.9882
G01 X1.5364 Y0.9898
G01 X1.5471 Y0.9929
G01 X1.5608 Y0.9982
G01 X1.5707 Y1.0030
G01 X1.5802 Y1.0086
G01 X1.5864 Y1.0127
G01 X1.5952 Y1.0194
G01 X1.6034 Y1.0267
G01 X1.6086 Y1.0319
G01 X1.6160 Y1.0402
G01 X1.6226 Y1.0489
G01 X1.6287 Y1.0582
G01 X1.6340 Y1.0679
G01 X1.6386 Y1.0779
G01 X1.6412 Y1.0848
G01 X1.6435 Y1.0918
G01 X1.6464 Y1.1025
G01 X1.6484 Y1.1133
G01 X1.6496 Y1.1243
G01 X1.6500 Y1.1353
G01 X1.6500 Y2.4454
G01 X5.1546 Y5.9500
G01 X7.2168 Y5.9500
G01 X7.2373 Y5.9275
G01 X7.2450 Y5.9196
G01 X7.3231 Y5.8487
G01 X7.3318 Y5.8418
G01 X7.4106 Y5.7834
G01 X7.4197 Y5.7771
G01 X7.5134 Y5.7211
G01 X7.6087 Y5.6758
G01 X7.6223 Y5.6702
G01 X7.7147 Y5.6371
G01 X7.7252 Y5.6338
G01 X7.8311 Y5.6074
G01 X7.9355 Y5.5918
G01 X7.9501 Y5.5903
G01 X8.0555 Y5.5853
G01 X8.1609 Y5.5903
G01 X8.1755 Y5.5918
G01 X8.2799 Y5.6074
G01 X8.3893 Y5.6348
G01 X8.4956 Y5.6729
G01 X8.5976 Y5.7211
G01 X8.6944 Y5.7791
G01 X8.7792 Y5.8418
G01 X8.7906 Y5.8512
G01 X8.8633 Y5.9171
G01 X8.8737 Y5.9275
G01 X8.9445 Y6.0058
G01 X9.0075 Y6.0904
G01 X9.0156 Y6.1026
G01 X9.0697 Y6.1932
G01 X9.1150 Y6.2885
G01 X9.1206 Y6.3021
G01 X9.1560 Y6.4015
G01 X9.1834 Y6.5110
G01 X9.2000 Y6.6226
G01 X9.2055 Y6.7353
G01 X9.2000 Y6.8480
G01 X9.1834 Y6.9597
G01 X9.1560 Y7.0691
G01 X9.1206 Y7.1685
G01 X9.1165 Y7.1788
G01 X9.0697 Y7.2774
G01 X9.0156 Y7.3680
G01 X9.0075 Y7.3802
G01 X8.9445 Y7.4649
G01 X8.8737 Y7.5432
G01 X8.8633 Y7.5536
G01 X8.7851 Y7.6243
G01 X8.7004 Y7.6873
G01 X8.6882 Y7.6954
G01 X8.5976 Y7.7495
G01 X8.5023 Y7.7948
G01 X8.4887 Y7.8004
G01 X8.3893 Y7.8358
G01 X8.2870 Y7.8616
G01 X8.2726 Y7.8645
G01 X8.1755 Y7.8789
G01 X8.1609 Y7.8803
G01 X8.0555 Y7.8853
G01 X7.9501 Y7.8803
G01 X7.9355 Y7.8789
G01 X7.8384 Y7.8645
G01 X7.8240 Y7.8616
G01 X7.7217 Y7.8358
G01 X7.6188 Y7.7991
G01 X7.6087 Y7.7948
G01 X7.5134 Y7.7495
G01 X7.4228 Y7.6954
G01 X7.4136 Y7.6894
G01 X7.3318 Y7.6288
G01 X7.3231 Y7.6219
G01 X7.2450 Y7.5511
G01 X7.2373 Y7.5432
G01 X7.2168 Y7.5206
G01 X4.8257 Y7.5206
G01 X4.7524 Y7.5169
G01 X4.6761 Y7.5055
G01 X4.6014 Y7.4868
G01 X4.5357 Y7.4635
G01 X4.5254 Y7.4594
G01 X4.4591 Y7.4279
G01 X4.3930 Y7.3883
G01 X4.3311 Y7.3424
G01 X4.2740 Y7.2906
G01 X0.1947 Y3.2113
G01 X0.1429 Y3.1542
G01 X0.1013 Y3.0983
G01 X0.0927 Y3.0853
G00 Z1.0000
G00 X0.0791 Y3.1103
G01 F60.00
G01 Z-0.1418
G01 F60.00
G01 X-0.0043 Y3.1103
G01 X-0.0172 Y3.1095
G01 X-0.0257 Y3.1084
G01 X-0.0425 Y3.1051
G01 X-0.0590 Y3.1001
G01 X-0.0748 Y3.0935
G01 X-0.0863 Y3.0876
G01 X-0.0936 Y3.0832
G01 X-0.1008 Y3.0784
G01 X-0.1110 Y3.0706
G01 X-0.1237 Y3.0591
G01 X-0.1353 Y3.0463
G01 X-0.1406 Y3.0396
G01 X-0.1478 Y3.0289
G01 X-0.1543 Y3.0178
G01 X-0.1582 Y3.0101
G01 X-0.1617 Y3.0023
G01 X-0.1662 Y2.9902
G01 X-0.1698 Y2.9778
G01 X-0.1716 Y2.9695
G01 X-0.1742 Y2.9525
G01 X-0.1750 Y2.9353
G01 X-0.1749 Y1.1310
G01 X-0.1742 Y1.1182
G01 X-0.1724 Y1.1054
G01 X-0.1698 Y1.0928
G01 X-0.1662 Y1.0804
G01 X-0.1617 Y1.0683
G01 X-0.1563 Y1.0566
G01 X-0.1501 Y1.0453
G01 X-0.1431 Y1.0346
G01 X-0.1325 Y1.0210
G01 X-0.1237 Y1.0116
G01 X-0.1175 Y1.0057
G01 X-0.1077 Y0.9974
G01 X-0.1008 Y0.9922
G01 X-0.0900 Y0.9852
G01 X-0.0825 Y0.9810
G01 X-0.0748 Y0.9771
G01 X-0.0630 Y0.9720
G01 X-0.0467 Y0.9667
G01 X-0.0341 Y0.9637
G01 X-0.0257 Y0.9622
G01 X-0.0172 Y0.9612
G01 X-0.0043 Y0.9604
G01 X1.5000 Y0.9603
G01 X1.5129 Y0.9608
G01 X1.5214 Y0.9616
G01 X1.5383 Y0.9646
G01 X1.5549 Y0.9692
G01 X1.5709 Y0.9753
G01 X1.5787 Y0.9790
G01 X1.5900 Y0.9852
G01 X1.6008 Y0.9922
G01 X1.6110 Y1.0000
G01 X1.6175 Y1.0057
G01 X1.6267 Y1.0146
G01 X1.6353 Y1.0243
G01 X1.6431 Y1.0346
G01 X1.6478 Y1.0417
G01 X1.6543 Y1.0528
G01 X1.6600 Y1.0644
G01 X1.6648 Y1.0764
G01 X1.6687 Y1.0886
G01 X1.6707 Y1.0970
G01 X1.6731 Y1.1096
G01 X1.6745 Y1.1224
G01 X1.6750 Y1.1353
G01 X1.6750 Y2.4350
G01 X5.1650 Y5.9250
G01 X7.2058 Y5.9250
G01 X7.2217 Y5.9075
G01 X7.2277 Y5.9015
G01 X7.3101 Y5.8270
G01 X7.3957 Y5.7633
G01 X7.4100 Y5.7537
G01 X7.5016 Y5.6991
G01 X7.5980 Y5.6532
G01 X7.6139 Y5.6467
G01 X7.7063 Y5.6136
G01 X7.7227 Y5.6086
G01 X7.8263 Y5.5829
G01 X7.9318 Y5.5670
G01 X7.9489 Y5.5653
G01 X8.0555 Y5.5603
G01 X8.1707 Y5.5660
G01 X8.2763 Y5.5814
G01 X8.2931 Y5.5848
G01 X8.3883 Y5.6086
G01 X8.4007 Y5.6122
G01 X8.5052 Y5.6498
G01 X8.6094 Y5.6991
G01 X8.7083 Y5.7583
G01 X8.7941 Y5.8217
G01 X8.8074 Y5.8326
G01 X8.8801 Y5.8985
G01 X8.8923 Y5.9107
G01 X8.9638 Y5.9899
G01 X9.0275 Y6.0755
G01 X9.0371 Y6.0898
G01 X9.0918 Y6.1814
G01 X9.1376 Y6.2778
G01 X9.1441 Y6.2937
G01 X9.1799 Y6.3942
G01 X9.2079 Y6.5061
G01 X9.2248 Y6.6201
G01 X9.2305 Y6.7353
G01 X9.2248 Y6.8505
G01 X9.2079 Y6.9645
G01 X9.1799 Y7.0764
G01 X9.1441 Y7.1770
G01 X9.1394 Y7.1889
G01 X9.0918 Y7.2892
G01 X9.0371 Y7.3809
G01 X9.0275 Y7.3951
G01 X8.9638 Y7.4807
G01 X8.8923 Y7.5599
G01 X8.8801 Y7.5721
G01 X8.8009 Y7.6436
G01 X8.7153 Y7.7073
G01 X8.7010 Y7.7169
G01 X8.6094 Y7.7716
G01 X8.5130 Y7.8174
G01 X8.4971 Y7.8240
G01 X8.3966 Y7.8597
G01 X8.2931 Y7.8859
G01 X8.2763 Y7.8892
G01 X8.1792 Y7.9036
G01 X8.1664 Y7.9050
G01 X8.0555 Y7.9103
G01 X7.9489 Y7.9053
G01 X7.9318 Y7.9036
G01 X7.8263 Y7.8877
G01 X7.7227 Y7.8620
G01 X7.7063 Y7.8570
G01 X7.6098 Y7.8225
G01 X7.5980 Y7.8174
G01 X7.5016 Y7.7716
G01 X7.4027 Y7.7123
G01 X7.3169 Y7.6489
G01 X7.3068 Y7.6408
G01 X7.2277 Y7.5692
G01 X7.2216 Y7.5631
G01 X7.2058 Y7.5456
G01 X4.8251 Y7.5456
G01 X4.7499 Y7.5417
G01 X4.6713 Y7.5301
G01 X4.5941 Y7.5107
G01 X4.5273 Y7.4870
G01 X4.5153 Y7.4823
G01 X4.4474 Y7.4500
G01 X4.3792 Y7.4091
G01 X4.3153 Y7.3617
G01 X4.2564 Y7.3083
G01 X0.1770 Y3.2290
G01 X0.1236 Y3.1700
G01 X0.0791 Y3.1103
G00 Z1.0000
G00 X3.2373 Y1.0128
G01 F60.00
G01 Z-0.1418
G01 F60.00
G01 X3.7246 Y0.5255
G01 X3.7777 Y0.4776
G01 X3.8351 Y0.4349
G01 X3.8428 Y0.4299
G01 X3.8963 Y0.3978
G01 X3.9071 Y0.3920
G01 X3.9690 Y0.3629
G01 X4.0393 Y0.3377
G01 X4.1057 Y0.3210
G01 X4.1177 Y0.3186
G01 X4.1855 Y0.3087
G01 X4.2569 Y0.3050
G01 X29.0231 Y0.3050
G01 X29.0945 Y0.3087
G01 X29.1623 Y0.3186
G01 X29.1743 Y0.3210
G01 X29.2407 Y0.3377
G01 X29.3052 Y0.3607
G01 X29.3166 Y0.3654
G01 X29.3784 Y0.3948
G01 X29.4398 Y0.4315
G01 X29.4474 Y0.4367
G01 X29.5023 Y0.4776
G01 X29.5554 Y0.5255
G01 X29.8424 Y0.8125
G01 X29.8839 Y0.8105
G01 X29.8931 Y0.8104
G01 X29.9942 Y0.8153
G01 X30.0033 Y0.8161
G01 X30.1095 Y0.8319
G01 X30.2107 Y0.8571
G01 X30.2195 Y0.8597
G01 X30.3205 Y0.8960
G01 X30.4203 Y0.9432
G01 X30.5150 Y0.9999
G01 X30.6037 Y1.0657
G01 X30.6855 Y1.1398
G01 X30.7556 Y1.2170
G01 X30.7634 Y1.2265
G01 X30.8254 Y1.3103
G01 X30.8791 Y1.3997
G01 X30.8849 Y1.4105
G01 X30.9269 Y1.4992
G01 X30.9316 Y1.5105
G01 X30.9666 Y1.6087
G01 X30.9934 Y1.7158
G01 X31.0096 Y1.8250
G01 X31.0148 Y1.9292
G01 X31.0150 Y1.9384
G01 X31.0096 Y2.0456
G01 X30.9934 Y2.1548
G01 X30.9666 Y2.2619
G01 X30.9294 Y2.3658
G01 X30.8822 Y2.4656
G01 X30.8254 Y2.5603
G01 X30.7596 Y2.6490
G01 X30.6855 Y2.7308
G01 X30.6037 Y2.8050
G01 X30.5150 Y2.8707
G01 X30.4203 Y2.9275
G01 X30.3205 Y2.9747
G01 X30.2166 Y3.0119
G01 X30.1095 Y3.0387
G01 X30.0003 Y3.0549
G01 X29.8961 Y3.0602
G01 X29.8869 Y3.0603
G01 X29.7797 Y3.0549
G01 X29.6705 Y3.0387
G01 X29.5634 Y3.0119
G01 X29.4595 Y2.9747
G01 X29.3597 Y2.9275
G01 X29.2650 Y2.8707
G01 X29.1763 Y2.8050
G01 X29.0989 Y2.7350
G01 X29.0924 Y2.7286
G01 X29.0204 Y2.6490
G01 X28.9546 Y2.5603
G01 X28.8978 Y2.4656
G01 X28.8518 Y2.3687
G01 X28.8484 Y2.3601
G01 X28.8134 Y2.2619
G01 X28.7880 Y2.1608
G01 X28.7861 Y2.1518
G01 X28.7712 Y2.0517
G01 X28.7702 Y2.0425
G01 X28.7650 Y1.9384
G01 X28.7652 Y1.9292
G01 X28.7672 Y1.8878
G01 X28.7051 Y1.8256
G01 X22.9303 Y1.8256
G01 X22.9303 Y2.9093
G01 X22.9408 Y2.9240
G01 X22.9858 Y2.9993
G01 X23.0221 Y3.0757
G01 X23.0268 Y3.0871
G01 X23.0552 Y3.1668
G01 X23.0759 Y3.2489
G01 X23.0783 Y3.2609
G01 X23.0898 Y3.3386
G01 X23.0910 Y3.3508
G01 X23.0950 Y3.4353
G01 X23.0948 Y3.8415
G01 X23.0910 Y3.9199
G01 X23.0898 Y3.9321
G01 X23.0772 Y4.0158
G01 X23.0568 Y4.0979
G01 X23.0532 Y4.1097
G01 X23.0268 Y4.1836
G01 X23.0221 Y4.1949
G01 X22.9858 Y4.2714
G01 X22.9391 Y4.3492
G01 X22.8850 Y4.4221
G01 X22.8283 Y4.4849
G01 X22.8196 Y4.4936
G01 X22.7615 Y4.5463
G01 X22.7520 Y4.5541
G01 X22.6839 Y4.6044
G01 X22.6060 Y4.6511
G01 X22.5240 Y4.6899
G01 X22.4443 Y4.7186
G01 X22.4326 Y4.7221
G01 X22.3564 Y4.7412
G01 X22.3444 Y4.7436
G01 X22.2607 Y4.7559
G01 X22.1700 Y4.7603
G01 X22.0793 Y4.7559
G01 X21.9956 Y4.7436
G01 X21.9836 Y4.7412
G01 X21.9074 Y4.7221
G01 X21.8957 Y4.7186
G01 X21.8160 Y4.6899
G01 X21.7340 Y4.6511
G01 X21.6561 Y4.6044
G01 X21.5880 Y4.5541
G01 X21.5785 Y4.5463
G01 X21.5204 Y4.4936
G01 X21.5117 Y4.4849
G01 X21.4550 Y4.4221
G01 X21.4009 Y4.3492
G01 X21.3542 Y4.2714
G01 X21.3179 Y4.1949
G01 X21.3132 Y4.1836
G01 X21.2868 Y4.1097
G01 X21.2832 Y4.0979
G01 X21.2628 Y4.0158
G01 X21.2502 Y3.9321
G01 X21.2490 Y3.9199
G01 X21.2452 Y3.8415
G01 X21.2450 Y3.4353
G01 X21.2490 Y3.3508
G01 X21.2502 Y3.3386
G01 X21.2617 Y3.2609
G01 X21.2641 Y3.2489
G01 X21.2848 Y3.1668
G01 X21.3132 Y3.0871
G01 X21.3179 Y3.0757
G01 X21.3542 Y2.9993
G01 X21.3992 Y2.9240
G01 X21.4097 Y2.9093
G01 X21.4097 Y1.8256
G01 X10.9503 Y1.8256
G01 X10.9503 Y16.2853
G01 X10.9467 Y16.3598
G01 X10.9368 Y16.4276
G01 X10.9344 Y16.4396
G01 X10.9192 Y16.5001
G01 X10.9157 Y16.5119
G01 X10.8924 Y16.5763
G01 X10.8605 Y16.6437
G01 X10.8255 Y16.7025
G01 X10.8186 Y16.7127
G01 X10.7777 Y16.7677
G01 X10.7319 Y16.8185
G01 X8.5503 Y19.0003
G01 X8.5503 Y20.2077
G01 X8.5811 Y20.2356
G01 X8.5876 Y20.2420
G01 X8.6577 Y20.3193
G01 X8.6634 Y20.3265
G01 X8.7219 Y20.4053
G01 X8.7271 Y20.4129
G01 X8.7822 Y20.5050
G01 X8.8269 Y20.5992
G01 X8.8316 Y20.6105
G01 X8.8656 Y20.7058
G01 X8.8682 Y20.7147
G01 X8.8920 Y20.8099
G01 X8.8944 Y20.8219
G01 X8.9096 Y20.9250
G01 X8.9148 Y21.0292
G01 X8.9148 Y21.0415
G01 X8.9096 Y21.1456
G01 X8.8944 Y21.2487
G01 X8.8920 Y21.2608
G01 X8.8666 Y21.3619
G01 X8.8294 Y21.4658
G01 X8.7822 Y21.5656
G01 X8.7287 Y21.6552
G01 X8.7219 Y21.6654
G01 X8.6634 Y21.7442
G01 X8.6556 Y21.7537
G01 X8.5855 Y21.8308
G01 X8.5037 Y21.9050
G01 X8.4150 Y21.9707
G01 X8.3203 Y22.0275
G01 X8.2205 Y22.0747
G01 X8.1224 Y22.1100
G01 X8.1107 Y22.1135
G01 X8.0155 Y22.1374
G01 X8.0034 Y22.1397
G01 X7.9003 Y22.1549
G01 X7.7961 Y22.1602
G01 X7.7869 Y22.1603
G01 X7.6797 Y22.1549
G01 X7.5705 Y22.1387
G01 X7.4634 Y22.1119
G01 X7.3595 Y22.0747
G01 X7.2597 Y22.0275
G01 X7.1650 Y21.9707
G01 X7.0763 Y21.9050
G01 X6.9989 Y21.8350
G01 X6.9903 Y21.8264
G01 X6.9244 Y21.7537
G01 X6.9166 Y21.7442
G01 X6.8546 Y21.6603
G01 X6.8009 Y21.5710
G01 X6.7951 Y21.5602
G01 X6.7506 Y21.4658
G01 X6.7154 Y21.3677
G01 X6.7118 Y21.3560
G01 X6.6866 Y21.2548
G01 X6.6704 Y21.1456
G01 X6.6650 Y21.0353
G01 X6.6702 Y20.9281
G01 X6.6712 Y20.9190
G01 X6.6866 Y20.8158
G01 X6.7134 Y20.7087
G01 X6.7506 Y20.6048
G01 X6.7964 Y20.5077
G01 X6.8009 Y20.4997
G01 X6.8546 Y20.4103
G01 X6.9184 Y20.3240
G01 X6.9244 Y20.3170
G01 X6.9924 Y20.2420
G01 X6.9989 Y20.2356
G01 X7.0297 Y20.2077
G01 X7.0298 Y18.6792
G01 X7.0329 Y18.6169
G01 X7.0341 Y18.6047
G01 X7.0443 Y18.5370
G01 X7.0608 Y18.4705
G01 X7.0643 Y18.4588
G01 X7.0876 Y18.3944
G01 X7.1167 Y18.3324
G01 X7.1209 Y18.3242
G01 X7.1578 Y18.2629
G01 X7.1985 Y18.2078
G01 X7.2063 Y18.1983
G01 X7.2524 Y18.1477
G01 X9.4297 Y15.9704
G01 X9.4297 Y1.8256
G01 X4.5749 Y1.8256
G01 X4.1626 Y2.2380
G01 X4.1612 Y2.2650
G01 X4.1604 Y2.2741
G01 X4.1487 Y2.3530
G01 X4.1468 Y2.3620
G01 X4.1282 Y2.4364
G01 X4.1254 Y2.4451
G01 X4.0984 Y2.5202
G01 X4.0631 Y2.5951
G01 X4.0587 Y2.6031
G01 X4.0175 Y2.6714
G01 X3.9664 Y2.7404
G01 X3.9087 Y2.8040
G01 X3.8497 Y2.8577
G01 X3.8403 Y2.8655
G01 X3.7761 Y2.9129
G01 X3.7025 Y2.9570
G01 X3.6248 Y2.9937
G01 X3.5440 Y3.0226
G01 X3.4607 Y3.0435
G01 X3.3758 Y3.0561
G01 X3.2900 Y3.0603
G01 X3.2104 Y3.0566
G01 X3.2012 Y3.0558
G01 X3.1193 Y3.0435
G01 X3.0419 Y3.0243
G01 X3.0302 Y3.0207
G01 X2.9552 Y2.9937
G01 X2.8830 Y2.9598
G01 X2.8722 Y2.9540
G01 X2.8091 Y2.9161
G01 X2.7989 Y2.9093
G01 X2.7349 Y2.8617
G01 X2.6713 Y2.8040
G01 X2.6136 Y2.7404
G01 X2.5625 Y2.6714
G01 X2.5183 Y2.5978
G01 X2.4816 Y2.5202
G01 X2.4527 Y2.4393
G01 X2.4318 Y2.3560
G01 X2.4192 Y2.2711
G01 X2.4150 Y2.1884
G01 X2.4150 Y1.8822
G01 X2.4192 Y1.7996
G01 X2.4318 Y1.7146
G01 X2.4527 Y1.6313
G01 X2.4816 Y1.5505
G01 X2.5183 Y1.4728
G01 X2.5625 Y1.3992
G01 X2.6136 Y1.3302
G01 X2.6691 Y1.2688
G01 X2.6757 Y1.2624
G01 X2.7349 Y1.2089
G01 X2.8039 Y1.1578
G01 X2.8775 Y1.1136
G01 X2.9523 Y1.0781
G01 X2.9609 Y1.0747
G01 X3.0360 Y1.0480
G01 X3.1163 Y1.0278
G01 X3.1253 Y1.0261
G01 X3.2012 Y1.0149
G01 X3.2104 Y1.0141
G01 X3.2373 Y1.0128
G00 Z1.0000
G00 X4.1871 Y2.2489
G01 F60.00
G01 Z-0.1418
G01 F60.00
G01 X4.1860 Y2.2699
G01 X4.1853 Y2.2772
G01 X4.1734 Y2.3573
G01 X4.1711 Y2.3681
G01 X4.1523 Y2.4430
G01 X4.1489 Y2.4536
G01 X4.1215 Y2.5297
G01 X4.0854 Y2.6063
G01 X4.0801 Y2.6160
G01 X4.0383 Y2.6853
G01 X3.9857 Y2.7563
G01 X3.9264 Y2.8217
G01 X3.8665 Y2.8762
G01 X3.8581 Y2.8833
G01 X3.7900 Y2.9336
G01 X3.7207 Y2.9754
G01 X3.7077 Y2.9824
G01 X3.6344 Y3.0168
G01 X3.5582 Y3.0443
G01 X3.5442 Y3.0485
G01 X3.4728 Y3.0664
G01 X3.4583 Y3.0693
G01 X3.3782 Y3.0810
G01 X3.2900 Y3.0853
G01 X3.2018 Y3.0810
G01 X3.1144 Y3.0680
G01 X3.0287 Y3.0466
G01 X2.9456 Y3.0168
G01 X2.8657 Y2.9790
G01 X2.7900 Y2.9336
G01 X2.7190 Y2.8810
G01 X2.6536 Y2.8217
G01 X2.5943 Y2.7563
G01 X2.5459 Y2.6914
G01 X2.5377 Y2.6791
G01 X2.4963 Y2.6096
G01 X2.4585 Y2.5297
G01 X2.4288 Y2.4466
G01 X2.4089 Y2.3681
G01 X2.4066 Y2.3573
G01 X2.3943 Y2.2735
G01 X2.3900 Y2.1890
G01 X2.3902 Y1.8780
G01 X2.3938 Y1.8044
G01 X2.3952 Y1.7898
G01 X2.4073 Y1.7097
G01 X2.4268 Y1.6312
G01 X2.4311 Y1.6171
G01 X2.4585 Y1.5409
G01 X2.4930 Y1.4676
G01 X2.4999 Y1.4547
G01 X2.5417 Y1.3853
G01 X2.5943 Y1.3144
G01 X2.6536 Y1.2489
G01 X2.7162 Y1.1920
G01 X2.7249 Y1.1851
G01 X2.7840 Y1.1412
G01 X2.7962 Y1.1331
G01 X2.8657 Y1.0916
G01 X2.9456 Y1.0538
G01 X3.0287 Y1.0241
G01 X3.1108 Y1.0034
G01 X3.1217 Y1.0014
G01 X3.1981 Y0.9901
G01 X3.2055 Y0.9893
G01 X3.2250 Y0.9883
G01 X3.7074 Y0.5074
G01 X3.7562 Y0.4631
G01 X3.7676 Y0.4537
G01 X3.8237 Y0.4123
G01 X3.8834 Y0.3764
G01 X3.8964 Y0.3694
G01 X3.9595 Y0.3398
G01 X4.0250 Y0.3161
G01 X4.0391 Y0.3119
G01 X4.1068 Y0.2951
G01 X4.1757 Y0.2847
G01 X4.1904 Y0.2832
G01 X4.2600 Y0.2800
G01 X29.0200 Y0.2800
G01 X29.0933 Y0.2835
G01 X29.1043 Y0.2847
G01 X29.1732 Y0.2951
G01 X29.2409 Y0.3119
G01 X29.2550 Y0.3161
G01 X29.3205 Y0.3398
G01 X29.3836 Y0.3694
G01 X29.3966 Y0.3764
G01 X29.4563 Y0.4123
G01 X29.5182 Y0.4583
G01 X29.5727 Y0.5074
G01 X29.8523 Y0.7870
G01 X29.8826 Y0.7855
G01 X29.8937 Y0.7854
G01 X29.9954 Y0.7903
G01 X30.0064 Y0.7913
G01 X30.1144 Y0.8074
G01 X30.2167 Y0.8329
G01 X30.2273 Y0.8359
G01 X30.3301 Y0.8729
G01 X30.4321 Y0.9211
G01 X30.5289 Y0.9791
G01 X30.6137 Y1.0418
G01 X30.6224 Y1.0487
G01 X30.7032 Y1.1221
G01 X30.7742 Y1.2002
G01 X30.7835 Y1.2116
G01 X30.8462 Y1.2964
G01 X30.9006 Y1.3868
G01 X30.9075 Y1.3998
G01 X30.9495 Y1.4885
G01 X30.9551 Y1.5021
G01 X30.9905 Y1.6015
G01 X31.0179 Y1.7110
G01 X31.0345 Y1.8226
G01 X31.0400 Y1.9353
G01 X31.0345 Y2.0480
G01 X31.0179 Y2.1597
G01 X30.9905 Y2.2691
G01 X30.9525 Y2.3754
G01 X30.9042 Y2.4774
G01 X30.8462 Y2.5742
G01 X30.7790 Y2.6649
G01 X30.7032 Y2.7485
G01 X30.6196 Y2.8243
G01 X30.5289 Y2.8915
G01 X30.4321 Y2.9495
G01 X30.3301 Y2.9978
G01 X30.2238 Y3.0358
G01 X30.1144 Y3.0632
G01 X30.0027 Y3.0798
G01 X29.8900 Y3.0853
G01 X29.7773 Y3.0798
G01 X29.6656 Y3.0632
G01 X29.5562 Y3.0358
G01 X29.4499 Y2.9978
G01 X29.3479 Y2.9495
G01 X29.2511 Y2.8915
G01 X29.1604 Y2.8243
G01 X29.0822 Y2.7536
G01 X29.0743 Y2.7459
G01 X29.0010 Y2.6649
G01 X28.9338 Y2.5742
G01 X28.8758 Y2.4774
G01 X28.8275 Y2.3754
G01 X28.7895 Y2.2691
G01 X28.7637 Y2.1669
G01 X28.7614 Y2.1561
G01 X28.7464 Y2.0553
G01 X28.7452 Y2.0444
G01 X28.7400 Y1.9390
G01 X28.7402 Y1.9280
G01 X28.7417 Y1.8976
G01 X28.6947 Y1.8506
G01 X22.9553 Y1.8506
G01 X22.9553 Y2.9010
G01 X22.9638 Y2.9137
G01 X23.0078 Y2.9875
G01 X23.0447 Y3.0650
G01 X23.0503 Y3.0786
G01 X23.0791 Y3.1595
G01 X23.1001 Y3.2428
G01 X23.1030 Y3.2572
G01 X23.1145 Y3.3349
G01 X23.1160 Y3.3495
G01 X23.1200 Y3.4353
G01 X23.1198 Y3.8427
G01 X23.1154 Y3.9284
G01 X23.1030 Y4.0134
G01 X23.1001 Y4.0278
G01 X23.0801 Y4.1076
G01 X23.0768 Y4.1181
G01 X23.0503 Y4.1920
G01 X23.0447 Y4.2056
G01 X23.0078 Y4.2831
G01 X22.9599 Y4.3631
G01 X22.9044 Y4.4380
G01 X22.8468 Y4.5017
G01 X22.8364 Y4.5121
G01 X22.7782 Y4.5649
G01 X22.7669 Y4.5742
G01 X22.6978 Y4.6252
G01 X22.6178 Y4.6731
G01 X22.5335 Y4.7130
G01 X22.4528 Y4.7421
G01 X22.4387 Y4.7464
G01 X22.3625 Y4.7655
G01 X22.3481 Y4.7683
G01 X22.2631 Y4.7807
G01 X22.1700 Y4.7853
G01 X22.0769 Y4.7807
G01 X21.9919 Y4.7683
G01 X21.9775 Y4.7655
G01 X21.9013 Y4.7464
G01 X21.8872 Y4.7421
G01 X21.8065 Y4.7130
G01 X21.7222 Y4.6731
G01 X21.6422 Y4.6252
G01 X21.5731 Y4.5742
G01 X21.5618 Y4.5649
G01 X21.5036 Y4.5121
G01 X21.4932 Y4.5017
G01 X21.4356 Y4.4380
G01 X21.3801 Y4.3631
G01 X21.3322 Y4.2831
G01 X21.2953 Y4.2056
G01 X21.2897 Y4.1920
G01 X21.2632 Y4.1181
G01 X21.2599 Y4.1076
G01 X21.2399 Y4.0278
G01 X21.2370 Y4.0134
G01 X21.2246 Y3.9284
G01 X21.2202 Y3.8427
G01 X21.2200 Y3.4353
G01 X21.2240 Y3.3495
G01 X21.2255 Y3.3349
G01 X21.2370 Y3.2572
G01 X21.2399 Y3.2428
G01 X21.2609 Y3.1595
G01 X21.2897 Y3.0786
G01 X21.2953 Y3.0650
G01 X21.3322 Y2.9875
G01 X21.3762 Y2.9137
G01 X21.3847 Y2.9010
G01 X21.3847 Y1.8506
G01 X10.9753 Y1.8506
G01 X10.9753 Y16.2853
G01 X10.9715 Y16.3623
G01 X10.9615 Y16.4313
G01 X10.9586 Y16.4457
G01 X10.9435 Y16.5062
G01 X10.9392 Y16.5203
G01 X10.9155 Y16.5858
G01 X10.8826 Y16.6555
G01 X10.8469 Y16.7154
G01 X10.8387 Y16.7276
G01 X10.7971 Y16.7835
G01 X10.7504 Y16.8353
G01 X8.5753 Y19.0106
G01 X8.5753 Y20.1967
G01 X8.5978 Y20.2171
G01 X8.6057 Y20.2248
G01 X8.6766 Y20.3029
G01 X8.6835 Y20.3116
G01 X8.7420 Y20.3904
G01 X8.7482 Y20.3995
G01 X8.8042 Y20.4932
G01 X8.8495 Y20.5885
G01 X8.8551 Y20.6021
G01 X8.8894 Y20.6980
G01 X8.8924 Y20.7086
G01 X8.9163 Y20.8038
G01 X8.9192 Y20.8182
G01 X8.9345 Y20.9226
G01 X8.9398 Y21.0280
G01 X8.9398 Y21.0427
G01 X8.9345 Y21.1480
G01 X8.9192 Y21.2524
G01 X8.9163 Y21.2669
G01 X8.8905 Y21.3691
G01 X8.8525 Y21.4754
G01 X8.8042 Y21.5774
G01 X8.7501 Y21.6680
G01 X8.7420 Y21.6802
G01 X8.6835 Y21.7591
G01 X8.6742 Y21.7704
G01 X8.6032 Y21.8485
G01 X8.5196 Y21.9243
G01 X8.4289 Y21.9915
G01 X8.3385 Y22.0459
G01 X8.3255 Y22.0528
G01 X8.2368 Y22.0948
G01 X8.2232 Y22.1004
G01 X8.1238 Y22.1358
G01 X8.0144 Y22.1632
G01 X7.9027 Y22.1798
G01 X7.7900 Y22.1853
G01 X7.6773 Y22.1798
G01 X7.5656 Y22.1632
G01 X7.4562 Y22.1358
G01 X7.3499 Y22.0978
G01 X7.2479 Y22.0495
G01 X7.1511 Y21.9915
G01 X7.0604 Y21.9243
G01 X6.9822 Y21.8536
G01 X6.9718 Y21.8432
G01 X6.9010 Y21.7649
G01 X6.8380 Y21.6802
G01 X6.8299 Y21.6680
G01 X6.7794 Y21.5838
G01 X6.7725 Y21.5708
G01 X6.7275 Y21.4754
G01 X6.6918 Y21.3761
G01 X6.6876 Y21.3620
G01 X6.6621 Y21.2597
G01 X6.6455 Y21.1480
G01 X6.6400 Y21.0353
G01 X6.6452 Y20.9263
G01 X6.6464 Y20.9153
G01 X6.6621 Y20.8110
G01 X6.6895 Y20.7015
G01 X6.7275 Y20.5952
G01 X6.7741 Y20.4965
G01 X6.7794 Y20.4868
G01 X6.8338 Y20.3964
G01 X6.8987 Y20.3086
G01 X6.9058 Y20.3002
G01 X6.9743 Y20.2248
G01 X6.9822 Y20.2171
G01 X7.0047 Y20.1967
G01 X7.0047 Y18.6853
G01 X7.0079 Y18.6157
G01 X7.0094 Y18.6010
G01 X7.0198 Y18.5321
G01 X7.0385 Y18.4574
G01 X7.0645 Y18.3848
G01 X7.0941 Y18.3217
G01 X7.0992 Y18.3119
G01 X7.1370 Y18.2490
G01 X7.1784 Y18.1929
G01 X7.1878 Y18.1815
G01 X7.2347 Y18.1300
G01 X9.4047 Y15.9600
G01 X9.4047 Y1.8506
G01 X4.5853 Y1.8506
G01 X4.1871 Y2.2489
G00 Z1.0000
G00 X4.2116 Y2.2597
G01 F60.00
G01 Z-0.1418
G01 F60.00
G01 X4.2101 Y2.2803
G01 X4.1972 Y2.3658
G01 X4.1752 Y2.4538
G01 X4.1446 Y2.5393
G01 X4.1058 Y2.6214
G01 X4.0591 Y2.6992
G01 X4.0050 Y2.7721
G01 X3.9441 Y2.8394
G01 X3.8833 Y2.8947
G01 X3.8700 Y2.9056
G01 X3.8039 Y2.9544
G01 X3.7335 Y2.9969
G01 X3.7184 Y3.0050
G01 X3.6440 Y3.0399
G01 X3.5667 Y3.0678
G01 X3.5502 Y3.0728
G01 X3.4788 Y3.0907
G01 X3.4620 Y3.0940
G01 X3.3807 Y3.1059
G01 X3.2900 Y3.1103
G01 X3.1993 Y3.1059
G01 X3.1095 Y3.0925
G01 X3.0215 Y3.0705
G01 X2.9360 Y3.0399
G01 X2.8540 Y3.0011
G01 X2.7761 Y2.9544
G01 X2.7032 Y2.9004
G01 X2.6359 Y2.8394
G01 X2.5750 Y2.7721
G01 X2.5258 Y2.7062
G01 X2.5163 Y2.6920
G01 X2.4742 Y2.6214
G01 X2.4354 Y2.5393
G01 X2.4048 Y2.4538
G01 X2.3828 Y2.3658
G01 X2.3695 Y2.2760
G01 X2.3651 Y2.1896
G01 X2.3651 Y1.8810
G01 X2.3695 Y1.7947
G01 X2.3813 Y1.7133
G01 X2.3847 Y1.6965
G01 X2.4025 Y1.6251
G01 X2.4075 Y1.6086
G01 X2.4354 Y1.5313
G01 X2.4704 Y1.4569
G01 X2.4785 Y1.4418
G01 X2.5209 Y1.3714
G01 X2.5750 Y1.2985
G01 X2.6359 Y1.2312
G01 X2.6999 Y1.1730
G01 X2.7100 Y1.1650
G01 X2.7691 Y1.1212
G01 X2.7834 Y1.1116
G01 X2.8540 Y1.0695
G01 X2.9360 Y1.0307
G01 X3.0215 Y1.0001
G01 X3.1012 Y0.9800
G01 X3.1180 Y0.9766
G01 X3.1908 Y0.9658
G01 X3.2036 Y0.9644
G01 X3.2141 Y0.9638
G01 X3.6932 Y0.4864
G01 X3.7459 Y0.4389
G01 X3.8028 Y0.3965
G01 X3.8171 Y0.3870
G01 X3.8705 Y0.3549
G01 X3.8857 Y0.3468
G01 X3.9499 Y0.3167
G01 X4.0166 Y0.2926
G01 X4.0331 Y0.2876
G01 X4.1019 Y0.2706
G01 X4.1721 Y0.2600
G01 X4.1891 Y0.2583
G01 X4.2600 Y0.2550
G01 X29.0200 Y0.2550
G01 X29.0951 Y0.2585
G01 X29.1079 Y0.2600
G01 X29.1781 Y0.2706
G01 X29.2469 Y0.2876
G01 X29.2634 Y0.2926
G01 X29.3301 Y0.3167
G01 X29.3943 Y0.3468
G01 X29.4095 Y0.3549
G01 X29.4702 Y0.3916
G01 X29.5341 Y0.4389
G01 X29.5899 Y0.4893
G01 X29.8621 Y0.7615
G01 X29.8857 Y0.7604
G01 X29.8943 Y0.7604
G01 X29.9966 Y0.7653
G01 X30.0137 Y0.7670
G01 X30.1192 Y0.7829
G01 X30.2228 Y0.8086
G01 X30.2392 Y0.8136
G01 X30.3397 Y0.8498
G01 X30.4439 Y0.8991
G01 X30.5428 Y0.9583
G01 X30.6286 Y1.0217
G01 X30.6387 Y1.0298
G01 X30.7209 Y1.1045
G01 X30.7927 Y1.1834
G01 X30.8036 Y1.1967
G01 X30.8670 Y1.2825
G01 X30.9220 Y1.3740
G01 X30.9301 Y1.3891
G01 X30.9721 Y1.4778
G01 X30.9786 Y1.4937
G01 X31.0144 Y1.5942
G01 X31.0424 Y1.7061
G01 X31.0593 Y1.8201
G01 X31.0650 Y1.9353
G01 X31.0593 Y2.0505
G01 X31.0424 Y2.1645
G01 X31.0144 Y2.2764
G01 X30.9756 Y2.3850
G01 X30.9263 Y2.4892
G01 X30.8670 Y2.5881
G01 X30.7983 Y2.6807
G01 X30.7209 Y2.7662
G01 X30.6354 Y2.8436
G01 X30.5428 Y2.9123
G01 X30.4439 Y2.9716
G01 X30.3397 Y3.0209
G01 X30.2311 Y3.0597
G01 X30.1192 Y3.0877
G01 X30.0052 Y3.1047
G01 X29.8900 Y3.1103
G01 X29.7748 Y3.1047
G01 X29.6608 Y3.0877
G01 X29.5489 Y3.0597
G01 X29.4403 Y3.0209
G01 X29.3361 Y2.9716
G01 X29.2372 Y2.9123
G01 X29.1446 Y2.8436
G01 X29.0591 Y2.7662
G01 X28.9817 Y2.6807
G01 X28.9130 Y2.5881
G01 X28.8537 Y2.4892
G01 X28.8044 Y2.3850
G01 X28.7656 Y2.2764
G01 X28.7395 Y2.1729
G01 X28.7368 Y2.1603
G01 X28.7217 Y2.0590
G01 X28.7203 Y2.0462
G01 X28.7151 Y1.9396
G01 X28.7151 Y1.9310
G01 X28.7162 Y1.9074
G01 X28.6844 Y1.8756
G01 X22.9803 Y1.8756
G01 X22.9803 Y2.8931
G01 X23.0256 Y2.9682
G01 X23.0337 Y2.9834
G01 X23.0708 Y3.0622
G01 X23.1003 Y3.1441
G01 X23.1053 Y3.1606
G01 X23.1263 Y3.2451
G01 X23.1393 Y3.3312
G01 X23.1409 Y3.3483
G01 X23.1450 Y3.4353
G01 X23.1448 Y3.8439
G01 X23.1403 Y3.9309
G01 X23.1277 Y4.0171
G01 X23.1244 Y4.0339
G01 X23.1042 Y4.1142
G01 X23.1003 Y4.1265
G01 X23.0739 Y4.2004
G01 X23.0673 Y4.2163
G01 X23.0299 Y4.2949
G01 X22.9807 Y4.3770
G01 X22.9237 Y4.4539
G01 X22.8654 Y4.5185
G01 X22.8532 Y4.5307
G01 X22.7950 Y4.5834
G01 X22.7818 Y4.5943
G01 X22.7117 Y4.6460
G01 X22.6296 Y4.6952
G01 X22.5431 Y4.7361
G01 X22.4612 Y4.7656
G01 X22.4447 Y4.7706
G01 X22.3686 Y4.7897
G01 X22.3517 Y4.7931
G01 X22.2656 Y4.8056
G01 X22.1700 Y4.8103
G01 X22.0744 Y4.8056
G01 X21.9882 Y4.7931
G01 X21.9714 Y4.7897
G01 X21.8953 Y4.7706
G01 X21.8788 Y4.7656
G01 X21.7969 Y4.7361
G01 X21.7104 Y4.6952
G01 X21.6283 Y4.6460
G01 X21.5582 Y4.5943
G01 X21.5450 Y4.5834
G01 X21.4868 Y4.5307
G01 X21.4746 Y4.5185
G01 X21.4163 Y4.4539
G01 X21.3593 Y4.3770
G01 X21.3101 Y4.2949
G01 X21.2727 Y4.2163
G01 X21.2661 Y4.2004
G01 X21.2397 Y4.1265
G01 X21.2358 Y4.1142
G01 X21.2156 Y4.0339
G01 X21.2123 Y4.0171
G01 X21.1997 Y3.9309
G01 X21.1952 Y3.8439
G01 X21.1950 Y3.4353
G01 X21.1991 Y3.3483
G01 X21.2007 Y3.3312
G01 X21.2137 Y3.2451
G01 X21.2347 Y3.1606
G01 X21.2397 Y3.1441
G01 X21.2692 Y3.0622
G01 X21.3063 Y2.9834
G01 X21.3144 Y2.9682
G01 X21.3597 Y2.8931
G01 X21.3597 Y1.8756
G01 X11.0003 Y1.8756
G01 X11.0003 Y16.2853
G01 X10.9964 Y16.3647
G01 X10.9862 Y16.4349
G01 X10.9829 Y16.4518
G01 X10.9677 Y16.5123
G01 X10.9627 Y16.5287
G01 X10.9386 Y16.5954
G01 X10.9046 Y16.6673
G01 X10.8683 Y16.7282
G01 X10.8588 Y16.7425
G01 X10.8164 Y16.7994
G01 X10.7689 Y16.8521
G01 X8.6003 Y19.0210
G01 X8.6003 Y20.1856
G01 X8.6178 Y20.2015
G01 X8.6238 Y20.2075
G01 X8.6983 Y20.2899
G01 X8.7620 Y20.3755
G01 X8.7716 Y20.3898
G01 X8.8263 Y20.4814
G01 X8.8721 Y20.5778
G01 X8.8786 Y20.5937
G01 X8.9117 Y20.6861
G01 X8.9156 Y20.6984
G01 X8.9424 Y20.8061
G01 X8.9583 Y20.9116
G01 X8.9600 Y20.9287
G01 X8.9650 Y21.0353
G01 X8.9600 Y21.1419
G01 X8.9583 Y21.1590
G01 X8.9424 Y21.2645
G01 X8.9167 Y21.3681
G01 X8.9117 Y21.3846
G01 X8.8786 Y21.4770
G01 X8.8721 Y21.4928
G01 X8.8263 Y21.5892
G01 X8.7670 Y21.6881
G01 X8.6983 Y21.7807
G01 X8.6268 Y21.8599
G01 X8.6146 Y21.8721
G01 X8.5419 Y21.9380
G01 X8.5286 Y21.9489
G01 X8.4428 Y22.0123
G01 X8.3439 Y22.0716
G01 X8.2397 Y22.1209
G01 X8.1392 Y22.1570
G01 X8.1228 Y22.1620
G01 X8.0276 Y22.1859
G01 X8.0108 Y22.1892
G01 X7.9052 Y22.2047
G01 X7.7900 Y22.2103
G01 X7.6748 Y22.2047
G01 X7.5608 Y22.1877
G01 X7.4489 Y22.1597
G01 X7.3403 Y22.1209
G01 X7.2361 Y22.0716
G01 X7.1372 Y22.0123
G01 X7.0446 Y21.9436
G01 X6.9654 Y21.8721
G01 X6.9532 Y21.8599
G01 X6.8817 Y21.7807
G01 X6.8180 Y21.6951
G01 X6.8084 Y21.6809
G01 X6.7580 Y21.5967
G01 X6.7499 Y21.5815
G01 X6.7044 Y21.4850
G01 X6.6683 Y21.3846
G01 X6.6633 Y21.3681
G01 X6.6376 Y21.2645
G01 X6.6207 Y21.1505
G01 X6.6150 Y21.0353
G01 X6.6203 Y20.9244
G01 X6.6217 Y20.9116
G01 X6.6376 Y20.8061
G01 X6.6656 Y20.6942
G01 X6.7044 Y20.5857
G01 X6.7499 Y20.4891
G01 X6.7580 Y20.4740
G01 X6.8130 Y20.3825
G01 X6.8764 Y20.2967
G01 X6.8873 Y20.2834
G01 X6.9561 Y20.2075
G01 X6.9622 Y20.2015
G01 X6.9797 Y20.1856
G01 X6.9797 Y18.6853
G01 X6.9830 Y18.6145
G01 X6.9846 Y18.5974
G01 X6.9953 Y18.5272
G01 X7.0146 Y18.4501
G01 X7.0414 Y18.3752
G01 X7.0715 Y18.3110
G01 X7.0774 Y18.2996
G01 X7.1162 Y18.2351
G01 X7.1583 Y18.1780
G01 X7.1692 Y18.1648
G01 X7.2170 Y18.1123
G01 X9.3797 Y15.9497
G01 X9.3797 Y1.8756
G01 X4.5956 Y1.8756
G01 X4.2116 Y2.2597
G00 Z1.0000
G00 X2.0779 Y7.5991
G01 F60.00
G01 Z-0.1418
G01 F60.00
G01 X2.0500 Y7.6003
G01 X1.5439 Y7.6002
G01 X1.4642 Y7.5961
G01 X1.3853 Y7.5846
G01 X1.3733 Y7.5822
G01 X1.2960 Y7.5626
G01 X1.2152 Y7.5337
G01 X1.1375 Y7.4970
G01 X1.0639 Y7.4529
G01 X0.9997 Y7.4055
G01 X0.9903 Y7.3977
G01 X0.9357 Y7.3483
G01 X0.9271 Y7.3396
G01 X0.8736 Y7.2804
G01 X0.8260 Y7.2165
G01 X0.8208 Y7.2089
G01 X0.7783 Y7.1378
G01 X0.7416 Y7.0602
G01 X0.7127 Y6.9793
G01 X0.6918 Y6.8960
G01 X0.6792 Y6.8111
G01 X0.6750 Y6.7253
G01 X0.6792 Y6.6396
G01 X0.6918 Y6.5546
G01 X0.7127 Y6.4713
G01 X0.7416 Y6.3905
G01 X0.7783 Y6.3128
G01 X0.8225 Y6.2392
G01 X0.8736 Y6.1702
G01 X0.9313 Y6.1066
G01 X0.9949 Y6.0489
G01 X1.0589 Y6.0013
G01 X1.0664 Y5.9961
G01 X1.1322 Y5.9567
G01 X1.1430 Y5.9509
G01 X1.2152 Y5.9169
G01 X1.2902 Y5.8899
G01 X1.3019 Y5.8864
G01 X1.3793 Y5.8671
G01 X1.4612 Y5.8549
G01 X1.4704 Y5.8541
G01 X1.5500 Y5.8503
G01 X2.0500 Y5.8503
G01 X2.1296 Y5.8541
G01 X2.1419 Y5.8553
G01 X2.2147 Y5.8661
G01 X2.2267 Y5.8685
G01 X2.3040 Y5.8880
G01 X2.3848 Y5.9169
G01 X2.4570 Y5.9509
G01 X2.4652 Y5.9551
G01 X2.5336 Y5.9961
G01 X2.5411 Y6.0013
G01 X2.5701 Y6.0228
G01 X2.6378 Y6.0548
G01 X2.6966 Y6.0899
G01 X2.7043 Y6.0949
G01 X2.7617 Y6.1376
G01 X2.8170 Y6.1877
G01 X6.4276 Y9.7983
G01 X6.4777 Y9.8536
G01 X6.5186 Y9.9085
G01 X6.5255 Y9.9187
G01 X6.5575 Y9.9722
G01 X6.5636 Y9.9837
G01 X7.1924 Y10.6125
G01 X7.2339 Y10.6105
G01 X7.2431 Y10.6104
G01 X7.3472 Y10.6155
G01 X7.3564 Y10.6165
G01 X7.4565 Y10.6314
G01 X7.4655 Y10.6333
G01 X7.5666 Y10.6588
G01 X7.6677 Y10.6948
G01 X7.6761 Y10.6984
G01 X7.7703 Y10.7432
G01 X7.8650 Y10.7999
G01 X7.9537 Y10.8657
G01 X8.0311 Y10.9356
G01 X8.0397 Y10.9443
G01 X8.1096 Y11.0216
G01 X8.1754 Y11.1103
G01 X8.2322 Y11.2050
G01 X8.2769 Y11.2992
G01 X8.2816 Y11.3105
G01 X8.3146 Y11.4029
G01 X8.3182 Y11.4147
G01 X8.3434 Y11.5158
G01 X8.3588 Y11.6190
G01 X8.3600 Y11.6312
G01 X8.3650 Y11.7353
G01 X8.3596 Y11.8456
G01 X8.3434 Y11.9548
G01 X8.3166 Y12.0619
G01 X8.2794 Y12.1658
G01 X8.2322 Y12.2656
G01 X8.1754 Y12.3603
G01 X8.1096 Y12.4490
G01 X8.0355 Y12.5308
G01 X7.9537 Y12.6050
G01 X7.8650 Y12.6707
G01 X7.7703 Y12.7275
G01 X7.6705 Y12.7747
G01 X7.5666 Y12.8119
G01 X7.4595 Y12.8387
G01 X7.3503 Y12.8549
G01 X7.2400 Y12.8603
G01 X7.1297 Y12.8549
G01 X7.0205 Y12.8387
G01 X6.9134 Y12.8119
G01 X6.8095 Y12.7747
G01 X6.7097 Y12.7275
G01 X6.6150 Y12.6707
G01 X6.5263 Y12.6050
G01 X6.4445 Y12.5308
G01 X6.3744 Y12.4537
G01 X6.3666 Y12.4442
G01 X6.3046 Y12.3603
G01 X6.2509 Y12.2710
G01 X6.2451 Y12.2602
G01 X6.2018 Y12.1687
G01 X6.1984 Y12.1601
G01 X6.1634 Y12.0619
G01 X6.1380 Y11.9608
G01 X6.1361 Y11.9518
G01 X6.1212 Y11.8517
G01 X6.1202 Y11.8425
G01 X6.1150 Y11.7384
G01 X6.1152 Y11.7292
G01 X6.1172 Y11.6878
G01 X5.3502 Y10.9207
G01 X5.3023 Y10.8677
G01 X5.2614 Y10.8127
G01 X5.2545 Y10.8025
G01 X5.2225 Y10.7491
G01 X5.2164 Y10.7376
G01 X2.0779 Y7.5991
G00 Z1.0000
G00 X2.0680 Y7.6246
G01 F60.00
G01 Z-0.1418
G01 F60.00
G01 X2.0500 Y7.6253
G01 X1.5500 Y7.6253
G01 X1.4655 Y7.6213
G01 X1.4545 Y7.6201
G01 X1.3817 Y7.6093
G01 X1.3672 Y7.6064
G01 X1.2887 Y7.5866
G01 X1.2125 Y7.5595
G01 X1.1989 Y7.5538
G01 X1.1257 Y7.5190
G01 X1.0562 Y7.4776
G01 X1.0440 Y7.4694
G01 X0.9849 Y7.4256
G01 X0.9735 Y7.4162
G01 X0.9136 Y7.3617
G01 X0.8543 Y7.2963
G01 X0.8017 Y7.2253
G01 X0.7580 Y7.1528
G01 X0.7530 Y7.1430
G01 X0.7185 Y7.0697
G01 X0.6888 Y6.9866
G01 X0.6673 Y6.9009
G01 X0.6543 Y6.8135
G01 X0.6500 Y6.7253
G01 X0.6543 Y6.6371
G01 X0.6673 Y6.5497
G01 X0.6888 Y6.4641
G01 X0.7185 Y6.3809
G01 X0.7563 Y6.3011
G01 X0.8017 Y6.2253
G01 X0.8543 Y6.1544
G01 X0.9136 Y6.0889
G01 X0.9790 Y6.0296
G01 X1.0500 Y5.9770
G01 X1.1225 Y5.9334
G01 X1.1323 Y5.9283
G01 X1.2056 Y5.8938
G01 X1.2887 Y5.8641
G01 X1.3744 Y5.8426
G01 X1.4618 Y5.8297
G01 X1.5500 Y5.8253
G01 X2.0500 Y5.8253
G01 X2.1382 Y5.8297
G01 X2.2256 Y5.8426
G01 X2.3042 Y5.8621
G01 X2.3182 Y5.8664
G01 X2.3944 Y5.8938
G01 X2.4677 Y5.9283
G01 X2.4775 Y5.9334
G01 X2.5469 Y5.9750
G01 X2.5560 Y5.9812
G01 X2.5826 Y6.0010
G01 X2.6495 Y6.0327
G01 X2.7094 Y6.0684
G01 X2.7187 Y6.0744
G01 X2.7775 Y6.1183
G01 X2.8346 Y6.1700
G01 X6.4453 Y9.7807
G01 X6.4971 Y9.8378
G01 X6.5387 Y9.8937
G01 X6.5469 Y9.9059
G01 X6.5790 Y9.9594
G01 X6.5842 Y9.9689
G01 X7.2023 Y10.5870
G01 X7.2326 Y10.5855
G01 X7.2437 Y10.5854
G01 X7.3491 Y10.5905
G01 X7.3600 Y10.5918
G01 X7.4607 Y10.6067
G01 X7.4715 Y10.6090
G01 X7.5738 Y10.6348
G01 X7.6767 Y10.6715
G01 X7.6868 Y10.6758
G01 X7.7821 Y10.7211
G01 X7.8789 Y10.7791
G01 X7.9696 Y10.8464
G01 X8.0505 Y10.9196
G01 X8.0582 Y10.9275
G01 X8.1290 Y11.0058
G01 X8.1962 Y11.0964
G01 X8.2542 Y11.1932
G01 X8.2995 Y11.2885
G01 X8.3051 Y11.3021
G01 X8.3382 Y11.3945
G01 X8.3424 Y11.4086
G01 X8.3679 Y11.5110
G01 X8.3836 Y11.6153
G01 X8.3850 Y11.6299
G01 X8.3900 Y11.7353
G01 X8.3845 Y11.8480
G01 X8.3679 Y11.9597
G01 X8.3405 Y12.0691
G01 X8.3025 Y12.1754
G01 X8.2542 Y12.2774
G01 X8.1962 Y12.3742
G01 X8.1313 Y12.4620
G01 X8.1242 Y12.4704
G01 X8.0532 Y12.5485
G01 X7.9696 Y12.6243
G01 X7.8789 Y12.6915
G01 X7.7821 Y12.7495
G01 X7.6801 Y12.7978
G01 X7.5738 Y12.8358
G01 X7.4644 Y12.8632
G01 X7.3527 Y12.8798
G01 X7.2400 Y12.8853
G01 X7.1273 Y12.8798
G01 X7.0156 Y12.8632
G01 X6.9062 Y12.8358
G01 X6.7999 Y12.7978
G01 X6.6979 Y12.7495
G01 X6.6011 Y12.6915
G01 X6.5133 Y12.6266
G01 X6.5049 Y12.6195
G01 X6.4268 Y12.5485
G01 X6.3558 Y12.4704
G01 X6.3465 Y12.4591
G01 X6.2838 Y12.3742
G01 X6.2294 Y12.2838
G01 X6.2225 Y12.2708
G01 X6.1790 Y12.1788
G01 X6.1749 Y12.1685
G01 X6.1395 Y12.0691
G01 X6.1137 Y11.9669
G01 X6.1114 Y11.9561
G01 X6.0964 Y11.8553
G01 X6.0952 Y11.8444
G01 X6.0900 Y11.7390
G01 X6.0902 Y11.7280
G01 X6.0917 Y11.6976
G01 X5.3321 Y10.9380
G01 X5.2829 Y10.8835
G01 X5.2413 Y10.8276
G01 X5.2331 Y10.8154
G01 X5.2010 Y10.7619
G01 X5.1958 Y10.7523
G01 X2.0680 Y7.6246
G00 Z1.0000
G00 X2.0582 Y7.6501
G01 F60.00
G01 Z-0.1418
G01 F60.00
G01 X1.5500 Y7.6503
G01 X1.4636 Y7.6462
G01 X1.4508 Y7.6448
G01 X1.3780 Y7.6340
G01 X1.3612 Y7.6307
G01 X1.2815 Y7.6105
G01 X1.2040 Y7.5830
G01 X1.1882 Y7.5764
G01 X1.1140 Y7.5411
G01 X1.0434 Y7.4990
G01 X1.0291 Y7.4895
G01 X0.9700 Y7.4456
G01 X0.9567 Y7.4347
G01 X0.8959 Y7.3794
G01 X0.8350 Y7.3121
G01 X0.7809 Y7.2392
G01 X0.7342 Y7.1614
G01 X0.6954 Y7.0793
G01 X0.6648 Y6.9938
G01 X0.6428 Y6.9058
G01 X0.6295 Y6.8160
G01 X0.6250 Y6.7253
G01 X0.6295 Y6.6347
G01 X0.6428 Y6.5449
G01 X0.6648 Y6.4568
G01 X0.6954 Y6.3713
G01 X0.7342 Y6.2893
G01 X0.7809 Y6.2114
G01 X0.8350 Y6.1385
G01 X0.8959 Y6.0712
G01 X0.9632 Y6.0103
G01 X1.0361 Y5.9562
G01 X1.1140 Y5.9095
G01 X1.1960 Y5.8707
G01 X1.2815 Y5.8401
G01 X1.3695 Y5.8181
G01 X1.4593 Y5.8048
G01 X1.5500 Y5.8003
G01 X2.0500 Y5.8003
G01 X2.1407 Y5.8048
G01 X2.2305 Y5.8181
G01 X2.3102 Y5.8379
G01 X2.3267 Y5.8428
G01 X2.4040 Y5.8707
G01 X2.4784 Y5.9057
G01 X2.4898 Y5.9116
G01 X2.5603 Y5.9539
G01 X2.5709 Y5.9612
G01 X2.5954 Y5.9793
G01 X2.6613 Y6.0107
G01 X2.7223 Y6.0470
G01 X2.7331 Y6.0540
G01 X2.7934 Y6.0989
G01 X2.8523 Y6.1523
G01 X6.4630 Y9.7630
G01 X6.5164 Y9.8219
G01 X6.5588 Y9.8788
G01 X6.5683 Y9.8930
G01 X6.6046 Y9.9540
G01 X7.2121 Y10.5615
G01 X7.2357 Y10.5604
G01 X7.2443 Y10.5604
G01 X7.3509 Y10.5656
G01 X7.3637 Y10.5670
G01 X7.4650 Y10.5821
G01 X7.4776 Y10.5848
G01 X7.5811 Y10.6109
G01 X7.6857 Y10.6482
G01 X7.6975 Y10.6532
G01 X7.7939 Y10.6991
G01 X7.8928 Y10.7583
G01 X7.9854 Y10.8270
G01 X8.0678 Y10.9015
G01 X8.0768 Y10.9107
G01 X8.1483 Y10.9899
G01 X8.2170 Y11.0825
G01 X8.2763 Y11.1814
G01 X8.3221 Y11.2778
G01 X8.3286 Y11.2937
G01 X8.3617 Y11.3861
G01 X8.3667 Y11.4025
G01 X8.3924 Y11.5061
G01 X8.4083 Y11.6116
G01 X8.4100 Y11.6287
G01 X8.4150 Y11.7353
G01 X8.4093 Y11.8505
G01 X8.3924 Y11.9645
G01 X8.3644 Y12.0764
G01 X8.3256 Y12.1850
G01 X8.2763 Y12.2892
G01 X8.2170 Y12.3881
G01 X8.1510 Y12.4774
G01 X8.1427 Y12.4872
G01 X8.0709 Y12.5662
G01 X7.9854 Y12.6436
G01 X7.8928 Y12.7123
G01 X7.7939 Y12.7716
G01 X7.6897 Y12.8209
G01 X7.5811 Y12.8597
G01 X7.4692 Y12.8877
G01 X7.3552 Y12.9047
G01 X7.2400 Y12.9103
G01 X7.1248 Y12.9047
G01 X7.0108 Y12.8877
G01 X6.8989 Y12.8597
G01 X6.7903 Y12.8209
G01 X6.6861 Y12.7716
G01 X6.5872 Y12.7123
G01 X6.4979 Y12.6463
G01 X6.4881 Y12.6380
G01 X6.4091 Y12.5662
G01 X6.3373 Y12.4872
G01 X6.3264 Y12.4740
G01 X6.2630 Y12.3881
G01 X6.2080 Y12.2967
G01 X6.1999 Y12.2815
G01 X6.1579 Y12.1928
G01 X6.1514 Y12.1770
G01 X6.1156 Y12.0764
G01 X6.0876 Y11.9645
G01 X6.0717 Y11.8590
G01 X6.0703 Y11.8462
G01 X6.0651 Y11.7396
G01 X6.0651 Y11.7310
G01 X6.0662 Y11.7074
G01 X5.3140 Y10.9552
G01 X5.2636 Y10.8994
G01 X5.2212 Y10.8425
G01 X5.2117 Y10.8282
G01 X5.1754 Y10.7673
G01 X2.0582 Y7.6501
G00 Z1.0000
G00 X2.0779 Y10.1391
G01 F60.00
G01 Z-0.1418
G01 F60.00
G01 X2.0500 Y10.1403
G01 X1.5439 Y10.1402
G01 X1.4642 Y10.1361
G01 X1.3853 Y10.1246
G01 X1.3733 Y10.1222
G01 X1.2960 Y10.1026
G01 X1.2152 Y10.0737
G01 X1.1375 Y10.0370
G01 X1.0639 Y9.9929
G01 X0.9997 Y9.9455
G01 X0.9903 Y9.9377
G01 X0.9357 Y9.8883
G01 X0.9271 Y9.8796
G01 X0.8736 Y9.8204
G01 X0.8260 Y9.7565
G01 X0.8208 Y9.7489
G01 X0.7783 Y9.6778
G01 X0.7416 Y9.6002
G01 X0.7127 Y9.5193
G01 X0.6918 Y9.4360
G01 X0.6792 Y9.3511
G01 X0.6750 Y9.2653
G01 X0.6792 Y9.1796
G01 X0.6918 Y9.0946
G01 X0.7127 Y9.0113
G01 X0.7416 Y8.9305
G01 X0.7783 Y8.8528
G01 X0.8225 Y8.7792
G01 X0.8736 Y8.7102
G01 X0.9313 Y8.6466
G01 X0.9949 Y8.5889
G01 X1.0589 Y8.5413
G01 X1.0664 Y8.5361
G01 X1.1322 Y8.4967
G01 X1.1430 Y8.4909
G01 X1.2152 Y8.4569
G01 X1.2902 Y8.4299
G01 X1.3019 Y8.4264
G01 X1.3793 Y8.4071
G01 X1.4612 Y8.3949
G01 X1.4704 Y8.3941
G01 X1.5500 Y8.3903
G01 X2.0500 Y8.3903
G01 X2.1296 Y8.3941
G01 X2.1419 Y8.3953
G01 X2.2147 Y8.4061
G01 X2.2267 Y8.4085
G01 X2.3040 Y8.4280
G01 X2.3848 Y8.4569
G01 X2.4570 Y8.4909
G01 X2.4652 Y8.4951
G01 X2.5336 Y8.5361
G01 X2.5411 Y8.5413
G01 X2.5701 Y8.5628
G01 X2.6378 Y8.5948
G01 X2.6992 Y8.6315
G01 X2.7068 Y8.6367
G01 X2.7617 Y8.6776
G01 X2.8170 Y8.7277
G01 X4.6576 Y10.5683
G01 X4.7058 Y10.6213
G01 X4.7115 Y10.6285
G01 X4.7295 Y10.6527
G01 X5.2776 Y11.2008
G01 X5.3237 Y11.2515
G01 X5.3297 Y11.2585
G01 X5.3722 Y11.3161
G01 X5.4075 Y11.3747
G01 X5.4133 Y11.3855
G01 X5.4424 Y11.4475
G01 X5.4657 Y11.5119
G01 X5.4692 Y11.5237
G01 X5.4857 Y11.5901
G01 X5.4967 Y11.6640
G01 X5.5003 Y11.7385
G01 X5.5003 Y13.1704
G01 X5.6924 Y13.3625
G01 X5.7339 Y13.3605
G01 X5.7431 Y13.3604
G01 X5.8442 Y13.3653
G01 X5.8533 Y13.3661
G01 X5.9595 Y13.3819
G01 X6.0607 Y13.4071
G01 X6.0695 Y13.4097
G01 X6.1705 Y13.4460
G01 X6.2703 Y13.4932
G01 X6.3650 Y13.5499
G01 X6.4489 Y13.6119
G01 X6.4583 Y13.6197
G01 X6.5311 Y13.6856
G01 X6.5397 Y13.6943
G01 X6.6096 Y13.7716
G01 X6.6754 Y13.8603
G01 X6.7322 Y13.9550
G01 X6.7769 Y14.0492
G01 X6.7816 Y14.0605
G01 X6.8146 Y14.1529
G01 X6.8174 Y14.1617
G01 X6.8434 Y14.2658
G01 X6.8588 Y14.3690
G01 X6.8600 Y14.3812
G01 X6.8650 Y14.4853
G01 X6.8600 Y14.5895
G01 X6.8588 Y14.6017
G01 X6.8434 Y14.7048
G01 X6.8166 Y14.8119
G01 X6.7816 Y14.9101
G01 X6.7769 Y14.9214
G01 X6.7322 Y15.0156
G01 X6.6754 Y15.1103
G01 X6.6096 Y15.1990
G01 X6.5397 Y15.2764
G01 X6.5311 Y15.2850
G01 X6.4537 Y15.3550
G01 X6.3650 Y15.4207
G01 X6.2703 Y15.4775
G01 X6.1705 Y15.5247
G01 X6.0666 Y15.5619
G01 X5.9595 Y15.5887
G01 X5.8503 Y15.6049
G01 X5.7400 Y15.6103
G01 X5.6297 Y15.6049
G01 X5.5205 Y15.5887
G01 X5.4134 Y15.5619
G01 X5.3095 Y15.5247
G01 X5.2097 Y15.4775
G01 X5.1150 Y15.4207
G01 X5.0263 Y15.3550
G01 X4.9445 Y15.2808
G01 X4.8704 Y15.1990
G01 X4.8046 Y15.1103
G01 X4.7478 Y15.0156
G01 X4.7006 Y14.9158
G01 X4.6644 Y14.8148
G01 X4.6618 Y14.8060
G01 X4.6366 Y14.7048
G01 X4.6208 Y14.5986
G01 X4.6200 Y14.5895
G01 X4.6150 Y14.4884
G01 X4.6152 Y14.4792
G01 X4.6172 Y14.4378
G01 X4.2024 Y14.0229
G01 X4.1523 Y13.9677
G01 X4.1078 Y13.9077
G01 X4.0695 Y13.8437
G01 X4.0376 Y13.7763
G01 X4.0143 Y13.7119
G01 X4.0116 Y13.7031
G01 X3.9943 Y13.6336
G01 X3.9841 Y13.5659
G01 X3.9829 Y13.5537
G01 X3.9797 Y13.4884
G01 X3.9797 Y12.0534
G01 X3.5802 Y11.6539
G01 X3.5342 Y11.6032
G01 X3.5285 Y11.5960
G01 X3.5105 Y11.5717
G01 X2.0779 Y10.1391
G00 Z1.0000
G00 X2.0680 Y10.1646
G01 F60.00
G01 Z-0.1418
G01 F60.00
G01 X2.0500 Y10.1653
G01 X1.5500 Y10.1653
G01 X1.4655 Y10.1613
G01 X1.4545 Y10.1601
G01 X1.3817 Y10.1493
G01 X1.3672 Y10.1464
G01 X1.2887 Y10.1266
G01 X1.2125 Y10.0995
G01 X1.1989 Y10.0938
G01 X1.1257 Y10.0590
G01 X1.0562 Y10.0176
G01 X1.0440 Y10.0094
G01 X0.9849 Y9.9656
G01 X0.9735 Y9.9562
G01 X0.9136 Y9.9017
G01 X0.8543 Y9.8363
G01 X0.8017 Y9.7653
G01 X0.7580 Y9.6928
G01 X0.7530 Y9.6830
G01 X0.7185 Y9.6097
G01 X0.6888 Y9.5266
G01 X0.6673 Y9.4409
G01 X0.6543 Y9.3535
G01 X0.6500 Y9.2653
G01 X0.6543 Y9.1771
G01 X0.6673 Y9.0897
G01 X0.6888 Y9.0041
G01 X0.7185 Y8.9209
G01 X0.7563 Y8.8411
G01 X0.8017 Y8.7653
G01 X0.8543 Y8.6944
G01 X0.9136 Y8.6289
G01 X0.9790 Y8.5696
G01 X1.0500 Y8.5170
G01 X1.1225 Y8.4734
G01 X1.1323 Y8.4683
G01 X1.2056 Y8.4338
G01 X1.2887 Y8.4041
G01 X1.3744 Y8.3826
G01 X1.4618 Y8.3697
G01 X1.5500 Y8.3653
G01 X2.0500 Y8.3653
G01 X2.1382 Y8.3697
G01 X2.2256 Y8.3826
G01 X2.3042 Y8.4021
G01 X2.3182 Y8.4064
G01 X2.3944 Y8.4338
G01 X2.4677 Y8.4683
G01 X2.4775 Y8.4734
G01 X2.5469 Y8.5150
G01 X2.5560 Y8.5212
G01 X2.5826 Y8.5410
G01 X2.6495 Y8.5727
G01 X2.7156 Y8.6123
G01 X2.7775 Y8.6583
G01 X2.8346 Y8.7100
G01 X4.6753 Y10.5507
G01 X4.7247 Y10.6050
G01 X4.7316 Y10.6136
G01 X4.7485 Y10.6363
G01 X5.2953 Y11.1832
G01 X5.3422 Y11.2347
G01 X5.3494 Y11.2431
G01 X5.3930 Y11.3022
G01 X5.4290 Y11.3619
G01 X5.4359 Y11.3749
G01 X5.4655 Y11.4379
G01 X5.4892 Y11.5035
G01 X5.4935 Y11.5176
G01 X5.5102 Y11.5853
G01 X5.5215 Y11.6615
G01 X5.5253 Y11.7385
G01 X5.5253 Y13.1600
G01 X5.7023 Y13.3370
G01 X5.7326 Y13.3355
G01 X5.7437 Y13.3354
G01 X5.8454 Y13.3403
G01 X5.8564 Y13.3413
G01 X5.9644 Y13.3574
G01 X6.0667 Y13.3829
G01 X6.0773 Y13.3859
G01 X6.1801 Y13.4229
G01 X6.2821 Y13.4711
G01 X6.3789 Y13.5291
G01 X6.4637 Y13.5918
G01 X6.4751 Y13.6012
G01 X6.5478 Y13.6671
G01 X6.5582 Y13.6775
G01 X6.6290 Y13.7558
G01 X6.6962 Y13.8464
G01 X6.7542 Y13.9432
G01 X6.7995 Y14.0385
G01 X6.8051 Y14.0521
G01 X6.8382 Y14.1445
G01 X6.8415 Y14.1550
G01 X6.8679 Y14.2610
G01 X6.8836 Y14.3653
G01 X6.8850 Y14.3799
G01 X6.8900 Y14.4853
G01 X6.8850 Y14.5907
G01 X6.8836 Y14.6053
G01 X6.8679 Y14.7097
G01 X6.8405 Y14.8191
G01 X6.8051 Y14.9185
G01 X6.7995 Y14.9321
G01 X6.7542 Y15.0274
G01 X6.6962 Y15.1242
G01 X6.6335 Y15.2091
G01 X6.6242 Y15.2204
G01 X6.5532 Y15.2985
G01 X6.4724 Y15.3719
G01 X6.4637 Y15.3788
G01 X6.3789 Y15.4415
G01 X6.2821 Y15.4995
G01 X6.1801 Y15.5478
G01 X6.0738 Y15.5858
G01 X5.9644 Y15.6132
G01 X5.8527 Y15.6298
G01 X5.7400 Y15.6353
G01 X5.6273 Y15.6298
G01 X5.5156 Y15.6132
G01 X5.4062 Y15.5858
G01 X5.2999 Y15.5478
G01 X5.1979 Y15.4995
G01 X5.1011 Y15.4415
G01 X5.0104 Y15.3743
G01 X4.9268 Y15.2985
G01 X4.8534 Y15.2177
G01 X4.8465 Y15.2091
G01 X4.7838 Y15.1242
G01 X4.7258 Y15.0274
G01 X4.6775 Y14.9254
G01 X4.6406 Y14.8227
G01 X4.6376 Y14.8120
G01 X4.6121 Y14.7097
G01 X4.5959 Y14.6017
G01 X4.5950 Y14.5907
G01 X4.5900 Y14.4890
G01 X4.5902 Y14.4780
G01 X4.5917 Y14.4476
G01 X4.1847 Y14.0406
G01 X4.1329 Y13.9835
G01 X4.0870 Y13.9216
G01 X4.0474 Y13.8555
G01 X4.0145 Y13.7858
G01 X3.9908 Y13.7203
G01 X3.9875 Y13.7097
G01 X3.9698 Y13.6385
G01 X3.9594 Y13.5696
G01 X3.9579 Y13.5549
G01 X3.9547 Y13.4890
G01 X3.9547 Y12.0638
G01 X3.5621 Y11.6711
G01 X3.5153 Y11.6195
G01 X3.5084 Y11.6109
G01 X3.4915 Y11.5881
G01 X2.0680 Y10.1646
G00 Z1.0000
G00 X2.0582 Y10.1901
G01 F60.00
G01 Z-0.1418
G01 F60.00
G01 X1.5500 Y10.1903
G01 X1.4636 Y10.1862
G01 X1.4508 Y10.1848
G01 X1.3780 Y10.1740
G01 X1.3612 Y10.1707
G01 X1.2815 Y10.1505
G01 X1.2040 Y10.1230
G01 X1.1882 Y10.1164
G01 X1.1140 Y10.0811
G01 X1.0434 Y10.0390
G01 X1.0291 Y10.0295
G01 X0.9700 Y9.9856
G01 X0.9567 Y9.9747
G01 X0.8959 Y9.9194
G01 X0.8350 Y9.8521
G01 X0.7809 Y9.7792
G01 X0.7342 Y9.7014
G01 X0.6954 Y9.6193
G01 X0.6648 Y9.5338
G01 X0.6428 Y9.4458
G01 X0.6295 Y9.3560
G01 X0.6250 Y9.2653
G01 X0.6295 Y9.1747
G01 X0.6428 Y9.0849
G01 X0.6648 Y8.9968
G01 X0.6954 Y8.9113
G01 X0.7342 Y8.8293
G01 X0.7809 Y8.7514
G01 X0.8350 Y8.6785
G01 X0.8959 Y8.6112
G01 X0.9632 Y8.5503
G01 X1.0361 Y8.4962
G01 X1.1140 Y8.4495
G01 X1.1960 Y8.4107
G01 X1.2815 Y8.3801
G01 X1.3695 Y8.3581
G01 X1.4593 Y8.3448
G01 X1.5500 Y8.3403
G01 X2.0500 Y8.3403
G01 X2.1407 Y8.3448
G01 X2.2305 Y8.3581
G01 X2.3102 Y8.3779
G01 X2.3267 Y8.3828
G01 X2.4040 Y8.4107
G01 X2.4784 Y8.4457
G01 X2.4898 Y8.4516
G01 X2.5603 Y8.4939
G01 X2.5709 Y8.5012
G01 X2.5954 Y8.5193
G01 X2.6613 Y8.5507
G01 X2.7295 Y8.5916
G01 X2.7934 Y8.6389
G01 X2.8523 Y8.6923
G01 X4.6930 Y10.5330
G01 X4.7436 Y10.5886
G01 X4.7517 Y10.5987
G01 X4.7675 Y10.6200
G01 X5.3130 Y11.1655
G01 X5.3608 Y11.2179
G01 X5.3691 Y11.2278
G01 X5.4138 Y11.2883
G01 X5.4504 Y11.3490
G01 X5.4585 Y11.3642
G01 X5.4886 Y11.4284
G01 X5.5127 Y11.4951
G01 X5.5177 Y11.5115
G01 X5.5347 Y11.5804
G01 X5.5464 Y11.6591
G01 X5.5503 Y11.7385
G01 X5.5503 Y13.1497
G01 X5.7121 Y13.3115
G01 X5.7357 Y13.3104
G01 X5.7443 Y13.3104
G01 X5.8466 Y13.3153
G01 X5.8637 Y13.3170
G01 X5.9692 Y13.3329
G01 X6.0728 Y13.3586
G01 X6.0852 Y13.3622
G01 X6.1897 Y13.3998
G01 X6.2939 Y13.4491
G01 X6.3928 Y13.5083
G01 X6.4786 Y13.5717
G01 X6.4919 Y13.5826
G01 X6.5646 Y13.6485
G01 X6.5768 Y13.6607
G01 X6.6483 Y13.7399
G01 X6.7170 Y13.8325
G01 X6.7763 Y13.9314
G01 X6.8221 Y14.0278
G01 X6.8286 Y14.0437
G01 X6.8617 Y14.1361
G01 X6.8656 Y14.1484
G01 X6.8924 Y14.2561
G01 X6.9083 Y14.3616
G01 X6.9100 Y14.3787
G01 X6.9150 Y14.4853
G01 X6.9100 Y14.5919
G01 X6.9083 Y14.6090
G01 X6.8924 Y14.7145
G01 X6.8644 Y14.8264
G01 X6.8286 Y14.9270
G01 X6.8221 Y14.9428
G01 X6.7763 Y15.0392
G01 X6.7170 Y15.1381
G01 X6.6536 Y15.2240
G01 X6.6427 Y15.2372
G01 X6.5709 Y15.3162
G01 X6.4887 Y15.3908
G01 X6.4786 Y15.3989
G01 X6.3928 Y15.4623
G01 X6.2939 Y15.5216
G01 X6.1897 Y15.5709
G01 X6.0811 Y15.6097
G01 X5.9692 Y15.6377
G01 X5.8552 Y15.6547
G01 X5.7400 Y15.6603
G01 X5.6248 Y15.6547
G01 X5.5108 Y15.6377
G01 X5.3989 Y15.6097
G01 X5.2903 Y15.5709
G01 X5.1861 Y15.5216
G01 X5.0872 Y15.4623
G01 X4.9946 Y15.3936
G01 X4.9091 Y15.3162
G01 X4.8345 Y15.2340
G01 X4.8264 Y15.2240
G01 X4.7630 Y15.1381
G01 X4.7037 Y15.0392
G01 X4.6544 Y14.9350
G01 X4.6183 Y14.8346
G01 X4.6133 Y14.8181
G01 X4.5876 Y14.7145
G01 X4.5717 Y14.6090
G01 X4.5700 Y14.5919
G01 X4.5651 Y14.4896
G01 X4.5651 Y14.4810
G01 X4.5662 Y14.4574
G01 X4.1670 Y14.0583
G01 X4.1136 Y13.9994
G01 X4.0662 Y13.9355
G01 X4.0254 Y13.8673
G01 X3.9914 Y13.7954
G01 X3.9673 Y13.7287
G01 X3.9634 Y13.7164
G01 X3.9453 Y13.6434
G01 X3.9346 Y13.5733
G01 X3.9330 Y13.5562
G01 X3.9297 Y13.4896
G01 X3.9297 Y12.0741
G01 X3.5440 Y11.6884
G01 X3.4964 Y11.6358
G01 X3.4883 Y11.6258
G01 X3.4725 Y11.6045
G01 X2.0582 Y10.1901
G00 Z1.0000
G00 X2.9200 Y11.7135
G01 F60.00
G01 Z-0.1418
G01 F60.00
G01 X2.9212 Y11.7257
G01 X2.9250 Y11.8053
G01 X2.9208 Y11.8911
G01 X2.9082 Y11.9760
G01 X2.8873 Y12.0593
G01 X2.8584 Y12.1402
G01 X2.8217 Y12.2178
G01 X2.7775 Y12.2914
G01 X2.7264 Y12.3604
G01 X2.6687 Y12.4240
G01 X2.6051 Y12.4817
G01 X2.5361 Y12.5329
G01 X2.4625 Y12.5770
G01 X2.3848 Y12.6137
G01 X2.3040 Y12.6426
G01 X2.2207 Y12.6635
G01 X2.1419 Y12.6754
G01 X2.1327 Y12.6764
G01 X2.0500 Y12.6803
G01 X1.5500 Y12.6803
G01 X1.4642 Y12.6761
G01 X1.3793 Y12.6635
G01 X1.2960 Y12.6426
G01 X1.2152 Y12.6137
G01 X1.1375 Y12.5770
G01 X1.0691 Y12.5361
G01 X1.0589 Y12.5293
G01 X0.9949 Y12.4817
G01 X0.9357 Y12.4283
G01 X0.9271 Y12.4196
G01 X0.8736 Y12.3604
G01 X0.8225 Y12.2914
G01 X0.7813 Y12.2231
G01 X0.7756 Y12.2123
G01 X0.7416 Y12.1402
G01 X0.7146 Y12.0651
G01 X0.7110 Y12.0534
G01 X0.6918 Y11.9760
G01 X0.6800 Y11.8972
G01 X0.6790 Y11.8880
G01 X0.6750 Y11.8053
G01 X0.6792 Y11.7196
G01 X0.6918 Y11.6346
G01 X0.7127 Y11.5513
G01 X0.7416 Y11.4705
G01 X0.7783 Y11.3928
G01 X0.8225 Y11.3192
G01 X0.8736 Y11.2502
G01 X0.9313 Y11.1866
G01 X0.9949 Y11.1289
G01 X1.0639 Y11.0778
G01 X1.1375 Y11.0336
G01 X1.2152 Y10.9969
G01 X1.2960 Y10.9680
G01 X1.3793 Y10.9471
G01 X1.4581 Y10.9353
G01 X1.4673 Y10.9343
G01 X1.5500 Y10.9303
G01 X2.0500 Y10.9303
G01 X2.1358 Y10.9345
G01 X2.2207 Y10.9471
G01 X2.3040 Y10.9680
G01 X2.3848 Y10.9969
G01 X2.4625 Y11.0336
G01 X2.5309 Y11.0745
G01 X2.5411 Y11.0813
G01 X2.6051 Y11.1289
G01 X2.6643 Y11.1824
G01 X2.6729 Y11.1910
G01 X2.7264 Y11.2502
G01 X2.7775 Y11.3192
G01 X2.8217 Y11.3928
G01 X2.8559 Y11.4649
G01 X2.8606 Y11.4762
G01 X2.8854 Y11.5455
G01 X2.8890 Y11.5572
G01 X2.9082 Y11.6346
G01 X2.9200 Y11.7135
G00 Z1.0000
G00 X2.9448 Y11.7098
G01 F60.00
G01 Z-0.1418
G01 F60.00
G01 X2.9462 Y11.7244
G01 X2.9500 Y11.8053
G01 X2.9457 Y11.8935
G01 X2.9327 Y11.9809
G01 X2.9112 Y12.0666
G01 X2.8815 Y12.1497
G01 X2.8437 Y12.2296
G01 X2.7983 Y12.3053
G01 X2.7457 Y12.3763
G01 X2.6864 Y12.4417
G01 X2.6210 Y12.5010
G01 X2.5500 Y12.5536
G01 X2.4743 Y12.5990
G01 X2.3944 Y12.6368
G01 X2.3113 Y12.6666
G01 X2.2256 Y12.6880
G01 X2.1455 Y12.7001
G01 X2.1345 Y12.7013
G01 X2.0500 Y12.7053
G01 X1.5500 Y12.7053
G01 X1.4618 Y12.7010
G01 X1.3744 Y12.6880
G01 X1.2887 Y12.6666
G01 X1.2056 Y12.6368
G01 X1.1257 Y12.5990
G01 X1.0562 Y12.5576
G01 X1.0440 Y12.5494
G01 X0.9790 Y12.5010
G01 X0.9189 Y12.4468
G01 X0.9085 Y12.4364
G01 X0.8543 Y12.3763
G01 X0.8017 Y12.3053
G01 X0.7599 Y12.2360
G01 X0.7530 Y12.2230
G01 X0.7185 Y12.1497
G01 X0.6911 Y12.0736
G01 X0.6868 Y12.0595
G01 X0.6673 Y11.9809
G01 X0.6552 Y11.9008
G01 X0.6540 Y11.8899
G01 X0.6500 Y11.8053
G01 X0.6543 Y11.7171
G01 X0.6673 Y11.6297
G01 X0.6888 Y11.5441
G01 X0.7185 Y11.4609
G01 X0.7563 Y11.3811
G01 X0.8017 Y11.3053
G01 X0.8543 Y11.2344
G01 X0.9136 Y11.1689
G01 X0.9790 Y11.1096
G01 X1.0500 Y11.0570
G01 X1.1257 Y11.0116
G01 X1.2056 Y10.9738
G01 X1.2887 Y10.9441
G01 X1.3744 Y10.9226
G01 X1.4545 Y10.9106
G01 X1.4655 Y10.9093
G01 X1.5500 Y10.9053
G01 X2.0500 Y10.9053
G01 X2.1382 Y10.9097
G01 X2.2256 Y10.9226
G01 X2.3113 Y10.9441
G01 X2.3944 Y10.9738
G01 X2.4743 Y11.0116
G01 X2.5438 Y11.0531
G01 X2.5560 Y11.0612
G01 X2.6210 Y11.1096
G01 X2.6811 Y11.1638
G01 X2.6915 Y11.1743
G01 X2.7457 Y11.2344
G01 X2.7983 Y11.3053
G01 X2.8437 Y11.3811
G01 X2.8785 Y11.4542
G01 X2.8841 Y11.4678
G01 X2.9089 Y11.5371
G01 X2.9132 Y11.5512
G01 X2.9327 Y11.6297
G01 X2.9448 Y11.7098
G00 Z1.0000
G00 X2.9695 Y11.7061
G01 F60.00
G01 Z-0.1418
G01 F60.00
G01 X2.9712 Y11.7232
G01 X2.9750 Y11.8053
G01 X2.9705 Y11.8960
G01 X2.9572 Y11.9858
G01 X2.9352 Y12.0738
G01 X2.9046 Y12.1593
G01 X2.8658 Y12.2414
G01 X2.8191 Y12.3192
G01 X2.7650 Y12.3921
G01 X2.7041 Y12.4594
G01 X2.6368 Y12.5204
G01 X2.5639 Y12.5744
G01 X2.4860 Y12.6211
G01 X2.4040 Y12.6599
G01 X2.3185 Y12.6905
G01 X2.2305 Y12.7125
G01 X2.1492 Y12.7248
G01 X2.1364 Y12.7262
G01 X2.0500 Y12.7303
G01 X1.5500 Y12.7303
G01 X1.4593 Y12.7259
G01 X1.3695 Y12.7125
G01 X1.2815 Y12.6905
G01 X1.1960 Y12.6599
G01 X1.1216 Y12.6250
G01 X1.1102 Y12.6190
G01 X1.0434 Y12.5790
G01 X1.0291 Y12.5695
G01 X0.9632 Y12.5204
G01 X0.9021 Y12.4653
G01 X0.8900 Y12.4532
G01 X0.8350 Y12.3921
G01 X0.7809 Y12.3192
G01 X0.7385 Y12.2488
G01 X0.7304 Y12.2337
G01 X0.6954 Y12.1593
G01 X0.6675 Y12.0820
G01 X0.6625 Y12.0656
G01 X0.6428 Y11.9858
G01 X0.6305 Y11.9045
G01 X0.6291 Y11.8917
G01 X0.6250 Y11.8053
G01 X0.6295 Y11.7147
G01 X0.6428 Y11.6249
G01 X0.6648 Y11.5368
G01 X0.6954 Y11.4513
G01 X0.7342 Y11.3693
G01 X0.7809 Y11.2914
G01 X0.8350 Y11.2185
G01 X0.8959 Y11.1512
G01 X0.9632 Y11.0903
G01 X1.0361 Y11.0362
G01 X1.1140 Y10.9895
G01 X1.1960 Y10.9507
G01 X1.2815 Y10.9201
G01 X1.3695 Y10.8981
G01 X1.4508 Y10.8858
G01 X1.4636 Y10.8844
G01 X1.5500 Y10.8803
G01 X2.0500 Y10.8803
G01 X2.1407 Y10.8848
G01 X2.2305 Y10.8981
G01 X2.3185 Y10.9201
G01 X2.4040 Y10.9507
G01 X2.4860 Y10.9895
G01 X2.5566 Y11.0316
G01 X2.5709 Y11.0412
G01 X2.6368 Y11.0903
G01 X2.6979 Y11.1453
G01 X2.7100 Y11.1575
G01 X2.7650 Y11.2185
G01 X2.8191 Y11.2914
G01 X2.8658 Y11.3693
G01 X2.9011 Y11.4435
G01 X2.9077 Y11.4593
G01 X2.9325 Y11.5286
G01 X2.9375 Y11.5451
G01 X2.9572 Y11.6249
G01 X2.9695 Y11.7061
G00 Z1.0000
G00 X2.9695 Y14.2461
G01 F60.00
G01 Z-0.1418
G01 F60.00
G01 X2.9712 Y14.2632
G01 X2.9750 Y14.3453
G01 X2.9705 Y14.4360
G01 X2.9572 Y14.5258
G01 X2.9352 Y14.6138
G01 X2.9046 Y14.6993
G01 X2.8658 Y14.7814
G01 X2.8191 Y14.8592
G01 X2.7650 Y14.9321
G01 X2.7041 Y14.9994
G01 X2.6368 Y15.0604
G01 X2.5639 Y15.1144
G01 X2.4860 Y15.1611
G01 X2.4040 Y15.1999
G01 X2.3185 Y15.2305
G01 X2.2305 Y15.2525
G01 X2.1492 Y15.2648
G01 X2.1364 Y15.2662
G01 X2.0500 Y15.2703
G01 X1.5500 Y15.2703
G01 X1.4593 Y15.2659
G01 X1.3695 Y15.2525
G01 X1.2815 Y15.2305
G01 X1.1960 Y15.1999
G01 X1.1216 Y15.1650
G01 X1.1102 Y15.1590
G01 X1.0434 Y15.1190
G01 X1.0291 Y15.1095
G01 X0.9632 Y15.0604
G01 X0.9021 Y15.0053
G01 X0.8900 Y14.9932
G01 X0.8350 Y14.9321
G01 X0.7809 Y14.8592
G01 X0.7385 Y14.7888
G01 X0.7304 Y14.7737
G01 X0.6954 Y14.6993
G01 X0.6675 Y14.6220
G01 X0.6625 Y14.6056
G01 X0.6428 Y14.5258
G01 X0.6305 Y14.4445
G01 X0.6291 Y14.4317
G01 X0.6250 Y14.3453
G01 X0.6295 Y14.2547
G01 X0.6428 Y14.1649
G01 X0.6648 Y14.0768
G01 X0.6954 Y13.9913
G01 X0.7342 Y13.9093
G01 X0.7809 Y13.8314
G01 X0.8350 Y13.7585
G01 X0.8959 Y13.6912
G01 X0.9632 Y13.6303
G01 X1.0361 Y13.5762
G01 X1.1140 Y13.5295
G01 X1.1960 Y13.4907
G01 X1.2815 Y13.4601
G01 X1.3695 Y13.4381
G01 X1.4508 Y13.4258
G01 X1.4636 Y13.4244
G01 X1.5500 Y13.4203
G01 X2.0500 Y13.4203
G01 X2.1407 Y13.4248
G01 X2.2305 Y13.4381
G01 X2.3185 Y13.4601
G01 X2.4040 Y13.4907
G01 X2.4860 Y13.5295
G01 X2.5566 Y13.5716
G01 X2.5709 Y13.5812
G01 X2.6368 Y13.6303
G01 X2.6979 Y13.6853
G01 X2.7100 Y13.6975
G01 X2.7650 Y13.7585
G01 X2.8191 Y13.8314
G01 X2.8658 Y13.9093
G01 X2.9011 Y13.9835
G01 X2.9077 Y13.9993
G01 X2.9325 Y14.0686
G01 X2.9375 Y14.0851
G01 X2.9572 Y14.1649
G01 X2.9695 Y14.2461
G00 Z1.0000
G00 X2.9448 Y14.2498
G01 F60.00
G01 Z-0.1418
G01 F60.00
G01 X2.9462 Y14.2644
G01 X2.9500 Y14.3453
G01 X2.9457 Y14.4335
G01 X2.9327 Y14.5209
G01 X2.9112 Y14.6066
G01 X2.8815 Y14.6897
G01 X2.8437 Y14.7696
G01 X2.7983 Y14.8453
G01 X2.7457 Y14.9163
G01 X2.6864 Y14.9817
G01 X2.6210 Y15.0410
G01 X2.5500 Y15.0936
G01 X2.4743 Y15.1390
G01 X2.3944 Y15.1768
G01 X2.3113 Y15.2066
G01 X2.2256 Y15.2280
G01 X2.1455 Y15.2401
G01 X2.1345 Y15.2413
G01 X2.0500 Y15.2453
G01 X1.5500 Y15.2453
G01 X1.4618 Y15.2410
G01 X1.3744 Y15.2280
G01 X1.2887 Y15.2066
G01 X1.2056 Y15.1768
G01 X1.1257 Y15.1390
G01 X1.0562 Y15.0976
G01 X1.0440 Y15.0894
G01 X0.9790 Y15.0410
G01 X0.9189 Y14.9868
G01 X0.9085 Y14.9764
G01 X0.8543 Y14.9163
G01 X0.8017 Y14.8453
G01 X0.7599 Y14.7760
G01 X0.7530 Y14.7630
G01 X0.7185 Y14.6897
G01 X0.6911 Y14.6136
G01 X0.6868 Y14.5995
G01 X0.6673 Y14.5209
G01 X0.6552 Y14.4408
G01 X0.6540 Y14.4299
G01 X0.6500 Y14.3453
G01 X0.6543 Y14.2571
G01 X0.6673 Y14.1697
G01 X0.6888 Y14.0841
G01 X0.7185 Y14.0009
G01 X0.7563 Y13.9211
G01 X0.8017 Y13.8453
G01 X0.8543 Y13.7744
G01 X0.9136 Y13.7089
G01 X0.9790 Y13.6496
G01 X1.0500 Y13.5970
G01 X1.1257 Y13.5516
G01 X1.2056 Y13.5138
G01 X1.2887 Y13.4841
G01 X1.3744 Y13.4626
G01 X1.4545 Y13.4506
G01 X1.4655 Y13.4493
G01 X1.5500 Y13.4453
G01 X2.0500 Y13.4453
G01 X2.1382 Y13.4497
G01 X2.2256 Y13.4626
G01 X2.3113 Y13.4841
G01 X2.3944 Y13.5138
G01 X2.4743 Y13.5516
G01 X2.5438 Y13.5931
G01 X2.5560 Y13.6012
G01 X2.6210 Y13.6496
G01 X2.6811 Y13.7038
G01 X2.6915 Y13.7143
G01 X2.7457 Y13.7744
G01 X2.7983 Y13.8453
G01 X2.8437 Y13.9211
G01 X2.8785 Y13.9942
G01 X2.8841 Y14.0078
G01 X2.9089 Y14.0771
G01 X2.9132 Y14.0912
G01 X2.9327 Y14.1697
G01 X2.9448 Y14.2498
G00 Z1.0000
G00 X2.9200 Y14.2535
G01 F60.00
G01 Z-0.1418
G01 F60.00
G01 X2.9212 Y14.2657
G01 X2.9250 Y14.3453
G01 X2.9208 Y14.4311
G01 X2.9082 Y14.5160
G01 X2.8873 Y14.5993
G01 X2.8584 Y14.6802
G01 X2.8217 Y14.7578
G01 X2.7775 Y14.8314
G01 X2.7264 Y14.9004
G01 X2.6687 Y14.9640
G01 X2.6051 Y15.0217
G01 X2.5361 Y15.0729
G01 X2.4625 Y15.1170
G01 X2.3848 Y15.1537
G01 X2.3040 Y15.1826
G01 X2.2207 Y15.2035
G01 X2.1419 Y15.2154
G01 X2.1327 Y15.2164
G01 X2.0500 Y15.2203
G01 X1.5500 Y15.2203
G01 X1.4642 Y15.2161
G01 X1.3793 Y15.2035
G01 X1.2960 Y15.1826
G01 X1.2152 Y15.1537
G01 X1.1375 Y15.1170
G01 X1.0691 Y15.0761
G01 X1.0589 Y15.0693
G01 X0.9949 Y15.0217
G01 X0.9357 Y14.9683
G01 X0.9271 Y14.9596
G01 X0.8736 Y14.9004
G01 X0.8225 Y14.8314
G01 X0.7813 Y14.7631
G01 X0.7756 Y14.7523
G01 X0.7416 Y14.6802
G01 X0.7146 Y14.6051
G01 X0.7110 Y14.5934
G01 X0.6918 Y14.5160
G01 X0.6800 Y14.4372
G01 X0.6790 Y14.4280
G01 X0.6750 Y14.3453
G01 X0.6792 Y14.2596
G01 X0.6918 Y14.1746
G01 X0.7127 Y14.0913
G01 X0.7416 Y14.0105
G01 X0.7783 Y13.9328
G01 X0.8225 Y13.8592
G01 X0.8736 Y13.7902
G01 X0.9313 Y13.7266
G01 X0.9949 Y13.6689
G01 X1.0639 Y13.6178
G01 X1.1375 Y13.5736
G01 X1.2152 Y13.5369
G01 X1.2960 Y13.5080
G01 X1.3793 Y13.4871
G01 X1.4581 Y13.4753
G01 X1.4673 Y13.4743
G01 X1.5500 Y13.4703
G01 X2.0500 Y13.4703
G01 X2.1358 Y13.4745
G01 X2.2207 Y13.4871
G01 X2.3040 Y13.5080
G01 X2.3848 Y13.5369
G01 X2.4625 Y13.5736
G01 X2.5309 Y13.6145
G01 X2.5411 Y13.6213
G01 X2.6051 Y13.6689
G01 X2.6643 Y13.7224
G01 X2.6729 Y13.7310
G01 X2.7264 Y13.7902
G01 X2.7775 Y13.8592
G01 X2.8217 Y13.9328
G01 X2.8559 Y14.0049
G01 X2.8606 Y14.0162
G01 X2.8854 Y14.0855
G01 X2.8890 Y14.0972
G01 X2.9082 Y14.1746
G01 X2.9200 Y14.2535
G00 Z1.0000
G00 X2.9695 Y16.7861
G01 F60.00
G01 Z-0.1418
G01 F60.00
G01 X2.9712 Y16.8032
G01 X2.9750 Y16.8853
G01 X2.9705 Y16.9760
G01 X2.9572 Y17.0658
G01 X2.9352 Y17.1538
G01 X2.9046 Y17.2393
G01 X2.8658 Y17.3214
G01 X2.8191 Y17.3992
G01 X2.7650 Y17.4721
G01 X2.7041 Y17.5394
G01 X2.6368 Y17.6004
G01 X2.5639 Y17.6544
G01 X2.4860 Y17.7011
G01 X2.4040 Y17.7399
G01 X2.3185 Y17.7705
G01 X2.2305 Y17.7925
G01 X2.1492 Y17.8048
G01 X2.1364 Y17.8062
G01 X2.0500 Y17.8103
G01 X1.5500 Y17.8103
G01 X1.4593 Y17.8059
G01 X1.3695 Y17.7925
G01 X1.2815 Y17.7705
G01 X1.1960 Y17.7399
G01 X1.1216 Y17.7050
G01 X1.1102 Y17.6990
G01 X1.0434 Y17.6590
G01 X1.0291 Y17.6495
G01 X0.9632 Y17.6004
G01 X0.9021 Y17.5453
G01 X0.8900 Y17.5332
G01 X0.8350 Y17.4721
G01 X0.7809 Y17.3992
G01 X0.7385 Y17.3288
G01 X0.7304 Y17.3137
G01 X0.6954 Y17.2393
G01 X0.6675 Y17.1620
G01 X0.6625 Y17.1456
G01 X0.6428 Y17.0658
G01 X0.6305 Y16.9845
G01 X0.6291 Y16.9717
G01 X0.6250 Y16.8853
G01 X0.6295 Y16.7947
G01 X0.6428 Y16.7049
G01 X0.6648 Y16.6168
G01 X0.6954 Y16.5313
G01 X0.7342 Y16.4493
G01 X0.7809 Y16.3714
G01 X0.8350 Y16.2985
G01 X0.8959 Y16.2312
G01 X0.9632 Y16.1703
G01 X1.0361 Y16.1162
G01 X1.1140 Y16.0695
G01 X1.1960 Y16.0307
G01 X1.2815 Y16.0001
G01 X1.3695 Y15.9781
G01 X1.4508 Y15.9658
G01 X1.4636 Y15.9644
G01 X1.5500 Y15.9603
G01 X2.0500 Y15.9603
G01 X2.1407 Y15.9648
G01 X2.2305 Y15.9781
G01 X2.3185 Y16.0001
G01 X2.4040 Y16.0307
G01 X2.4860 Y16.0695
G01 X2.5566 Y16.1116
G01 X2.5709 Y16.1212
G01 X2.6368 Y16.1703
G01 X2.6979 Y16.2253
G01 X2.7100 Y16.2375
G01 X2.7650 Y16.2985
G01 X2.8191 Y16.3714
G01 X2.8658 Y16.4493
G01 X2.9011 Y16.5235
G01 X2.9077 Y16.5393
G01 X2.9325 Y16.6086
G01 X2.9375 Y16.6251
G01 X2.9572 Y16.7049
G01 X2.9695 Y16.7861
G00 Z1.0000
G00 X2.9448 Y16.7898
G01 F60.00
G01 Z-0.1418
G01 F60.00
G01 X2.9462 Y16.8044
G01 X2.9500 Y16.8853
G01 X2.9457 Y16.9735
G01 X2.9327 Y17.0609
G01 X2.9112 Y17.1466
G01 X2.8815 Y17.2297
G01 X2.8437 Y17.3096
G01 X2.7983 Y17.3853
G01 X2.7457 Y17.4563
G01 X2.6864 Y17.5217
G01 X2.6210 Y17.5810
G01 X2.5500 Y17.6336
G01 X2.4743 Y17.6790
G01 X2.3944 Y17.7168
G01 X2.3113 Y17.7466
G01 X2.2256 Y17.7680
G01 X2.1455 Y17.7801
G01 X2.1345 Y17.7813
G01 X2.0500 Y17.7853
G01 X1.5500 Y17.7853
G01 X1.4618 Y17.7810
G01 X1.3744 Y17.7680
G01 X1.2887 Y17.7466
G01 X1.2056 Y17.7168
G01 X1.1257 Y17.6790
G01 X1.0562 Y17.6376
G01 X1.0440 Y17.6294
G01 X0.9790 Y17.5810
G01 X0.9189 Y17.5268
G01 X0.9085 Y17.5164
G01 X0.8543 Y17.4563
G01 X0.8017 Y17.3853
G01 X0.7599 Y17.3160
G01 X0.7530 Y17.3030
G01 X0.7185 Y17.2297
G01 X0.6911 Y17.1536
G01 X0.6868 Y17.1395
G01 X0.6673 Y17.0609
G01 X0.6552 Y16.9808
G01 X0.6540 Y16.9699
G01 X0.6500 Y16.8853
G01 X0.6543 Y16.7971
G01 X0.6673 Y16.7097
G01 X0.6888 Y16.6241
G01 X0.7185 Y16.5409
G01 X0.7563 Y16.4611
G01 X0.8017 Y16.3853
G01 X0.8543 Y16.3144
G01 X0.9136 Y16.2489
G01 X0.9790 Y16.1896
G01 X1.0500 Y16.1370
G01 X1.1257 Y16.0916
G01 X1.2056 Y16.0538
G01 X1.2887 Y16.0241
G01 X1.3744 Y16.0026
G01 X1.4545 Y15.9906
G01 X1.4655 Y15.9893
G01 X1.5500 Y15.9853
G01 X2.0500 Y15.9853
G01 X2.1382 Y15.9897
G01 X2.2256 Y16.0026
G01 X2.3113 Y16.0241
G01 X2.3944 Y16.0538
G01 X2.4743 Y16.0916
G01 X2.5438 Y16.1331
G01 X2.5560 Y16.1412
G01 X2.6210 Y16.1896
G01 X2.6811 Y16.2438
G01 X2.6915 Y16.2543
G01 X2.7457 Y16.3144
G01 X2.7983 Y16.3853
G01 X2.8437 Y16.4611
G01 X2.8785 Y16.5342
G01 X2.8841 Y16.5478
G01 X2.9089 Y16.6171
G01 X2.9132 Y16.6312
G01 X2.9327 Y16.7097
G01 X2.9448 Y16.7898
G00 Z1.0000
G00 X2.9200 Y16.7935
G01 F60.00
G01 Z-0.1418
G01 F60.00
G01 X2.9212 Y16.8057
G01 X2.9250 Y16.8853
G01 X2.9208 Y16.9711
G01 X2.9082 Y17.0560
G01 X2.8873 Y17.1393
G01 X2.8584 Y17.2202
G01 X2.8217 Y17.2978
G01 X2.7775 Y17.3714
G01 X2.7264 Y17.4404
G01 X2.6687 Y17.5040
G01 X2.6051 Y17.5617
G01 X2.5361 Y17.6129
G01 X2.4625 Y17.6570
G01 X2.3848 Y17.6937
G01 X2.3040 Y17.7226
G01 X2.2207 Y17.7435
G01 X2.1419 Y17.7554
G01 X2.1327 Y17.7564
G01 X2.0500 Y17.7603
G01 X1.5500 Y17.7603
G01 X1.4642 Y17.7561
G01 X1.3793 Y17.7435
G01 X1.2960 Y17.7226
G01 X1.2152 Y17.6937
G01 X1.1375 Y17.6570
G01 X1.0691 Y17.6161
G01 X1.0589 Y17.6093
G01 X0.9949 Y17.5617
G01 X0.9357 Y17.5083
G01 X0.9271 Y17.4996
G01 X0.8736 Y17.4404
G01 X0.8225 Y17.3714
G01 X0.7813 Y17.3031
G01 X0.7756 Y17.2923
G01 X0.7416 Y17.2202
G01 X0.7146 Y17.1451
G01 X0.7110 Y17.1334
G01 X0.6918 Y17.0560
G01 X0.6800 Y16.9772
G01 X0.6790 Y16.9680
G01 X0.6750 Y16.8853
G01 X0.6792 Y16.7996
G01 X0.6918 Y16.7146
G01 X0.7127 Y16.6313
G01 X0.7416 Y16.5505
G01 X0.7783 Y16.4728
G01 X0.8225 Y16.3992
G01 X0.8736 Y16.3302
G01 X0.9313 Y16.2666
G01 X0.9949 Y16.2089
G01 X1.0639 Y16.1578
G01 X1.1375 Y16.1136
G01 X1.2152 Y16.0769
G01 X1.2960 Y16.0480
G01 X1.3793 Y16.0271
G01 X1.4581 Y16.0153
G01 X1.4673 Y16.0143
G01 X1.5500 Y16.0103
G01 X2.0500 Y16.0103
G01 X2.1358 Y16.0145
G01 X2.2207 Y16.0271
G01 X2.3040 Y16.0480
G01 X2.3848 Y16.0769
G01 X2.4625 Y16.1136
G01 X2.5309 Y16.1545
G01 X2.5411 Y16.1613
G01 X2.6051 Y16.2089
G01 X2.6643 Y16.2624
G01 X2.6729 Y16.2710
G01 X2.7264 Y16.3302
G01 X2.7775 Y16.3992
G01 X2.8217 Y16.4728
G01 X2.8559 Y16.5449
G01 X2.8606 Y16.5562
G01 X2.8854 Y16.6255
G01 X2.8890 Y16.6372
G01 X2.9082 Y16.7146
G01 X2.9200 Y16.7935
G00 Z1.0000
G00 X2.9695 Y19.3261
G01 F60.00
G01 Z-0.1418
G01 F60.00
G01 X2.9712 Y19.3432
G01 X2.9750 Y19.4253
G01 X2.9705 Y19.5160
G01 X2.9572 Y19.6058
G01 X2.9352 Y19.6938
G01 X2.9046 Y19.7793
G01 X2.8658 Y19.8614
G01 X2.8191 Y19.9392
G01 X2.7650 Y20.0121
G01 X2.7041 Y20.0794
G01 X2.6368 Y20.1404
G01 X2.5639 Y20.1944
G01 X2.4860 Y20.2411
G01 X2.4040 Y20.2799
G01 X2.3185 Y20.3105
G01 X2.2305 Y20.3325
G01 X2.1492 Y20.3448
G01 X2.1364 Y20.3462
G01 X2.0500 Y20.3503
G01 X1.5500 Y20.3503
G01 X1.4593 Y20.3459
G01 X1.3695 Y20.3325
G01 X1.2815 Y20.3105
G01 X1.1960 Y20.2799
G01 X1.1216 Y20.2450
G01 X1.1102 Y20.2390
G01 X1.0434 Y20.1990
G01 X1.0291 Y20.1895
G01 X0.9632 Y20.1404
G01 X0.9021 Y20.0853
G01 X0.8900 Y20.0732
G01 X0.8350 Y20.0121
G01 X0.7809 Y19.9392
G01 X0.7385 Y19.8688
G01 X0.7304 Y19.8537
G01 X0.6954 Y19.7793
G01 X0.6675 Y19.7020
G01 X0.6625 Y19.6856
G01 X0.6428 Y19.6058
G01 X0.6305 Y19.5245
G01 X0.6291 Y19.5117
G01 X0.6250 Y19.4253
G01 X0.6295 Y19.3347
G01 X0.6428 Y19.2449
G01 X0.6648 Y19.1568
G01 X0.6954 Y19.0713
G01 X0.7342 Y18.9893
G01 X0.7809 Y18.9114
G01 X0.8350 Y18.8385
G01 X0.8959 Y18.7712
G01 X0.9632 Y18.7103
G01 X1.0361 Y18.6562
G01 X1.1140 Y18.6095
G01 X1.1960 Y18.5707
G01 X1.2815 Y18.5401
G01 X1.3695 Y18.5181
G01 X1.4508 Y18.5058
G01 X1.4636 Y18.5044
G01 X1.5500 Y18.5003
G01 X2.0500 Y18.5003
G01 X2.1407 Y18.5048
G01 X2.2305 Y18.5181
G01 X2.3185 Y18.5401
G01 X2.4040 Y18.5707
G01 X2.4860 Y18.6095
G01 X2.5566 Y18.6516
G01 X2.5709 Y18.6612
G01 X2.6368 Y18.7103
G01 X2.6979 Y18.7653
G01 X2.7100 Y18.7775
G01 X2.7650 Y18.8385
G01 X2.8191 Y18.9114
G01 X2.8658 Y18.9893
G01 X2.9011 Y19.0635
G01 X2.9077 Y19.0793
G01 X2.9325 Y19.1486
G01 X2.9375 Y19.1651
G01 X2.9572 Y19.2449
G01 X2.9695 Y19.3261
G00 Z1.0000
G00 X2.9448 Y19.3298
G01 F60.00
G01 Z-0.1418
G01 F60.00
G01 X2.9462 Y19.3444
G01 X2.9500 Y19.4253
G01 X2.9457 Y19.5135
G01 X2.9327 Y19.6009
G01 X2.9112 Y19.6866
G01 X2.8815 Y19.7697
G01 X2.8437 Y19.8496
G01 X2.7983 Y19.9253
G01 X2.7457 Y19.9963
G01 X2.6864 Y20.0617
G01 X2.6210 Y20.1210
G01 X2.5500 Y20.1736
G01 X2.4743 Y20.2190
G01 X2.3944 Y20.2568
G01 X2.3113 Y20.2866
G01 X2.2256 Y20.3080
G01 X2.1455 Y20.3201
G01 X2.1345 Y20.3213
G01 X2.0500 Y20.3253
G01 X1.5500 Y20.3253
G01 X1.4618 Y20.3210
G01 X1.3744 Y20.3080
G01 X1.2887 Y20.2866
G01 X1.2056 Y20.2568
G01 X1.1257 Y20.2190
G01 X1.0562 Y20.1776
G01 X1.0440 Y20.1694
G01 X0.9790 Y20.1210
G01 X0.9189 Y20.0668
G01 X0.9085 Y20.0564
G01 X0.8543 Y19.9963
G01 X0.8017 Y19.9253
G01 X0.7599 Y19.8560
G01 X0.7530 Y19.8430
G01 X0.7185 Y19.7697
G01 X0.6911 Y19.6936
G01 X0.6868 Y19.6795
G01 X0.6673 Y19.6009
G01 X0.6552 Y19.5208
G01 X0.6540 Y19.5099
G01 X0.6500 Y19.4253
G01 X0.6543 Y19.3371
G01 X0.6673 Y19.2497
G01 X0.6888 Y19.1641
G01 X0.7185 Y19.0809
G01 X0.7563 Y19.0011
G01 X0.8017 Y18.9253
G01 X0.8543 Y18.8544
G01 X0.9136 Y18.7889
G01 X0.9790 Y18.7296
G01 X1.0500 Y18.6770
G01 X1.1257 Y18.6316
G01 X1.2056 Y18.5938
G01 X1.2887 Y18.5641
G01 X1.3744 Y18.5426
G01 X1.4545 Y18.5306
G01 X1.4655 Y18.5293
G01 X1.5500 Y18.5253
G01 X2.0500 Y18.5253
G01 X2.1382 Y18.5297
G01 X2.2256 Y18.5426
G01 X2.3113 Y18.5641
G01 X2.3944 Y18.5938
G01 X2.4743 Y18.6316
G01 X2.5438 Y18.6731
G01 X2.5560 Y18.6812
G01 X2.6210 Y18.7296
G01 X2.6811 Y18.7838
G01 X2.6915 Y18.7943
G01 X2.7457 Y18.8544
G01 X2.7983 Y18.9253
G01 X2.8437 Y19.0011
G01 X2.8785 Y19.0742
G01 X2.8841 Y19.0878
G01 X2.9089 Y19.1571
G01 X2.9132 Y19.1712
G01 X2.9327 Y19.2497
G01 X2.9448 Y19.3298
G00 Z1.0000
G00 X2.9200 Y19.3335
G01 F60.00
G01 Z-0.1418
G01 F60.00
G01 X2.9212 Y19.3457
G01 X2.9250 Y19.4253
G01 X2.9208 Y19.5111
G01 X2.9082 Y19.5960
G01 X2.8873 Y19.6793
G01 X2.8584 Y19.7602
G01 X2.8217 Y19.8378
G01 X2.7775 Y19.9114
G01 X2.7264 Y19.9804
G01 X2.6687 Y20.0440
G01 X2.6051 Y20.1017
G01 X2.5361 Y20.1529
G01 X2.4625 Y20.1970
G01 X2.3848 Y20.2337
G01 X2.3040 Y20.2626
G01 X2.2207 Y20.2835
G01 X2.1419 Y20.2954
G01 X2.1327 Y20.2964
G01 X2.0500 Y20.3003
G01 X1.5500 Y20.3003
G01 X1.4642 Y20.2961
G01 X1.3793 Y20.2835
G01 X1.2960 Y20.2626
G01 X1.2152 Y20.2337
G01 X1.1375 Y20.1970
G01 X1.0691 Y20.1561
G01 X1.0589 Y20.1493
G01 X0.9949 Y20.1017
G01 X0.9357 Y20.0483
G01 X0.9271 Y20.0396
G01 X0.8736 Y19.9804
G01 X0.8225 Y19.9114
G01 X0.7813 Y19.8431
G01 X0.7756 Y19.8323
G01 X0.7416 Y19.7602
G01 X0.7146 Y19.6851
G01 X0.7110 Y19.6734
G01 X0.6918 Y19.5960
G01 X0.6800 Y19.5172
G01 X0.6790 Y19.5080
G01 X0.6750 Y19.4253
G01 X0.6792 Y19.3396
G01 X0.6918 Y19.2546
G01 X0.7127 Y19.1713
G01 X0.7416 Y19.0905
G01 X0.7783 Y19.0128
G01 X0.8225 Y18.9392
G01 X0.8736 Y18.8702
G01 X0.9313 Y18.8066
G01 X0.9949 Y18.7489
G01 X1.0639 Y18.6978
G01 X1.1375 Y18.6536
G01 X1.2152 Y18.6169
G01 X1.2960 Y18.5880
G01 X1.3793 Y18.5671
G01 X1.4581 Y18.5553
G01 X1.4673 Y18.5543
G01 X1.5500 Y18.5503
G01 X2.0500 Y18.5503
G01 X2.1358 Y18.5545
G01 X2.2207 Y18.5671
G01 X2.3040 Y18.5880
G01 X2.3848 Y18.6169
G01 X2.4625 Y18.6536
G01 X2.5309 Y18.6945
G01 X2.5411 Y18.7013
G01 X2.6051 Y18.7489
G01 X2.6643 Y18.8024
G01 X2.6729 Y18.8110
G01 X2.7264 Y18.8702
G01 X2.7775 Y18.9392
G01 X2.8217 Y19.0128
G01 X2.8559 Y19.0849
G01 X2.8606 Y19.0962
G01 X2.8854 Y19.1655
G01 X2.8890 Y19.1772
G01 X2.9082 Y19.2546
G01 X2.9200 Y19.3335
G00 Z1.0000
G00 X2.9695 Y21.8661
G01 F60.00
G01 Z-0.1418
G01 F60.00
G01 X2.9712 Y21.8832
G01 X2.9750 Y21.9653
G01 X2.9705 Y22.0560
G01 X2.9572 Y22.1458
G01 X2.9352 Y22.2338
G01 X2.9046 Y22.3193
G01 X2.8658 Y22.4014
G01 X2.8191 Y22.4792
G01 X2.7650 Y22.5521
G01 X2.7041 Y22.6194
G01 X2.6368 Y22.6804
G01 X2.5639 Y22.7344
G01 X2.4860 Y22.7811
G01 X2.4040 Y22.8199
G01 X2.3185 Y22.8505
G01 X2.2305 Y22.8725
G01 X2.1492 Y22.8848
G01 X2.1364 Y22.8862
G01 X2.0500 Y22.8903
G01 X1.5500 Y22.8903
G01 X1.4593 Y22.8859
G01 X1.3695 Y22.8725
G01 X1.2815 Y22.8505
G01 X1.1960 Y22.8199
G01 X1.1216 Y22.7850
G01 X1.1102 Y22.7790
G01 X1.0434 Y22.7390
G01 X1.0291 Y22.7295
G01 X0.9632 Y22.6804
G01 X0.9021 Y22.6253
G01 X0.8900 Y22.6132
G01 X0.8350 Y22.5521
G01 X0.7809 Y22.4792
G01 X0.7385 Y22.4088
G01 X0.7304 Y22.3937
G01 X0.6954 Y22.3193
G01 X0.6675 Y22.2420
G01 X0.6625 Y22.2256
G01 X0.6428 Y22.1458
G01 X0.6305 Y22.0645
G01 X0.6291 Y22.0517
G01 X0.6250 Y21.9653
G01 X0.6295 Y21.8747
G01 X0.6428 Y21.7849
G01 X0.6648 Y21.6968
G01 X0.6954 Y21.6113
G01 X0.7342 Y21.5293
G01 X0.7809 Y21.4514
G01 X0.8350 Y21.3785
G01 X0.8959 Y21.3112
G01 X0.9632 Y21.2503
G01 X1.0361 Y21.1962
G01 X1.1140 Y21.1495
G01 X1.1960 Y21.1107
G01 X1.2815 Y21.0801
G01 X1.3695 Y21.0581
G01 X1.4508 Y21.0458
G01 X1.4636 Y21.0444
G01 X1.5500 Y21.0403
G01 X2.0500 Y21.0403
G01 X2.1407 Y21.0448
G01 X2.2305 Y21.0581
G01 X2.3185 Y21.0801
G01 X2.4040 Y21.1107
G01 X2.4860 Y21.1495
G01 X2.5566 Y21.1916
G01 X2.5709 Y21.2012
G01 X2.6368 Y21.2503
G01 X2.6979 Y21.3053
G01 X2.7100 Y21.3175
G01 X2.7650 Y21.3785
G01 X2.8191 Y21.4514
G01 X2.8658 Y21.5293
G01 X2.9011 Y21.6035
G01 X2.9077 Y21.6193
G01 X2.9325 Y21.6886
G01 X2.9375 Y21.7051
G01 X2.9572 Y21.7849
G01 X2.9695 Y21.8661
G00 Z1.0000
G00 X2.9448 Y21.8698
G01 F60.00
G01 Z-0.1418
G01 F60.00
G01 X2.9462 Y21.8844
G01 X2.9500 Y21.9653
G01 X2.9457 Y22.0535
G01 X2.9327 Y22.1409
G01 X2.9112 Y22.2266
G01 X2.8815 Y22.3097
G01 X2.8437 Y22.3896
G01 X2.7983 Y22.4653
G01 X2.7457 Y22.5363
G01 X2.6864 Y22.6017
G01 X2.6210 Y22.6610
G01 X2.5500 Y22.7136
G01 X2.4743 Y22.7590
G01 X2.3944 Y22.7968
G01 X2.3113 Y22.8266
G01 X2.2256 Y22.8480
G01 X2.1455 Y22.8601
G01 X2.1345 Y22.8613
G01 X2.0500 Y22.8653
G01 X1.5500 Y22.8653
G01 X1.4618 Y22.8610
G01 X1.3744 Y22.8480
G01 X1.2887 Y22.8266
G01 X1.2056 Y22.7968
G01 X1.1257 Y22.7590
G01 X1.0562 Y22.7176
G01 X1.0440 Y22.7094
G01 X0.9790 Y22.6610
G01 X0.9189 Y22.6068
G01 X0.9085 Y22.5964
G01 X0.8543 Y22.5363
G01 X0.8017 Y22.4653
G01 X0.7599 Y22.3960
G01 X0.7530 Y22.3830
G01 X0.7185 Y22.3097
G01 X0.6911 Y22.2336
G01 X0.6868 Y22.2195
G01 X0.6673 Y22.1409
G01 X0.6552 Y22.0608
G01 X0.6540 Y22.0499
G01 X0.6500 Y21.9653
G01 X0.6543 Y21.8771
G01 X0.6673 Y21.7897
G01 X0.6888 Y21.7041
G01 X0.7185 Y21.6209
G01 X0.7563 Y21.5411
G01 X0.8017 Y21.4653
G01 X0.8543 Y21.3944
G01 X0.9136 Y21.3289
G01 X0.9790 Y21.2696
G01 X1.0500 Y21.2170
G01 X1.1257 Y21.1716
G01 X1.2056 Y21.1338
G01 X1.2887 Y21.1041
G01 X1.3744 Y21.0826
G01 X1.4545 Y21.0706
G01 X1.4655 Y21.0693
G01 X1.5500 Y21.0653
G01 X2.0500 Y21.0653
G01 X2.1382 Y21.0697
G01 X2.2256 Y21.0826
G01 X2.3113 Y21.1041
G01 X2.3944 Y21.1338
G01 X2.4743 Y21.1716
G01 X2.5438 Y21.2131
G01 X2.5560 Y21.2212
G01 X2.6210 Y21.2696
G01 X2.6811 Y21.3238
G01 X2.6915 Y21.3343
G01 X2.7457 Y21.3944
G01 X2.7983 Y21.4653
G01 X2.8437 Y21.5411
G01 X2.8785 Y21.6142
G01 X2.8841 Y21.6278
G01 X2.9089 Y21.6971
G01 X2.9132 Y21.7112
G01 X2.9327 Y21.7897
G01 X2.9448 Y21.8698
G00 Z1.0000
G00 X2.9200 Y21.8735
G01 F60.00
G01 Z-0.1418
G01 F60.00
G01 X2.9212 Y21.8857
G01 X2.9250 Y21.9653
G01 X2.9208 Y22.0511
G01 X2.9082 Y22.1360
G01 X2.8873 Y22.2193
G01 X2.8584 Y22.3002
G01 X2.8217 Y22.3778
G01 X2.7775 Y22.4514
G01 X2.7264 Y22.5204
G01 X2.6687 Y22.5840
G01 X2.6051 Y22.6417
G01 X2.5361 Y22.6929
G01 X2.4625 Y22.7370
G01 X2.3848 Y22.7737
G01 X2.3040 Y22.8026
G01 X2.2207 Y22.8235
G01 X2.1419 Y22.8354
G01 X2.1327 Y22.8364
G01 X2.0500 Y22.8403
G01 X1.5500 Y22.8403
G01 X1.4642 Y22.8361
G01 X1.3793 Y22.8235
G01 X1.2960 Y22.8026
G01 X1.2152 Y22.7737
G01 X1.1375 Y22.7370
G01 X1.0691 Y22.6961
G01 X1.0589 Y22.6893
G01 X0.9949 Y22.6417
G01 X0.9357 Y22.5883
G01 X0.9271 Y22.5796
G01 X0.8736 Y22.5204
G01 X0.8225 Y22.4514
G01 X0.7813 Y22.3831
G01 X0.7756 Y22.3723
G01 X0.7416 Y22.3002
G01 X0.7146 Y22.2251
G01 X0.7110 Y22.2134
G01 X0.6918 Y22.1360
G01 X0.6800 Y22.0572
G01 X0.6790 Y22.0480
G01 X0.6750 Y21.9653
G01 X0.6792 Y21.8796
G01 X0.6918 Y21.7946
G01 X0.7127 Y21.7113
G01 X0.7416 Y21.6305
G01 X0.7783 Y21.5528
G01 X0.8225 Y21.4792
G01 X0.8736 Y21.4102
G01 X0.9313 Y21.3466
G01 X0.9949 Y21.2889
G01 X1.0639 Y21.2378
G01 X1.1375 Y21.1936
G01 X1.2152 Y21.1569
G01 X1.2960 Y21.1280
G01 X1.3793 Y21.1071
G01 X1.4581 Y21.0953
G01 X1.4673 Y21.0943
G01 X1.5500 Y21.0903
G01 X2.0500 Y21.0903
G01 X2.1358 Y21.0945
G01 X2.2207 Y21.1071
G01 X2.3040 Y21.1280
G01 X2.3848 Y21.1569
G01 X2.4625 Y21.1936
G01 X2.5309 Y21.2345
G01 X2.5411 Y21.2413
G01 X2.6051 Y21.2889
G01 X2.6643 Y21.3424
G01 X2.6729 Y21.3510
G01 X2.7264 Y21.4102
G01 X2.7775 Y21.4792
G01 X2.8217 Y21.5528
G01 X2.8559 Y21.6249
G01 X2.8606 Y21.6362
G01 X2.8854 Y21.7055
G01 X2.8890 Y21.7172
G01 X2.9082 Y21.7946
G01 X2.9200 Y21.8735
G00 Z1.0000
G00 X2.9695 Y24.4061
G01 F60.00
G01 Z-0.1418
G01 F60.00
G01 X2.9712 Y24.4232
G01 X2.9750 Y24.5053
G01 X2.9705 Y24.5960
G01 X2.9572 Y24.6858
G01 X2.9352 Y24.7738
G01 X2.9046 Y24.8593
G01 X2.8658 Y24.9414
G01 X2.8191 Y25.0192
G01 X2.7650 Y25.0921
G01 X2.7041 Y25.1594
G01 X2.6368 Y25.2204
G01 X2.5639 Y25.2744
G01 X2.4860 Y25.3211
G01 X2.4040 Y25.3599
G01 X2.3185 Y25.3905
G01 X2.2305 Y25.4125
G01 X2.1492 Y25.4248
G01 X2.1364 Y25.4262
G01 X2.0500 Y25.4303
G01 X1.5500 Y25.4303
G01 X1.4593 Y25.4259
G01 X1.3695 Y25.4125
G01 X1.2815 Y25.3905
G01 X1.1960 Y25.3599
G01 X1.1216 Y25.3250
G01 X1.1102 Y25.3190
G01 X1.0434 Y25.2790
G01 X1.0291 Y25.2695
G01 X0.9632 Y25.2204
G01 X0.9021 Y25.1653
G01 X0.8900 Y25.1532
G01 X0.8350 Y25.0921
G01 X0.7809 Y25.0192
G01 X0.7385 Y24.9488
G01 X0.7304 Y24.9337
G01 X0.6954 Y24.8593
G01 X0.6675 Y24.7820
G01 X0.6625 Y24.7656
G01 X0.6428 Y24.6858
G01 X0.6305 Y24.6045
G01 X0.6291 Y24.5917
G01 X0.6250 Y24.5053
G01 X0.6295 Y24.4147
G01 X0.6428 Y24.3249
G01 X0.6648 Y24.2368
G01 X0.6954 Y24.1513
G01 X0.7342 Y24.0693
G01 X0.7809 Y23.9914
G01 X0.8350 Y23.9185
G01 X0.8959 Y23.8512
G01 X0.9632 Y23.7903
G01 X1.0361 Y23.7362
G01 X1.1140 Y23.6895
G01 X1.1960 Y23.6507
G01 X1.2815 Y23.6201
G01 X1.3695 Y23.5981
G01 X1.4508 Y23.5858
G01 X1.4636 Y23.5844
G01 X1.5500 Y23.5803
G01 X2.0500 Y23.5803
G01 X2.1407 Y23.5848
G01 X2.2305 Y23.5981
G01 X2.3185 Y23.6201
G01 X2.4040 Y23.6507
G01 X2.4860 Y23.6895
G01 X2.5566 Y23.7316
G01 X2.5709 Y23.7412
G01 X2.6368 Y23.7903
G01 X2.6979 Y23.8453
G01 X2.7100 Y23.8575
G01 X2.7650 Y23.9185
G01 X2.8191 Y23.9914
G01 X2.8658 Y24.0693
G01 X2.9011 Y24.1435
G01 X2.9077 Y24.1593
G01 X2.9325 Y24.2286
G01 X2.9375 Y24.2451
G01 X2.9572 Y24.3249
G01 X2.9695 Y24.4061
G00 Z1.0000
G00 X2.9448 Y24.4098
G01 F60.00
G01 Z-0.1418
G01 F60.00
G01 X2.9462 Y24.4244
G01 X2.9500 Y24.5053
G01 X2.9457 Y24.5935
G01 X2.9327 Y24.6809
G01 X2.9112 Y24.7666
G01 X2.8815 Y24.8497
G01 X2.8437 Y24.9296
G01 X2.7983 Y25.0053
G01 X2.7457 Y25.0763
G01 X2.6864 Y25.1417
G01 X2.6210 Y25.2010
G01 X2.5500 Y25.2536
G01 X2.4743 Y25.2990
G01 X2.3944 Y25.3368
G01 X2.3113 Y25.3666
G01 X2.2256 Y25.3880
G01 X2.1455 Y25.4001
G01 X2.1345 Y25.4013
G01 X2.0500 Y25.4053
G01 X1.5500 Y25.4053
G01 X1.4618 Y25.4010
G01 X1.3744 Y25.3880
G01 X1.2887 Y25.3666
G01 X1.2056 Y25.3368
G01 X1.1257 Y25.2990
G01 X1.0562 Y25.2576
G01 X1.0440 Y25.2494
G01 X0.9790 Y25.2010
G01 X0.9189 Y25.1468
G01 X0.9085 Y25.1364
G01 X0.8543 Y25.0763
G01 X0.8017 Y25.0053
G01 X0.7599 Y24.9360
G01 X0.7530 Y24.9230
G01 X0.7185 Y24.8497
G01 X0.6911 Y24.7736
G01 X0.6868 Y24.7595
G01 X0.6673 Y24.6809
G01 X0.6552 Y24.6008
G01 X0.6540 Y24.5899
G01 X0.6500 Y24.5053
G01 X0.6543 Y24.4171
G01 X0.6673 Y24.3297
G01 X0.6888 Y24.2441
G01 X0.7185 Y24.1609
G01 X0.7563 Y24.0811
G01 X0.8017 Y24.0053
G01 X0.8543 Y23.9344
G01 X0.9136 Y23.8689
G01 X0.9790 Y23.8096
G01 X1.0500 Y23.7570
G01 X1.1257 Y23.7116
G01 X1.2056 Y23.6738
G01 X1.2887 Y23.6441
G01 X1.3744 Y23.6226
G01 X1.4545 Y23.6106
G01 X1.4655 Y23.6093
G01 X1.5500 Y23.6053
G01 X2.0500 Y23.6053
G01 X2.1382 Y23.6097
G01 X2.2256 Y23.6226
G01 X2.3113 Y23.6441
G01 X2.3944 Y23.6738
G01 X2.4743 Y23.7116
G01 X2.5438 Y23.7531
G01 X2.5560 Y23.7612
G01 X2.6210 Y23.8096
G01 X2.6811 Y23.8638
G01 X2.6915 Y23.8743
G01 X2.7457 Y23.9344
G01 X2.7983 Y24.0053
G01 X2.8437 Y24.0811
G01 X2.8785 Y24.1542
G01 X2.8841 Y24.1678
G01 X2.9089 Y24.2371
G01 X2.9132 Y24.2512
G01 X2.9327 Y24.3297
G01 X2.9448 Y24.4098
G00 Z1.0000
G00 X2.9200 Y24.4135
G01 F60.00
G01 Z-0.1418
G01 F60.00
G01 X2.9212 Y24.4257
G01 X2.9250 Y24.5053
G01 X2.9208 Y24.5911
G01 X2.9082 Y24.6760
G01 X2.8873 Y24.7593
G01 X2.8584 Y24.8402
G01 X2.8217 Y24.9178
G01 X2.7775 Y24.9914
G01 X2.7264 Y25.0604
G01 X2.6687 Y25.1240
G01 X2.6051 Y25.1817
G01 X2.5361 Y25.2329
G01 X2.4625 Y25.2770
G01 X2.3848 Y25.3137
G01 X2.3040 Y25.3426
G01 X2.2207 Y25.3635
G01 X2.1419 Y25.3754
G01 X2.1327 Y25.3764
G01 X2.0500 Y25.3803
G01 X1.5500 Y25.3803
G01 X1.4642 Y25.3761
G01 X1.3793 Y25.3635
G01 X1.2960 Y25.3426
G01 X1.2152 Y25.3137
G01 X1.1375 Y25.2770
G01 X1.0691 Y25.2361
G01 X1.0589 Y25.2293
G01 X0.9949 Y25.1817
G01 X0.9357 Y25.1283
G01 X0.9271 Y25.1196
G01 X0.8736 Y25.0604
G01 X0.8225 Y24.9914
G01 X0.7813 Y24.9231
G01 X0.7756 Y24.9123
G01 X0.7416 Y24.8402
G01 X0.7146 Y24.7651
G01 X0.7110 Y24.7534
G01 X0.6918 Y24.6760
G01 X0.6800 Y24.5972
G01 X0.6790 Y24.5880
G01 X0.6750 Y24.5053
G01 X0.6792 Y24.4196
G01 X0.6918 Y24.3346
G01 X0.7127 Y24.2513
G01 X0.7416 Y24.1705
G01 X0.7783 Y24.0928
G01 X0.8225 Y24.0192
G01 X0.8736 Y23.9502
G01 X0.9313 Y23.8866
G01 X0.9949 Y23.8289
G01 X1.0639 Y23.7778
G01 X1.1375 Y23.7336
G01 X1.2152 Y23.6969
G01 X1.2960 Y23.6680
G01 X1.3793 Y23.6471
G01 X1.4581 Y23.6353
G01 X1.4673 Y23.6343
G01 X1.5500 Y23.6303
G01 X2.0500 Y23.6303
G01 X2.1358 Y23.6345
G01 X2.2207 Y23.6471
G01 X2.3040 Y23.6680
G01 X2.3848 Y23.6969
G01 X2.4625 Y23.7336
G01 X2.5309 Y23.7745
G01 X2.5411 Y23.7813
G01 X2.6051 Y23.8289
G01 X2.6643 Y23.8824
G01 X2.6729 Y23.8910
G01 X2.7264 Y23.9502
G01 X2.7775 Y24.0192
G01 X2.8217 Y24.0928
G01 X2.8559 Y24.1649
G01 X2.8606 Y24.1762
G01 X2.8854 Y24.2455
G01 X2.8890 Y24.2572
G01 X2.9082 Y24.3346
G01 X2.9200 Y24.4135
G00 Z1.0000
G00 X2.9695 Y26.9461
G01 F60.00
G01 Z-0.1418
G01 F60.00
G01 X2.9712 Y26.9632
G01 X2.9750 Y27.0453
G01 X2.9705 Y27.1360
G01 X2.9572 Y27.2258
G01 X2.9352 Y27.3138
G01 X2.9046 Y27.3993
G01 X2.8658 Y27.4814
G01 X2.8191 Y27.5592
G01 X2.7650 Y27.6321
G01 X2.7041 Y27.6994
G01 X2.6368 Y27.7604
G01 X2.5639 Y27.8144
G01 X2.4860 Y27.8611
G01 X2.4040 Y27.8999
G01 X2.3185 Y27.9305
G01 X2.2305 Y27.9525
G01 X2.1492 Y27.9648
G01 X2.1364 Y27.9662
G01 X2.0500 Y27.9703
G01 X1.5500 Y27.9703
G01 X1.4593 Y27.9659
G01 X1.3695 Y27.9525
G01 X1.2815 Y27.9305
G01 X1.1960 Y27.8999
G01 X1.1216 Y27.8650
G01 X1.1102 Y27.8590
G01 X1.0434 Y27.8190
G01 X1.0291 Y27.8095
G01 X0.9632 Y27.7604
G01 X0.9021 Y27.7053
G01 X0.8900 Y27.6932
G01 X0.8350 Y27.6321
G01 X0.7809 Y27.5592
G01 X0.7385 Y27.4888
G01 X0.7304 Y27.4737
G01 X0.6954 Y27.3993
G01 X0.6675 Y27.3220
G01 X0.6625 Y27.3056
G01 X0.6428 Y27.2258
G01 X0.6305 Y27.1445
G01 X0.6291 Y27.1317
G01 X0.6250 Y27.0453
G01 X0.6295 Y26.9547
G01 X0.6428 Y26.8649
G01 X0.6648 Y26.7768
G01 X0.6954 Y26.6913
G01 X0.7342 Y26.6093
G01 X0.7809 Y26.5314
G01 X0.8350 Y26.4585
G01 X0.8959 Y26.3912
G01 X0.9632 Y26.3303
G01 X1.0361 Y26.2762
G01 X1.1140 Y26.2295
G01 X1.1960 Y26.1907
G01 X1.2815 Y26.1601
G01 X1.3695 Y26.1381
G01 X1.4508 Y26.1258
G01 X1.4636 Y26.1244
G01 X1.5500 Y26.1203
G01 X2.0500 Y26.1203
G01 X2.1407 Y26.1248
G01 X2.2305 Y26.1381
G01 X2.3185 Y26.1601
G01 X2.4040 Y26.1907
G01 X2.4860 Y26.2295
G01 X2.5566 Y26.2716
G01 X2.5709 Y26.2812
G01 X2.6368 Y26.3303
G01 X2.6979 Y26.3853
G01 X2.7100 Y26.3975
G01 X2.7650 Y26.4585
G01 X2.8191 Y26.5314
G01 X2.8658 Y26.6093
G01 X2.9011 Y26.6835
G01 X2.9077 Y26.6993
G01 X2.9325 Y26.7686
G01 X2.9375 Y26.7851
G01 X2.9572 Y26.8649
G01 X2.9695 Y26.9461
G00 Z1.0000
G00 X2.9448 Y26.9498
G01 F60.00
G01 Z-0.1418
G01 F60.00
G01 X2.9462 Y26.9644
G01 X2.9500 Y27.0453
G01 X2.9457 Y27.1335
G01 X2.9327 Y27.2209
G01 X2.9112 Y27.3066
G01 X2.8815 Y27.3897
G01 X2.8437 Y27.4696
G01 X2.7983 Y27.5453
G01 X2.7457 Y27.6163
G01 X2.6864 Y27.6817
G01 X2.6210 Y27.7410
G01 X2.5500 Y27.7936
G01 X2.4743 Y27.8390
G01 X2.3944 Y27.8768
G01 X2.3113 Y27.9066
G01 X2.2256 Y27.9280
G01 X2.1455 Y27.9401
G01 X2.1345 Y27.9413
G01 X2.0500 Y27.9453
G01 X1.5500 Y27.9453
G01 X1.4618 Y27.9410
G01 X1.3744 Y27.9280
G01 X1.2887 Y27.9066
G01 X1.2056 Y27.8768
G01 X1.1257 Y27.8390
G01 X1.0562 Y27.7976
G01 X1.0440 Y27.7894
G01 X0.9790 Y27.7410
G01 X0.9189 Y27.6868
G01 X0.9085 Y27.6764
G01 X0.8543 Y27.6163
G01 X0.8017 Y27.5453
G01 X0.7599 Y27.4760
G01 X0.7530 Y27.4630
G01 X0.7185 Y27.3897
G01 X0.6911 Y27.3136
G01 X0.6868 Y27.2995
G01 X0.6673 Y27.2209
G01 X0.6552 Y27.1408
G01 X0.6540 Y27.1299
G01 X0.6500 Y27.0453
G01 X0.6543 Y26.9571
G01 X0.6673 Y26.8697
G01 X0.6888 Y26.7841
G01 X0.7185 Y26.7009
G01 X0.7563 Y26.6211
G01 X0.8017 Y26.5453
G01 X0.8543 Y26.4744
G01 X0.9136 Y26.4089
G01 X0.9790 Y26.3496
G01 X1.0500 Y26.2970
G01 X1.1257 Y26.2516
G01 X1.2056 Y26.2138
G01 X1.2887 Y26.1841
G01 X1.3744 Y26.1626
G01 X1.4545 Y26.1506
G01 X1.4655 Y26.1493
G01 X1.5500 Y26.1453
G01 X2.0500 Y26.1453
G01 X2.1382 Y26.1497
G01 X2.2256 Y26.1626
G01 X2.3113 Y26.1841
G01 X2.3944 Y26.2138
G01 X2.4743 Y26.2516
G01 X2.5438 Y26.2931
G01 X2.5560 Y26.3012
G01 X2.6210 Y26.3496
G01 X2.6811 Y26.4038
G01 X2.6915 Y26.4143
G01 X2.7457 Y26.4744
G01 X2.7983 Y26.5453
G01 X2.8437 Y26.6211
G01 X2.8785 Y26.6942
G01 X2.8841 Y26.7078
G01 X2.9089 Y26.7771
G01 X2.9132 Y26.7912
G01 X2.9327 Y26.8697
G01 X2.9448 Y26.9498
G00 Z1.0000
G00 X2.9200 Y26.9535
G01 F60.00
G01 Z-0.1418
G01 F60.00
G01 X2.9212 Y26.9657
G01 X2.9250 Y27.0453
G01 X2.9208 Y27.1311
G01 X2.9082 Y27.2160
G01 X2.8873 Y27.2993
G01 X2.8584 Y27.3802
G01 X2.8217 Y27.4578
G01 X2.7775 Y27.5314
G01 X2.7264 Y27.6004
G01 X2.6687 Y27.6640
G01 X2.6051 Y27.7217
G01 X2.5361 Y27.7729
G01 X2.4625 Y27.8170
G01 X2.3848 Y27.8537
G01 X2.3040 Y27.8826
G01 X2.2207 Y27.9035
G01 X2.1419 Y27.9154
G01 X2.1327 Y27.9164
G01 X2.0500 Y27.9203
G01 X1.5500 Y27.9203
G01 X1.4642 Y27.9161
G01 X1.3793 Y27.9035
G01 X1.2960 Y27.8826
G01 X1.2152 Y27.8537
G01 X1.1375 Y27.8170
G01 X1.0691 Y27.7761
G01 X1.0589 Y27.7693
G01 X0.9949 Y27.7217
G01 X0.9357 Y27.6683
G01 X0.9271 Y27.6596
G01 X0.8736 Y27.6004
G01 X0.8225 Y27.5314
G01 X0.7813 Y27.4631
G01 X0.7756 Y27.4523
G01 X0.7416 Y27.3802
G01 X0.7146 Y27.3051
G01 X0.7110 Y27.2934
G01 X0.6918 Y27.2160
G01 X0.6800 Y27.1372
G01 X0.6790 Y27.1280
G01 X0.6750 Y27.0453
G01 X0.6792 Y26.9596
G01 X0.6918 Y26.8746
G01 X0.7127 Y26.7913
G01 X0.7416 Y26.7105
G01 X0.7783 Y26.6328
G01 X0.8225 Y26.5592
G01 X0.8736 Y26.4902
G01 X0.9313 Y26.4266
G01 X0.9949 Y26.3689
G01 X1.0639 Y26.3178
G01 X1.1375 Y26.2736
G01 X1.2152 Y26.2369
G01 X1.2960 Y26.2080
G01 X1.3793 Y26.1871
G01 X1.4581 Y26.1753
G01 X1.4673 Y26.1743
G01 X1.5500 Y26.1703
G01 X2.0500 Y26.1703
G01 X2.1358 Y26.1745
G01 X2.2207 Y26.1871
G01 X2.3040 Y26.2080
G01 X2.3848 Y26.2369
G01 X2.4625 Y26.2736
G01 X2.5309 Y26.3145
G01 X2.5411 Y26.3213
G01 X2.6051 Y26.3689
G01 X2.6643 Y26.4224
G01 X2.6729 Y26.4310
G01 X2.7264 Y26.4902
G01 X2.7775 Y26.5592
G01 X2.8217 Y26.6328
G01 X2.8559 Y26.7049
G01 X2.8606 Y26.7162
G01 X2.8854 Y26.7855
G01 X2.8890 Y26.7972
G01 X2.9082 Y26.8746
G01 X2.9200 Y26.9535
G00 Z1.0000
G00 X2.9695 Y29.4861
G01 F60.00
G01 Z-0.1418
G01 F60.00
G01 X2.9712 Y29.5032
G01 X2.9750 Y29.5853
G01 X2.9705 Y29.6760
G01 X2.9572 Y29.7658
G01 X2.9352 Y29.8538
G01 X2.9046 Y29.9393
G01 X2.8658 Y30.0214
G01 X2.8191 Y30.0992
G01 X2.7650 Y30.1721
G01 X2.7041 Y30.2394
G01 X2.6368 Y30.3004
G01 X2.5639 Y30.3544
G01 X2.4860 Y30.4011
G01 X2.4040 Y30.4399
G01 X2.3185 Y30.4705
G01 X2.2305 Y30.4925
G01 X2.1492 Y30.5048
G01 X2.1364 Y30.5062
G01 X2.0500 Y30.5103
G01 X1.5500 Y30.5103
G01 X1.4593 Y30.5059
G01 X1.3695 Y30.4925
G01 X1.2815 Y30.4705
G01 X1.1960 Y30.4399
G01 X1.1216 Y30.4050
G01 X1.1102 Y30.3990
G01 X1.0434 Y30.3590
G01 X1.0291 Y30.3495
G01 X0.9632 Y30.3004
G01 X0.9021 Y30.2453
G01 X0.8900 Y30.2332
G01 X0.8350 Y30.1721
G01 X0.7809 Y30.0992
G01 X0.7385 Y30.0288
G01 X0.7304 Y30.0137
G01 X0.6954 Y29.9393
G01 X0.6675 Y29.8620
G01 X0.6625 Y29.8456
G01 X0.6428 Y29.7658
G01 X0.6305 Y29.6845
G01 X0.6291 Y29.6717
G01 X0.6250 Y29.5853
G01 X0.6295 Y29.4947
G01 X0.6428 Y29.4049
G01 X0.6648 Y29.3168
G01 X0.6954 Y29.2313
G01 X0.7342 Y29.1493
G01 X0.7809 Y29.0714
G01 X0.8350 Y28.9985
G01 X0.8959 Y28.9312
G01 X0.9632 Y28.8703
G01 X1.0361 Y28.8162
G01 X1.1140 Y28.7695
G01 X1.1960 Y28.7307
G01 X1.2815 Y28.7001
G01 X1.3695 Y28.6781
G01 X1.4508 Y28.6658
G01 X1.4636 Y28.6644
G01 X1.5500 Y28.6603
G01 X2.0500 Y28.6603
G01 X2.1407 Y28.6648
G01 X2.2305 Y28.6781
G01 X2.3185 Y28.7001
G01 X2.4040 Y28.7307
G01 X2.4860 Y28.7695
G01 X2.5566 Y28.8116
G01 X2.5709 Y28.8212
G01 X2.6368 Y28.8703
G01 X2.6979 Y28.9253
G01 X2.7100 Y28.9375
G01 X2.7650 Y28.9985
G01 X2.8191 Y29.0714
G01 X2.8658 Y29.1493
G01 X2.9011 Y29.2235
G01 X2.9077 Y29.2393
G01 X2.9325 Y29.3086
G01 X2.9375 Y29.3251
G01 X2.9572 Y29.4049
G01 X2.9695 Y29.4861
G00 Z1.0000
G00 X2.9448 Y29.4898
G01 F60.00
G01 Z-0.1418
G01 F60.00
G01 X2.9462 Y29.5044
G01 X2.9500 Y29.5853
G01 X2.9457 Y29.6735
G01 X2.9327 Y29.7609
G01 X2.9112 Y29.8466
G01 X2.8815 Y29.9297
G01 X2.8437 Y30.0096
G01 X2.7983 Y30.0853
G01 X2.7457 Y30.1563
G01 X2.6864 Y30.2217
G01 X2.6210 Y30.2810
G01 X2.5500 Y30.3336
G01 X2.4743 Y30.3790
G01 X2.3944 Y30.4168
G01 X2.3113 Y30.4466
G01 X2.2256 Y30.4680
G01 X2.1455 Y30.4801
G01 X2.1345 Y30.4813
G01 X2.0500 Y30.4853
G01 X1.5500 Y30.4853
G01 X1.4618 Y30.4810
G01 X1.3744 Y30.4680
G01 X1.2887 Y30.4466
G01 X1.2056 Y30.4168
G01 X1.1257 Y30.3790
G01 X1.0562 Y30.3376
G01 X1.0440 Y30.3294
G01 X0.9790 Y30.2810
G01 X0.9189 Y30.2268
G01 X0.9085 Y30.2164
G01 X0.8543 Y30.1563
G01 X0.8017 Y30.0853
G01 X0.7599 Y30.0160
G01 X0.7530 Y30.0030
G01 X0.7185 Y29.9297
G01 X0.6911 Y29.8536
G01 X0.6868 Y29.8395
G01 X0.6673 Y29.7609
G01 X0.6552 Y29.6808
G01 X0.6540 Y29.6699
G01 X0.6500 Y29.5853
G01 X0.6543 Y29.4971
G01 X0.6673 Y29.4097
G01 X0.6888 Y29.3241
G01 X0.7185 Y29.2409
G01 X0.7563 Y29.1611
G01 X0.8017 Y29.0853
G01 X0.8543 Y29.0144
G01 X0.9136 Y28.9489
G01 X0.9790 Y28.8896
G01 X1.0500 Y28.8370
G01 X1.1257 Y28.7916
G01 X1.2056 Y28.7538
G01 X1.2887 Y28.7241
G01 X1.3744 Y28.7026
G01 X1.4545 Y28.6906
G01 X1.4655 Y28.6893
G01 X1.5500 Y28.6853
G01 X2.0500 Y28.6853
G01 X2.1382 Y28.6897
G01 X2.2256 Y28.7026
G01 X2.3113 Y28.7241
G01 X2.3944 Y28.7538
G01 X2.4743 Y28.7916
G01 X2.5438 Y28.8331
G01 X2.5560 Y28.8412
G01 X2.6210 Y28.8896
G01 X2.6811 Y28.9438
G01 X2.6915 Y28.9543
G01 X2.7457 Y29.0144
G01 X2.7983 Y29.0853
G01 X2.8437 Y29.1611
G01 X2.8785 Y29.2342
G01 X2.8841 Y29.2478
G01 X2.9089 Y29.3171
G01 X2.9132 Y29.3312
G01 X2.9327 Y29.4097
G01 X2.9448 Y29.4898
G00 Z1.0000
G00 X2.9200 Y29.4935
G01 F60.00
G01 Z-0.1418
G01 F60.00
G01 X2.9212 Y29.5057
G01 X2.9250 Y29.5853
G01 X2.9208 Y29.6711
G01 X2.9082 Y29.7560
G01 X2.8873 Y29.8393
G01 X2.8584 Y29.9202
G01 X2.8217 Y29.9978
G01 X2.7775 Y30.0714
G01 X2.7264 Y30.1404
G01 X2.6687 Y30.2040
G01 X2.6051 Y30.2617
G01 X2.5361 Y30.3129
G01 X2.4625 Y30.3570
G01 X2.3848 Y30.3937
G01 X2.3040 Y30.4226
G01 X2.2207 Y30.4435
G01 X2.1419 Y30.4554
G01 X2.1327 Y30.4564
G01 X2.0500 Y30.4603
G01 X1.5500 Y30.4603
G01 X1.4642 Y30.4561
G01 X1.3793 Y30.4435
G01 X1.2960 Y30.4226
G01 X1.2152 Y30.3937
G01 X1.1375 Y30.3570
G01 X1.0691 Y30.3161
G01 X1.0589 Y30.3093
G01 X0.9949 Y30.2617
G01 X0.9357 Y30.2083
G01 X0.9271 Y30.1996
G01 X0.8736 Y30.1404
G01 X0.8225 Y30.0714
G01 X0.7813 Y30.0031
G01 X0.7756 Y29.9923
G01 X0.7416 Y29.9202
G01 X0.7146 Y29.8451
G01 X0.7110 Y29.8334
G01 X0.6918 Y29.7560
G01 X0.6800 Y29.6772
G01 X0.6790 Y29.6680
G01 X0.6750 Y29.5853
G01 X0.6792 Y29.4996
G01 X0.6918 Y29.4146
G01 X0.7127 Y29.3313
G01 X0.7416 Y29.2505
G01 X0.7783 Y29.1728
G01 X0.8225 Y29.0992
G01 X0.8736 Y29.0302
G01 X0.9313 Y28.9666
G01 X0.9949 Y28.9089
G01 X1.0639 Y28.8578
G01 X1.1375 Y28.8136
G01 X1.2152 Y28.7769
G01 X1.2960 Y28.7480
G01 X1.3793 Y28.7271
G01 X1.4581 Y28.7153
G01 X1.4673 Y28.7143
G01 X1.5500 Y28.7103
G01 X2.0500 Y28.7103
G01 X2.1358 Y28.7145
G01 X2.2207 Y28.7271
G01 X2.3040 Y28.7480
G01 X2.3848 Y28.7769
G01 X2.4625 Y28.8136
G01 X2.5309 Y28.8545
G01 X2.5411 Y28.8613
G01 X2.6051 Y28.9089
G01 X2.6643 Y28.9624
G01 X2.6729 Y28.9710
G01 X2.7264 Y29.0302
G01 X2.7775 Y29.0992
G01 X2.8217 Y29.1728
G01 X2.8559 Y29.2449
G01 X2.8606 Y29.2562
G01 X2.8854 Y29.3255
G01 X2.8890 Y29.3372
G01 X2.9082 Y29.4146
G01 X2.9200 Y29.4935
G00 Z1.0000
G00 X2.9695 Y32.0261
G01 F60.00
G01 Z-0.1418
G01 F60.00
G01 X2.9712 Y32.0432
G01 X2.9750 Y32.1253
G01 X2.9705 Y32.2160
G01 X2.9572 Y32.3058
G01 X2.9352 Y32.3938
G01 X2.9046 Y32.4793
G01 X2.8658 Y32.5614
G01 X2.8191 Y32.6392
G01 X2.7650 Y32.7121
G01 X2.7041 Y32.7794
G01 X2.6368 Y32.8404
G01 X2.5639 Y32.8944
G01 X2.4860 Y32.9411
G01 X2.4040 Y32.9799
G01 X2.3185 Y33.0105
G01 X2.2305 Y33.0325
G01 X2.1492 Y33.0448
G01 X2.1364 Y33.0462
G01 X2.0500 Y33.0503
G01 X1.5500 Y33.0503
G01 X1.4593 Y33.0459
G01 X1.3695 Y33.0325
G01 X1.2815 Y33.0105
G01 X1.1960 Y32.9799
G01 X1.1216 Y32.9450
G01 X1.1102 Y32.9390
G01 X1.0434 Y32.8990
G01 X1.0291 Y32.8895
G01 X0.9632 Y32.8404
G01 X0.9021 Y32.7853
G01 X0.8900 Y32.7732
G01 X0.8350 Y32.7121
G01 X0.7809 Y32.6392
G01 X0.7385 Y32.5688
G01 X0.7304 Y32.5537
G01 X0.6954 Y32.4793
G01 X0.6675 Y32.4020
G01 X0.6625 Y32.3856
G01 X0.6428 Y32.3058
G01 X0.6305 Y32.2245
G01 X0.6291 Y32.2117
G01 X0.6250 Y32.1253
G01 X0.6295 Y32.0347
G01 X0.6428 Y31.9449
G01 X0.6648 Y31.8568
G01 X0.6954 Y31.7713
G01 X0.7342 Y31.6893
G01 X0.7809 Y31.6114
G01 X0.8350 Y31.5385
G01 X0.8959 Y31.4712
G01 X0.9632 Y31.4103
G01 X1.0361 Y31.3562
G01 X1.1140 Y31.3095
G01 X1.1960 Y31.2707
G01 X1.2815 Y31.2401
G01 X1.3695 Y31.2181
G01 X1.4508 Y31.2058
G01 X1.4636 Y31.2044
G01 X1.5500 Y31.2003
G01 X2.0500 Y31.2003
G01 X2.1407 Y31.2048
G01 X2.2305 Y31.2181
G01 X2.3185 Y31.2401
G01 X2.4040 Y31.2707
G01 X2.4860 Y31.3095
G01 X2.5566 Y31.3516
G01 X2.5709 Y31.3612
G01 X2.6368 Y31.4103
G01 X2.6979 Y31.4653
G01 X2.7100 Y31.4775
G01 X2.7650 Y31.5385
G01 X2.8191 Y31.6114
G01 X2.8658 Y31.6893
G01 X2.9011 Y31.7635
G01 X2.9077 Y31.7793
G01 X2.9325 Y31.8486
G01 X2.9375 Y31.8651
G01 X2.9572 Y31.9449
G01 X2.9695 Y32.0261
G00 Z1.0000
G00 X2.9448 Y32.0298
G01 F60.00
G01 Z-0.1418
G01 F60.00
G01 X2.9462 Y32.0444
G01 X2.9500 Y32.1253
G01 X2.9457 Y32.2135
G01 X2.9327 Y32.3009
G01 X2.9112 Y32.3866
G01 X2.8815 Y32.4697
G01 X2.8437 Y32.5496
G01 X2.7983 Y32.6253
G01 X2.7457 Y32.6963
G01 X2.6864 Y32.7617
G01 X2.6210 Y32.8210
G01 X2.5500 Y32.8736
G01 X2.4743 Y32.9190
G01 X2.3944 Y32.9568
G01 X2.3113 Y32.9866
G01 X2.2256 Y33.0080
G01 X2.1455 Y33.0201
G01 X2.1345 Y33.0213
G01 X2.0500 Y33.0253
G01 X1.5500 Y33.0253
G01 X1.4618 Y33.0210
G01 X1.3744 Y33.0080
G01 X1.2887 Y32.9866
G01 X1.2056 Y32.9568
G01 X1.1257 Y32.9190
G01 X1.0562 Y32.8776
G01 X1.0440 Y32.8694
G01 X0.9790 Y32.8210
G01 X0.9189 Y32.7668
G01 X0.9085 Y32.7564
G01 X0.8543 Y32.6963
G01 X0.8017 Y32.6253
G01 X0.7599 Y32.5560
G01 X0.7530 Y32.5430
G01 X0.7185 Y32.4697
G01 X0.6911 Y32.3936
G01 X0.6868 Y32.3795
G01 X0.6673 Y32.3009
G01 X0.6552 Y32.2208
G01 X0.6540 Y32.2099
G01 X0.6500 Y32.1253
G01 X0.6543 Y32.0371
G01 X0.6673 Y31.9497
G01 X0.6888 Y31.8641
G01 X0.7185 Y31.7809
G01 X0.7563 Y31.7011
G01 X0.8017 Y31.6253
G01 X0.8543 Y31.5544
G01 X0.9136 Y31.4889
G01 X0.9790 Y31.4296
G01 X1.0500 Y31.3770
G01 X1.1257 Y31.3316
G01 X1.2056 Y31.2938
G01 X1.2887 Y31.2641
G01 X1.3744 Y31.2426
G01 X1.4545 Y31.2306
G01 X1.4655 Y31.2293
G01 X1.5500 Y31.2253
G01 X2.0500 Y31.2253
G01 X2.1382 Y31.2297
G01 X2.2256 Y31.2426
G01 X2.3113 Y31.2641
G01 X2.3944 Y31.2938
G01 X2.4743 Y31.3316
G01 X2.5438 Y31.3731
G01 X2.5560 Y31.3812
G01 X2.6210 Y31.4296
G01 X2.6811 Y31.4838
G01 X2.6915 Y31.4943
G01 X2.7457 Y31.5544
G01 X2.7983 Y31.6253
G01 X2.8437 Y31.7011
G01 X2.8785 Y31.7742
G01 X2.8841 Y31.7878
G01 X2.9089 Y31.8571
G01 X2.9132 Y31.8712
G01 X2.9327 Y31.9497
G01 X2.9448 Y32.0298
G00 Z1.0000
G00 X2.9200 Y32.0335
G01 F60.00
G01 Z-0.1418
G01 F60.00
G01 X2.9212 Y32.0457
G01 X2.9250 Y32.1253
G01 X2.9208 Y32.2111
G01 X2.9082 Y32.2960
G01 X2.8873 Y32.3793
G01 X2.8584 Y32.4602
G01 X2.8217 Y32.5378
G01 X2.7775 Y32.6114
G01 X2.7264 Y32.6804
G01 X2.6687 Y32.7440
G01 X2.6051 Y32.8017
G01 X2.5361 Y32.8529
G01 X2.4625 Y32.8970
G01 X2.3848 Y32.9337
G01 X2.3040 Y32.9626
G01 X2.2207 Y32.9835
G01 X2.1419 Y32.9954
G01 X2.1327 Y32.9964
G01 X2.0500 Y33.0003
G01 X1.5500 Y33.0003
G01 X1.4642 Y32.9961
G01 X1.3793 Y32.9835
G01 X1.2960 Y32.9626
G01 X1.2152 Y32.9337
G01 X1.1375 Y32.8970
G01 X1.0691 Y32.8561
G01 X1.0589 Y32.8493
G01 X0.9949 Y32.8017
G01 X0.9357 Y32.7483
G01 X0.9271 Y32.7396
G01 X0.8736 Y32.6804
G01 X0.8225 Y32.6114
G01 X0.7813 Y32.5431
G01 X0.7756 Y32.5323
G01 X0.7416 Y32.4602
G01 X0.7146 Y32.3851
G01 X0.7110 Y32.3734
G01 X0.6918 Y32.2960
G01 X0.6800 Y32.2172
G01 X0.6790 Y32.2080
G01 X0.6750 Y32.1253
G01 X0.6792 Y32.0396
G01 X0.6918 Y31.9546
G01 X0.7127 Y31.8713
G01 X0.7416 Y31.7905
G01 X0.7783 Y31.7128
G01 X0.8225 Y31.6392
G01 X0.8736 Y31.5702
G01 X0.9313 Y31.5066
G01 X0.9949 Y31.4489
G01 X1.0639 Y31.3978
G01 X1.1375 Y31.3536
G01 X1.2152 Y31.3169
G01 X1.2960 Y31.2880
G01 X1.3793 Y31.2671
G01 X1.4581 Y31.2553
G01 X1.4673 Y31.2543
G01 X1.5500 Y31.2503
G01 X2.0500 Y31.2503
G01 X2.1358 Y31.2545
G01 X2.2207 Y31.2671
G01 X2.3040 Y31.2880
G01 X2.3848 Y31.3169
G01 X2.4625 Y31.3536
G01 X2.5309 Y31.3945
G01 X2.5411 Y31.4013
G01 X2.6051 Y31.4489
G01 X2.6643 Y31.5024
G01 X2.6729 Y31.5110
G01 X2.7264 Y31.5702
G01 X2.7775 Y31.6392
G01 X2.8217 Y31.7128
G01 X2.8559 Y31.7849
G01 X2.8606 Y31.7962
G01 X2.8854 Y31.8655
G01 X2.8890 Y31.8772
G01 X2.9082 Y31.9546
G01 X2.9200 Y32.0335
G00 Z1.0000
G00 X2.9695 Y34.5661
G01 F60.00
G01 Z-0.1418
G01 F60.00
G01 X2.9712 Y34.5832
G01 X2.9750 Y34.6653
G01 X2.9705 Y34.7560
G01 X2.9572 Y34.8458
G01 X2.9352 Y34.9338
G01 X2.9046 Y35.0193
G01 X2.8658 Y35.1014
G01 X2.8191 Y35.1792
G01 X2.7650 Y35.2521
G01 X2.7041 Y35.3194
G01 X2.6368 Y35.3804
G01 X2.5639 Y35.4344
G01 X2.4860 Y35.4811
G01 X2.4040 Y35.5199
G01 X2.3185 Y35.5505
G01 X2.2305 Y35.5725
G01 X2.1492 Y35.5848
G01 X2.1364 Y35.5862
G01 X2.0500 Y35.5903
G01 X1.5500 Y35.5903
G01 X1.4593 Y35.5859
G01 X1.3695 Y35.5725
G01 X1.2815 Y35.5505
G01 X1.1960 Y35.5199
G01 X1.1216 Y35.4850
G01 X1.1102 Y35.4790
G01 X1.0434 Y35.4390
G01 X1.0291 Y35.4295
G01 X0.9632 Y35.3804
G01 X0.9021 Y35.3253
G01 X0.8900 Y35.3132
G01 X0.8350 Y35.2521
G01 X0.7809 Y35.1792
G01 X0.7385 Y35.1088
G01 X0.7304 Y35.0937
G01 X0.6954 Y35.0193
G01 X0.6675 Y34.9420
G01 X0.6625 Y34.9256
G01 X0.6428 Y34.8458
G01 X0.6305 Y34.7645
G01 X0.6291 Y34.7517
G01 X0.6250 Y34.6653
G01 X0.6295 Y34.5747
G01 X0.6428 Y34.4849
G01 X0.6648 Y34.3968
G01 X0.6954 Y34.3113
G01 X0.7342 Y34.2293
G01 X0.7809 Y34.1514
G01 X0.8350 Y34.0785
G01 X0.8959 Y34.0112
G01 X0.9632 Y33.9503
G01 X1.0361 Y33.8962
G01 X1.1140 Y33.8495
G01 X1.1960 Y33.8107
G01 X1.2815 Y33.7801
G01 X1.3695 Y33.7581
G01 X1.4508 Y33.7458
G01 X1.4636 Y33.7444
G01 X1.5500 Y33.7403
G01 X2.0500 Y33.7403
G01 X2.1407 Y33.7448
G01 X2.2305 Y33.7581
G01 X2.3185 Y33.7801
G01 X2.4040 Y33.8107
G01 X2.4860 Y33.8495
G01 X2.5566 Y33.8916
G01 X2.5709 Y33.9012
G01 X2.6368 Y33.9503
G01 X2.6979 Y34.0053
G01 X2.7100 Y34.0175
G01 X2.7650 Y34.0785
G01 X2.8191 Y34.1514
G01 X2.8658 Y34.2293
G01 X2.9011 Y34.3035
G01 X2.9077 Y34.3193
G01 X2.9325 Y34.3886
G01 X2.9375 Y34.4051
G01 X2.9572 Y34.4849
G01 X2.9695 Y34.5661
G00 Z1.0000
G00 X2.9448 Y34.5698
G01 F60.00
G01 Z-0.1418
G01 F60.00
G01 X2.9462 Y34.5844
G01 X2.9500 Y34.6653
G01 X2.9457 Y34.7535
G01 X2.9327 Y34.8409
G01 X2.9112 Y34.9266
G01 X2.8815 Y35.0097
G01 X2.8437 Y35.0896
G01 X2.7983 Y35.1653
G01 X2.7457 Y35.2363
G01 X2.6864 Y35.3017
G01 X2.6210 Y35.3610
G01 X2.5500 Y35.4136
G01 X2.4743 Y35.4590
G01 X2.3944 Y35.4968
G01 X2.3113 Y35.5266
G01 X2.2256 Y35.5480
G01 X2.1455 Y35.5601
G01 X2.1345 Y35.5613
G01 X2.0500 Y35.5653
G01 X1.5500 Y35.5653
G01 X1.4618 Y35.5610
G01 X1.3744 Y35.5480
G01 X1.2887 Y35.5266
G01 X1.2056 Y35.4968
G01 X1.1257 Y35.4590
G01 X1.0562 Y35.4176
G01 X1.0440 Y35.4094
G01 X0.9790 Y35.3610
G01 X0.9189 Y35.3068
G01 X0.9085 Y35.2964
G01 X0.8543 Y35.2363
G01 X0.8017 Y35.1653
G01 X0.7599 Y35.0960
G01 X0.7530 Y35.0830
G01 X0.7185 Y35.0097
G01 X0.6911 Y34.9336
G01 X0.6868 Y34.9195
G01 X0.6673 Y34.8409
G01 X0.6552 Y34.7608
G01 X0.6540 Y34.7499
G01 X0.6500 Y34.6653
G01 X0.6543 Y34.5771
G01 X0.6673 Y34.4897
G01 X0.6888 Y34.4041
G01 X0.7185 Y34.3209
G01 X0.7563 Y34.2411
G01 X0.8017 Y34.1653
G01 X0.8543 Y34.0944
G01 X0.9136 Y34.0289
G01 X0.9790 Y33.9696
G01 X1.0500 Y33.9170
G01 X1.1257 Y33.8716
G01 X1.2056 Y33.8338
G01 X1.2887 Y33.8041
G01 X1.3744 Y33.7826
G01 X1.4545 Y33.7706
G01 X1.4655 Y33.7693
G01 X1.5500 Y33.7653
G01 X2.0500 Y33.7653
G01 X2.1382 Y33.7697
G01 X2.2256 Y33.7826
G01 X2.3113 Y33.8041
G01 X2.3944 Y33.8338
G01 X2.4743 Y33.8716
G01 X2.5438 Y33.9131
G01 X2.5560 Y33.9212
G01 X2.6210 Y33.9696
G01 X2.6811 Y34.0238
G01 X2.6915 Y34.0343
G01 X2.7457 Y34.0944
G01 X2.7983 Y34.1653
G01 X2.8437 Y34.2411
G01 X2.8785 Y34.3142
G01 X2.8841 Y34.3278
G01 X2.9089 Y34.3971
G01 X2.9132 Y34.4112
G01 X2.9327 Y34.4897
G01 X2.9448 Y34.5698
G00 Z1.0000
G00 X2.9200 Y34.5735
G01 F60.00
G01 Z-0.1418
G01 F60.00
G01 X2.9212 Y34.5857
G01 X2.9250 Y34.6653
G01 X2.9208 Y34.7511
G01 X2.9082 Y34.8360
G01 X2.8873 Y34.9193
G01 X2.8584 Y35.0002
G01 X2.8217 Y35.0778
G01 X2.7775 Y35.1514
G01 X2.7264 Y35.2204
G01 X2.6687 Y35.2840
G01 X2.6051 Y35.3417
G01 X2.5361 Y35.3929
G01 X2.4625 Y35.4370
G01 X2.3848 Y35.4737
G01 X2.3040 Y35.5026
G01 X2.2207 Y35.5235
G01 X2.1419 Y35.5354
G01 X2.1327 Y35.5364
G01 X2.0500 Y35.5403
G01 X1.5500 Y35.5403
G01 X1.4642 Y35.5361
G01 X1.3793 Y35.5235
G01 X1.2960 Y35.5026
G01 X1.2152 Y35.4737
G01 X1.1375 Y35.4370
G01 X1.0691 Y35.3961
G01 X1.0589 Y35.3893
G01 X0.9949 Y35.3417
G01 X0.9357 Y35.2883
G01 X0.9271 Y35.2796
G01 X0.8736 Y35.2204
G01 X0.8225 Y35.1514
G01 X0.7813 Y35.0831
G01 X0.7756 Y35.0723
G01 X0.7416 Y35.0002
G01 X0.7146 Y34.9251
G01 X0.7110 Y34.9134
G01 X0.6918 Y34.8360
G01 X0.6800 Y34.7572
G01 X0.6790 Y34.7480
G01 X0.6750 Y34.6653
G01 X0.6792 Y34.5796
G01 X0.6918 Y34.4946
G01 X0.7127 Y34.4113
G01 X0.7416 Y34.3305
G01 X0.7783 Y34.2528
G01 X0.8225 Y34.1792
G01 X0.8736 Y34.1102
G01 X0.9313 Y34.0466
G01 X0.9949 Y33.9889
