(G-CODE GENERATED BY FLATCAM v8.994 - www.flatcam.org - Version Date: 2020/11/7)

(Name: condicionamento_BIA_v02-B_Cu.gbr_iso_combined_cnc)
(Type: G-code from Geometry)
(Units: MM)

(Created on sexta, 04 agosto 2023 at 14:22)

(This preprocessor is the default preprocessor used by FlatCAM.)
(It is made to work with MACH3 compatible motion controllers.)

(TOOL DIAMETER: 0.25 mm)
(Feedrate_XY: 120.0 mm/min)
(Feedrate_Z: 60.0 mm/min)
(Feedrate rapids 1500.0 mm/min)

(Z_Cut: -0.14178 mm)
(Z_Move: 1.0 mm)
(Z Start: None mm)
(Z End: 15.0 mm)
(X,Y End: None mm)
(Steps per circle: 64)
(Preprocessor Geometry: default)

(X range:    2.4351 ...   89.6654  mm)
(Y range:    0.4848 ...  100.4754  mm)

(Spindle Speed: 1000.0 RPM)
G21
G90
G94

G01 F120.00

M5
G00 Z1.0000
G00 X0.0000 Y0.0000
(T1)
(M6)    
(MSG, Change to Tool Dia = 0.25000)
(M0)
G00 Z1.0000

M03 S1000.0
G01 F120.00
G00 X5.5480 Y1.7211
G01 F60.00
G01 Z-0.1418
G01 F120.00
G01 X5.5947 Y1.6699
G01 X5.6199 Y1.6447
G01 X5.6874 Y1.5832
G01 X5.7144 Y1.5599
G01 X5.7424 Y1.5380
G01 X5.8016 Y1.4942
G01 X5.8307 Y1.4737
G01 X5.8607 Y1.4547
G01 X5.9239 Y1.4168
G01 X5.9548 Y1.3993
G01 X5.9866 Y1.3833
G01 X6.0693 Y1.3444
G01 X6.1022 Y1.3308
G01 X6.1882 Y1.2998
G01 X6.2220 Y1.2886
G01 X6.2563 Y1.2791
G01 X6.3097 Y1.2658
G01 X6.6590 Y0.9175
G01 X6.6840 Y0.8937
G01 X6.7302 Y0.8518
G01 X6.7571 Y0.8286
G01 X6.7710 Y0.8175
G01 X6.8497 Y0.7591
G01 X6.8793 Y0.7394
G01 X6.9479 Y0.6980
G01 X6.9789 Y0.6804
G01 X6.9947 Y0.6722
G01 X7.0670 Y0.6378
G01 X7.0996 Y0.6234
G01 X7.1328 Y0.6105
G01 X7.1915 Y0.5895
G01 X7.2252 Y0.5784
G01 X7.2423 Y0.5734
G01 X7.3373 Y0.5496
G01 X7.3547 Y0.5459
G01 X7.3898 Y0.5399
G01 X7.4515 Y0.5307
G01 X7.4868 Y0.5264
G01 X7.5223 Y0.5237
G01 X7.5846 Y0.5207
G01 X7.6201 Y0.5198
G01 X32.3801 Y0.5198
G01 X32.4157 Y0.5207
G01 X32.4957 Y0.5248
G01 X32.5135 Y0.5264
G01 X32.5488 Y0.5307
G01 X32.6104 Y0.5399
G01 X32.6455 Y0.5459
G01 X32.6802 Y0.5537
G01 X32.7407 Y0.5689
G01 X32.7750 Y0.5784
G01 X32.8088 Y0.5895
G01 X32.8842 Y0.6167
G01 X32.9171 Y0.6304
G01 X32.9896 Y0.6644
G01 X33.0214 Y0.6804
G01 X33.0523 Y0.6980
G01 X33.1058 Y0.7300
G01 X33.1359 Y0.7491
G01 X33.1650 Y0.7696
G01 X33.2292 Y0.8175
G01 X33.2431 Y0.8286
G01 X33.2700 Y0.8518
G01 X33.3293 Y0.9058
G01 X33.4628 Y1.0390
G01 X33.5516 Y1.0522
G01 X33.5867 Y1.0583
G01 X33.6214 Y1.0661
G01 X33.7166 Y1.0899
G01 X33.7338 Y1.0944
G01 X33.7678 Y1.1048
G01 X33.8937 Y1.1498
G01 X33.9103 Y1.1564
G01 X33.9428 Y1.1709
G01 X34.0315 Y1.2128
G01 X34.0633 Y1.2288
G01 X34.0942 Y1.2464
G01 X34.1784 Y1.2968
G01 X34.2085 Y1.3158
G01 X34.2232 Y1.3259
G01 X34.3164 Y1.3948
G01 X34.3445 Y1.4167
G01 X34.3714 Y1.4399
G01 X34.4441 Y1.5058
G01 X34.4699 Y1.5304
G01 X34.4823 Y1.5431
G01 X34.5603 Y1.6289
G01 X34.5836 Y1.6558
G01 X34.6055 Y1.6838
G01 X34.6743 Y1.7771
G01 X34.6844 Y1.7918
G01 X34.7034 Y1.8218
G01 X34.7539 Y1.9060
G01 X34.7714 Y1.9370
G01 X34.7874 Y1.9688
G01 X34.8368 Y2.0736
G01 X34.8504 Y2.1065
G01 X34.8897 Y2.2156
G01 X34.9008 Y2.2494
G01 X34.9103 Y2.2837
G01 X34.9383 Y2.3962
G01 X34.9452 Y2.4311
G01 X34.9625 Y2.5457
G01 X34.9649 Y2.5634
G01 X34.9683 Y2.5988
G01 X34.9743 Y2.7146
G01 X34.9751 Y2.7501
G01 X34.9743 Y2.7857
G01 X34.9694 Y2.8837
G01 X34.9668 Y2.9192
G01 X34.9625 Y2.9545
G01 X34.9481 Y3.0516
G01 X34.9420 Y3.0867
G01 X34.9342 Y3.1214
G01 X34.9103 Y3.2166
G01 X34.9008 Y3.2509
G01 X34.8897 Y3.2847
G01 X34.8504 Y3.3937
G01 X34.8368 Y3.4266
G01 X34.8294 Y3.4428
G01 X34.7874 Y3.5315
G01 X34.7714 Y3.5633
G01 X34.7539 Y3.5942
G01 X34.7034 Y3.6784
G01 X34.6844 Y3.7085
G01 X34.6639 Y3.7376
G01 X34.6055 Y3.8164
G01 X34.5836 Y3.8445
G01 X34.5603 Y3.8714
G01 X34.4944 Y3.9441
G01 X34.4699 Y3.9699
G01 X34.4441 Y3.9944
G01 X34.3581 Y4.0721
G01 X34.3306 Y4.0947
G01 X34.3164 Y4.1055
G01 X34.2232 Y4.1743
G01 X34.2085 Y4.1844
G01 X34.1784 Y4.2034
G01 X34.0942 Y4.2539
G01 X34.0633 Y4.2714
G01 X34.0315 Y4.2874
G01 X33.9428 Y4.3294
G01 X33.9103 Y4.3438
G01 X33.8937 Y4.3504
G01 X33.7678 Y4.3955
G01 X33.7338 Y4.4058
G01 X33.6214 Y4.4342
G01 X33.5867 Y4.4420
G01 X33.5692 Y4.4452
G01 X33.4369 Y4.4649
G01 X33.4015 Y4.4683
G01 X33.3837 Y4.4694
G01 X33.2679 Y4.4749
G01 X33.2323 Y4.4749
G01 X33.2146 Y4.4743
G01 X33.1165 Y4.4694
G01 X33.0810 Y4.4668
G01 X33.0457 Y4.4625
G01 X32.9311 Y4.4452
G01 X32.8962 Y4.4383
G01 X32.7837 Y4.4103
G01 X32.7494 Y4.4008
G01 X32.7324 Y4.3955
G01 X32.6232 Y4.3566
G01 X32.5900 Y4.3438
G01 X32.5575 Y4.3294
G01 X32.4688 Y4.2874
G01 X32.4528 Y4.2796
G01 X32.4214 Y4.2629
G01 X32.3218 Y4.2034
G01 X32.2918 Y4.1844
G01 X32.2627 Y4.1639
G01 X32.1697 Y4.0947
G01 X32.1422 Y4.0721
G01 X32.1289 Y4.0603
G01 X32.0561 Y3.9944
G01 X32.0304 Y3.9699
G01 X32.0058 Y3.9441
G01 X31.9281 Y3.8581
G01 X31.9056 Y3.8306
G01 X31.8363 Y3.7376
G01 X31.8259 Y3.7232
G01 X31.8061 Y3.6936
G01 X31.7464 Y3.5942
G01 X31.7288 Y3.5633
G01 X31.7128 Y3.5315
G01 X31.6709 Y3.4428
G01 X31.6564 Y3.4103
G01 X31.6436 Y3.3771
G01 X31.6106 Y3.2847
G01 X31.6048 Y3.2678
G01 X31.5964 Y3.2404
G01 X29.2119 Y3.2404
G01 X29.2375 Y3.2691
G01 X29.2601 Y3.2966
G01 X29.3176 Y3.3738
G01 X29.3280 Y3.3882
G01 X29.3478 Y3.4178
G01 X29.3975 Y3.5003
G01 X29.4151 Y3.5312
G01 X29.4311 Y3.5630
G01 X29.4704 Y3.6466
G01 X33.4628 Y7.6390
G01 X33.5516 Y7.6522
G01 X33.5867 Y7.6583
G01 X33.6214 Y7.6661
G01 X33.7166 Y7.6899
G01 X33.7509 Y7.6994
G01 X33.7847 Y7.7106
G01 X33.8771 Y7.7436
G01 X33.9103 Y7.7564
G01 X33.9428 Y7.7709
G01 X34.0475 Y7.8206
G01 X34.0789 Y7.8374
G01 X34.1784 Y7.8968
G01 X34.2085 Y7.9158
G01 X34.2376 Y7.9363
G01 X34.3306 Y8.0056
G01 X34.3581 Y8.0281
G01 X34.4441 Y8.1058
G01 X34.4699 Y8.1304
G01 X34.4823 Y8.1431
G01 X34.5603 Y8.2289
G01 X34.5836 Y8.2558
G01 X34.6055 Y8.2838
G01 X34.6639 Y8.3627
G01 X34.6844 Y8.3918
G01 X34.7034 Y8.4218
G01 X34.7539 Y8.5060
G01 X34.7714 Y8.5370
G01 X34.7874 Y8.5688
G01 X34.8368 Y8.6736
G01 X34.8438 Y8.6900
G01 X34.8566 Y8.7232
G01 X34.8897 Y8.8156
G01 X34.9008 Y8.8494
G01 X34.9103 Y8.8837
G01 X34.9383 Y8.9962
G01 X34.9452 Y9.0311
G01 X34.9481 Y9.0487
G01 X34.9649 Y9.1634
G01 X34.9683 Y9.1988
G01 X34.9727 Y9.2837
G01 X40.0551 Y4.2013
G01 X40.0553 Y3.6323
G01 X40.0560 Y3.6146
G01 X40.0586 Y3.5791
G01 X40.0630 Y3.5437
G01 X40.0691 Y3.5087
G01 X40.0727 Y3.4913
G01 X40.0814 Y3.4568
G01 X40.0917 Y3.4227
G01 X40.0975 Y3.4059
G01 X40.1103 Y3.3727
G01 X40.1173 Y3.3563
G01 X40.1247 Y3.3401
G01 X40.1407 Y3.3084
G01 X40.1583 Y3.2774
G01 X40.1773 Y3.2473
G01 X40.1874 Y3.2327
G01 X40.2086 Y3.2041
G01 X40.2311 Y3.1766
G01 X40.2429 Y3.1632
G01 X40.2675 Y3.1375
G01 X40.2802 Y3.1250
G01 X40.3066 Y3.1011
G01 X40.3202 Y3.0897
G01 X40.3341 Y3.0786
G01 X40.3627 Y3.0574
G01 X40.3923 Y3.0376
G01 X40.4074 Y3.0283
G01 X40.4384 Y3.0107
G01 X40.4701 Y2.9947
G01 X40.4863 Y2.9873
G01 X40.5027 Y2.9803
G01 X40.5359 Y2.9675
G01 X40.5527 Y2.9617
G01 X40.5868 Y2.9514
G01 X40.6040 Y2.9469
G01 X40.6387 Y2.9391
G01 X40.6562 Y2.9358
G01 X40.6914 Y2.9306
G01 X40.7268 Y2.9271
G01 X40.7623 Y2.9253
G01 X41.3313 Y2.9251
G01 X42.7682 Y1.4882
G01 X42.7940 Y1.4637
G01 X42.8402 Y1.4218
G01 X42.8671 Y1.3986
G01 X42.8952 Y1.3767
G01 X42.9453 Y1.3396
G01 X42.9744 Y1.3191
G01 X43.0044 Y1.3000
G01 X43.0579 Y1.2680
G01 X43.0733 Y1.2590
G01 X43.1047 Y1.2422
G01 X43.1770 Y1.2078
G01 X43.2096 Y1.1934
G01 X43.2428 Y1.1805
G01 X43.3183 Y1.1538
G01 X43.3352 Y1.1484
G01 X43.3695 Y1.1389
G01 X43.4300 Y1.1237
G01 X43.4647 Y1.1159
G01 X43.4998 Y1.1099
G01 X43.5791 Y1.0983
G01 X43.6145 Y1.0948
G01 X43.6323 Y1.0937
G01 X43.6946 Y1.0907
G01 X43.7301 Y1.0898
G01 X78.2679 Y1.0900
G01 X78.3480 Y1.0937
G01 X78.3835 Y1.0964
G01 X78.4188 Y1.1007
G01 X78.4804 Y1.1099
G01 X78.4980 Y1.1127
G01 X78.5329 Y1.1196
G01 X78.6107 Y1.1389
G01 X78.6450 Y1.1484
G01 X78.6788 Y1.1595
G01 X78.7542 Y1.1867
G01 X78.7871 Y1.2004
G01 X78.8032 Y1.2078
G01 X78.8596 Y1.2344
G01 X78.8914 Y1.2504
G01 X78.9223 Y1.2680
G01 X78.9758 Y1.3000
G01 X79.0059 Y1.3191
G01 X79.0205 Y1.3291
G01 X79.0992 Y1.3875
G01 X79.1267 Y1.4100
G01 X79.1993 Y1.4758
G01 X79.6726 Y1.9488
G01 X79.7029 Y1.8639
G01 X79.7158 Y1.8307
G01 X79.7302 Y1.7981
G01 X79.7721 Y1.7094
G01 X79.7881 Y1.6776
G01 X79.8057 Y1.6467
G01 X79.8561 Y1.5625
G01 X79.8752 Y1.5324
G01 X79.8957 Y1.5034
G01 X79.9541 Y1.4245
G01 X79.9760 Y1.3965
G01 X79.9992 Y1.3695
G01 X80.0773 Y1.2838
G01 X80.1024 Y1.2586
G01 X80.1882 Y1.1806
G01 X80.2151 Y1.1574
G01 X80.2432 Y1.1355
G01 X80.3364 Y1.0666
G01 X80.3660 Y1.0468
G01 X80.3812 Y1.0375
G01 X80.4653 Y0.9870
G01 X80.4963 Y0.9695
G01 X80.5281 Y0.9535
G01 X80.6168 Y0.9115
G01 X80.6493 Y0.8971
G01 X80.6825 Y0.8843
G01 X80.7917 Y0.8455
G01 X80.8087 Y0.8401
G01 X80.8430 Y0.8306
G01 X80.9382 Y0.8067
G01 X80.9729 Y0.7990
G01 X81.0080 Y0.7929
G01 X81.1127 Y0.7774
G01 X81.1847 Y0.7241
G01 X81.1994 Y0.7141
G01 X81.2294 Y0.6950
G01 X81.2829 Y0.6630
G01 X81.3139 Y0.6454
G01 X81.3457 Y0.6294
G01 X81.4020 Y0.6028
G01 X81.4346 Y0.5884
G01 X81.4511 Y0.5817
G01 X81.5433 Y0.5488
G01 X81.5602 Y0.5434
G01 X81.5945 Y0.5339
G01 X81.6550 Y0.5187
G01 X81.6897 Y0.5109
G01 X81.7248 Y0.5049
G01 X81.7865 Y0.4957
G01 X81.8218 Y0.4914
G01 X81.8573 Y0.4887
G01 X81.9196 Y0.4857
G01 X81.9551 Y0.4848
G01 X87.2187 Y0.4850
G01 X87.2988 Y0.4887
G01 X87.3343 Y0.4914
G01 X87.3696 Y0.4957
G01 X87.4488 Y0.5077
G01 X87.4837 Y0.5146
G01 X87.5615 Y0.5339
G01 X87.5958 Y0.5434
G01 X87.6296 Y0.5545
G01 X87.6883 Y0.5755
G01 X87.7215 Y0.5884
G01 X87.7540 Y0.6028
G01 X87.8104 Y0.6294
G01 X87.8422 Y0.6454
G01 X87.8731 Y0.6630
G01 X87.9266 Y0.6950
G01 X87.9567 Y0.7141
G01 X87.9858 Y0.7346
G01 X88.0358 Y0.7717
G01 X88.0500 Y0.7825
G01 X88.0775 Y0.8050
G01 X88.1370 Y0.8587
G01 X88.1628 Y0.8832
G01 X89.2670 Y1.9874
G01 X89.2916 Y2.0132
G01 X89.3452 Y2.0727
G01 X89.3678 Y2.1002
G01 X89.4261 Y2.1789
G01 X89.4459 Y2.2085
G01 X89.4873 Y2.2771
G01 X89.5048 Y2.3081
G01 X89.5208 Y2.3399
G01 X89.5549 Y2.4124
G01 X89.5685 Y2.4453
G01 X89.5747 Y2.4620
G01 X89.6015 Y2.5375
G01 X89.6118 Y2.5715
G01 X89.6356 Y2.6665
G01 X89.6426 Y2.7014
G01 X89.6545 Y2.7807
G01 X89.6589 Y2.8160
G01 X89.6615 Y2.8515
G01 X89.6646 Y2.9138
G01 X89.6654 Y2.9493
G01 X89.6652 Y79.4971
G01 X89.6615 Y79.5772
G01 X89.6589 Y79.6127
G01 X89.6545 Y79.6480
G01 X89.6454 Y79.7097
G01 X89.6393 Y79.7447
G01 X89.6315 Y79.7794
G01 X89.6164 Y79.8399
G01 X89.6069 Y79.8742
G01 X89.5957 Y79.9080
G01 X89.5747 Y79.9667
G01 X89.5619 Y79.9999
G01 X89.5475 Y80.0324
G01 X89.5130 Y80.1048
G01 X89.4962 Y80.1362
G01 X89.4552 Y80.2050
G01 X89.4362 Y80.2351
G01 X89.4157 Y80.2642
G01 X89.3786 Y80.3143
G01 X89.3567 Y80.3423
G01 X89.3334 Y80.3693
G01 X89.2916 Y80.4155
G01 X89.2670 Y80.4412
G01 X87.5462 Y82.1620
G01 X87.5335 Y82.1744
G01 X87.4956 Y82.2091
G01 X87.4650 Y82.2412
G01 X87.4514 Y82.2546
G01 X87.3828 Y82.3171
G01 X87.3695 Y82.3289
G01 X87.3420 Y82.3514
G01 X87.2687 Y82.4061
G01 X87.2396 Y82.4265
G01 X87.2095 Y82.4456
G01 X87.1686 Y82.4701
G01 X87.2095 Y82.4947
G01 X87.2396 Y82.5137
G01 X87.2687 Y82.5342
G01 X87.3420 Y82.5888
G01 X87.3695 Y82.6114
G01 X87.3828 Y82.6232
G01 X87.4373 Y82.6726
G01 X87.4631 Y82.6971
G01 X87.4876 Y82.7229
G01 X87.5489 Y82.7908
G01 X87.5603 Y82.8044
G01 X87.5822 Y82.8324
G01 X87.6261 Y82.8916
G01 X87.6465 Y82.9207
G01 X87.6656 Y82.9507
G01 X87.7034 Y83.0139
G01 X87.7124 Y83.0292
G01 X87.7292 Y83.0606
G01 X87.7684 Y83.1431
G01 X87.7828 Y83.1757
G01 X87.7957 Y83.2089
G01 X87.8204 Y83.2782
G01 X87.8316 Y83.3120
G01 X87.8366 Y83.3290
G01 X87.8631 Y83.4350
G01 X87.8668 Y83.4524
G01 X87.8729 Y83.4874
G01 X87.8837 Y83.5602
G01 X87.8880 Y83.5955
G01 X87.8906 Y83.6310
G01 X87.8943 Y83.7046
G01 X87.8951 Y83.7401
G01 X87.8949 Y83.7579
G01 X87.8906 Y83.8492
G01 X87.8880 Y83.8847
G01 X87.8837 Y83.9200
G01 X87.8700 Y84.0104
G01 X87.8631 Y84.0453
G01 X87.8590 Y84.0626
G01 X87.8411 Y84.1340
G01 X87.8316 Y84.1683
G01 X87.8204 Y84.2021
G01 X87.7895 Y84.2881
G01 X87.7758 Y84.3209
G01 X87.7370 Y84.4036
G01 X87.7210 Y84.4354
G01 X87.7124 Y84.4510
G01 X87.6656 Y84.5295
G01 X87.6465 Y84.5596
G01 X87.6261 Y84.5887
G01 X87.5822 Y84.6478
G01 X87.5714 Y84.6620
G01 X87.5489 Y84.6895
G01 X87.4755 Y84.7704
G01 X87.4504 Y84.7955
G01 X87.4373 Y84.8076
G01 X87.3695 Y84.8689
G01 X87.3420 Y84.8914
G01 X87.2687 Y84.9461
G01 X87.2396 Y84.9665
G01 X87.2095 Y84.9856
G01 X87.1686 Y85.0101
G01 X87.2095 Y85.0347
G01 X87.2396 Y85.0537
G01 X87.2687 Y85.0742
G01 X87.3420 Y85.1288
G01 X87.3695 Y85.1514
G01 X87.3828 Y85.1632
G01 X87.4373 Y85.2126
G01 X87.4631 Y85.2371
G01 X87.4876 Y85.2629
G01 X87.5489 Y85.3308
G01 X87.5714 Y85.3583
G01 X87.5822 Y85.3724
G01 X87.6261 Y85.4316
G01 X87.6465 Y85.4607
G01 X87.6656 Y85.4907
G01 X87.7034 Y85.5539
G01 X87.7124 Y85.5692
G01 X87.7292 Y85.6006
G01 X87.7684 Y85.6831
G01 X87.7828 Y85.7157
G01 X87.7957 Y85.7489
G01 X87.8204 Y85.8182
G01 X87.8316 Y85.8520
G01 X87.8366 Y85.8690
G01 X87.8631 Y85.9750
G01 X87.8700 Y86.0099
G01 X87.8729 Y86.0274
G01 X87.8837 Y86.1002
G01 X87.8880 Y86.1355
G01 X87.8906 Y86.1710
G01 X87.8943 Y86.2446
G01 X87.8951 Y86.2801
G01 X87.8949 Y86.2979
G01 X87.8906 Y86.3892
G01 X87.8880 Y86.4247
G01 X87.8837 Y86.4600
G01 X87.8700 Y86.5504
G01 X87.8631 Y86.5853
G01 X87.8590 Y86.6026
G01 X87.8411 Y86.6740
G01 X87.8316 Y86.7083
G01 X87.8204 Y86.7421
G01 X87.7895 Y86.8281
G01 X87.7758 Y86.8609
G01 X87.7370 Y86.9436
G01 X87.7292 Y86.9596
G01 X87.7124 Y86.9910
G01 X87.6656 Y87.0695
G01 X87.6465 Y87.0996
G01 X87.6261 Y87.1287
G01 X87.5822 Y87.1878
G01 X87.5603 Y87.2159
G01 X87.5489 Y87.2295
G01 X87.4755 Y87.3104
G01 X87.4631 Y87.3231
G01 X87.4373 Y87.3476
G01 X87.3695 Y87.4089
G01 X87.3420 Y87.4314
G01 X87.2687 Y87.4861
G01 X87.2396 Y87.5065
G01 X87.2095 Y87.5256
G01 X87.1686 Y87.5501
G01 X87.2095 Y87.5747
G01 X87.2396 Y87.5937
G01 X87.2687 Y87.6142
G01 X87.3420 Y87.6688
G01 X87.3695 Y87.6914
G01 X87.3828 Y87.7032
G01 X87.4504 Y87.7647
G01 X87.4755 Y87.7899
G01 X87.4876 Y87.8029
G01 X87.5371 Y87.8574
G01 X87.5603 Y87.8844
G01 X87.5822 Y87.9124
G01 X87.6261 Y87.9716
G01 X87.6365 Y87.9860
G01 X87.6562 Y88.0156
G01 X87.7124 Y88.1092
G01 X87.7210 Y88.1248
G01 X87.7370 Y88.1566
G01 X87.7684 Y88.2231
G01 X87.7828 Y88.2557
G01 X87.7957 Y88.2889
G01 X87.8204 Y88.3582
G01 X87.8262 Y88.3750
G01 X87.8366 Y88.4090
G01 X87.8590 Y88.4976
G01 X87.8668 Y88.5324
G01 X87.8729 Y88.5674
G01 X87.8837 Y88.6402
G01 X87.8861 Y88.6579
G01 X87.8895 Y88.6933
G01 X87.8943 Y88.7846
G01 X87.8951 Y88.8201
G01 X87.8943 Y88.8557
G01 X87.8906 Y88.9292
G01 X87.8880 Y88.9647
G01 X87.8861 Y88.9824
G01 X87.8729 Y89.0728
G01 X87.8668 Y89.1079
G01 X87.8590 Y89.1426
G01 X87.8366 Y89.2312
G01 X87.8262 Y89.2653
G01 X87.8204 Y89.2821
G01 X87.7957 Y89.3514
G01 X87.7828 Y89.3846
G01 X87.7684 Y89.4171
G01 X87.7292 Y89.4996
G01 X87.7124 Y89.5310
G01 X87.6656 Y89.6095
G01 X87.6465 Y89.6396
G01 X87.6261 Y89.6687
G01 X87.5822 Y89.7278
G01 X87.5603 Y89.7559
G01 X87.5371 Y89.7828
G01 X87.4755 Y89.8504
G01 X87.4631 Y89.8631
G01 X87.4373 Y89.8876
G01 X87.3695 Y89.9489
G01 X87.3420 Y89.9714
G01 X87.2687 Y90.0261
G01 X87.2396 Y90.0465
G01 X87.2095 Y90.0656
G01 X87.1686 Y90.0901
G01 X87.2095 Y90.1147
G01 X87.2396 Y90.1337
G01 X87.2687 Y90.1542
G01 X87.3420 Y90.2088
G01 X87.3695 Y90.2314
G01 X87.3828 Y90.2432
G01 X87.4504 Y90.3047
G01 X87.4755 Y90.3299
G01 X87.4876 Y90.3429
G01 X87.5371 Y90.3974
G01 X87.5603 Y90.4244
G01 X87.5822 Y90.4524
G01 X87.6261 Y90.5116
G01 X87.6465 Y90.5407
G01 X87.6562 Y90.5556
G01 X87.7124 Y90.6492
G01 X87.7292 Y90.6806
G01 X87.7370 Y90.6966
G01 X87.7684 Y90.7631
G01 X87.7828 Y90.7957
G01 X87.7957 Y90.8289
G01 X87.8204 Y90.8982
G01 X87.8262 Y90.9150
G01 X87.8366 Y90.9490
G01 X87.8631 Y91.0550
G01 X87.8668 Y91.0724
G01 X87.8729 Y91.1074
G01 X87.8837 Y91.1802
G01 X87.8880 Y91.2155
G01 X87.8906 Y91.2510
G01 X87.8943 Y91.3246
G01 X87.8951 Y91.3601
G01 X87.8949 Y91.3779
G01 X87.8895 Y91.4870
G01 X87.8861 Y91.5224
G01 X87.8837 Y91.5400
G01 X87.8729 Y91.6128
G01 X87.8668 Y91.6479
G01 X87.8590 Y91.6826
G01 X87.8411 Y91.7540
G01 X87.8316 Y91.7883
G01 X87.8262 Y91.8053
G01 X87.7895 Y91.9081
G01 X87.7758 Y91.9409
G01 X87.7684 Y91.9571
G01 X87.7370 Y92.0236
G01 X87.7210 Y92.0554
G01 X87.7034 Y92.0864
G01 X87.6656 Y92.1495
G01 X87.6562 Y92.1647
G01 X87.6365 Y92.1943
G01 X87.5714 Y92.2820
G01 X87.5489 Y92.3095
G01 X87.5371 Y92.3228
G01 X87.4876 Y92.3773
G01 X87.4631 Y92.4031
G01 X87.4373 Y92.4276
G01 X87.3991 Y92.4623
G01 X87.4310 Y92.4737
G01 X87.4476 Y92.4803
G01 X87.4639 Y92.4873
G01 X87.4961 Y92.5025
G01 X87.5275 Y92.5193
G01 X87.5428 Y92.5283
G01 X87.5729 Y92.5473
G01 X87.5876 Y92.5574
G01 X87.6162 Y92.5786
G01 X87.6301 Y92.5897
G01 X87.6437 Y92.6011
G01 X87.6700 Y92.6250
G01 X87.6828 Y92.6375
G01 X87.7073 Y92.6632
G01 X87.7191 Y92.6766
G01 X87.7417 Y92.7041
G01 X87.7525 Y92.7182
G01 X87.7729 Y92.7473
G01 X87.7920 Y92.7774
G01 X87.8095 Y92.8084
G01 X87.8177 Y92.8242
G01 X87.8329 Y92.8563
G01 X87.8399 Y92.8727
G01 X87.8527 Y92.9059
G01 X87.8585 Y92.9227
G01 X87.8689 Y92.9568
G01 X87.8734 Y92.9740
G01 X87.8775 Y92.9913
G01 X87.8845 Y93.0262
G01 X87.8897 Y93.0614
G01 X87.8916 Y93.0791
G01 X87.8943 Y93.1146
G01 X87.8951 Y93.1501
G01 X87.8951 Y94.6501
G01 X87.8943 Y94.6857
G01 X87.8916 Y94.7212
G01 X87.8897 Y94.7389
G01 X87.8845 Y94.7741
G01 X87.8812 Y94.7916
G01 X87.8734 Y94.8263
G01 X87.8639 Y94.8606
G01 X87.8527 Y94.8944
G01 X87.8399 Y94.9276
G01 X87.8255 Y94.9601
G01 X87.8095 Y94.9919
G01 X87.7920 Y95.0228
G01 X87.7729 Y95.0529
G01 X87.7525 Y95.0820
G01 X87.7306 Y95.1101
G01 X87.7073 Y95.1370
G01 X87.6828 Y95.1628
G01 X87.6570 Y95.1873
G01 X87.6437 Y95.1991
G01 X87.6162 Y95.2217
G01 X87.6020 Y95.2325
G01 X87.5729 Y95.2529
G01 X87.5428 Y95.2720
G01 X87.5275 Y95.2809
G01 X87.4961 Y95.2977
G01 X87.4639 Y95.3129
G01 X87.4310 Y95.3265
G01 X87.3975 Y95.3385
G01 X87.3806 Y95.3439
G01 X87.3463 Y95.3534
G01 X87.3116 Y95.3612
G01 X87.2765 Y95.3673
G01 X87.2412 Y95.3716
G01 X87.2057 Y95.3743
G01 X87.1701 Y95.3751
G01 X83.1523 Y95.3749
G01 X83.1346 Y95.3743
G01 X83.0991 Y95.3716
G01 X83.0637 Y95.3673
G01 X83.0462 Y95.3645
G01 X83.0113 Y95.3575
G01 X82.9940 Y95.3534
G01 X82.9597 Y95.3439
G01 X82.9259 Y95.3327
G01 X82.9092 Y95.3265
G01 X82.8927 Y95.3199
G01 X82.8601 Y95.3055
G01 X82.8442 Y95.2977
G01 X82.8128 Y95.2809
G01 X82.7974 Y95.2720
G01 X82.7789 Y95.2604
G01 X81.0136 Y95.2604
G01 X76.1970 Y100.0770
G01 X76.1712 Y100.1016
G01 X76.1250 Y100.1434
G01 X76.0981 Y100.1667
G01 X76.0700 Y100.1886
G01 X76.0200 Y100.2257
G01 X75.9909 Y100.2462
G01 X75.9608 Y100.2652
G01 X75.9073 Y100.2973
G01 X75.8764 Y100.3148
G01 X75.8446 Y100.3308
G01 X75.7721 Y100.3649
G01 X75.7392 Y100.3785
G01 X75.6470 Y100.4115
G01 X75.6129 Y100.4218
G01 X75.5352 Y100.4415
G01 X75.5005 Y100.4493
G01 X75.4654 Y100.4554
G01 X75.3861 Y100.4669
G01 X75.3507 Y100.4704
G01 X75.2707 Y100.4746
G01 X75.2351 Y100.4754
G01 X16.8151 Y100.4754
G01 X16.7796 Y100.4746
G01 X16.7173 Y100.4715
G01 X16.6818 Y100.4689
G01 X16.6465 Y100.4645
G01 X16.5848 Y100.4554
G01 X16.5672 Y100.4526
G01 X16.5323 Y100.4456
G01 X16.4545 Y100.4264
G01 X16.4202 Y100.4169
G01 X16.3865 Y100.4057
G01 X16.3278 Y100.3847
G01 X16.3111 Y100.3785
G01 X16.2782 Y100.3649
G01 X16.2057 Y100.3308
G01 X16.1739 Y100.3148
G01 X16.1429 Y100.2973
G01 X16.0743 Y100.2559
G01 X16.0447 Y100.2361
G01 X16.0303 Y100.2257
G01 X15.9802 Y100.1886
G01 X15.9521 Y100.1667
G01 X15.9252 Y100.1434
G01 X15.8790 Y100.1016
G01 X15.8532 Y100.0770
G01 X13.3882 Y97.6120
G01 X13.3637 Y97.5862
G01 X13.3218 Y97.5400
G01 X13.2986 Y97.5131
G01 X13.2767 Y97.4850
G01 X13.2291 Y97.4205
G01 X13.2094 Y97.3910
G01 X13.2000 Y97.3758
G01 X13.1680 Y97.3223
G01 X13.1504 Y97.2914
G01 X13.1344 Y97.2596
G01 X13.1078 Y97.2032
G01 X13.1004 Y97.1871
G01 X13.0867 Y97.1542
G01 X13.0538 Y97.0620
G01 X13.0484 Y97.0450
G01 X13.0389 Y97.0107
G01 X13.0237 Y96.9502
G01 X13.0159 Y96.9155
G01 X13.0099 Y96.8804
G01 X13.0007 Y96.8188
G01 X12.9983 Y96.8011
G01 X12.9948 Y96.7657
G01 X12.9907 Y96.6857
G01 X12.9898 Y96.6501
G01 X12.9898 Y95.7474
G01 X12.9754 Y95.7334
G01 X12.9630 Y95.7207
G01 X12.8940 Y95.6449
G01 X12.8707 Y95.6179
G01 X12.8488 Y95.5899
G01 X12.7983 Y95.5218
G01 X12.7779 Y95.4927
G01 X12.7588 Y95.4626
G01 X12.7152 Y95.3899
G01 X12.6977 Y95.3590
G01 X12.6817 Y95.3272
G01 X12.6455 Y95.2506
G01 X12.6311 Y95.2181
G01 X12.6182 Y95.1849
G01 X12.5897 Y95.1051
G01 X12.5785 Y95.0713
G01 X12.5736 Y95.0542
G01 X12.5484 Y94.9548
G01 X12.5406 Y94.9200
G01 X12.5346 Y94.8850
G01 X12.5221 Y94.8012
G01 X12.5178 Y94.7658
G01 X12.5152 Y94.7303
G01 X12.5110 Y94.6457
G01 X12.5101 Y94.6101
G01 X12.5103 Y94.5923
G01 X12.5152 Y94.4899
G01 X12.5178 Y94.4544
G01 X12.5221 Y94.4191
G01 X12.5374 Y94.3177
G01 X12.5406 Y94.3002
G01 X12.5484 Y94.2655
G01 X12.5690 Y94.1833
G01 X12.5785 Y94.1490
G01 X12.5897 Y94.1152
G01 X12.6244 Y94.0187
G01 X12.6381 Y93.9858
G01 X12.6817 Y93.8930
G01 X12.6977 Y93.8613
G01 X12.7152 Y93.8303
G01 X12.7588 Y93.7576
G01 X12.7779 Y93.7275
G01 X12.7983 Y93.6985
G01 X12.8596 Y93.6162
G01 X12.8822 Y93.5887
G01 X12.8940 Y93.5754
G01 X12.9630 Y93.4996
G01 X12.9882 Y93.4744
G01 X13.0773 Y93.3936
G01 X13.1048 Y93.3710
G01 X13.1461 Y93.3401
G01 X13.1048 Y93.3092
G01 X13.0773 Y93.2867
G01 X12.9882 Y93.2059
G01 X12.9754 Y93.1934
G01 X12.9509 Y93.1677
G01 X12.8822 Y93.0915
G01 X12.8596 Y93.0640
G01 X12.8488 Y93.0499
G01 X12.7983 Y92.9818
G01 X12.7779 Y92.9527
G01 X12.7588 Y92.9226
G01 X12.7152 Y92.8499
G01 X12.6977 Y92.8190
G01 X12.6895 Y92.8032
G01 X12.6381 Y92.6944
G01 X12.6244 Y92.6615
G01 X12.6182 Y92.6449
G01 X12.5897 Y92.5651
G01 X12.5785 Y92.5313
G01 X12.5690 Y92.4970
G01 X12.5484 Y92.4148
G01 X12.5406 Y92.3800
G01 X12.5374 Y92.3626
G01 X12.5197 Y92.2435
G01 X12.5178 Y92.2258
G01 X12.5152 Y92.1903
G01 X12.5110 Y92.1057
G01 X12.5101 Y92.0701
G01 X12.5110 Y92.0346
G01 X12.5152 Y91.9499
G01 X12.5162 Y91.9321
G01 X12.5197 Y91.8967
G01 X12.5374 Y91.7777
G01 X12.5406 Y91.7602
G01 X12.5484 Y91.7255
G01 X12.5690 Y91.6433
G01 X12.5785 Y91.6090
G01 X12.5897 Y91.5752
G01 X12.6182 Y91.4954
G01 X12.6311 Y91.4622
G01 X12.6381 Y91.4458
G01 X12.6895 Y91.3371
G01 X12.7063 Y91.3057
G01 X12.7152 Y91.2903
G01 X12.7588 Y91.2176
G01 X12.7779 Y91.1875
G01 X12.7983 Y91.1585
G01 X12.8488 Y91.0904
G01 X12.8707 Y91.0623
G01 X12.8822 Y91.0487
G01 X12.9509 Y90.9726
G01 X12.9754 Y90.9468
G01 X12.9882 Y90.9344
G01 X13.0773 Y90.8536
G01 X13.1048 Y90.8310
G01 X13.1461 Y90.8001
G01 X13.1048 Y90.7692
G01 X13.0773 Y90.7467
G01 X12.9882 Y90.6659
G01 X12.9630 Y90.6407
G01 X12.9509 Y90.6277
G01 X12.8822 Y90.5515
G01 X12.8707 Y90.5379
G01 X12.8488 Y90.5099
G01 X12.7983 Y90.4418
G01 X12.7779 Y90.4127
G01 X12.7588 Y90.3826
G01 X12.7152 Y90.3099
G01 X12.6977 Y90.2790
G01 X12.6895 Y90.2632
G01 X12.6381 Y90.1544
G01 X12.6244 Y90.1215
G01 X12.6182 Y90.1049
G01 X12.5897 Y90.0251
G01 X12.5785 Y89.9913
G01 X12.5690 Y89.9570
G01 X12.5484 Y89.8748
G01 X12.5406 Y89.8400
G01 X12.5374 Y89.8226
G01 X12.5197 Y89.7035
G01 X12.5178 Y89.6858
G01 X12.5152 Y89.6503
G01 X12.5110 Y89.5657
G01 X12.5101 Y89.5301
G01 X12.5110 Y89.4946
G01 X12.5152 Y89.4099
G01 X12.5162 Y89.3921
G01 X12.5197 Y89.3567
G01 X12.5374 Y89.2377
G01 X12.5406 Y89.2202
G01 X12.5484 Y89.1855
G01 X12.5690 Y89.1033
G01 X12.5785 Y89.0690
G01 X12.5897 Y89.0352
G01 X12.6182 Y88.9554
G01 X12.6311 Y88.9222
G01 X12.6381 Y88.9058
G01 X12.6895 Y88.7971
G01 X12.7063 Y88.7657
G01 X12.7152 Y88.7503
G01 X12.7588 Y88.6776
G01 X12.7779 Y88.6475
G01 X12.7983 Y88.6185
G01 X12.8488 Y88.5504
G01 X12.8596 Y88.5362
G01 X12.8822 Y88.5087
G01 X12.9509 Y88.4326
G01 X12.9754 Y88.4068
G01 X12.9882 Y88.3944
G01 X13.0773 Y88.3136
G01 X13.1048 Y88.2910
G01 X13.1461 Y88.2601
G01 X13.1048 Y88.2292
G01 X13.0773 Y88.2067
G01 X12.9882 Y88.1259
G01 X12.9630 Y88.1007
G01 X12.9509 Y88.0877
G01 X12.8822 Y88.0115
G01 X12.8707 Y87.9979
G01 X12.8488 Y87.9699
G01 X12.7983 Y87.9018
G01 X12.7779 Y87.8727
G01 X12.7588 Y87.8426
G01 X12.7152 Y87.7699
G01 X12.7063 Y87.7546
G01 X12.6895 Y87.7232
G01 X12.6381 Y87.6144
G01 X12.6244 Y87.5815
G01 X12.6182 Y87.5649
G01 X12.5897 Y87.4851
G01 X12.5785 Y87.4513
G01 X12.5690 Y87.4170
G01 X12.5484 Y87.3348
G01 X12.5443 Y87.3175
G01 X12.5374 Y87.2826
G01 X12.5197 Y87.1635
G01 X12.5178 Y87.1458
G01 X12.5152 Y87.1103
G01 X12.5110 Y87.0257
G01 X12.5101 Y86.9901
G01 X12.5110 Y86.9546
G01 X12.5152 Y86.8699
G01 X12.5162 Y86.8521
G01 X12.5197 Y86.8167
G01 X12.5374 Y86.6977
G01 X12.5406 Y86.6802
G01 X12.5484 Y86.6455
G01 X12.5690 Y86.5633
G01 X12.5785 Y86.5290
G01 X12.5897 Y86.4952
G01 X12.6182 Y86.4154
G01 X12.6311 Y86.3822
G01 X12.6381 Y86.3658
G01 X12.6895 Y86.2571
G01 X12.7063 Y86.2257
G01 X12.7152 Y86.2103
G01 X12.7588 Y86.1376
G01 X12.7779 Y86.1075
G01 X12.7983 Y86.0785
G01 X12.8488 Y86.0104
G01 X12.8596 Y85.9962
G01 X12.8822 Y85.9687
G01 X12.9509 Y85.8926
G01 X12.9754 Y85.8668
G01 X12.9882 Y85.8544
G01 X13.0773 Y85.7736
G01 X13.1048 Y85.7510
G01 X13.1461 Y85.7201
G01 X13.1048 Y85.6892
G01 X13.0773 Y85.6667
G01 X12.9882 Y85.5859
G01 X12.9754 Y85.5734
G01 X12.9509 Y85.5477
G01 X12.8822 Y85.4715
G01 X12.8596 Y85.4440
G01 X12.8488 Y85.4299
G01 X12.7983 Y85.3618
G01 X12.7779 Y85.3327
G01 X12.7588 Y85.3026
G01 X12.7152 Y85.2299
G01 X12.7063 Y85.2146
G01 X12.6895 Y85.1832
G01 X12.6381 Y85.0744
G01 X12.6311 Y85.0581
G01 X12.6182 Y85.0249
G01 X12.5897 Y84.9451
G01 X12.5785 Y84.9113
G01 X12.5690 Y84.8770
G01 X12.5484 Y84.7948
G01 X12.5406 Y84.7600
G01 X12.5374 Y84.7426
G01 X12.5197 Y84.6235
G01 X12.5162 Y84.5881
G01 X12.5152 Y84.5703
G01 X12.5103 Y84.4679
G01 X12.5101 Y84.4501
G01 X12.5110 Y84.4146
G01 X12.5152 Y84.3299
G01 X12.5178 Y84.2944
G01 X12.5221 Y84.2591
G01 X12.5374 Y84.1577
G01 X12.5406 Y84.1402
G01 X12.5484 Y84.1055
G01 X12.5690 Y84.0233
G01 X12.5785 Y83.9890
G01 X12.5897 Y83.9552
G01 X12.6182 Y83.8754
G01 X12.6311 Y83.8422
G01 X12.6381 Y83.8258
G01 X12.6895 Y83.7171
G01 X12.6977 Y83.7013
G01 X12.7152 Y83.6703
G01 X12.7588 Y83.5976
G01 X12.7779 Y83.5675
G01 X12.7983 Y83.5385
G01 X12.8488 Y83.4704
G01 X12.8707 Y83.4423
G01 X12.8822 Y83.4287
G01 X12.9509 Y83.3526
G01 X12.9754 Y83.3268
G01 X12.9882 Y83.3144
G01 X13.0773 Y83.2336
G01 X13.1048 Y83.2110
G01 X13.1461 Y83.1801
G01 X13.1048 Y83.1492
G01 X13.0773 Y83.1267
G01 X12.9882 Y83.0459
G01 X12.9754 Y83.0334
G01 X12.9509 Y83.0077
G01 X12.8822 Y82.9315
G01 X12.8707 Y82.9179
G01 X12.8488 Y82.8899
G01 X12.7983 Y82.8218
G01 X12.7779 Y82.7927
G01 X12.7588 Y82.7626
G01 X12.7152 Y82.6899
G01 X12.7063 Y82.6746
G01 X12.6895 Y82.6432
G01 X12.6381 Y82.5344
G01 X12.6311 Y82.5181
G01 X12.6182 Y82.4849
G01 X12.5897 Y82.4051
G01 X12.5785 Y82.3713
G01 X12.5690 Y82.3370
G01 X12.5484 Y82.2548
G01 X12.5406 Y82.2200
G01 X12.5374 Y82.2026
G01 X12.5197 Y82.0835
G01 X12.5162 Y82.0481
G01 X12.5152 Y82.0303
G01 X12.5103 Y81.9279
G01 X12.5101 Y81.9101
G01 X12.5110 Y81.8746
G01 X12.5152 Y81.7899
G01 X12.5178 Y81.7544
G01 X12.5221 Y81.7191
G01 X12.5374 Y81.6177
G01 X12.5406 Y81.6002
G01 X12.5484 Y81.5655
G01 X12.5690 Y81.4833
G01 X12.5785 Y81.4490
G01 X12.5897 Y81.4152
G01 X12.6182 Y81.3354
G01 X12.6311 Y81.3022
G01 X12.6381 Y81.2858
G01 X12.6895 Y81.1771
G01 X12.7063 Y81.1457
G01 X12.7152 Y81.1303
G01 X12.7588 Y81.0576
G01 X12.7779 Y81.0275
G01 X12.7983 Y80.9985
G01 X12.8488 Y80.9304
G01 X12.8707 Y80.9023
G01 X12.8822 Y80.8887
G01 X12.9509 Y80.8126
G01 X12.9630 Y80.7996
G01 X12.9882 Y80.7744
G01 X13.0773 Y80.6936
G01 X13.1048 Y80.6710
G01 X13.1461 Y80.6401
G01 X13.1048 Y80.6092
G01 X13.0773 Y80.5867
G01 X12.9882 Y80.5059
G01 X12.9754 Y80.4934
G01 X12.9509 Y80.4677
G01 X12.8822 Y80.3915
G01 X12.8596 Y80.3640
G01 X12.8488 Y80.3499
G01 X12.7983 Y80.2818
G01 X12.7779 Y80.2527
G01 X12.7588 Y80.2226
G01 X12.7152 Y80.1499
G01 X12.6977 Y80.1190
G01 X12.6895 Y80.1032
G01 X12.6455 Y80.0106
G01 X12.6381 Y79.9944
G01 X12.6244 Y79.9615
G01 X12.5839 Y79.8482
G01 X12.5785 Y79.8313
G01 X12.5690 Y79.7970
G01 X12.5443 Y79.6975
G01 X12.5374 Y79.6626
G01 X12.5346 Y79.6450
G01 X12.5221 Y79.5612
G01 X12.5178 Y79.5258
G01 X12.5152 Y79.4903
G01 X12.5110 Y79.4057
G01 X12.5101 Y79.3701
G01 X12.5103 Y79.3523
G01 X12.5162 Y79.2321
G01 X12.5197 Y79.1967
G01 X12.5221 Y79.1791
G01 X12.5346 Y79.0953
G01 X12.5406 Y79.0602
G01 X12.5484 Y79.0255
G01 X12.5690 Y78.9433
G01 X12.5785 Y78.9090
G01 X12.5897 Y78.8752
G01 X12.6182 Y78.7954
G01 X12.6311 Y78.7622
G01 X12.6381 Y78.7458
G01 X12.6817 Y78.6530
G01 X12.6977 Y78.6213
G01 X12.7152 Y78.5903
G01 X12.7588 Y78.5176
G01 X12.7681 Y78.5025
G01 X12.7879 Y78.4729
G01 X12.8488 Y78.3904
G01 X12.8596 Y78.3762
G01 X12.8822 Y78.3487
G01 X12.9630 Y78.2596
G01 X12.9882 Y78.2344
G01 X13.0363 Y78.1904
G01 X12.4136 Y78.1904
G01 X9.7104 Y80.8936
G01 X9.7104 Y96.4352
G01 X9.7252 Y96.4502
G01 X9.7373 Y96.4632
G01 X9.7606 Y96.4902
G01 X9.7825 Y96.5182
G01 X9.8029 Y96.5473
G01 X9.8220 Y96.5774
G01 X9.8395 Y96.6084
G01 X9.8555 Y96.6401
G01 X9.8699 Y96.6727
G01 X9.8827 Y96.7059
G01 X9.8939 Y96.7397
G01 X9.9034 Y96.7740
G01 X9.9112 Y96.8087
G01 X9.9173 Y96.8437
G01 X9.9216 Y96.8791
G01 X9.9243 Y96.9146
G01 X9.9251 Y96.9501
G01 X9.9251 Y98.6501
G01 X9.9243 Y98.6857
G01 X9.9232 Y98.7035
G01 X9.9197 Y98.7389
G01 X9.9145 Y98.7741
G01 X9.9075 Y98.8090
G01 X9.8989 Y98.8435
G01 X9.8939 Y98.8606
G01 X9.8885 Y98.8775
G01 X9.8765 Y98.9110
G01 X9.8629 Y98.9439
G01 X9.8477 Y98.9761
G01 X9.8309 Y99.0075
G01 X9.8220 Y99.0228
G01 X9.8126 Y99.0380
G01 X9.7929 Y99.0676
G01 X9.7825 Y99.0820
G01 X9.7606 Y99.1101
G01 X9.7373 Y99.1370
G01 X9.7252 Y99.1500
G01 X9.7000 Y99.1752
G01 X9.6870 Y99.1873
G01 X9.6601 Y99.2106
G01 X9.6320 Y99.2325
G01 X9.6176 Y99.2429
G01 X9.5880 Y99.2626
G01 X9.5575 Y99.2809
G01 X9.5261 Y99.2977
G01 X9.5101 Y99.3055
G01 X9.4776 Y99.3199
G01 X9.4610 Y99.3265
G01 X9.4275 Y99.3385
G01 X9.3935 Y99.3489
G01 X9.3590 Y99.3575
G01 X9.3416 Y99.3612
G01 X9.3065 Y99.3673
G01 X9.2889 Y99.3697
G01 X9.2535 Y99.3732
G01 X9.2179 Y99.3749
G01 X7.5001 Y99.3751
G01 X7.4646 Y99.3743
G01 X7.4468 Y99.3732
G01 X7.4114 Y99.3697
G01 X7.3762 Y99.3645
G01 X7.3413 Y99.3575
G01 X7.3068 Y99.3489
G01 X7.2727 Y99.3385
G01 X7.2392 Y99.3265
G01 X7.2227 Y99.3199
G01 X7.1901 Y99.3055
G01 X7.1584 Y99.2895
G01 X7.1274 Y99.2720
G01 X7.0973 Y99.2529
G01 X7.0682 Y99.2325
G01 X7.0402 Y99.2106
G01 X7.0132 Y99.1873
G01 X6.9875 Y99.1628
G01 X6.9629 Y99.1370
G01 X6.9397 Y99.1101
G01 X6.9178 Y99.0820
G01 X6.9074 Y99.0676
G01 X6.8876 Y99.0380
G01 X6.8783 Y99.0228
G01 X6.8607 Y98.9919
G01 X6.8525 Y98.9761
G01 X6.8373 Y98.9439
G01 X6.8237 Y98.9110
G01 X6.8175 Y98.8944
G01 X6.8063 Y98.8606
G01 X6.8014 Y98.8435
G01 X6.7927 Y98.8090
G01 X6.7858 Y98.7741
G01 X6.7830 Y98.7565
G01 X6.7786 Y98.7212
G01 X6.7771 Y98.7035
G01 X6.7753 Y98.6679
G01 X6.7751 Y98.6501
G01 X6.7753 Y96.9323
G01 X6.7771 Y96.8968
G01 X6.7806 Y96.8614
G01 X6.7858 Y96.8262
G01 X6.7927 Y96.7913
G01 X6.8014 Y96.7568
G01 X6.8117 Y96.7227
G01 X6.8237 Y96.6892
G01 X6.8373 Y96.6563
G01 X6.8525 Y96.6242
G01 X6.8693 Y96.5928
G01 X6.8876 Y96.5623
G01 X6.9074 Y96.5327
G01 X6.9286 Y96.5041
G01 X6.9511 Y96.4766
G01 X6.9750 Y96.4502
G01 X6.9898 Y96.4352
G01 X6.9898 Y95.2563
G01 X6.9581 Y95.2695
G01 X6.9414 Y95.2757
G01 X6.8721 Y95.3004
G01 X6.8383 Y95.3116
G01 X6.8040 Y95.3211
G01 X6.7326 Y95.3390
G01 X6.6979 Y95.3468
G01 X6.6628 Y95.3529
G01 X6.5900 Y95.3637
G01 X6.5547 Y95.3680
G01 X6.5192 Y95.3706
G01 X6.4279 Y95.3749
G01 X3.9101 Y95.3751
G01 X3.8746 Y95.3743
G01 X3.8010 Y95.3706
G01 X3.7655 Y95.3680
G01 X3.7302 Y95.3637
G01 X3.6574 Y95.3529
G01 X3.6224 Y95.3468
G01 X3.5876 Y95.3390
G01 X3.5163 Y95.3211
G01 X3.4820 Y95.3116
G01 X3.4482 Y95.3004
G01 X3.3789 Y95.2757
G01 X3.3457 Y95.2628
G01 X3.3131 Y95.2484
G01 X3.2466 Y95.2170
G01 X3.2148 Y95.2010
G01 X3.1839 Y95.1834
G01 X3.1207 Y95.1456
G01 X3.0907 Y95.1265
G01 X3.0616 Y95.1061
G01 X3.0024 Y95.0622
G01 X2.9744 Y95.0403
G01 X2.9474 Y95.0171
G01 X2.8929 Y94.9676
G01 X2.8671 Y94.9431
G01 X2.8426 Y94.9173
G01 X2.7814 Y94.8495
G01 X2.7588 Y94.8220
G01 X2.7480 Y94.8078
G01 X2.7042 Y94.7487
G01 X2.6837 Y94.7196
G01 X2.6647 Y94.6895
G01 X2.6268 Y94.6264
G01 X2.6093 Y94.5954
G01 X2.5933 Y94.5636
G01 X2.5618 Y94.4971
G01 X2.5544 Y94.4809
G01 X2.5408 Y94.4481
G01 X2.5040 Y94.3453
G01 X2.4986 Y94.3283
G01 X2.4891 Y94.2940
G01 X2.4713 Y94.2226
G01 X2.4635 Y94.1879
G01 X2.4574 Y94.1528
G01 X2.4466 Y94.0800
G01 X2.4422 Y94.0447
G01 X2.4407 Y94.0270
G01 X2.4360 Y93.9357
G01 X2.4353 Y93.9179
G01 X2.4353 Y93.8823
G01 X2.4407 Y93.7733
G01 X2.4422 Y93.7555
G01 X2.4466 Y93.7202
G01 X2.4602 Y93.6299
G01 X2.4672 Y93.5950
G01 X2.4713 Y93.5776
G01 X2.4891 Y93.5063
G01 X2.4986 Y93.4720
G01 X2.5098 Y93.4382
G01 X2.5346 Y93.3689
G01 X2.5474 Y93.3357
G01 X2.5618 Y93.3031
G01 X2.5933 Y93.2366
G01 X2.6093 Y93.2048
G01 X2.6268 Y93.1739
G01 X2.6647 Y93.1107
G01 X2.6837 Y93.0807
G01 X2.6938 Y93.0660
G01 X2.7480 Y92.9924
G01 X2.7699 Y92.9644
G01 X2.7932 Y92.9374
G01 X2.8426 Y92.8829
G01 X2.8671 Y92.8571
G01 X2.8799 Y92.8447
G01 X2.9474 Y92.7832
G01 X2.9744 Y92.7599
G01 X2.9883 Y92.7488
G01 X3.0616 Y92.6942
G01 X3.0907 Y92.6737
G01 X3.1207 Y92.6547
G01 X3.1617 Y92.6301
G01 X3.1207 Y92.6056
G01 X3.0907 Y92.5865
G01 X3.0616 Y92.5661
G01 X2.9883 Y92.5114
G01 X2.9608 Y92.4889
G01 X2.8929 Y92.4276
G01 X2.8799 Y92.4155
G01 X2.8547 Y92.3904
G01 X2.7932 Y92.3228
G01 X2.7699 Y92.2959
G01 X2.7480 Y92.2678
G01 X2.7042 Y92.2087
G01 X2.6837 Y92.1796
G01 X2.6647 Y92.1495
G01 X2.6179 Y92.0710
G01 X2.6011 Y92.0396
G01 X2.5618 Y91.9571
G01 X2.5474 Y91.9246
G01 X2.5346 Y91.8914
G01 X2.5098 Y91.8221
G01 X2.4986 Y91.7883
G01 X2.4937 Y91.7712
G01 X2.4713 Y91.6826
G01 X2.4635 Y91.6479
G01 X2.4574 Y91.6128
G01 X2.4442 Y91.5224
G01 X2.4422 Y91.5047
G01 X2.4396 Y91.4692
G01 X2.4360 Y91.3957
G01 X2.4351 Y91.3601
G01 X2.4360 Y91.3246
G01 X2.4407 Y91.2333
G01 X2.4442 Y91.1979
G01 X2.4466 Y91.1802
G01 X2.4574 Y91.1074
G01 X2.4635 Y91.0724
G01 X2.4713 Y91.0376
G01 X2.4937 Y90.9490
G01 X2.4986 Y90.9320
G01 X2.5098 Y90.8982
G01 X2.5346 Y90.8289
G01 X2.5474 Y90.7957
G01 X2.5618 Y90.7631
G01 X2.5933 Y90.6966
G01 X2.6093 Y90.6648
G01 X2.6179 Y90.6492
G01 X2.6740 Y90.5556
G01 X2.6837 Y90.5407
G01 X2.7042 Y90.5116
G01 X2.7480 Y90.4524
G01 X2.7699 Y90.4244
G01 X2.7932 Y90.3974
G01 X2.8426 Y90.3429
G01 X2.8671 Y90.3171
G01 X2.8799 Y90.3047
G01 X2.9474 Y90.2432
G01 X2.9608 Y90.2314
G01 X2.9883 Y90.2088
G01 X3.0616 Y90.1542
G01 X3.0907 Y90.1337
G01 X3.1207 Y90.1147
G01 X3.1617 Y90.0901
G01 X3.1207 Y90.0656
G01 X3.0907 Y90.0465
G01 X3.0616 Y90.0261
G01 X2.9883 Y89.9714
G01 X2.9608 Y89.9489
G01 X2.8929 Y89.8876
G01 X2.8799 Y89.8755
G01 X2.8547 Y89.8504
G01 X2.7932 Y89.7828
G01 X2.7699 Y89.7559
G01 X2.7480 Y89.7278
G01 X2.7042 Y89.6687
G01 X2.6837 Y89.6396
G01 X2.6740 Y89.6247
G01 X2.6268 Y89.5464
G01 X2.6093 Y89.5154
G01 X2.5933 Y89.4836
G01 X2.5618 Y89.4171
G01 X2.5474 Y89.3846
G01 X2.5346 Y89.3514
G01 X2.5098 Y89.2821
G01 X2.4986 Y89.2483
G01 X2.4937 Y89.2312
G01 X2.4713 Y89.1426
G01 X2.4635 Y89.1079
G01 X2.4574 Y89.0728
G01 X2.4442 Y88.9824
G01 X2.4407 Y88.9470
G01 X2.4396 Y88.9292
G01 X2.4360 Y88.8557
G01 X2.4351 Y88.8201
G01 X2.4360 Y88.7846
G01 X2.4396 Y88.7110
G01 X2.4422 Y88.6755
G01 X2.4442 Y88.6579
G01 X2.4574 Y88.5674
G01 X2.4635 Y88.5324
G01 X2.4713 Y88.4976
G01 X2.4891 Y88.4263
G01 X2.4937 Y88.4090
G01 X2.5040 Y88.3750
G01 X2.5346 Y88.2889
G01 X2.5474 Y88.2557
G01 X2.5618 Y88.2231
G01 X2.5933 Y88.1566
G01 X2.6093 Y88.1248
G01 X2.6179 Y88.1092
G01 X2.6740 Y88.0156
G01 X2.6938 Y87.9860
G01 X2.7042 Y87.9716
G01 X2.7480 Y87.9124
G01 X2.7699 Y87.8844
G01 X2.7932 Y87.8574
G01 X2.8426 Y87.8029
G01 X2.8547 Y87.7899
G01 X2.8799 Y87.7647
G01 X2.9474 Y87.7032
G01 X2.9744 Y87.6799
G01 X2.9883 Y87.6688
G01 X3.0616 Y87.6142
G01 X3.0907 Y87.5937
G01 X3.1207 Y87.5747
G01 X3.1617 Y87.5501
G01 X3.1207 Y87.5256
G01 X3.0907 Y87.5065
G01 X3.0616 Y87.4861
G01 X2.9883 Y87.4314
G01 X2.9608 Y87.4089
G01 X2.8929 Y87.3476
G01 X2.8671 Y87.3231
G01 X2.8547 Y87.3104
G01 X2.7932 Y87.2428
G01 X2.7699 Y87.2159
G01 X2.7480 Y87.1878
G01 X2.7042 Y87.1287
G01 X2.6837 Y87.0996
G01 X2.6740 Y87.0847
G01 X2.6179 Y86.9910
G01 X2.6011 Y86.9596
G01 X2.5933 Y86.9436
G01 X2.5544 Y86.8609
G01 X2.5408 Y86.8281
G01 X2.5098 Y86.7421
G01 X2.4986 Y86.7083
G01 X2.4891 Y86.6740
G01 X2.4713 Y86.6026
G01 X2.4635 Y86.5679
G01 X2.4602 Y86.5504
G01 X2.4466 Y86.4600
G01 X2.4422 Y86.4247
G01 X2.4396 Y86.3892
G01 X2.4353 Y86.2979
G01 X2.4353 Y86.2623
G01 X2.4360 Y86.2446
G01 X2.4396 Y86.1710
G01 X2.4422 Y86.1355
G01 X2.4466 Y86.1002
G01 X2.4574 Y86.0274
G01 X2.4635 Y85.9924
G01 X2.4672 Y85.9750
G01 X2.4937 Y85.8690
G01 X2.4986 Y85.8520
G01 X2.5098 Y85.8182
G01 X2.5346 Y85.7489
G01 X2.5474 Y85.7157
G01 X2.5618 Y85.6831
G01 X2.6011 Y85.6006
G01 X2.6179 Y85.5692
G01 X2.6268 Y85.5539
G01 X2.6647 Y85.4907
G01 X2.6837 Y85.4607
G01 X2.7042 Y85.4316
G01 X2.7480 Y85.3724
G01 X2.7588 Y85.3583
G01 X2.7814 Y85.3308
G01 X2.8426 Y85.2629
G01 X2.8671 Y85.2371
G01 X2.8929 Y85.2126
G01 X2.9474 Y85.1632
G01 X2.9744 Y85.1399
G01 X2.9883 Y85.1288
G01 X3.0616 Y85.0742
G01 X3.0907 Y85.0537
G01 X3.1207 Y85.0347
G01 X3.1617 Y85.0101
G01 X3.1207 Y84.9856
G01 X3.0907 Y84.9665
G01 X3.0616 Y84.9461
G01 X2.9883 Y84.8914
G01 X2.9608 Y84.8689
G01 X2.8929 Y84.8076
G01 X2.8671 Y84.7831
G01 X2.8547 Y84.7704
G01 X2.7932 Y84.7028
G01 X2.7699 Y84.6759
G01 X2.7480 Y84.6478
G01 X2.7042 Y84.5887
G01 X2.6938 Y84.5743
G01 X2.6740 Y84.5447
G01 X2.6179 Y84.4510
G01 X2.6011 Y84.4196
G01 X2.5933 Y84.4036
G01 X2.5544 Y84.3209
G01 X2.5408 Y84.2881
G01 X2.5098 Y84.2021
G01 X2.4986 Y84.1683
G01 X2.4891 Y84.1340
G01 X2.4713 Y84.0626
G01 X2.4672 Y84.0453
G01 X2.4602 Y84.0104
G01 X2.4466 Y83.9200
G01 X2.4422 Y83.8847
G01 X2.4396 Y83.8492
G01 X2.4360 Y83.7757
G01 X2.4353 Y83.7579
G01 X2.4353 Y83.7223
G01 X2.4407 Y83.6133
G01 X2.4422 Y83.5955
G01 X2.4466 Y83.5602
G01 X2.4574 Y83.4874
G01 X2.4635 Y83.4524
G01 X2.4713 Y83.4176
G01 X2.4891 Y83.3463
G01 X2.4986 Y83.3120
G01 X2.5040 Y83.2950
G01 X2.5346 Y83.2089
G01 X2.5474 Y83.1757
G01 X2.5618 Y83.1431
G01 X2.5933 Y83.0766
G01 X2.6093 Y83.0448
G01 X2.6179 Y83.0292
G01 X2.6647 Y82.9507
G01 X2.6837 Y82.9207
G01 X2.7042 Y82.8916
G01 X2.7480 Y82.8324
G01 X2.7699 Y82.8044
G01 X2.7814 Y82.7908
G01 X2.8547 Y82.7099
G01 X2.8799 Y82.6847
G01 X2.8929 Y82.6726
G01 X2.9608 Y82.6114
G01 X2.9883 Y82.5888
G01 X3.0616 Y82.5342
G01 X3.0907 Y82.5137
G01 X3.1207 Y82.4947
G01 X3.1617 Y82.4701
G01 X3.1207 Y82.4456
G01 X3.0907 Y82.4265
G01 X3.0616 Y82.4061
G01 X2.9883 Y82.3514
G01 X2.9608 Y82.3289
G01 X2.8929 Y82.2676
G01 X2.8671 Y82.2431
G01 X2.8547 Y82.2304
G01 X2.7932 Y82.1628
G01 X2.7699 Y82.1359
G01 X2.7480 Y82.1078
G01 X2.7042 Y82.0487
G01 X2.6837 Y82.0196
G01 X2.6740 Y82.0047
G01 X2.6179 Y81.9110
G01 X2.6011 Y81.8796
G01 X2.5933 Y81.8636
G01 X2.5544 Y81.7809
G01 X2.5408 Y81.7481
G01 X2.5098 Y81.6621
G01 X2.4986 Y81.6283
G01 X2.4891 Y81.5940
G01 X2.4713 Y81.5226
G01 X2.4635 Y81.4879
G01 X2.4602 Y81.4704
G01 X2.4466 Y81.3800
G01 X2.4422 Y81.3447
G01 X2.4396 Y81.3092
G01 X2.4360 Y81.2357
G01 X2.4351 Y81.2001
G01 X2.4353 Y81.1823
G01 X2.4407 Y81.0733
G01 X2.4442 Y81.0379
G01 X2.4466 Y81.0202
G01 X2.4574 Y80.9474
G01 X2.4635 Y80.9124
G01 X2.4713 Y80.8776
G01 X2.4891 Y80.8063
G01 X2.4937 Y80.7890
G01 X2.5040 Y80.7550
G01 X2.5346 Y80.6689
G01 X2.5474 Y80.6357
G01 X2.5618 Y80.6031
G01 X2.5933 Y80.5366
G01 X2.6011 Y80.5206
G01 X2.6179 Y80.4892
G01 X2.6647 Y80.4107
G01 X2.6837 Y80.3807
G01 X2.7042 Y80.3516
G01 X2.7480 Y80.2924
G01 X2.7588 Y80.2783
G01 X2.7814 Y80.2508
G01 X2.8547 Y80.1699
G01 X2.8671 Y80.1571
G01 X2.8929 Y80.1326
G01 X2.9608 Y80.0714
G01 X2.9883 Y80.0488
G01 X3.0616 Y79.9942
G01 X3.0907 Y79.9737
G01 X3.1207 Y79.9547
G01 X3.1617 Y79.9301
G01 X3.1207 Y79.9056
G01 X3.0907 Y79.8865
G01 X3.0616 Y79.8661
G01 X2.9883 Y79.8114
G01 X2.9608 Y79.7889
G01 X2.8929 Y79.7276
G01 X2.8671 Y79.7031
G01 X2.8547 Y79.6904
G01 X2.7932 Y79.6228
G01 X2.7699 Y79.5959
G01 X2.7480 Y79.5678
G01 X2.7042 Y79.5087
G01 X2.6938 Y79.4943
G01 X2.6740 Y79.4647
G01 X2.6179 Y79.3710
G01 X2.6011 Y79.3396
G01 X2.5933 Y79.3236
G01 X2.5544 Y79.2409
G01 X2.5408 Y79.2081
G01 X2.5098 Y79.1221
G01 X2.4986 Y79.0883
G01 X2.4891 Y79.0540
G01 X2.4713 Y78.9826
G01 X2.4672 Y78.9653
G01 X2.4602 Y78.9304
G01 X2.4466 Y78.8400
G01 X2.4422 Y78.8047
G01 X2.4396 Y78.7692
G01 X2.4360 Y78.6957
G01 X2.4351 Y78.6601
G01 X2.4353 Y78.6423
G01 X2.4407 Y78.5333
G01 X2.4422 Y78.5155
G01 X2.4466 Y78.4802
G01 X2.4574 Y78.4074
G01 X2.4635 Y78.3724
G01 X2.4713 Y78.3376
G01 X2.4891 Y78.2663
G01 X2.4986 Y78.2320
G01 X2.5040 Y78.2150
G01 X2.5346 Y78.1289
G01 X2.5474 Y78.0957
G01 X2.5618 Y78.0631
G01 X2.5933 Y77.9966
G01 X2.6011 Y77.9806
G01 X2.6179 Y77.9492
G01 X2.6647 Y77.8707
G01 X2.6837 Y77.8407
G01 X2.7042 Y77.8116
G01 X2.7480 Y77.7524
G01 X2.7588 Y77.7383
G01 X2.7814 Y77.7108
G01 X2.8547 Y77.6299
G01 X2.8671 Y77.6171
G01 X2.8929 Y77.5926
G01 X2.9608 Y77.5314
G01 X2.9883 Y77.5088
G01 X3.0616 Y77.4542
G01 X3.0907 Y77.4337
G01 X3.1207 Y77.4147
G01 X3.1617 Y77.3901
G01 X3.1207 Y77.3656
G01 X3.0907 Y77.3465
G01 X3.0616 Y77.3261
G01 X2.9883 Y77.2714
G01 X2.9608 Y77.2489
G01 X2.8929 Y77.1876
G01 X2.8671 Y77.1631
G01 X2.8547 Y77.1504
G01 X2.7932 Y77.0828
G01 X2.7699 Y77.0559
G01 X2.7480 Y77.0278
G01 X2.7042 Y76.9687
G01 X2.6837 Y76.9396
G01 X2.6740 Y76.9247
G01 X2.6179 Y76.8310
G01 X2.6011 Y76.7996
G01 X2.5933 Y76.7836
G01 X2.5544 Y76.7009
G01 X2.5408 Y76.6681
G01 X2.5098 Y76.5821
G01 X2.4986 Y76.5483
G01 X2.4891 Y76.5140
G01 X2.4713 Y76.4426
G01 X2.4635 Y76.4079
G01 X2.4602 Y76.3904
G01 X2.4466 Y76.3000
G01 X2.4422 Y76.2647
G01 X2.4396 Y76.2292
G01 X2.4360 Y76.1557
G01 X2.4353 Y76.1379
G01 X2.4353 Y76.1023
G01 X2.4407 Y75.9933
G01 X2.4442 Y75.9579
G01 X2.4466 Y75.9402
G01 X2.4574 Y75.8674
G01 X2.4635 Y75.8324
G01 X2.4713 Y75.7976
G01 X2.4891 Y75.7263
G01 X2.4937 Y75.7090
G01 X2.5040 Y75.6750
G01 X2.5346 Y75.5889
G01 X2.5474 Y75.5557
G01 X2.5618 Y75.5231
G01 X2.5933 Y75.4566
G01 X2.6093 Y75.4248
G01 X2.6179 Y75.4092
G01 X2.6647 Y75.3307
G01 X2.6837 Y75.3007
G01 X2.7042 Y75.2716
G01 X2.7480 Y75.2124
G01 X2.7588 Y75.1983
G01 X2.7814 Y75.1708
G01 X2.8547 Y75.0899
G01 X2.8671 Y75.0771
G01 X2.8929 Y75.0526
G01 X2.9608 Y74.9914
G01 X2.9883 Y74.9688
G01 X3.0616 Y74.9142
G01 X3.0907 Y74.8937
G01 X3.1207 Y74.8747
G01 X3.1617 Y74.8501
G01 X3.1207 Y74.8256
G01 X3.0907 Y74.8065
G01 X3.0616 Y74.7861
G01 X2.9883 Y74.7314
G01 X2.9608 Y74.7089
G01 X2.8929 Y74.6476
G01 X2.8671 Y74.6231
G01 X2.8547 Y74.6104
G01 X2.7932 Y74.5428
G01 X2.7699 Y74.5159
G01 X2.7480 Y74.4878
G01 X2.7042 Y74.4287
G01 X2.6837 Y74.3996
G01 X2.6740 Y74.3847
G01 X2.6179 Y74.2910
G01 X2.6011 Y74.2596
G01 X2.5933 Y74.2436
G01 X2.5544 Y74.1609
G01 X2.5408 Y74.1281
G01 X2.5098 Y74.0421
G01 X2.4986 Y74.0083
G01 X2.4891 Y73.9740
G01 X2.4713 Y73.9026
G01 X2.4672 Y73.8853
G01 X2.4602 Y73.8504
G01 X2.4466 Y73.7600
G01 X2.4422 Y73.7247
G01 X2.4396 Y73.6892
G01 X2.4360 Y73.6157
G01 X2.4351 Y73.5801
G01 X2.4353 Y73.5623
G01 X2.4407 Y73.4533
G01 X2.4422 Y73.4355
G01 X2.4466 Y73.4002
G01 X2.4574 Y73.3274
G01 X2.4635 Y73.2924
G01 X2.4713 Y73.2576
G01 X2.4891 Y73.1863
G01 X2.4986 Y73.1520
G01 X2.5040 Y73.1350
G01 X2.5346 Y73.0489
G01 X2.5474 Y73.0157
G01 X2.5618 Y72.9831
G01 X2.5933 Y72.9166
G01 X2.6011 Y72.9006
G01 X2.6179 Y72.8692
G01 X2.6647 Y72.7907
G01 X2.6837 Y72.7607
G01 X2.7042 Y72.7316
G01 X2.7480 Y72.6724
G01 X2.7588 Y72.6583
G01 X2.7814 Y72.6308
G01 X2.8547 Y72.5499
G01 X2.8671 Y72.5371
G01 X2.8929 Y72.5126
G01 X2.9608 Y72.4514
G01 X2.9883 Y72.4288
G01 X3.0616 Y72.3742
G01 X3.0907 Y72.3537
G01 X3.1207 Y72.3347
G01 X3.1617 Y72.3101
G01 X3.1207 Y72.2856
G01 X3.0907 Y72.2665
G01 X3.0616 Y72.2461
G01 X2.9883 Y72.1914
G01 X2.9608 Y72.1689
G01 X2.8929 Y72.1076
G01 X2.8671 Y72.0831
G01 X2.8547 Y72.0704
G01 X2.7932 Y72.0028
G01 X2.7699 Y71.9759
G01 X2.7480 Y71.9478
G01 X2.7042 Y71.8887
G01 X2.6837 Y71.8596
G01 X2.6740 Y71.8447
G01 X2.6179 Y71.7510
G01 X2.6011 Y71.7196
G01 X2.5933 Y71.7036
G01 X2.5544 Y71.6209
G01 X2.5408 Y71.5881
G01 X2.5098 Y71.5021
G01 X2.4986 Y71.4683
G01 X2.4891 Y71.4340
G01 X2.4713 Y71.3626
G01 X2.4635 Y71.3279
G01 X2.4602 Y71.3104
G01 X2.4466 Y71.2200
G01 X2.4422 Y71.1847
G01 X2.4396 Y71.1492
G01 X2.4360 Y71.0757
G01 X2.4353 Y71.0579
G01 X2.4353 Y71.0223
G01 X2.4407 Y70.9133
G01 X2.4442 Y70.8779
G01 X2.4466 Y70.8602
G01 X2.4574 Y70.7874
G01 X2.4635 Y70.7524
G01 X2.4713 Y70.7176
G01 X2.4891 Y70.6463
G01 X2.4986 Y70.6120
G01 X2.5040 Y70.5950
G01 X2.5346 Y70.5089
G01 X2.5474 Y70.4757
G01 X2.5618 Y70.4431
G01 X2.5933 Y70.3766
G01 X2.6093 Y70.3448
G01 X2.6179 Y70.3292
G01 X2.6647 Y70.2507
G01 X2.6837 Y70.2207
G01 X2.7042 Y70.1916
G01 X2.7480 Y70.1324
G01 X2.7588 Y70.1183
G01 X2.7814 Y70.0908
G01 X2.8547 Y70.0099
G01 X2.8671 Y69.9971
G01 X2.8929 Y69.9726
G01 X2.9608 Y69.9114
G01 X2.9883 Y69.8888
G01 X3.0616 Y69.8342
G01 X3.0907 Y69.8137
G01 X3.1207 Y69.7947
G01 X3.1617 Y69.7701
G01 X3.1207 Y69.7456
G01 X3.0907 Y69.7265
G01 X3.0616 Y69.7061
G01 X2.9883 Y69.6514
G01 X2.9608 Y69.6289
G01 X2.8929 Y69.5676
G01 X2.8671 Y69.5431
G01 X2.8547 Y69.5304
G01 X2.7932 Y69.4628
G01 X2.7699 Y69.4359
G01 X2.7480 Y69.4078
G01 X2.7042 Y69.3487
G01 X2.6837 Y69.3196
G01 X2.6740 Y69.3047
G01 X2.6179 Y69.2110
G01 X2.6011 Y69.1796
G01 X2.5933 Y69.1636
G01 X2.5544 Y69.0809
G01 X2.5408 Y69.0481
G01 X2.5098 Y68.9621
G01 X2.4986 Y68.9283
G01 X2.4891 Y68.8940
G01 X2.4713 Y68.8226
G01 X2.4672 Y68.8053
G01 X2.4602 Y68.7704
G01 X2.4466 Y68.6800
G01 X2.4422 Y68.6447
G01 X2.4396 Y68.6092
G01 X2.4360 Y68.5357
G01 X2.4351 Y68.5001
G01 X2.4353 Y68.4823
G01 X2.4407 Y68.3733
G01 X2.4422 Y68.3555
G01 X2.4466 Y68.3202
G01 X2.4574 Y68.2474
G01 X2.4635 Y68.2124
G01 X2.4713 Y68.1776
G01 X2.4891 Y68.1063
G01 X2.4986 Y68.0720
G01 X2.5040 Y68.0550
G01 X2.5346 Y67.9689
G01 X2.5474 Y67.9357
G01 X2.5618 Y67.9031
G01 X2.5933 Y67.8366
G01 X2.6011 Y67.8206
G01 X2.6179 Y67.7892
G01 X2.6647 Y67.7107
G01 X2.6837 Y67.6807
G01 X2.7042 Y67.6516
G01 X2.7480 Y67.5924
G01 X2.7588 Y67.5783
G01 X2.7814 Y67.5508
G01 X2.8547 Y67.4699
G01 X2.8671 Y67.4571
G01 X2.8929 Y67.4326
G01 X2.9608 Y67.3714
G01 X2.9883 Y67.3488
G01 X3.0616 Y67.2942
G01 X3.0907 Y67.2737
G01 X3.1207 Y67.2547
G01 X3.1617 Y67.2301
G01 X3.1207 Y67.2056
G01 X3.0907 Y67.1865
G01 X3.0616 Y67.1661
G01 X2.9883 Y67.1114
G01 X2.9608 Y67.0889
G01 X2.8929 Y67.0276
G01 X2.8671 Y67.0031
G01 X2.8547 Y66.9904
G01 X2.7932 Y66.9228
G01 X2.7699 Y66.8959
G01 X2.7480 Y66.8678
G01 X2.7042 Y66.8087
G01 X2.6837 Y66.7796
G01 X2.6740 Y66.7647
G01 X2.6179 Y66.6710
G01 X2.6011 Y66.6396
G01 X2.5933 Y66.6236
G01 X2.5544 Y66.5409
G01 X2.5408 Y66.5081
G01 X2.5098 Y66.4221
G01 X2.4986 Y66.3883
G01 X2.4891 Y66.3540
G01 X2.4713 Y66.2826
G01 X2.4672 Y66.2653
G01 X2.4602 Y66.2304
G01 X2.4466 Y66.1400
G01 X2.4422 Y66.1047
G01 X2.4396 Y66.0692
G01 X2.4360 Y65.9957
G01 X2.4353 Y65.9779
G01 X2.4353 Y65.9423
G01 X2.4407 Y65.8333
G01 X2.4442 Y65.7979
G01 X2.4466 Y65.7802
G01 X2.4574 Y65.7074
G01 X2.4635 Y65.6724
G01 X2.4713 Y65.6376
G01 X2.4891 Y65.5663
G01 X2.4986 Y65.5320
G01 X2.5040 Y65.5150
G01 X2.5346 Y65.4289
G01 X2.5474 Y65.3957
G01 X2.5618 Y65.3631
G01 X2.5933 Y65.2966
G01 X2.6093 Y65.2648
G01 X2.6179 Y65.2492
G01 X2.6647 Y65.1707
G01 X2.6837 Y65.1407
G01 X2.7042 Y65.1116
G01 X2.7480 Y65.0524
G01 X2.7699 Y65.0244
G01 X2.7814 Y65.0108
G01 X2.8547 Y64.9299
G01 X2.8799 Y64.9047
G01 X2.8929 Y64.8926
G01 X2.9608 Y64.8314
G01 X2.9883 Y64.8088
G01 X3.0616 Y64.7542
G01 X3.0907 Y64.7337
G01 X3.1207 Y64.7147
G01 X3.1617 Y64.6901
G01 X3.1207 Y64.6656
G01 X3.0907 Y64.6465
G01 X3.0616 Y64.6261
G01 X2.9883 Y64.5714
G01 X2.9608 Y64.5489
G01 X2.8929 Y64.4876
G01 X2.8671 Y64.4631
G01 X2.8547 Y64.4504
G01 X2.7932 Y64.3828
G01 X2.7699 Y64.3559
G01 X2.7480 Y64.3278
G01 X2.7042 Y64.2687
G01 X2.6837 Y64.2396
G01 X2.6740 Y64.2247
G01 X2.6179 Y64.1310
G01 X2.6011 Y64.0996
G01 X2.5933 Y64.0836
G01 X2.5618 Y64.0171
G01 X2.5474 Y63.9846
G01 X2.5346 Y63.9514
G01 X2.5040 Y63.8653
G01 X2.4986 Y63.8483
G01 X2.4891 Y63.8140
G01 X2.4713 Y63.7426
G01 X2.4635 Y63.7079
G01 X2.4574 Y63.6728
G01 X2.4466 Y63.6000
G01 X2.4442 Y63.5824
G01 X2.4407 Y63.5470
G01 X2.4360 Y63.4557
G01 X2.4351 Y63.4201
G01 X2.4360 Y63.3846
G01 X2.4407 Y63.2933
G01 X2.4422 Y63.2755
G01 X2.4466 Y63.2402
G01 X2.4574 Y63.1674
G01 X2.4635 Y63.1324
G01 X2.4713 Y63.0976
G01 X2.4891 Y63.0263
G01 X2.4986 Y62.9920
G01 X2.5040 Y62.9750
G01 X2.5346 Y62.8889
G01 X2.5474 Y62.8557
G01 X2.5618 Y62.8231
G01 X2.5933 Y62.7566
G01 X2.6093 Y62.7248
G01 X2.6179 Y62.7092
G01 X2.6647 Y62.6307
G01 X2.6837 Y62.6007
G01 X2.7042 Y62.5716
G01 X2.7480 Y62.5124
G01 X2.7699 Y62.4844
G01 X2.7814 Y62.4708
G01 X2.8547 Y62.3899
G01 X2.8799 Y62.3647
G01 X2.8929 Y62.3526
G01 X2.9608 Y62.2914
G01 X2.9883 Y62.2688
G01 X3.0616 Y62.2142
G01 X3.0907 Y62.1937
G01 X3.1207 Y62.1747
G01 X3.1617 Y62.1501
G01 X3.1207 Y62.1256
G01 X3.0907 Y62.1065
G01 X3.0616 Y62.0861
G01 X2.9883 Y62.0314
G01 X2.9608 Y62.0089
G01 X2.8929 Y61.9476
G01 X2.8799 Y61.9355
G01 X2.8547 Y61.9104
G01 X2.7932 Y61.8428
G01 X2.7699 Y61.8159
G01 X2.7480 Y61.7878
G01 X2.7042 Y61.7287
G01 X2.6938 Y61.7143
G01 X2.6740 Y61.6847
G01 X2.6179 Y61.5910
G01 X2.6093 Y61.5754
G01 X2.5933 Y61.5436
G01 X2.5618 Y61.4771
G01 X2.5474 Y61.4446
G01 X2.5346 Y61.4114
G01 X2.5040 Y61.3253
G01 X2.4986 Y61.3083
G01 X2.4891 Y61.2740
G01 X2.4713 Y61.2026
G01 X2.4635 Y61.1679
G01 X2.4574 Y61.1328
G01 X2.4466 Y61.0600
G01 X2.4442 Y61.0424
G01 X2.4407 Y61.0070
G01 X2.4360 Y60.9157
G01 X2.4351 Y60.8801
G01 X2.4360 Y60.8446
G01 X2.4407 Y60.7533
G01 X2.4422 Y60.7355
G01 X2.4466 Y60.7002
G01 X2.4574 Y60.6274
G01 X2.4635 Y60.5924
G01 X2.4713 Y60.5576
G01 X2.4891 Y60.4863
G01 X2.4986 Y60.4520
G01 X2.5040 Y60.4350
G01 X2.5346 Y60.3489
G01 X2.5474 Y60.3157
G01 X2.5618 Y60.2831
G01 X2.5933 Y60.2166
G01 X2.6011 Y60.2006
G01 X2.6179 Y60.1692
G01 X2.6647 Y60.0907
G01 X2.6837 Y60.0607
G01 X2.7042 Y60.0316
G01 X2.7480 Y59.9724
G01 X2.7699 Y59.9444
G01 X2.7814 Y59.9308
G01 X2.8547 Y59.8499
G01 X2.8799 Y59.8247
G01 X2.8929 Y59.8126
G01 X2.9608 Y59.7514
G01 X2.9883 Y59.7288
G01 X3.0616 Y59.6742
G01 X3.0907 Y59.6537
G01 X3.1207 Y59.6347
G01 X3.1617 Y59.6101
G01 X3.1207 Y59.5856
G01 X3.0907 Y59.5665
G01 X3.0616 Y59.5461
G01 X2.9883 Y59.4914
G01 X2.9608 Y59.4689
G01 X2.8929 Y59.4076
G01 X2.8671 Y59.3831
G01 X2.8547 Y59.3704
G01 X2.7932 Y59.3028
G01 X2.7699 Y59.2759
G01 X2.7480 Y59.2478
G01 X2.7042 Y59.1887
G01 X2.6837 Y59.1596
G01 X2.6740 Y59.1447
G01 X2.6179 Y59.0510
G01 X2.6011 Y59.0196
G01 X2.5933 Y59.0036
G01 X2.5618 Y58.9371
G01 X2.5474 Y58.9046
G01 X2.5346 Y58.8714
G01 X2.5040 Y58.7853
G01 X2.4937 Y58.7512
G01 X2.4891 Y58.7340
G01 X2.4713 Y58.6626
G01 X2.4635 Y58.6279
G01 X2.4574 Y58.5928
G01 X2.4466 Y58.5200
G01 X2.4442 Y58.5024
G01 X2.4407 Y58.4670
G01 X2.4360 Y58.3757
G01 X2.4351 Y58.3401
G01 X2.4360 Y58.3046
G01 X2.4407 Y58.2133
G01 X2.4422 Y58.1955
G01 X2.4466 Y58.1602
G01 X2.4574 Y58.0874
G01 X2.4635 Y58.0524
G01 X2.4713 Y58.0176
G01 X2.4891 Y57.9463
G01 X2.4937 Y57.9290
G01 X2.5040 Y57.8950
G01 X2.5346 Y57.8089
G01 X2.5474 Y57.7757
G01 X2.5618 Y57.7431
G01 X2.5933 Y57.6766
G01 X2.6011 Y57.6606
G01 X2.6179 Y57.6292
G01 X2.6647 Y57.5507
G01 X2.6837 Y57.5207
G01 X2.7042 Y57.4916
G01 X2.7480 Y57.4324
G01 X2.7699 Y57.4044
G01 X2.7814 Y57.3908
G01 X2.8547 Y57.3099
G01 X2.8799 Y57.2847
G01 X2.8929 Y57.2726
G01 X2.9608 Y57.2114
G01 X2.9883 Y57.1888
G01 X3.0616 Y57.1342
G01 X3.0907 Y57.1137
G01 X3.1207 Y57.0947
G01 X3.1617 Y57.0701
G01 X3.1207 Y57.0456
G01 X3.0907 Y57.0265
G01 X3.0616 Y57.0061
G01 X2.9883 Y56.9514
G01 X2.9608 Y56.9289
G01 X2.8929 Y56.8676
G01 X2.8799 Y56.8555
G01 X2.8547 Y56.8304
G01 X2.7932 Y56.7628
G01 X2.7699 Y56.7359
G01 X2.7480 Y56.7078
G01 X2.7042 Y56.6487
G01 X2.6938 Y56.6343
G01 X2.6740 Y56.6047
G01 X2.6179 Y56.5110
G01 X2.6093 Y56.4954
G01 X2.5933 Y56.4636
G01 X2.5618 Y56.3971
G01 X2.5474 Y56.3646
G01 X2.5346 Y56.3314
G01 X2.5040 Y56.2453
G01 X2.4986 Y56.2283
G01 X2.4891 Y56.1940
G01 X2.4713 Y56.1226
G01 X2.4635 Y56.0879
G01 X2.4574 Y56.0528
G01 X2.4466 Y55.9800
G01 X2.4442 Y55.9624
G01 X2.4407 Y55.9270
G01 X2.4360 Y55.8357
G01 X2.4351 Y55.8001
G01 X2.4360 Y55.7646
G01 X2.4407 Y55.6733
G01 X2.4422 Y55.6555
G01 X2.4466 Y55.6202
G01 X2.4574 Y55.5474
G01 X2.4635 Y55.5124
G01 X2.4713 Y55.4776
G01 X2.4891 Y55.4063
G01 X2.4986 Y55.3720
G01 X2.5040 Y55.3550
G01 X2.5346 Y55.2689
G01 X2.5474 Y55.2357
G01 X2.5618 Y55.2031
G01 X2.5933 Y55.1366
G01 X2.6011 Y55.1206
G01 X2.6179 Y55.0892
G01 X2.6647 Y55.0107
G01 X2.6837 Y54.9807
G01 X2.7042 Y54.9516
G01 X2.7480 Y54.8924
G01 X2.7588 Y54.8783
G01 X2.7814 Y54.8508
G01 X2.8547 Y54.7699
G01 X2.8671 Y54.7571
G01 X2.8929 Y54.7326
G01 X2.9608 Y54.6714
G01 X2.9883 Y54.6488
G01 X3.0616 Y54.5942
G01 X3.0907 Y54.5737
G01 X3.1207 Y54.5547
G01 X3.1617 Y54.5301
G01 X3.1207 Y54.5056
G01 X3.0907 Y54.4865
G01 X3.0616 Y54.4661
G01 X2.9883 Y54.4114
G01 X2.9608 Y54.3889
G01 X2.8929 Y54.3276
G01 X2.8671 Y54.3031
G01 X2.8547 Y54.2904
G01 X2.7932 Y54.2228
G01 X2.7699 Y54.1959
G01 X2.7480 Y54.1678
G01 X2.7042 Y54.1087
G01 X2.6837 Y54.0796
G01 X2.6740 Y54.0647
G01 X2.6179 Y53.9710
G01 X2.6011 Y53.9396
G01 X2.5933 Y53.9236
G01 X2.5618 Y53.8571
G01 X2.5474 Y53.8246
G01 X2.5346 Y53.7914
G01 X2.5040 Y53.7053
G01 X2.4986 Y53.6883
G01 X2.4891 Y53.6540
G01 X2.4713 Y53.5826
G01 X2.4635 Y53.5479
G01 X2.4574 Y53.5128
G01 X2.4466 Y53.4400
G01 X2.4442 Y53.4224
G01 X2.4407 Y53.3870
G01 X2.4360 Y53.2957
G01 X2.4351 Y53.2601
G01 X2.4360 Y53.2246
G01 X2.4407 Y53.1333
G01 X2.4422 Y53.1155
G01 X2.4466 Y53.0802
G01 X2.4574 Y53.0074
G01 X2.4635 Y52.9724
G01 X2.4713 Y52.9376
G01 X2.4891 Y52.8663
G01 X2.4937 Y52.8490
G01 X2.5040 Y52.8150
G01 X2.5346 Y52.7289
G01 X2.5474 Y52.6957
G01 X2.5618 Y52.6631
G01 X2.5933 Y52.5966
G01 X2.6011 Y52.5806
G01 X2.6179 Y52.5492
G01 X2.6647 Y52.4707
G01 X2.6837 Y52.4407
G01 X2.7042 Y52.4116
G01 X2.7480 Y52.3524
G01 X2.7699 Y52.3244
G01 X2.7814 Y52.3108
G01 X2.8547 Y52.2299
G01 X2.8799 Y52.2047
G01 X2.8929 Y52.1926
G01 X2.9608 Y52.1314
G01 X2.9883 Y52.1088
G01 X3.0616 Y52.0542
G01 X3.0907 Y52.0337
G01 X3.1207 Y52.0147
G01 X3.1617 Y51.9901
G01 X3.1207 Y51.9656
G01 X3.0907 Y51.9465
G01 X3.0616 Y51.9261
G01 X2.9883 Y51.8714
G01 X2.9608 Y51.8489
G01 X2.8929 Y51.7876
G01 X2.8799 Y51.7755
G01 X2.8547 Y51.7504
G01 X2.7932 Y51.6828
G01 X2.7699 Y51.6559
G01 X2.7480 Y51.6278
G01 X2.7042 Y51.5687
G01 X2.6938 Y51.5543
G01 X2.6740 Y51.5247
G01 X2.6179 Y51.4310
G01 X2.6011 Y51.3996
G01 X2.5933 Y51.3836
G01 X2.5618 Y51.3171
G01 X2.5474 Y51.2846
G01 X2.5346 Y51.2514
G01 X2.5040 Y51.1653
G01 X2.4986 Y51.1483
G01 X2.4891 Y51.1140
G01 X2.4713 Y51.0426
G01 X2.4635 Y51.0079
G01 X2.4574 Y50.9728
G01 X2.4466 Y50.9000
G01 X2.4442 Y50.8824
G01 X2.4407 Y50.8470
G01 X2.4360 Y50.7557
G01 X2.4351 Y50.7201
G01 X2.4360 Y50.6846
G01 X2.4407 Y50.5933
G01 X2.4422 Y50.5755
G01 X2.4466 Y50.5402
G01 X2.4574 Y50.4674
G01 X2.4635 Y50.4324
G01 X2.4713 Y50.3976
G01 X2.4891 Y50.3263
G01 X2.4986 Y50.2920
G01 X2.5040 Y50.2750
G01 X2.5346 Y50.1889
G01 X2.5474 Y50.1557
G01 X2.5618 Y50.1231
G01 X2.5933 Y50.0566
G01 X2.6011 Y50.0406
G01 X2.6179 Y50.0092
G01 X2.6647 Y49.9307
G01 X2.6837 Y49.9007
G01 X2.7042 Y49.8716
G01 X2.7480 Y49.8124
G01 X2.7588 Y49.7983
G01 X2.7814 Y49.7708
G01 X2.8547 Y49.6899
G01 X2.8671 Y49.6771
G01 X2.8929 Y49.6526
G01 X2.9608 Y49.5914
G01 X2.9883 Y49.5688
G01 X3.0616 Y49.5142
G01 X3.0907 Y49.4937
G01 X3.1207 Y49.4747
G01 X3.1617 Y49.4501
G01 X3.1207 Y49.4256
G01 X3.0907 Y49.4065
G01 X3.0616 Y49.3861
G01 X2.9883 Y49.3314
G01 X2.9608 Y49.3089
G01 X2.8929 Y49.2476
G01 X2.8671 Y49.2231
G01 X2.8547 Y49.2104
G01 X2.7932 Y49.1428
G01 X2.7699 Y49.1159
G01 X2.7480 Y49.0878
G01 X2.7042 Y49.0287
G01 X2.6837 Y48.9996
G01 X2.6740 Y48.9847
G01 X2.6179 Y48.8910
G01 X2.6011 Y48.8596
G01 X2.5933 Y48.8436
G01 X2.5618 Y48.7771
G01 X2.5474 Y48.7446
G01 X2.5346 Y48.7114
G01 X2.5040 Y48.6253
G01 X2.4937 Y48.5912
G01 X2.4891 Y48.5740
G01 X2.4713 Y48.5026
G01 X2.4635 Y48.4679
G01 X2.4574 Y48.4328
G01 X2.4466 Y48.3600
G01 X2.4442 Y48.3424
G01 X2.4407 Y48.3070
G01 X2.4360 Y48.2157
G01 X2.4351 Y48.1801
G01 X2.4360 Y48.1446
G01 X2.4407 Y48.0533
G01 X2.4422 Y48.0355
G01 X2.4466 Y48.0002
G01 X2.4574 Y47.9274
G01 X2.4635 Y47.8924
G01 X2.4713 Y47.8576
G01 X2.4891 Y47.7863
G01 X2.4986 Y47.7520
G01 X2.5040 Y47.7350
G01 X2.5346 Y47.6489
G01 X2.5474 Y47.6157
G01 X2.5618 Y47.5831
G01 X2.5933 Y47.5166
G01 X2.6011 Y47.5006
G01 X2.6179 Y47.4692
G01 X2.6647 Y47.3907
G01 X2.6837 Y47.3607
G01 X2.7042 Y47.3316
G01 X2.7480 Y47.2724
G01 X2.7699 Y47.2444
G01 X2.7814 Y47.2308
G01 X2.8547 Y47.1499
G01 X2.8799 Y47.1247
G01 X2.8929 Y47.1126
G01 X2.9608 Y47.0514
G01 X2.9883 Y47.0288
G01 X3.0616 Y46.9742
G01 X3.0907 Y46.9537
G01 X3.1207 Y46.9347
G01 X3.1617 Y46.9101
G01 X3.1207 Y46.8856
G01 X3.0907 Y46.8665
G01 X3.0616 Y46.8461
G01 X2.9883 Y46.7914
G01 X2.9608 Y46.7689
G01 X2.8929 Y46.7076
G01 X2.8799 Y46.6955
G01 X2.8547 Y46.6704
G01 X2.7932 Y46.6028
G01 X2.7699 Y46.5759
G01 X2.7480 Y46.5478
G01 X2.7042 Y46.4887
G01 X2.6938 Y46.4743
G01 X2.6740 Y46.4447
G01 X2.6179 Y46.3510
G01 X2.6011 Y46.3196
G01 X2.5933 Y46.3036
G01 X2.5618 Y46.2371
G01 X2.5474 Y46.2046
G01 X2.5346 Y46.1714
G01 X2.5040 Y46.0853
G01 X2.4986 Y46.0683
G01 X2.4891 Y46.0340
G01 X2.4713 Y45.9626
G01 X2.4635 Y45.9279
G01 X2.4574 Y45.8928
G01 X2.4466 Y45.8200
G01 X2.4442 Y45.8024
G01 X2.4407 Y45.7670
G01 X2.4360 Y45.6757
G01 X2.4351 Y45.6401
G01 X2.4360 Y45.6046
G01 X2.4407 Y45.5133
G01 X2.4422 Y45.4955
G01 X2.4466 Y45.4602
G01 X2.4574 Y45.3874
G01 X2.4635 Y45.3524
G01 X2.4713 Y45.3176
G01 X2.4891 Y45.2463
G01 X2.4937 Y45.2290
G01 X2.5040 Y45.1950
G01 X2.5346 Y45.1089
G01 X2.5474 Y45.0757
G01 X2.5618 Y45.0431
G01 X2.5933 Y44.9766
G01 X2.6093 Y44.9448
G01 X2.6179 Y44.9292
G01 X2.6647 Y44.8507
G01 X2.6837 Y44.8207
G01 X2.7042 Y44.7916
G01 X2.7480 Y44.7324
G01 X2.7699 Y44.7044
G01 X2.7814 Y44.6908
G01 X2.8547 Y44.6099
G01 X2.8799 Y44.5847
G01 X2.8929 Y44.5726
G01 X2.9608 Y44.5114
G01 X2.9883 Y44.4888
G01 X3.0616 Y44.4342
G01 X3.0907 Y44.4137
G01 X3.1207 Y44.3947
G01 X3.1617 Y44.3701
G01 X3.1207 Y44.3456
G01 X3.0907 Y44.3265
G01 X3.0616 Y44.3061
G01 X2.9883 Y44.2514
G01 X2.9608 Y44.2289
G01 X2.8929 Y44.1676
G01 X2.8671 Y44.1431
G01 X2.8547 Y44.1304
G01 X2.7932 Y44.0628
G01 X2.7699 Y44.0359
G01 X2.7480 Y44.0078
G01 X2.7042 Y43.9487
G01 X2.6938 Y43.9343
G01 X2.6740 Y43.9047
G01 X2.6179 Y43.8110
G01 X2.6093 Y43.7954
G01 X2.5933 Y43.7636
G01 X2.5618 Y43.6971
G01 X2.5474 Y43.6646
G01 X2.5346 Y43.6314
G01 X2.5040 Y43.5453
G01 X2.4986 Y43.5283
G01 X2.4891 Y43.4940
G01 X2.4713 Y43.4226
G01 X2.4635 Y43.3879
G01 X2.4574 Y43.3528
G01 X2.4466 Y43.2800
G01 X2.4442 Y43.2624
G01 X2.4407 Y43.2270
G01 X2.4360 Y43.1357
G01 X2.4351 Y43.1001
G01 X2.4360 Y43.0646
G01 X2.4407 Y42.9733
G01 X2.4422 Y42.9555
G01 X2.4466 Y42.9202
G01 X2.4574 Y42.8474
G01 X2.4635 Y42.8124
G01 X2.4713 Y42.7776
G01 X2.4891 Y42.7063
G01 X2.4986 Y42.6720
G01 X2.5040 Y42.6550
G01 X2.5346 Y42.5689
G01 X2.5474 Y42.5357
G01 X2.5618 Y42.5031
G01 X2.5933 Y42.4366
G01 X2.6011 Y42.4206
G01 X2.6179 Y42.3892
G01 X2.6647 Y42.3107
G01 X2.6837 Y42.2807
G01 X2.7042 Y42.2516
G01 X2.7480 Y42.1924
G01 X2.7699 Y42.1644
G01 X2.7814 Y42.1508
G01 X2.8547 Y42.0699
G01 X2.8799 Y42.0447
G01 X2.8929 Y42.0326
G01 X2.9608 Y41.9714
G01 X2.9883 Y41.9488
G01 X3.0616 Y41.8942
G01 X3.0907 Y41.8737
G01 X3.1207 Y41.8547
G01 X3.1617 Y41.8301
G01 X3.1207 Y41.8056
G01 X3.0907 Y41.7865
G01 X3.0616 Y41.7661
G01 X2.9883 Y41.7114
G01 X2.9608 Y41.6889
G01 X2.8929 Y41.6276
G01 X2.8671 Y41.6031
G01 X2.8547 Y41.5904
G01 X2.7932 Y41.5228
G01 X2.7699 Y41.4959
G01 X2.7480 Y41.4678
G01 X2.7042 Y41.4087
G01 X2.6837 Y41.3796
G01 X2.6740 Y41.3647
G01 X2.6179 Y41.2710
G01 X2.6011 Y41.2396
G01 X2.5933 Y41.2236
G01 X2.5618 Y41.1571
G01 X2.5474 Y41.1246
G01 X2.5346 Y41.0914
G01 X2.5040 Y41.0053
G01 X2.4986 Y40.9883
G01 X2.4891 Y40.9540
G01 X2.4713 Y40.8826
G01 X2.4635 Y40.8479
G01 X2.4574 Y40.8128
G01 X2.4466 Y40.7400
G01 X2.4442 Y40.7224
G01 X2.4407 Y40.6870
G01 X2.4360 Y40.5957
G01 X2.4351 Y40.5601
G01 X2.4360 Y40.5246
G01 X2.4407 Y40.4333
G01 X2.4422 Y40.4155
G01 X2.4466 Y40.3802
G01 X2.4574 Y40.3074
G01 X2.4635 Y40.2724
G01 X2.4713 Y40.2376
G01 X2.4891 Y40.1663
G01 X2.4986 Y40.1320
G01 X2.5040 Y40.1150
G01 X2.5346 Y40.0289
G01 X2.5474 Y39.9957
G01 X2.5618 Y39.9631
G01 X2.5933 Y39.8966
G01 X2.6093 Y39.8648
G01 X2.6179 Y39.8492
G01 X2.6647 Y39.7707
G01 X2.6837 Y39.7407
G01 X2.7042 Y39.7116
G01 X2.7480 Y39.6524
G01 X2.7699 Y39.6244
G01 X2.7814 Y39.6108
G01 X2.8547 Y39.5299
G01 X2.8799 Y39.5047
G01 X2.8929 Y39.4926
G01 X2.9608 Y39.4314
G01 X2.9883 Y39.4088
G01 X3.0616 Y39.3542
G01 X3.0907 Y39.3337
G01 X3.1207 Y39.3147
G01 X3.1617 Y39.2901
G01 X3.1207 Y39.2656
G01 X3.0907 Y39.2465
G01 X3.0616 Y39.2261
G01 X2.9883 Y39.1714
G01 X2.9608 Y39.1489
G01 X2.8929 Y39.0876
G01 X2.8799 Y39.0755
G01 X2.8547 Y39.0504
G01 X2.7932 Y38.9828
G01 X2.7699 Y38.9559
G01 X2.7480 Y38.9278
G01 X2.7042 Y38.8687
G01 X2.6938 Y38.8543
G01 X2.6740 Y38.8247
G01 X2.6179 Y38.7310
G01 X2.6093 Y38.7154
G01 X2.5933 Y38.6836
G01 X2.5618 Y38.6171
G01 X2.5474 Y38.5846
G01 X2.5346 Y38.5514
G01 X2.5040 Y38.4653
G01 X2.4986 Y38.4483
G01 X2.4891 Y38.4140
G01 X2.4713 Y38.3426
G01 X2.4635 Y38.3079
G01 X2.4574 Y38.2728
G01 X2.4466 Y38.2000
G01 X2.4442 Y38.1824
G01 X2.4407 Y38.1470
G01 X2.4360 Y38.0557
G01 X2.4351 Y38.0201
G01 X2.4360 Y37.9846
G01 X2.4407 Y37.8933
G01 X2.4422 Y37.8755
G01 X2.4466 Y37.8402
G01 X2.4574 Y37.7674
G01 X2.4635 Y37.7324
G01 X2.4713 Y37.6976
G01 X2.4891 Y37.6263
G01 X2.4986 Y37.5920
G01 X2.5040 Y37.5750
G01 X2.5346 Y37.4889
G01 X2.5474 Y37.4557
G01 X2.5618 Y37.4231
G01 X2.5933 Y37.3566
G01 X2.6011 Y37.3406
G01 X2.6179 Y37.3092
G01 X2.6647 Y37.2307
G01 X2.6837 Y37.2007
G01 X2.7042 Y37.1716
G01 X2.7480 Y37.1124
G01 X2.7699 Y37.0844
G01 X2.7814 Y37.0708
G01 X2.8547 Y36.9899
G01 X2.8799 Y36.9647
G01 X2.8929 Y36.9526
G01 X2.9608 Y36.8914
G01 X2.9883 Y36.8688
G01 X3.0616 Y36.8142
G01 X3.0907 Y36.7937
G01 X3.1207 Y36.7747
G01 X3.1617 Y36.7501
G01 X3.1207 Y36.7256
G01 X3.0907 Y36.7065
G01 X3.0616 Y36.6861
G01 X2.9883 Y36.6314
G01 X2.9608 Y36.6089
G01 X2.8929 Y36.5476
G01 X2.8671 Y36.5231
G01 X2.8547 Y36.5104
G01 X2.7932 Y36.4428
G01 X2.7699 Y36.4159
G01 X2.7480 Y36.3878
G01 X2.7042 Y36.3287
G01 X2.6837 Y36.2996
G01 X2.6740 Y36.2847
G01 X2.6179 Y36.1910
G01 X2.6011 Y36.1596
G01 X2.5933 Y36.1436
G01 X2.5618 Y36.0771
G01 X2.5474 Y36.0446
G01 X2.5346 Y36.0114
G01 X2.5040 Y35.9253
G01 X2.4937 Y35.8912
G01 X2.4891 Y35.8740
G01 X2.4713 Y35.8026
G01 X2.4635 Y35.7679
G01 X2.4574 Y35.7328
G01 X2.4466 Y35.6600
G01 X2.4442 Y35.6424
G01 X2.4407 Y35.6070
G01 X2.4360 Y35.5157
G01 X2.4351 Y35.4801
G01 X2.4360 Y35.4446
G01 X2.4407 Y35.3533
G01 X2.4422 Y35.3355
G01 X2.4466 Y35.3002
G01 X2.4574 Y35.2274
G01 X2.4635 Y35.1924
G01 X2.4713 Y35.1576
G01 X2.4891 Y35.0863
G01 X2.4937 Y35.0690
G01 X2.5040 Y35.0350
G01 X2.5346 Y34.9489
G01 X2.5474 Y34.9157
G01 X2.5618 Y34.8831
G01 X2.5933 Y34.8166
G01 X2.6011 Y34.8006
G01 X2.6179 Y34.7692
G01 X2.6647 Y34.6907
G01 X2.6837 Y34.6607
G01 X2.7042 Y34.6316
G01 X2.7480 Y34.5724
G01 X2.7699 Y34.5444
G01 X2.7814 Y34.5308
G01 X2.8547 Y34.4499
G01 X2.8799 Y34.4247
G01 X2.8929 Y34.4126
G01 X2.9608 Y34.3514
G01 X2.9883 Y34.3288
G01 X3.0616 Y34.2742
G01 X3.0907 Y34.2537
G01 X3.1207 Y34.2347
G01 X3.1617 Y34.2101
G01 X3.1207 Y34.1856
G01 X3.0907 Y34.1665
G01 X3.0616 Y34.1461
G01 X2.9883 Y34.0914
G01 X2.9608 Y34.0689
G01 X2.8929 Y34.0076
G01 X2.8799 Y33.9955
G01 X2.8547 Y33.9704
G01 X2.7932 Y33.9028
G01 X2.7699 Y33.8759
G01 X2.7480 Y33.8478
G01 X2.7042 Y33.7887
G01 X2.6938 Y33.7743
G01 X2.6740 Y33.7447
G01 X2.6179 Y33.6510
G01 X2.6093 Y33.6354
G01 X2.5933 Y33.6036
G01 X2.5618 Y33.5371
G01 X2.5474 Y33.5046
G01 X2.5346 Y33.4714
G01 X2.5040 Y33.3853
G01 X2.4986 Y33.3683
G01 X2.4891 Y33.3340
G01 X2.4713 Y33.2626
G01 X2.4635 Y33.2279
G01 X2.4574 Y33.1928
G01 X2.4466 Y33.1200
G01 X2.4442 Y33.1024
G01 X2.4407 Y33.0670
G01 X2.4360 Y32.9757
G01 X2.4351 Y32.9401
G01 X2.4360 Y32.9046
G01 X2.4407 Y32.8133
G01 X2.4422 Y32.7955
G01 X2.4466 Y32.7602
G01 X2.4574 Y32.6874
G01 X2.4635 Y32.6524
G01 X2.4713 Y32.6176
G01 X2.4891 Y32.5463
G01 X2.4986 Y32.5120
G01 X2.5040 Y32.4950
G01 X2.5346 Y32.4089
G01 X2.5474 Y32.3757
G01 X2.5618 Y32.3431
G01 X2.5933 Y32.2766
G01 X2.6011 Y32.2606
G01 X2.6179 Y32.2292
G01 X2.6647 Y32.1507
G01 X2.6837 Y32.1207
G01 X2.7042 Y32.0916
G01 X2.7480 Y32.0324
G01 X2.7588 Y32.0183
G01 X2.7814 Y31.9908
G01 X2.8547 Y31.9099
G01 X2.8671 Y31.8971
G01 X2.8929 Y31.8726
G01 X2.9608 Y31.8114
G01 X2.9883 Y31.7888
G01 X3.0616 Y31.7342
G01 X3.0907 Y31.7137
G01 X3.1207 Y31.6947
G01 X3.1617 Y31.6701
G01 X3.1207 Y31.6456
G01 X3.0907 Y31.6265
G01 X3.0616 Y31.6061
G01 X2.9883 Y31.5514
G01 X2.9608 Y31.5289
G01 X2.8929 Y31.4676
G01 X2.8799 Y31.4555
G01 X2.8547 Y31.4304
G01 X2.7932 Y31.3628
G01 X2.7699 Y31.3359
G01 X2.7480 Y31.3078
G01 X2.7042 Y31.2487
G01 X2.6938 Y31.2343
G01 X2.6740 Y31.2047
G01 X2.6179 Y31.1110
G01 X2.6011 Y31.0796
G01 X2.5933 Y31.0636
G01 X2.5618 Y30.9971
G01 X2.5474 Y30.9646
G01 X2.5346 Y30.9314
G01 X2.5040 Y30.8453
G01 X2.4937 Y30.8112
G01 X2.4891 Y30.7940
G01 X2.4713 Y30.7226
G01 X2.4635 Y30.6879
G01 X2.4574 Y30.6528
G01 X2.4466 Y30.5800
G01 X2.4442 Y30.5624
G01 X2.4407 Y30.5270
G01 X2.4360 Y30.4357
G01 X2.4351 Y30.4001
G01 X2.4360 Y30.3646
G01 X2.4407 Y30.2733
G01 X2.4422 Y30.2555
G01 X2.4466 Y30.2202
G01 X2.4574 Y30.1474
G01 X2.4635 Y30.1124
G01 X2.4713 Y30.0776
G01 X2.4891 Y30.0063
G01 X2.4986 Y29.9720
G01 X2.5040 Y29.9550
G01 X2.5346 Y29.8689
G01 X2.5474 Y29.8357
G01 X2.5618 Y29.8031
G01 X2.5933 Y29.7366
G01 X2.6011 Y29.7206
G01 X2.6179 Y29.6892
G01 X2.6647 Y29.6107
G01 X2.6837 Y29.5807
G01 X2.7042 Y29.5516
G01 X2.7480 Y29.4924
G01 X2.7588 Y29.4783
G01 X2.7814 Y29.4508
G01 X2.8547 Y29.3699
G01 X2.8671 Y29.3571
G01 X2.8929 Y29.3326
G01 X2.9608 Y29.2714
G01 X2.9883 Y29.2488
G01 X3.0616 Y29.1942
G01 X3.0907 Y29.1737
G01 X3.1207 Y29.1547
G01 X3.1617 Y29.1301
G01 X3.1207 Y29.1056
G01 X3.0907 Y29.0865
G01 X3.0616 Y29.0661
G01 X2.9883 Y29.0114
G01 X2.9608 Y28.9889
G01 X2.8929 Y28.9276
G01 X2.8799 Y28.9155
G01 X2.8547 Y28.8904
G01 X2.7932 Y28.8228
G01 X2.7699 Y28.7959
G01 X2.7480 Y28.7678
G01 X2.7042 Y28.7087
G01 X2.6837 Y28.6796
G01 X2.6740 Y28.6647
G01 X2.6179 Y28.5710
G01 X2.6093 Y28.5554
G01 X2.5933 Y28.5236
G01 X2.5618 Y28.4571
G01 X2.5474 Y28.4246
G01 X2.5346 Y28.3914
G01 X2.5040 Y28.3053
G01 X2.4986 Y28.2883
G01 X2.4891 Y28.2540
G01 X2.4713 Y28.1826
G01 X2.4635 Y28.1479
G01 X2.4574 Y28.1128
G01 X2.4466 Y28.0400
G01 X2.4422 Y28.0047
G01 X2.4407 Y27.9870
G01 X2.4360 Y27.8957
G01 X2.4351 Y27.8601
G01 X2.4360 Y27.8246
G01 X2.4407 Y27.7333
G01 X2.4442 Y27.6979
G01 X2.4466 Y27.6802
G01 X2.4574 Y27.6074
G01 X2.4635 Y27.5724
G01 X2.4713 Y27.5376
G01 X2.4891 Y27.4663
G01 X2.4986 Y27.4320
G01 X2.5040 Y27.4150
G01 X2.5346 Y27.3289
G01 X2.5474 Y27.2957
G01 X2.5618 Y27.2631
G01 X2.5933 Y27.1966
G01 X2.6011 Y27.1806
G01 X2.6179 Y27.1492
G01 X2.6647 Y27.0707
G01 X2.6837 Y27.0407
G01 X2.7042 Y27.0116
G01 X2.7480 Y26.9524
G01 X2.7588 Y26.9383
G01 X2.7814 Y26.9108
G01 X2.8547 Y26.8299
G01 X2.8671 Y26.8171
G01 X2.8929 Y26.7926
G01 X2.9608 Y26.7314
G01 X2.9883 Y26.7088
G01 X3.0616 Y26.6542
G01 X3.0907 Y26.6337
G01 X3.1207 Y26.6147
G01 X3.1617 Y26.5901
G01 X3.1207 Y26.5656
G01 X3.0907 Y26.5465
G01 X3.0616 Y26.5261
G01 X2.9883 Y26.4714
G01 X2.9608 Y26.4489
G01 X2.8929 Y26.3876
G01 X2.8799 Y26.3755
G01 X2.8547 Y26.3504
G01 X2.7932 Y26.2828
G01 X2.7699 Y26.2559
G01 X2.7480 Y26.2278
G01 X2.7042 Y26.1687
G01 X2.6938 Y26.1543
G01 X2.6740 Y26.1247
G01 X2.6179 Y26.0310
G01 X2.6011 Y25.9996
G01 X2.5933 Y25.9836
G01 X2.5618 Y25.9171
G01 X2.5474 Y25.8846
G01 X2.5346 Y25.8514
G01 X2.5040 Y25.7653
G01 X2.4986 Y25.7483
G01 X2.4891 Y25.7140
G01 X2.4713 Y25.6426
G01 X2.4635 Y25.6079
G01 X2.4574 Y25.5728
G01 X2.4466 Y25.5000
G01 X2.4422 Y25.4647
G01 X2.4407 Y25.4470
G01 X2.4360 Y25.3557
G01 X2.4351 Y25.3201
G01 X2.4360 Y25.2846
G01 X2.4407 Y25.1933
G01 X2.4422 Y25.1755
G01 X2.4466 Y25.1402
G01 X2.4574 Y25.0674
G01 X2.4635 Y25.0324
G01 X2.4713 Y24.9976
G01 X2.4891 Y24.9263
G01 X2.4986 Y24.8920
G01 X2.5040 Y24.8750
G01 X2.5346 Y24.7889
G01 X2.5474 Y24.7557
G01 X2.5618 Y24.7231
G01 X2.5933 Y24.6566
G01 X2.6011 Y24.6406
G01 X2.6179 Y24.6092
G01 X2.6647 Y24.5307
G01 X2.6837 Y24.5007
G01 X2.7042 Y24.4716
G01 X2.7480 Y24.4124
G01 X2.7588 Y24.3983
G01 X2.7814 Y24.3708
G01 X2.8547 Y24.2899
G01 X2.8671 Y24.2771
G01 X2.8929 Y24.2526
G01 X2.9608 Y24.1914
G01 X2.9883 Y24.1688
G01 X3.0616 Y24.1142
G01 X3.0907 Y24.0937
G01 X3.1207 Y24.0747
G01 X3.1617 Y24.0501
G01 X3.1207 Y24.0256
G01 X3.0907 Y24.0065
G01 X3.0616 Y23.9861
G01 X2.9883 Y23.9314
G01 X2.9608 Y23.9089
G01 X2.8929 Y23.8476
G01 X2.8799 Y23.8355
G01 X2.8547 Y23.8104
G01 X2.7932 Y23.7428
G01 X2.7699 Y23.7159
G01 X2.7480 Y23.6878
G01 X2.7042 Y23.6287
G01 X2.6837 Y23.5996
G01 X2.6740 Y23.5847
G01 X2.6179 Y23.4910
G01 X2.6093 Y23.4754
G01 X2.5933 Y23.4436
G01 X2.5618 Y23.3771
G01 X2.5474 Y23.3446
G01 X2.5346 Y23.3114
G01 X2.5040 Y23.2253
G01 X2.4937 Y23.1912
G01 X2.4891 Y23.1740
G01 X2.4713 Y23.1026
G01 X2.4635 Y23.0679
G01 X2.4574 Y23.0328
G01 X2.4466 Y22.9600
G01 X2.4442 Y22.9424
G01 X2.4407 Y22.9070
G01 X2.4360 Y22.8157
G01 X2.4351 Y22.7801
G01 X2.4360 Y22.7446
G01 X2.4407 Y22.6533
G01 X2.4442 Y22.6179
G01 X2.4466 Y22.6002
G01 X2.4574 Y22.5274
G01 X2.4635 Y22.4924
G01 X2.4713 Y22.4576
G01 X2.4891 Y22.3863
G01 X2.4937 Y22.3690
G01 X2.5040 Y22.3350
G01 X2.5346 Y22.2489
G01 X2.5474 Y22.2157
G01 X2.5618 Y22.1831
G01 X2.5933 Y22.1166
G01 X2.6011 Y22.1006
G01 X2.6179 Y22.0692
G01 X2.6740 Y21.9756
G01 X2.6938 Y21.9460
G01 X2.7042 Y21.9316
G01 X2.7480 Y21.8724
G01 X2.7699 Y21.8444
G01 X2.7932 Y21.8174
G01 X2.8547 Y21.7499
G01 X2.8671 Y21.7371
G01 X2.8929 Y21.7126
G01 X2.9608 Y21.6514
G01 X2.9883 Y21.6288
G01 X3.0616 Y21.5742
G01 X3.0907 Y21.5537
G01 X3.1207 Y21.5347
G01 X3.1617 Y21.5101
G01 X3.1207 Y21.4856
G01 X3.0907 Y21.4665
G01 X3.0616 Y21.4461
G01 X2.9883 Y21.3914
G01 X2.9608 Y21.3689
G01 X2.8929 Y21.3076
G01 X2.8799 Y21.2955
G01 X2.8547 Y21.2704
G01 X2.7932 Y21.2028
G01 X2.7699 Y21.1759
G01 X2.7480 Y21.1478
G01 X2.7042 Y21.0887
G01 X2.6938 Y21.0743
G01 X2.6740 Y21.0447
G01 X2.6179 Y20.9510
G01 X2.6093 Y20.9354
G01 X2.5933 Y20.9036
G01 X2.5618 Y20.8371
G01 X2.5474 Y20.8046
G01 X2.5346 Y20.7714
G01 X2.5040 Y20.6853
G01 X2.4986 Y20.6683
G01 X2.4891 Y20.6340
G01 X2.4713 Y20.5626
G01 X2.4635 Y20.5279
G01 X2.4574 Y20.4928
G01 X2.4466 Y20.4200
G01 X2.4442 Y20.4024
G01 X2.4407 Y20.3670
G01 X2.4360 Y20.2757
G01 X2.4351 Y20.2401
G01 X2.4360 Y20.2046
G01 X2.4407 Y20.1133
G01 X2.4442 Y20.0779
G01 X2.4466 Y20.0602
G01 X2.4574 Y19.9874
G01 X2.4635 Y19.9524
G01 X2.4713 Y19.9176
G01 X2.4891 Y19.8463
G01 X2.4986 Y19.8120
G01 X2.5040 Y19.7950
G01 X2.5346 Y19.7089
G01 X2.5474 Y19.6757
G01 X2.5618 Y19.6431
G01 X2.5933 Y19.5766
G01 X2.6011 Y19.5606
G01 X2.6179 Y19.5292
G01 X2.6740 Y19.4356
G01 X2.6938 Y19.4060
G01 X2.7042 Y19.3916
G01 X2.7480 Y19.3324
G01 X2.7699 Y19.3044
G01 X2.7932 Y19.2774
G01 X2.8547 Y19.2099
G01 X2.8671 Y19.1971
G01 X2.8929 Y19.1726
G01 X2.9608 Y19.1114
G01 X2.9883 Y19.0888
G01 X3.0616 Y19.0342
G01 X3.0907 Y19.0137
G01 X3.1207 Y18.9947
G01 X3.1617 Y18.9701
G01 X3.1207 Y18.9456
G01 X3.0907 Y18.9265
G01 X3.0616 Y18.9061
G01 X2.9883 Y18.8514
G01 X2.9608 Y18.8289
G01 X2.8929 Y18.7676
G01 X2.8799 Y18.7555
G01 X2.8547 Y18.7304
G01 X2.7932 Y18.6628
G01 X2.7699 Y18.6359
G01 X2.7480 Y18.6078
G01 X2.7042 Y18.5487
G01 X2.6938 Y18.5343
G01 X2.6740 Y18.5047
G01 X2.6179 Y18.4110
G01 X2.6011 Y18.3796
G01 X2.5933 Y18.3636
G01 X2.5618 Y18.2971
G01 X2.5474 Y18.2646
G01 X2.5346 Y18.2314
G01 X2.5040 Y18.1453
G01 X2.4937 Y18.1112
G01 X2.4891 Y18.0940
G01 X2.4713 Y18.0226
G01 X2.4635 Y17.9879
G01 X2.4574 Y17.9528
G01 X2.4466 Y17.8800
G01 X2.4442 Y17.8624
G01 X2.4407 Y17.8270
G01 X2.4360 Y17.7357
G01 X2.4351 Y17.7001
G01 X2.4360 Y17.6646
G01 X2.4407 Y17.5733
G01 X2.4422 Y17.5555
G01 X2.4466 Y17.5202
G01 X2.4574 Y17.4474
G01 X2.4635 Y17.4124
G01 X2.4713 Y17.3776
G01 X2.4891 Y17.3063
G01 X2.4937 Y17.2890
G01 X2.5040 Y17.2550
G01 X2.5346 Y17.1689
G01 X2.5474 Y17.1357
G01 X2.5618 Y17.1031
G01 X2.5933 Y17.0366
G01 X2.6011 Y17.0206
G01 X2.6179 Y16.9892
G01 X2.6740 Y16.8956
G01 X2.6837 Y16.8807
G01 X2.7042 Y16.8516
G01 X2.7480 Y16.7924
G01 X2.7699 Y16.7644
G01 X2.7932 Y16.7374
G01 X2.8547 Y16.6699
G01 X2.8671 Y16.6571
G01 X2.8929 Y16.6326
G01 X2.9608 Y16.5714
G01 X2.9883 Y16.5488
G01 X3.0616 Y16.4942
G01 X3.0907 Y16.4737
G01 X3.1207 Y16.4547
G01 X3.1617 Y16.4301
G01 X3.1207 Y16.4056
G01 X3.0907 Y16.3865
G01 X3.0616 Y16.3661
G01 X2.9883 Y16.3114
G01 X2.9608 Y16.2889
G01 X2.8929 Y16.2276
G01 X2.8799 Y16.2155
G01 X2.8547 Y16.1904
G01 X2.7932 Y16.1228
G01 X2.7699 Y16.0959
G01 X2.7480 Y16.0678
G01 X2.7042 Y16.0087
G01 X2.6837 Y15.9796
G01 X2.6740 Y15.9647
G01 X2.6179 Y15.8710
G01 X2.6093 Y15.8554
G01 X2.5933 Y15.8236
G01 X2.5618 Y15.7571
G01 X2.5474 Y15.7246
G01 X2.5346 Y15.6914
G01 X2.5040 Y15.6053
G01 X2.4986 Y15.5883
G01 X2.4891 Y15.5540
G01 X2.4713 Y15.4826
G01 X2.4635 Y15.4479
G01 X2.4574 Y15.4128
G01 X2.4466 Y15.3400
G01 X2.4422 Y15.3047
G01 X2.4407 Y15.2870
G01 X2.4360 Y15.1957
G01 X2.4351 Y15.1601
G01 X2.4360 Y15.1246
G01 X2.4407 Y15.0333
G01 X2.4422 Y15.0155
G01 X2.4466 Y14.9802
G01 X2.4574 Y14.9074
G01 X2.4635 Y14.8724
G01 X2.4713 Y14.8376
G01 X2.4891 Y14.7663
G01 X2.4986 Y14.7320
G01 X2.5040 Y14.7150
G01 X2.5346 Y14.6289
G01 X2.5474 Y14.5957
G01 X2.5618 Y14.5631
G01 X2.5933 Y14.4966
G01 X2.6093 Y14.4648
G01 X2.6179 Y14.4492
G01 X2.6740 Y14.3556
G01 X2.6938 Y14.3260
G01 X2.7042 Y14.3116
G01 X2.7480 Y14.2524
G01 X2.7699 Y14.2244
G01 X2.7932 Y14.1974
G01 X2.8547 Y14.1299
G01 X2.8671 Y14.1171
G01 X2.8929 Y14.0926
G01 X2.9608 Y14.0314
G01 X2.9883 Y14.0088
G01 X3.0616 Y13.9542
G01 X3.0907 Y13.9337
G01 X3.1207 Y13.9147
G01 X3.1617 Y13.8901
G01 X3.1207 Y13.8656
G01 X3.0907 Y13.8465
G01 X3.0616 Y13.8261
G01 X2.9883 Y13.7714
G01 X2.9608 Y13.7489
G01 X2.8929 Y13.6876
G01 X2.8799 Y13.6755
G01 X2.8547 Y13.6504
G01 X2.7932 Y13.5828
G01 X2.7699 Y13.5559
G01 X2.7480 Y13.5278
G01 X2.7042 Y13.4687
G01 X2.6837 Y13.4396
G01 X2.6740 Y13.4247
G01 X2.6179 Y13.3310
G01 X2.6093 Y13.3154
G01 X2.5933 Y13.2836
G01 X2.5618 Y13.2171
G01 X2.5474 Y13.1846
G01 X2.5346 Y13.1514
G01 X2.5040 Y13.0653
G01 X2.4986 Y13.0483
G01 X2.4891 Y13.0140
G01 X2.4713 Y12.9426
G01 X2.4635 Y12.9079
G01 X2.4574 Y12.8728
G01 X2.4466 Y12.8000
G01 X2.4422 Y12.7647
G01 X2.4407 Y12.7470
G01 X2.4360 Y12.6557
G01 X2.4351 Y12.6201
G01 X2.4360 Y12.5846
G01 X2.4407 Y12.4933
G01 X2.4422 Y12.4755
G01 X2.4466 Y12.4402
G01 X2.4574 Y12.3674
G01 X2.4635 Y12.3324
G01 X2.4713 Y12.2976
G01 X2.4891 Y12.2263
G01 X2.4937 Y12.2090
G01 X2.5040 Y12.1750
G01 X2.5346 Y12.0889
G01 X2.5474 Y12.0557
G01 X2.5618 Y12.0231
G01 X2.5933 Y11.9566
G01 X2.6093 Y11.9248
G01 X2.6179 Y11.9092
G01 X2.6740 Y11.8156
G01 X2.6938 Y11.7860
G01 X2.7042 Y11.7716
G01 X2.7480 Y11.7124
G01 X2.7699 Y11.6844
G01 X2.7932 Y11.6574
G01 X2.8547 Y11.5899
G01 X2.8671 Y11.5771
G01 X2.8929 Y11.5526
G01 X2.9608 Y11.4914
G01 X2.9883 Y11.4688
G01 X3.0616 Y11.4142
G01 X3.0907 Y11.3937
G01 X3.1207 Y11.3747
G01 X3.1617 Y11.3501
G01 X3.1207 Y11.3256
G01 X3.0907 Y11.3065
G01 X3.0616 Y11.2861
G01 X2.9883 Y11.2314
G01 X2.9608 Y11.2089
G01 X2.8929 Y11.1476
G01 X2.8799 Y11.1355
G01 X2.8547 Y11.1104
G01 X2.7932 Y11.0428
G01 X2.7699 Y11.0159
G01 X2.7480 Y10.9878
G01 X2.7042 Y10.9287
G01 X2.6837 Y10.8996
G01 X2.6740 Y10.8847
G01 X2.6179 Y10.7910
G01 X2.6011 Y10.7596
G01 X2.5933 Y10.7436
G01 X2.5618 Y10.6771
G01 X2.5474 Y10.6446
G01 X2.5346 Y10.6114
G01 X2.5040 Y10.5253
G01 X2.4937 Y10.4912
G01 X2.4891 Y10.4740
G01 X2.4713 Y10.4026
G01 X2.4635 Y10.3679
G01 X2.4574 Y10.3328
G01 X2.4466 Y10.2600
G01 X2.4422 Y10.2247
G01 X2.4407 Y10.2070
G01 X2.4360 Y10.1157
G01 X2.4351 Y10.0801
G01 X2.4360 Y10.0446
G01 X2.4407 Y9.9533
G01 X2.4422 Y9.9355
G01 X2.4466 Y9.9002
G01 X2.4574 Y9.8274
G01 X2.4635 Y9.7924
G01 X2.4713 Y9.7576
G01 X2.4891 Y9.6863
G01 X2.4986 Y9.6520
G01 X2.5040 Y9.6350
G01 X2.5346 Y9.5489
G01 X2.5474 Y9.5157
G01 X2.5618 Y9.4831
G01 X2.5933 Y9.4166
G01 X2.6093 Y9.3848
G01 X2.6179 Y9.3692
G01 X2.6740 Y9.2756
G01 X2.6837 Y9.2607
G01 X2.7042 Y9.2316
G01 X2.7480 Y9.1724
G01 X2.7699 Y9.1444
G01 X2.7932 Y9.1174
G01 X2.8547 Y9.0499
G01 X2.8671 Y9.0371
G01 X2.8929 Y9.0126
G01 X2.9608 Y8.9514
G01 X2.9883 Y8.9288
G01 X3.0616 Y8.8742
G01 X3.0907 Y8.8537
G01 X3.1207 Y8.8347
G01 X3.1617 Y8.8101
G01 X3.1207 Y8.7856
G01 X3.0907 Y8.7665
G01 X3.0616 Y8.7461
G01 X2.9883 Y8.6914
G01 X2.9608 Y8.6689
G01 X2.8929 Y8.6076
G01 X2.8799 Y8.5955
G01 X2.8547 Y8.5704
G01 X2.7932 Y8.5028
G01 X2.7699 Y8.4759
G01 X2.7480 Y8.4478
G01 X2.7042 Y8.3887
G01 X2.6837 Y8.3596
G01 X2.6740 Y8.3447
G01 X2.6179 Y8.2510
G01 X2.6011 Y8.2196
G01 X2.5933 Y8.2036
G01 X2.5618 Y8.1371
G01 X2.5474 Y8.1046
G01 X2.5346 Y8.0714
G01 X2.5040 Y7.9853
G01 X2.4937 Y7.9512
G01 X2.4891 Y7.9340
G01 X2.4713 Y7.8626
G01 X2.4635 Y7.8279
G01 X2.4574 Y7.7928
G01 X2.4442 Y7.7024
G01 X2.4422 Y7.6847
G01 X2.4396 Y7.6492
G01 X2.4353 Y7.5579
G01 X2.4353 Y7.5223
G01 X2.4396 Y7.4310
G01 X2.4422 Y7.3955
G01 X2.4466 Y7.3602
G01 X2.4574 Y7.2874
G01 X2.4602 Y7.2699
G01 X2.4672 Y7.2350
G01 X2.4891 Y7.1463
G01 X2.4986 Y7.1120
G01 X2.5098 Y7.0782
G01 X2.5408 Y6.9922
G01 X2.5544 Y6.9593
G01 X2.5618 Y6.9431
G01 X2.5933 Y6.8766
G01 X2.6093 Y6.8448
G01 X2.6268 Y6.8139
G01 X2.6647 Y6.7507
G01 X2.6837 Y6.7207
G01 X2.6938 Y6.7060
G01 X2.7480 Y6.6324
G01 X2.7699 Y6.6044
G01 X2.7932 Y6.5774
G01 X2.8426 Y6.5229
G01 X2.8547 Y6.5099
G01 X2.8799 Y6.4847
G01 X2.9474 Y6.4232
G01 X2.9744 Y6.3999
G01 X3.0024 Y6.3780
G01 X3.0616 Y6.3342
G01 X3.0760 Y6.3238
G01 X3.1056 Y6.3040
G01 X3.1839 Y6.2568
G01 X3.2148 Y6.2393
G01 X3.2466 Y6.2233
G01 X3.3131 Y6.1918
G01 X3.3457 Y6.1774
G01 X3.3789 Y6.1646
G01 X3.4482 Y6.1398
G01 X3.4820 Y6.1286
G01 X3.5163 Y6.1191
G01 X3.5876 Y6.1013
G01 X3.6224 Y6.0935
G01 X3.6574 Y6.0874
G01 X3.7302 Y6.0766
G01 X3.7655 Y6.0722
G01 X3.8010 Y6.0696
G01 X3.8746 Y6.0660
G01 X3.9101 Y6.0651
G01 X5.1256 Y6.0651
G01 X3.5356 Y4.4751
G01 X3.3423 Y4.4749
G01 X3.3068 Y4.4732
G01 X3.2891 Y4.4716
G01 X3.2537 Y4.4673
G01 X3.2362 Y4.4645
G01 X3.2013 Y4.4575
G01 X3.1668 Y4.4489
G01 X3.1497 Y4.4439
G01 X3.1327 Y4.4385
G01 X3.0992 Y4.4265
G01 X3.0827 Y4.4199
G01 X3.0501 Y4.4055
G01 X3.0184 Y4.3895
G01 X3.0028 Y4.3809
G01 X2.9874 Y4.3720
G01 X2.9573 Y4.3529
G01 X2.9282 Y4.3325
G01 X2.9141 Y4.3217
G01 X2.8866 Y4.2991
G01 X2.8602 Y4.2752
G01 X2.8475 Y4.2628
G01 X2.8229 Y4.2370
G01 X2.8111 Y4.2237
G01 X2.7886 Y4.1962
G01 X2.7674 Y4.1676
G01 X2.7476 Y4.1380
G01 X2.7293 Y4.1075
G01 X2.7207 Y4.0919
G01 X2.7047 Y4.0601
G01 X2.6903 Y4.0276
G01 X2.6837 Y4.0110
G01 X2.6717 Y3.9775
G01 X2.6614 Y3.9435
G01 X2.6527 Y3.9090
G01 X2.6458 Y3.8741
G01 X2.6430 Y3.8565
G01 X2.6386 Y3.8212
G01 X2.6360 Y3.7857
G01 X2.6351 Y3.7501
G01 X2.6351 Y1.9501
G01 X2.6360 Y1.9146
G01 X2.6386 Y1.8791
G01 X2.6406 Y1.8614
G01 X2.6458 Y1.8262
G01 X2.6491 Y1.8087
G01 X2.6569 Y1.7740
G01 X2.6663 Y1.7397
G01 X2.6775 Y1.7059
G01 X2.6837 Y1.6892
G01 X2.6903 Y1.6727
G01 X2.7047 Y1.6401
G01 X2.7207 Y1.6084
G01 X2.7383 Y1.5774
G01 X2.7476 Y1.5623
G01 X2.7674 Y1.5327
G01 X2.7886 Y1.5041
G01 X2.8111 Y1.4766
G01 X2.8229 Y1.4632
G01 X2.8475 Y1.4375
G01 X2.8732 Y1.4129
G01 X2.9002 Y1.3897
G01 X2.9282 Y1.3678
G01 X2.9573 Y1.3473
G01 X2.9723 Y1.3376
G01 X3.0028 Y1.3193
G01 X3.0184 Y1.3107
G01 X3.0501 Y1.2947
G01 X3.0827 Y1.2803
G01 X3.1159 Y1.2675
G01 X3.1497 Y1.2563
G01 X3.1840 Y1.2469
G01 X3.2187 Y1.2391
G01 X3.2362 Y1.2358
G01 X3.2714 Y1.2306
G01 X3.2891 Y1.2286
G01 X3.3246 Y1.2260
G01 X3.3601 Y1.2251
G01 X4.8601 Y1.2251
G01 X4.8957 Y1.2260
G01 X4.9312 Y1.2286
G01 X4.9489 Y1.2306
G01 X4.9665 Y1.2330
G01 X5.0016 Y1.2391
G01 X5.0190 Y1.2427
G01 X5.0535 Y1.2514
G01 X5.0706 Y1.2563
G01 X5.1044 Y1.2675
G01 X5.1210 Y1.2737
G01 X5.1539 Y1.2873
G01 X5.1701 Y1.2947
G01 X5.2019 Y1.3107
G01 X5.2328 Y1.3283
G01 X5.2480 Y1.3376
G01 X5.2629 Y1.3473
G01 X5.2920 Y1.3678
G01 X5.3062 Y1.3786
G01 X5.3337 Y1.4011
G01 X5.3600 Y1.4250
G01 X5.3728 Y1.4375
G01 X5.3973 Y1.4632
G01 X5.4091 Y1.4766
G01 X5.4206 Y1.4902
G01 X5.4425 Y1.5182
G01 X5.4629 Y1.5473
G01 X5.4726 Y1.5623
G01 X5.4909 Y1.5928
G01 X5.4995 Y1.6084
G01 X5.5077 Y1.6242
G01 X5.5229 Y1.6563
G01 X5.5365 Y1.6892
G01 X5.5480 Y1.7211
G00 Z1.0000
G00 X6.5974 Y1.8276
G01 F60.00
G01 Z-0.1418
G01 F120.00
G01 X7.0847 Y1.3404
G01 X7.1378 Y1.2924
G01 X7.1952 Y1.2497
G01 X7.2029 Y1.2447
G01 X7.2564 Y1.2126
G01 X7.2672 Y1.2068
G01 X7.3292 Y1.1777
G01 X7.3994 Y1.1525
G01 X7.4658 Y1.1358
G01 X7.4778 Y1.1334
G01 X7.5456 Y1.1235
G01 X7.6171 Y1.1198
G01 X32.3832 Y1.1198
G01 X32.4546 Y1.1235
G01 X32.5224 Y1.1334
G01 X32.5344 Y1.1358
G01 X32.6008 Y1.1525
G01 X32.6654 Y1.1755
G01 X32.6767 Y1.1802
G01 X32.7385 Y1.2096
G01 X32.8000 Y1.2463
G01 X32.8076 Y1.2515
G01 X32.8625 Y1.2924
G01 X32.9156 Y1.3404
G01 X33.2026 Y1.6273
G01 X33.2440 Y1.6253
G01 X33.2532 Y1.6252
G01 X33.3543 Y1.6301
G01 X33.3634 Y1.6309
G01 X33.4696 Y1.6467
G01 X33.5708 Y1.6719
G01 X33.5796 Y1.6745
G01 X33.6806 Y1.7108
G01 X33.7804 Y1.7580
G01 X33.8751 Y1.8147
G01 X33.9638 Y1.8805
G01 X34.0456 Y1.9546
G01 X34.1158 Y2.0318
G01 X34.1235 Y2.0413
G01 X34.1855 Y2.1251
G01 X34.2393 Y2.2145
G01 X34.2450 Y2.2253
G01 X34.2870 Y2.3140
G01 X34.2917 Y2.3253
G01 X34.3267 Y2.4236
G01 X34.3535 Y2.5306
G01 X34.3697 Y2.6399
G01 X34.3750 Y2.7440
G01 X34.3751 Y2.7532
G01 X34.3697 Y2.8604
G01 X34.3535 Y2.9696
G01 X34.3267 Y3.0767
G01 X34.2895 Y3.1806
G01 X34.2423 Y3.2804
G01 X34.1855 Y3.3751
G01 X34.1198 Y3.4638
G01 X34.0456 Y3.5456
G01 X33.9638 Y3.6198
G01 X33.8751 Y3.6855
G01 X33.7804 Y3.7423
G01 X33.6806 Y3.7895
G01 X33.5767 Y3.8267
G01 X33.4696 Y3.8535
G01 X33.3604 Y3.8697
G01 X33.2563 Y3.8750
G01 X33.2471 Y3.8751
G01 X33.1399 Y3.8697
G01 X33.0306 Y3.8535
G01 X32.9236 Y3.8267
G01 X32.8196 Y3.7895
G01 X32.7198 Y3.7423
G01 X32.6251 Y3.6855
G01 X32.5364 Y3.6198
G01 X32.4591 Y3.5499
G01 X32.4525 Y3.5434
G01 X32.3805 Y3.4638
G01 X32.3147 Y3.3751
G01 X32.2580 Y3.2804
G01 X32.2120 Y3.1835
G01 X32.2086 Y3.1749
G01 X32.1736 Y3.0767
G01 X32.1481 Y2.9756
G01 X32.1462 Y2.9666
G01 X32.1313 Y2.8665
G01 X32.1303 Y2.8573
G01 X32.1252 Y2.7532
G01 X32.1253 Y2.7440
G01 X32.1273 Y2.7026
G01 X32.0652 Y2.6404
G01 X26.2904 Y2.6404
G01 X26.2904 Y3.7241
G01 X26.3009 Y3.7388
G01 X26.3459 Y3.8141
G01 X26.3822 Y3.8905
G01 X26.3869 Y3.9019
G01 X26.4153 Y3.9816
G01 X26.4360 Y4.0637
G01 X26.4384 Y4.0757
G01 X26.4499 Y4.1534
G01 X26.4511 Y4.1656
G01 X26.4551 Y4.2501
G01 X26.4550 Y4.6563
G01 X26.4511 Y4.7347
G01 X26.4499 Y4.7469
G01 X26.4374 Y4.8306
G01 X26.4169 Y4.9127
G01 X26.4134 Y4.9245
G01 X26.3869 Y4.9984
G01 X26.3822 Y5.0097
G01 X26.3459 Y5.0862
G01 X26.2992 Y5.1640
G01 X26.2452 Y5.2369
G01 X26.1884 Y5.2998
G01 X26.1798 Y5.3084
G01 X26.1216 Y5.3612
G01 X26.1121 Y5.3689
G01 X26.0440 Y5.4192
G01 X25.9662 Y5.4659
G01 X25.8841 Y5.5047
G01 X25.8045 Y5.5334
G01 X25.7927 Y5.5369
G01 X25.7166 Y5.5560
G01 X25.7045 Y5.5584
G01 X25.6208 Y5.5707
G01 X25.5301 Y5.5751
G01 X25.4395 Y5.5707
G01 X25.3557 Y5.5584
G01 X25.3437 Y5.5560
G01 X25.2675 Y5.5369
G01 X25.2558 Y5.5334
G01 X25.1761 Y5.5047
G01 X25.0941 Y5.4659
G01 X25.0162 Y5.4192
G01 X24.9481 Y5.3689
G01 X24.9387 Y5.3612
G01 X24.8805 Y5.3084
G01 X24.8718 Y5.2998
G01 X24.8151 Y5.2369
G01 X24.7610 Y5.1640
G01 X24.7143 Y5.0862
G01 X24.6780 Y5.0097
G01 X24.6733 Y4.9984
G01 X24.6469 Y4.9245
G01 X24.6433 Y4.9127
G01 X24.6229 Y4.8306
G01 X24.6103 Y4.7469
G01 X24.6091 Y4.7347
G01 X24.6053 Y4.6563
G01 X24.6051 Y4.2501
G01 X24.6091 Y4.1656
G01 X24.6103 Y4.1534
G01 X24.6218 Y4.0757
G01 X24.6242 Y4.0637
G01 X24.6450 Y3.9816
G01 X24.6733 Y3.9019
G01 X24.6780 Y3.8905
G01 X24.7143 Y3.8141
G01 X24.7593 Y3.7388
G01 X24.7698 Y3.7241
G01 X24.7698 Y2.6404
G01 X14.3104 Y2.6404
G01 X14.3104 Y17.1001
G01 X14.3068 Y17.1746
G01 X14.2969 Y17.2424
G01 X14.2945 Y17.2544
G01 X14.2793 Y17.3149
G01 X14.2758 Y17.3267
G01 X14.2526 Y17.3911
G01 X14.2207 Y17.4585
G01 X14.1856 Y17.5174
G01 X14.1788 Y17.5276
G01 X14.1379 Y17.5825
G01 X14.0920 Y17.6333
G01 X11.9104 Y19.8151
G01 X11.9104 Y21.0225
G01 X11.9412 Y21.0504
G01 X11.9478 Y21.0568
G01 X12.0178 Y21.1341
G01 X12.0235 Y21.1413
G01 X12.0820 Y21.2201
G01 X12.0872 Y21.2277
G01 X12.1423 Y21.3198
G01 X12.1870 Y21.4140
G01 X12.1917 Y21.4253
G01 X12.2258 Y21.5206
G01 X12.2283 Y21.5295
G01 X12.2522 Y21.6247
G01 X12.2546 Y21.6367
G01 X12.2697 Y21.7399
G01 X12.2750 Y21.8440
G01 X12.2750 Y21.8563
G01 X12.2697 Y21.9604
G01 X12.2546 Y22.0636
G01 X12.2522 Y22.0756
G01 X12.2267 Y22.1767
G01 X12.1895 Y22.2806
G01 X12.1423 Y22.3804
G01 X12.0888 Y22.4700
G01 X12.0820 Y22.4802
G01 X12.0235 Y22.5590
G01 X12.0158 Y22.5685
G01 X11.9456 Y22.6456
G01 X11.8638 Y22.7198
G01 X11.7751 Y22.7855
G01 X11.6804 Y22.8423
G01 X11.5806 Y22.8895
G01 X11.4825 Y22.9248
G01 X11.4708 Y22.9283
G01 X11.3756 Y22.9522
G01 X11.3636 Y22.9546
G01 X11.2604 Y22.9697
G01 X11.1563 Y22.9750
G01 X11.1471 Y22.9751
G01 X11.0399 Y22.9697
G01 X10.9306 Y22.9535
G01 X10.8236 Y22.9267
G01 X10.7196 Y22.8895
G01 X10.6198 Y22.8423
G01 X10.5251 Y22.7855
G01 X10.4364 Y22.7198
G01 X10.3591 Y22.6499
G01 X10.3504 Y22.6412
G01 X10.2845 Y22.5685
G01 X10.2767 Y22.5590
G01 X10.2147 Y22.4751
G01 X10.1610 Y22.3858
G01 X10.1552 Y22.3750
G01 X10.1108 Y22.2806
G01 X10.0755 Y22.1825
G01 X10.0719 Y22.1708
G01 X10.0467 Y22.0696
G01 X10.0305 Y21.9604
G01 X10.0251 Y21.8501
G01 X10.0303 Y21.7429
G01 X10.0313 Y21.7338
G01 X10.0467 Y21.6306
G01 X10.0736 Y21.5236
G01 X10.1108 Y21.4196
G01 X10.1566 Y21.3225
G01 X10.1610 Y21.3145
G01 X10.2147 Y21.2251
G01 X10.2786 Y21.1388
G01 X10.2845 Y21.1318
G01 X10.3525 Y21.0568
G01 X10.3591 Y21.0504
G01 X10.3898 Y21.0225
G01 X10.3900 Y19.4940
G01 X10.3930 Y19.4317
G01 X10.3942 Y19.4195
G01 X10.4044 Y19.3518
G01 X10.4209 Y19.2853
G01 X10.4245 Y19.2736
G01 X10.4477 Y19.2092
G01 X10.4768 Y19.1472
G01 X10.4811 Y19.1390
G01 X10.5179 Y19.0777
G01 X10.5586 Y19.0226
G01 X10.5664 Y19.0131
G01 X10.6125 Y18.9625
G01 X12.7898 Y16.7852
G01 X12.7898 Y2.6404
G01 X7.9351 Y2.6404
G01 X7.5227 Y3.0528
G01 X7.5214 Y3.0798
G01 X7.5206 Y3.0889
G01 X7.5089 Y3.1678
G01 X7.5070 Y3.1768
G01 X7.4883 Y3.2512
G01 X7.4855 Y3.2599
G01 X7.4585 Y3.3350
G01 X7.4232 Y3.4099
G01 X7.4188 Y3.4179
G01 X7.3777 Y3.4862
G01 X7.3265 Y3.5552
G01 X7.2688 Y3.6188
G01 X7.2099 Y3.6725
G01 X7.2004 Y3.6803
G01 X7.1362 Y3.7277
G01 X7.0626 Y3.7718
G01 X6.9850 Y3.8085
G01 X6.9041 Y3.8374
G01 X6.8208 Y3.8583
G01 X6.7359 Y3.8709
G01 X6.6501 Y3.8751
G01 X6.5705 Y3.8714
G01 X6.5613 Y3.8706
G01 X6.4794 Y3.8583
G01 X6.4020 Y3.8391
G01 X6.3903 Y3.8355
G01 X6.3153 Y3.8085
G01 X6.2431 Y3.7746
G01 X6.2323 Y3.7688
G01 X6.1692 Y3.7309
G01 X6.1590 Y3.7241
G01 X6.0950 Y3.6765
G01 X6.0314 Y3.6188
G01 X5.9737 Y3.5552
G01 X5.9226 Y3.4862
G01 X5.8784 Y3.4126
G01 X5.8417 Y3.3350
G01 X5.8128 Y3.2541
G01 X5.7919 Y3.1708
G01 X5.7793 Y3.0859
G01 X5.7752 Y3.0032
G01 X5.7752 Y2.6971
G01 X5.7793 Y2.6144
G01 X5.7919 Y2.5294
G01 X5.8128 Y2.4461
G01 X5.8417 Y2.3653
G01 X5.8784 Y2.2877
G01 X5.9226 Y2.2140
G01 X5.9737 Y2.1450
G01 X6.0293 Y2.0836
G01 X6.0359 Y2.0772
G01 X6.0950 Y2.0237
G01 X6.1640 Y1.9726
G01 X6.2377 Y1.9284
G01 X6.3125 Y1.8929
G01 X6.3210 Y1.8895
G01 X6.3961 Y1.8628
G01 X6.4764 Y1.8426
G01 X6.4855 Y1.8409
G01 X6.5613 Y1.8297
G01 X6.5705 Y1.8289
G01 X6.5974 Y1.8276
G00 Z1.0000
G00 X6.7446 Y6.3104
G01 F60.00
G01 Z-0.1418
G01 F120.00
G01 X8.5350 Y6.3104
G01 X8.6306 Y6.4060
G01 X8.6000 Y6.3997
G01 X8.5128 Y6.3868
G01 X8.4872 Y6.3843
G01 X8.4743 Y6.3835
G01 X8.3992 Y6.3800
G01 X6.9368 Y6.3798
G01 X6.9099 Y6.3673
G01 X6.8980 Y6.3622
G01 X6.8740 Y6.3529
G01 X6.7925 Y6.3239
G01 X6.7679 Y6.3164
G01 X6.7446 Y6.3104
G00 Z1.0000
G00 X6.5217 Y8.8101
G01 F60.00
G01 Z-0.1418
G01 F120.00
G01 X6.5351 Y8.8090
G01 X6.5607 Y8.8058
G01 X6.6335 Y8.7950
G01 X6.6589 Y8.7906
G01 X6.6840 Y8.7850
G01 X6.7679 Y8.7638
G01 X6.7925 Y8.7563
G01 X6.8047 Y8.7521
G01 X6.8861 Y8.7229
G01 X6.9099 Y8.7130
G01 X6.9368 Y8.7004
G01 X7.9057 Y8.7004
G01 X9.4398 Y10.2346
G01 X9.4398 Y11.3802
G01 X9.4226 Y11.3541
G01 X9.3701 Y11.2833
G01 X9.3538 Y11.2634
G01 X9.3452 Y11.2537
G01 X9.2946 Y11.1981
G01 X7.4735 Y9.3768
G01 X7.4554 Y9.3507
G01 X7.4116 Y9.2916
G01 X7.3957 Y9.2713
G01 X7.3789 Y9.2518
G01 X7.3295 Y9.1972
G01 X7.3117 Y9.1786
G01 X7.2930 Y9.1608
G01 X7.2288 Y9.1028
G01 X7.2089 Y9.0865
G01 X7.1395 Y9.0348
G01 X7.1185 Y9.0200
G01 X7.0967 Y9.0062
G01 X7.0336 Y8.9684
G01 X7.0112 Y8.9557
G01 X6.9881 Y8.9441
G01 X6.9216 Y8.9126
G01 X6.8980 Y8.9022
G01 X6.8740 Y8.8929
G01 X6.8047 Y8.8681
G01 X6.7802 Y8.8600
G01 X6.7554 Y8.8532
G01 X6.6840 Y8.8353
G01 X6.6589 Y8.8296
G01 X6.6335 Y8.8252
G01 X6.5479 Y8.8127
G01 X6.5217 Y8.8101
G00 Z1.0000
G00 X7.2941 Y8.9004
G01 F60.00
G01 Z-0.1418
G01 F120.00
G01 X7.8228 Y8.9004
G01 X9.2398 Y10.3174
G01 X9.2398 Y10.8602
G01 X7.6285 Y9.2489
G01 X7.6161 Y9.2316
G01 X7.5722 Y9.1724
G01 X7.5503 Y9.1444
G01 X7.5271 Y9.1174
G01 X7.4776 Y9.0629
G01 X7.4531 Y9.0371
G01 X7.4273 Y9.0126
G01 X7.3595 Y8.9514
G01 X7.3320 Y8.9288
G01 X7.2941 Y8.9004
G00 Z1.0000
G00 X7.2802 Y12.5283
G01 F60.00
G01 Z-0.1418
G01 F120.00
G01 X7.2814 Y12.5405
G01 X7.2851 Y12.6201
G01 X7.2809 Y12.7059
G01 X7.2683 Y12.7908
G01 X7.2474 Y12.8741
G01 X7.2185 Y12.9550
G01 X7.1818 Y13.0326
G01 X7.1377 Y13.1062
G01 X7.0903 Y13.1704
G01 X7.0825 Y13.1799
G01 X7.0331 Y13.2344
G01 X7.0244 Y13.2431
G01 X6.9652 Y13.2965
G01 X6.9013 Y13.3441
G01 X6.8911 Y13.3509
G01 X6.8226 Y13.3918
G01 X6.7506 Y13.4260
G01 X6.7392 Y13.4307
G01 X6.6641 Y13.4574
G01 X6.5808 Y13.4783
G01 X6.4959 Y13.4909
G01 X6.4132 Y13.4951
G01 X3.9071 Y13.4951
G01 X3.8305 Y13.4914
G01 X3.8183 Y13.4902
G01 X3.7394 Y13.4783
G01 X3.6620 Y13.4591
G01 X3.6503 Y13.4555
G01 X3.5810 Y13.4307
G01 X3.5697 Y13.4260
G01 X3.4977 Y13.3918
G01 X3.4240 Y13.3477
G01 X3.3550 Y13.2965
G01 X3.2959 Y13.2431
G01 X3.2872 Y13.2344
G01 X3.2377 Y13.1799
G01 X3.2300 Y13.1704
G01 X3.1826 Y13.1062
G01 X3.1384 Y13.0326
G01 X3.1017 Y12.9550
G01 X3.0747 Y12.8799
G01 X3.0712 Y12.8682
G01 X3.0533 Y12.7968
G01 X3.0509 Y12.7848
G01 X3.0393 Y12.7059
G01 X3.0352 Y12.6232
G01 X3.0353 Y12.6140
G01 X3.0393 Y12.5344
G01 X3.0519 Y12.4494
G01 X3.0728 Y12.3661
G01 X3.1017 Y12.2853
G01 X3.1384 Y12.2077
G01 X3.1826 Y12.1340
G01 X3.2337 Y12.0650
G01 X3.2914 Y12.0014
G01 X3.3550 Y11.9437
G01 X3.4240 Y11.8926
G01 X3.4977 Y11.8484
G01 X3.5753 Y11.8117
G01 X3.6561 Y11.7828
G01 X3.7394 Y11.7619
G01 X3.8244 Y11.7493
G01 X3.9071 Y11.7452
G01 X6.4101 Y11.7451
G01 X6.4959 Y11.7493
G01 X6.5748 Y11.7609
G01 X6.5838 Y11.7626
G01 X6.6641 Y11.7828
G01 X6.7392 Y11.8095
G01 X6.7506 Y11.8142
G01 X6.8226 Y11.8484
G01 X6.8962 Y11.8926
G01 X6.9604 Y11.9400
G01 X6.9699 Y11.9477
G01 X7.0244 Y11.9972
G01 X7.0331 Y12.0059
G01 X7.0865 Y12.0650
G01 X7.1341 Y12.1290
G01 X7.1409 Y12.1392
G01 X7.1788 Y12.2023
G01 X7.1846 Y12.2131
G01 X7.2185 Y12.2853
G01 X7.2474 Y12.3661
G01 X7.2683 Y12.4494
G01 X7.2802 Y12.5283
G00 Z1.0000
G00 X6.5217 Y13.8901
G01 F60.00
G01 Z-0.1418
G01 F120.00
G01 X6.5351 Y13.8890
G01 X6.5607 Y13.8858
G01 X6.6462 Y13.8730
G01 X6.6715 Y13.8680
G01 X6.7554 Y13.8471
G01 X6.7802 Y13.8402
G01 X6.8047 Y13.8321
G01 X6.8861 Y13.8029
G01 X6.8980 Y13.7981
G01 X6.9216 Y13.7876
G01 X6.9881 Y13.7562
G01 X7.0112 Y13.7446
G01 X7.0336 Y13.7319
G01 X7.0967 Y13.6940
G01 X7.1185 Y13.6802
G01 X7.1395 Y13.6654
G01 X7.1987 Y13.6216
G01 X7.2190 Y13.6057
G01 X7.2385 Y13.5889
G01 X7.3048 Y13.5284
G01 X7.3048 Y14.2519
G01 X7.2385 Y14.1914
G01 X7.2190 Y14.1745
G01 X7.1987 Y14.1587
G01 X7.1395 Y14.1148
G01 X7.1185 Y14.1000
G01 X7.0967 Y14.0862
G01 X7.0336 Y14.0484
G01 X7.0112 Y14.0357
G01 X6.9881 Y14.0241
G01 X6.9216 Y13.9926
G01 X6.9099 Y13.9873
G01 X6.8861 Y13.9774
G01 X6.8047 Y13.9481
G01 X6.7802 Y13.9400
G01 X6.7554 Y13.9332
G01 X6.6715 Y13.9123
G01 X6.6462 Y13.9073
G01 X6.5607 Y13.8944
G01 X6.5351 Y13.8913
G01 X6.5217 Y13.8901
G00 Z1.0000
G00 X7.2802 Y15.0683
G01 F60.00
G01 Z-0.1418
G01 F120.00
G01 X7.2814 Y15.0805
G01 X7.2851 Y15.1601
G01 X7.2809 Y15.2459
G01 X7.2683 Y15.3308
G01 X7.2474 Y15.4141
G01 X7.2185 Y15.4950
G01 X7.1818 Y15.5726
G01 X7.1377 Y15.6462
G01 X7.0903 Y15.7104
G01 X7.0825 Y15.7199
G01 X7.0331 Y15.7744
G01 X7.0244 Y15.7831
G01 X6.9652 Y15.8365
G01 X6.9013 Y15.8841
G01 X6.8911 Y15.8909
G01 X6.8226 Y15.9318
G01 X6.7506 Y15.9660
G01 X6.7392 Y15.9707
G01 X6.6641 Y15.9974
G01 X6.5808 Y16.0183
G01 X6.4959 Y16.0309
G01 X6.4132 Y16.0351
G01 X3.9071 Y16.0351
G01 X3.8305 Y16.0314
G01 X3.8183 Y16.0302
G01 X3.7394 Y16.0183
G01 X3.6620 Y15.9991
G01 X3.6503 Y15.9955
G01 X3.5810 Y15.9707
G01 X3.5697 Y15.9660
G01 X3.4977 Y15.9318
G01 X3.4240 Y15.8877
G01 X3.3550 Y15.8365
G01 X3.2959 Y15.7831
G01 X3.2872 Y15.7744
G01 X3.2377 Y15.7199
G01 X3.2300 Y15.7104
G01 X3.1826 Y15.6462
G01 X3.1384 Y15.5726
G01 X3.1017 Y15.4950
G01 X3.0747 Y15.4199
G01 X3.0712 Y15.4082
G01 X3.0533 Y15.3368
G01 X3.0509 Y15.3248
G01 X3.0393 Y15.2459
G01 X3.0352 Y15.1632
G01 X3.0353 Y15.1540
G01 X3.0393 Y15.0744
G01 X3.0519 Y14.9894
G01 X3.0728 Y14.9061
G01 X3.1017 Y14.8253
G01 X3.1384 Y14.7477
G01 X3.1826 Y14.6740
G01 X3.2337 Y14.6050
G01 X3.2914 Y14.5414
G01 X3.3550 Y14.4837
G01 X3.4240 Y14.4326
G01 X3.4977 Y14.3884
G01 X3.5753 Y14.3517
G01 X3.6561 Y14.3228
G01 X3.7394 Y14.3019
G01 X3.8244 Y14.2893
G01 X3.9071 Y14.2852
G01 X6.4101 Y14.2851
G01 X6.4959 Y14.2893
G01 X6.5748 Y14.3009
G01 X6.5838 Y14.3026
G01 X6.6641 Y14.3228
G01 X6.7392 Y14.3495
G01 X6.7506 Y14.3542
G01 X6.8226 Y14.3884
G01 X6.8962 Y14.4326
G01 X6.9604 Y14.4800
G01 X6.9699 Y14.4877
G01 X7.0244 Y14.5372
G01 X7.0331 Y14.5459
G01 X7.0865 Y14.6050
G01 X7.1341 Y14.6690
G01 X7.1409 Y14.6792
G01 X7.1788 Y14.7423
G01 X7.1846 Y14.7531
G01 X7.2185 Y14.8253
G01 X7.2474 Y14.9061
G01 X7.2683 Y14.9894
G01 X7.2802 Y15.0683
G00 Z1.0000
G00 X7.4780 Y15.0389
G01 F60.00
G01 Z-0.1418
G01 F120.00
G01 X7.4799 Y15.0548
G01 X7.4811 Y15.0707
G01 X7.4847 Y15.1442
G01 X7.4851 Y15.1601
G01 X7.4847 Y15.1761
G01 X7.4811 Y15.2496
G01 X7.4799 Y15.2655
G01 X7.4780 Y15.2813
G01 X7.4672 Y15.3541
G01 X7.4645 Y15.3698
G01 X7.4610 Y15.3854
G01 X7.4431 Y15.4568
G01 X7.4388 Y15.4722
G01 X7.4338 Y15.4873
G01 X7.4090 Y15.5566
G01 X7.4033 Y15.5715
G01 X7.3968 Y15.5861
G01 X7.3654 Y15.6526
G01 X7.3582 Y15.6669
G01 X7.3503 Y15.6808
G01 X7.3125 Y15.7439
G01 X7.3040 Y15.7574
G01 X7.2948 Y15.7704
G01 X7.2509 Y15.8295
G01 X7.2411 Y15.8421
G01 X7.2307 Y15.8542
G01 X7.1758 Y15.9146
G01 X7.1587 Y15.9313
G01 X7.1042 Y15.9807
G01 X7.0921 Y15.9911
G01 X7.0795 Y16.0009
G01 X7.0204 Y16.0448
G01 X7.0007 Y16.0583
G01 X6.9239 Y16.1043
G01 X6.9026 Y16.1154
G01 X6.8361 Y16.1468
G01 X6.8215 Y16.1533
G01 X6.8066 Y16.1590
G01 X6.7373 Y16.1838
G01 X6.7222 Y16.1888
G01 X6.7068 Y16.1931
G01 X6.6354 Y16.2110
G01 X6.6198 Y16.2145
G01 X6.6041 Y16.2172
G01 X6.5313 Y16.2280
G01 X6.5155 Y16.2299
G01 X6.4996 Y16.2311
G01 X6.4181 Y16.2350
G01 X3.9021 Y16.2350
G01 X3.8207 Y16.2311
G01 X3.8048 Y16.2299
G01 X3.7889 Y16.2280
G01 X3.7161 Y16.2172
G01 X3.7004 Y16.2145
G01 X3.6848 Y16.2110
G01 X3.6134 Y16.1931
G01 X3.5981 Y16.1888
G01 X3.5829 Y16.1838
G01 X3.5136 Y16.1590
G01 X3.4987 Y16.1533
G01 X3.4842 Y16.1468
G01 X3.4176 Y16.1154
G01 X3.4034 Y16.1082
G01 X3.3895 Y16.1003
G01 X3.3264 Y16.0625
G01 X3.3129 Y16.0540
G01 X3.2998 Y16.0448
G01 X3.2407 Y16.0009
G01 X3.2282 Y15.9911
G01 X3.2161 Y15.9807
G01 X3.1615 Y15.9313
G01 X3.1500 Y15.9203
G01 X3.1390 Y15.9087
G01 X3.0843 Y15.8482
G01 X3.0693 Y15.8295
G01 X3.0255 Y15.7704
G01 X3.0163 Y15.7574
G01 X3.0078 Y15.7439
G01 X2.9699 Y15.6808
G01 X2.9621 Y15.6669
G01 X2.9549 Y15.6526
G01 X2.9234 Y15.5861
G01 X2.9170 Y15.5715
G01 X2.9112 Y15.5566
G01 X2.8864 Y15.4873
G01 X2.8814 Y15.4722
G01 X2.8772 Y15.4568
G01 X2.8574 Y15.3777
G01 X2.8531 Y15.3541
G01 X2.8423 Y15.2813
G01 X2.8403 Y15.2655
G01 X2.8391 Y15.2496
G01 X2.8352 Y15.1681
G01 X2.8355 Y15.1442
G01 X2.8391 Y15.0707
G01 X2.8403 Y15.0548
G01 X2.8423 Y15.0389
G01 X2.8531 Y14.9661
G01 X2.8558 Y14.9504
G01 X2.8593 Y14.9348
G01 X2.8772 Y14.8634
G01 X2.8814 Y14.8481
G01 X2.8864 Y14.8329
G01 X2.9112 Y14.7636
G01 X2.9170 Y14.7487
G01 X2.9234 Y14.7342
G01 X2.9549 Y14.6676
G01 X2.9621 Y14.6534
G01 X2.9699 Y14.6395
G01 X3.0078 Y14.5764
G01 X3.0163 Y14.5629
G01 X3.0255 Y14.5498
G01 X3.0693 Y14.4907
G01 X3.0791 Y14.4782
G01 X3.0896 Y14.4661
G01 X3.1390 Y14.4115
G01 X3.1500 Y14.4000
G01 X3.1615 Y14.3890
G01 X3.2161 Y14.3396
G01 X3.2282 Y14.3291
G01 X3.2407 Y14.3193
G01 X3.2998 Y14.2755
G01 X3.3129 Y14.2663
G01 X3.3264 Y14.2578
G01 X3.3895 Y14.2199
G01 X3.4034 Y14.2121
G01 X3.4176 Y14.2049
G01 X3.4842 Y14.1734
G01 X3.4987 Y14.1670
G01 X3.5136 Y14.1612
G01 X3.5829 Y14.1364
G01 X3.5981 Y14.1314
G01 X3.6134 Y14.1272
G01 X3.6848 Y14.1093
G01 X3.7004 Y14.1058
G01 X3.7161 Y14.1031
G01 X3.7889 Y14.0923
G01 X3.8048 Y14.0903
G01 X3.8207 Y14.0891
G01 X3.9021 Y14.0852
G01 X6.4181 Y14.0852
G01 X6.5075 Y14.0896
G01 X6.5313 Y14.0923
G01 X6.6041 Y14.1031
G01 X6.6198 Y14.1058
G01 X6.6354 Y14.1093
G01 X6.7145 Y14.1292
G01 X6.7373 Y14.1364
G01 X6.8066 Y14.1612
G01 X6.8215 Y14.1670
G01 X6.8361 Y14.1734
G01 X6.9026 Y14.2049
G01 X6.9169 Y14.2121
G01 X6.9308 Y14.2199
G01 X6.9939 Y14.2578
G01 X7.0074 Y14.2663
G01 X7.0204 Y14.2755
G01 X7.0795 Y14.3193
G01 X7.0921 Y14.3291
G01 X7.1042 Y14.3396
G01 X7.1587 Y14.3890
G01 X7.1703 Y14.4000
G01 X7.1813 Y14.4115
G01 X7.2307 Y14.4661
G01 X7.2411 Y14.4782
G01 X7.2509 Y14.4907
G01 X7.2948 Y14.5498
G01 X7.3040 Y14.5629
G01 X7.3125 Y14.5764
G01 X7.3503 Y14.6395
G01 X7.3582 Y14.6534
G01 X7.3654 Y14.6676
G01 X7.3968 Y14.7342
G01 X7.4033 Y14.7487
G01 X7.4090 Y14.7636
G01 X7.4338 Y14.8329
G01 X7.4388 Y14.8481
G01 X7.4431 Y14.8634
G01 X7.4610 Y14.9348
G01 X7.4645 Y14.9504
G01 X7.4672 Y14.9661
G01 X7.4780 Y15.0389
G00 Z1.0000
G00 X9.2254 Y14.1826
G01 F60.00
G01 Z-0.1418
G01 F120.00
G01 X9.3196 Y14.1967
G01 X9.4267 Y14.2236
G01 X9.5306 Y14.2608
G01 X9.6304 Y14.3080
G01 X9.7251 Y14.3647
G01 X9.8138 Y14.4305
G01 X9.8956 Y14.5046
G01 X9.9698 Y14.5864
G01 X10.0355 Y14.6751
G01 X10.0923 Y14.7698
G01 X10.1395 Y14.8696
G01 X10.1767 Y14.9736
G01 X10.2035 Y15.0806
G01 X10.2197 Y15.1899
G01 X10.2251 Y15.3001
G01 X10.2197 Y15.4104
G01 X10.2035 Y15.5196
G01 X10.1767 Y15.6267
G01 X10.1395 Y15.7306
G01 X10.0923 Y15.8304
G01 X10.0355 Y15.9251
G01 X9.9698 Y16.0138
G01 X9.8956 Y16.0956
G01 X9.8138 Y16.1698
G01 X9.7251 Y16.2355
G01 X9.6304 Y16.2923
G01 X9.5306 Y16.3395
G01 X9.4267 Y16.3767
G01 X9.3196 Y16.4035
G01 X9.2104 Y16.4197
G01 X9.1001 Y16.4251
G01 X8.9899 Y16.4197
G01 X8.8806 Y16.4035
G01 X8.7736 Y16.3767
G01 X8.6696 Y16.3395
G01 X8.5698 Y16.2923
G01 X8.4751 Y16.2355
G01 X8.3864 Y16.1698
G01 X8.3046 Y16.0956
G01 X8.2305 Y16.0138
G01 X8.1647 Y15.9251
G01 X8.1080 Y15.8304
G01 X8.0608 Y15.7306
G01 X8.0245 Y15.6296
G01 X8.0219 Y15.6208
G01 X7.9967 Y15.5196
G01 X7.9809 Y15.4134
G01 X7.9801 Y15.4043
G01 X7.9752 Y15.3032
G01 X7.9753 Y15.2940
G01 X7.9773 Y15.2526
G01 X7.9254 Y15.2006
G01 X7.8794 Y15.1498
G01 X7.8736 Y15.1426
G01 X7.8329 Y15.0875
G01 X7.7946 Y15.0235
G01 X7.7652 Y14.9617
G01 X7.7605 Y14.9504
G01 X7.7375 Y14.8858
G01 X7.7208 Y14.8194
G01 X7.7184 Y14.8074
G01 X7.7085 Y14.7396
G01 X7.7048 Y14.6682
G01 X7.7048 Y12.3243
G01 X6.3357 Y10.9551
G01 X3.9101 Y10.9551
G01 X3.8305 Y10.9514
G01 X3.8183 Y10.9502
G01 X3.7394 Y10.9383
G01 X3.6620 Y10.9191
G01 X3.6503 Y10.9155
G01 X3.5753 Y10.8885
G01 X3.5031 Y10.8546
G01 X3.4923 Y10.8488
G01 X3.4266 Y10.8093
G01 X3.4190 Y10.8041
G01 X3.3550 Y10.7565
G01 X3.2914 Y10.6988
G01 X3.2337 Y10.6352
G01 X3.1826 Y10.5662
G01 X3.1384 Y10.4926
G01 X3.1017 Y10.4150
G01 X3.0728 Y10.3341
G01 X3.0533 Y10.2568
G01 X3.0509 Y10.2448
G01 X3.0393 Y10.1659
G01 X3.0353 Y10.0863
G01 X3.0353 Y10.0740
G01 X3.0389 Y10.0005
G01 X3.0401 Y9.9883
G01 X3.0519 Y9.9094
G01 X3.0712 Y9.8320
G01 X3.0747 Y9.8203
G01 X3.1017 Y9.7453
G01 X3.1384 Y9.6677
G01 X3.1826 Y9.5940
G01 X3.2318 Y9.5274
G01 X3.2377 Y9.5204
G01 X3.2914 Y9.4614
G01 X3.3550 Y9.4037
G01 X3.4240 Y9.3526
G01 X3.4923 Y9.3115
G01 X3.5031 Y9.3057
G01 X3.5753 Y9.2717
G01 X3.6503 Y9.2447
G01 X3.6620 Y9.2412
G01 X3.7334 Y9.2233
G01 X3.7455 Y9.2209
G01 X3.8244 Y9.2093
G01 X3.9071 Y9.2052
G01 X6.4101 Y9.2051
G01 X6.4928 Y9.2091
G01 X6.5020 Y9.2101
G01 X6.5748 Y9.2209
G01 X6.5868 Y9.2233
G01 X6.6641 Y9.2428
G01 X6.7450 Y9.2717
G01 X6.8171 Y9.3057
G01 X6.8279 Y9.3115
G01 X6.8962 Y9.3526
G01 X6.9628 Y9.4018
G01 X6.9699 Y9.4077
G01 X7.0288 Y9.4614
G01 X7.0845 Y9.5227
G01 X7.0903 Y9.5299
G01 X7.1359 Y9.5915
G01 X7.1409 Y9.5992
G01 X7.1570 Y9.6259
G01 X9.0049 Y11.4739
G01 X9.0529 Y11.5270
G01 X9.0938 Y11.5819
G01 X9.1006 Y11.5921
G01 X9.1326 Y11.6456
G01 X9.1384 Y11.6564
G01 X9.1651 Y11.7128
G01 X9.1698 Y11.7241
G01 X9.1927 Y11.7886
G01 X9.2095 Y11.8550
G01 X9.2119 Y11.8670
G01 X9.2218 Y11.9348
G01 X9.2254 Y12.0063
G01 X9.2254 Y14.1826
G00 Z1.0000
G00 X11.7190 Y12.4338
G01 F60.00
G01 Z-0.1418
G01 F120.00
G01 X11.7202 Y12.4460
G01 X11.7251 Y12.5501
G01 X11.7202 Y12.6543
G01 X11.7190 Y12.6665
G01 X11.7035 Y12.7696
G01 X11.6783 Y12.8708
G01 X11.6748 Y12.8825
G01 X11.6417 Y12.9749
G01 X11.6370 Y12.9863
G01 X11.5923 Y13.0804
G01 X11.5388 Y13.1700
G01 X11.5320 Y13.1802
G01 X11.4698 Y13.2638
G01 X11.3956 Y13.3456
G01 X11.3185 Y13.4158
G01 X11.3090 Y13.4235
G01 X11.2302 Y13.4820
G01 X11.2200 Y13.4888
G01 X11.1304 Y13.5423
G01 X11.0363 Y13.5870
G01 X11.0249 Y13.5917
G01 X10.9267 Y13.6267
G01 X10.8196 Y13.6535
G01 X10.7165 Y13.6690
G01 X10.7043 Y13.6702
G01 X10.6001 Y13.6751
G01 X10.4960 Y13.6702
G01 X10.4838 Y13.6690
G01 X10.3806 Y13.6535
G01 X10.2736 Y13.6267
G01 X10.1753 Y13.5917
G01 X10.1640 Y13.5870
G01 X10.0698 Y13.5423
