(G-CODE GENERATED BY FLATCAM v8.994 - www.flatcam.org - Version Date: 2020/11/7)

(Name: condicionamento_BIA_v02-PTH.drl_mill_cnc)
(Type: G-code from Geometry)
(Units: MM)

(Created on quarta, 02 agosto 2023 at 11:48)

(This preprocessor is the default preprocessor used by FlatCAM.)
(It is made to work with MACH3 compatible motion controllers.)

(TOOL DIAMETER: 0.8 mm)
(Feedrate_XY: 120.0 mm/min)
(Feedrate_Z: 30.0 mm/min)
(Feedrate rapids 1500.0 mm/min)

(Z_Cut: -2.8 mm)
(Z_Move: 1.0 mm)
(Z Start: None mm)
(Z End: 15.0 mm)
(X,Y End: None mm)
(Steps per circle: 64)
(Preprocessor Geometry: default)

(X range:    0.7509 ...   81.8100  mm)
(Y range:    1.9257 ...   95.6112  mm)

(Spindle Speed: 1000.0 RPM)
G21
G90
G94

G01 F120.00

M5
G00 Z1.0000
G00 X0.0000 Y0.0000
(T1)
(M6)
(MSG, Change to Tool Dia = 0.80000)
(M0)
G00 Z1.0000

M03 S1000.0
G01 F120.00
G00 X0.7510 Y2.2865
G01 F30.00
G01 Z-2.8000
G01 F120.00
G01 X0.7510 Y2.2864
G01 X0.7509 Y2.2865
G01 X0.7510 Y2.2865
G01 X0.7510 Y2.2865
G00 Z1.0000
G00 X3.2910 Y2.2865
G01 F30.00
G01 Z-2.8000
G01 F120.00
G01 X3.2910 Y2.2864
G01 X3.2909 Y2.2865
G01 X3.2910 Y2.2865
G01 X3.2910 Y2.2865
G00 Z1.0000
G00 X1.8000 Y6.9753
G01 F30.00
G01 Z-2.8000
G01 F120.00
G01 X1.8000 Y6.9753
G01 X1.7999 Y6.9753
G01 X1.8000 Y6.9754
G01 X1.8000 Y6.9753
G00 Z1.0000
G00 X1.8000 Y9.5153
G01 F30.00
G01 Z-2.8000
G01 F120.00
G01 X1.8000 Y9.5153
G01 X1.7999 Y9.5153
G01 X1.8000 Y9.5154
G01 X1.8000 Y9.5153
G00 Z1.0000
G00 X1.8000 Y12.0553
G01 F30.00
G01 Z-2.8000
G01 F120.00
G01 X1.8000 Y12.0553
G01 X1.7999 Y12.0553
G01 X1.8000 Y12.0554
G01 X1.8000 Y12.0553
G00 Z1.0000
G00 X1.8000 Y14.5953
G01 F30.00
G01 Z-2.8000
G01 F120.00
G01 X1.8000 Y14.5953
G01 X1.7999 Y14.5953
G01 X1.8000 Y14.5954
G01 X1.8000 Y14.5953
G00 Z1.0000
G00 X1.8000 Y17.1353
G01 F30.00
G01 Z-2.8000
G01 F120.00
G01 X1.8000 Y17.1353
G01 X1.7999 Y17.1353
G01 X1.8000 Y17.1354
G01 X1.8000 Y17.1353
G00 Z1.0000
G00 X1.8000 Y19.6753
G01 F30.00
G01 Z-2.8000
G01 F120.00
G01 X1.8000 Y19.6753
G01 X1.7999 Y19.6753
G01 X1.8000 Y19.6754
G01 X1.8000 Y19.6753
G00 Z1.0000
G00 X1.8000 Y22.2153
G01 F30.00
G01 Z-2.8000
G01 F120.00
G01 X1.8000 Y22.2153
G01 X1.7999 Y22.2153
G01 X1.8000 Y22.2154
G01 X1.8000 Y22.2153
G00 Z1.0000
G00 X1.8000 Y24.7553
G01 F30.00
G01 Z-2.8000
G01 F120.00
G01 X1.8000 Y24.7553
G01 X1.7999 Y24.7553
G01 X1.8000 Y24.7554
G01 X1.8000 Y24.7553
G00 Z1.0000
G00 X1.8000 Y27.2953
G01 F30.00
G01 Z-2.8000
G01 F120.00
G01 X1.8000 Y27.2953
G01 X1.7999 Y27.2953
G01 X1.8000 Y27.2954
G01 X1.8000 Y27.2953
G00 Z1.0000
G00 X1.8000 Y29.8353
G01 F30.00
G01 Z-2.8000
G01 F120.00
G01 X1.8000 Y29.8353
G01 X1.7999 Y29.8353
G01 X1.8000 Y29.8354
G01 X1.8000 Y29.8353
G00 Z1.0000
G00 X1.8000 Y32.3753
G01 F30.00
G01 Z-2.8000
G01 F120.00
G01 X1.8000 Y32.3753
G01 X1.7999 Y32.3753
G01 X1.8000 Y32.3754
G01 X1.8000 Y32.3753
G00 Z1.0000
G00 X1.8000 Y34.9153
G01 F30.00
G01 Z-2.8000
G01 F120.00
G01 X1.8000 Y34.9153
G01 X1.7999 Y34.9153
G01 X1.8000 Y34.9154
G01 X1.8000 Y34.9153
G00 Z1.0000
G00 X1.8000 Y37.4553
G01 F30.00
G01 Z-2.8000
G01 F120.00
G01 X1.8000 Y37.4553
G01 X1.7999 Y37.4553
G01 X1.8000 Y37.4554
G01 X1.8000 Y37.4553
G00 Z1.0000
G00 X1.8000 Y39.9953
G01 F30.00
G01 Z-2.8000
G01 F120.00
G01 X1.8000 Y39.9953
G01 X1.7999 Y39.9953
G01 X1.8000 Y39.9954
G01 X1.8000 Y39.9953
G00 Z1.0000
G00 X1.8000 Y42.5353
G01 F30.00
G01 Z-2.8000
G01 F120.00
G01 X1.8000 Y42.5353
G01 X1.7999 Y42.5353
G01 X1.8000 Y42.5354
G01 X1.8000 Y42.5353
G00 Z1.0000
G00 X1.8000 Y45.0753
G01 F30.00
G01 Z-2.8000
G01 F120.00
G01 X1.8000 Y45.0753
G01 X1.7999 Y45.0753
G01 X1.8000 Y45.0754
G01 X1.8000 Y45.0753
G00 Z1.0000
G00 X1.8000 Y47.6153
G01 F30.00
G01 Z-2.8000
G01 F120.00
G01 X1.8000 Y47.6153
G01 X1.7999 Y47.6153
G01 X1.8000 Y47.6154
G01 X1.8000 Y47.6153
G00 Z1.0000
G00 X1.8000 Y50.1553
G01 F30.00
G01 Z-2.8000
G01 F120.00
G01 X1.8000 Y50.1553
G01 X1.7999 Y50.1553
G01 X1.8000 Y50.1554
G01 X1.8000 Y50.1553
G00 Z1.0000
G00 X1.8000 Y52.6953
G01 F30.00
G01 Z-2.8000
G01 F120.00
G01 X1.8000 Y52.6953
G01 X1.7999 Y52.6953
G01 X1.8000 Y52.6954
G01 X1.8000 Y52.6953
G00 Z1.0000
G00 X1.8000 Y55.2353
G01 F30.00
G01 Z-2.8000
G01 F120.00
G01 X1.8000 Y55.2353
G01 X1.7999 Y55.2353
G01 X1.8000 Y55.2354
G01 X1.8000 Y55.2353
G00 Z1.0000
G00 X1.8000 Y57.7753
G01 F30.00
G01 Z-2.8000
G01 F120.00
G01 X1.8000 Y57.7753
G01 X1.7999 Y57.7753
G01 X1.8000 Y57.7754
G01 X1.8000 Y57.7753
G00 Z1.0000
G00 X1.8000 Y60.3153
G01 F30.00
G01 Z-2.8000
G01 F120.00
G01 X1.8000 Y60.3153
G01 X1.7999 Y60.3153
G01 X1.8000 Y60.3154
G01 X1.8000 Y60.3153
G00 Z1.0000
G00 X1.8000 Y62.8553
G01 F30.00
G01 Z-2.8000
G01 F120.00
G01 X1.8000 Y62.8553
G01 X1.7999 Y62.8553
G01 X1.8000 Y62.8554
G01 X1.8000 Y62.8553
G00 Z1.0000
G00 X1.8000 Y65.3953
G01 F30.00
G01 Z-2.8000
G01 F120.00
G01 X1.8000 Y65.3953
G01 X1.7999 Y65.3953
G01 X1.8000 Y65.3954
G01 X1.8000 Y65.3953
G00 Z1.0000
G00 X1.8000 Y67.9353
G01 F30.00
G01 Z-2.8000
G01 F120.00
G01 X1.8000 Y67.9353
G01 X1.7999 Y67.9353
G01 X1.8000 Y67.9354
G01 X1.8000 Y67.9353
G00 Z1.0000
G00 X1.8000 Y70.4753
G01 F30.00
G01 Z-2.8000
G01 F120.00
G01 X1.8000 Y70.4753
G01 X1.7999 Y70.4753
G01 X1.8000 Y70.4754
G01 X1.8000 Y70.4753
G00 Z1.0000
G00 X1.8000 Y73.0153
G01 F30.00
G01 Z-2.8000
G01 F120.00
G01 X1.8000 Y73.0153
G01 X1.7999 Y73.0153
G01 X1.8000 Y73.0154
G01 X1.8000 Y73.0153
G00 Z1.0000
G00 X1.8000 Y75.5553
G01 F30.00
G01 Z-2.8000
G01 F120.00
G01 X1.8000 Y75.5553
G01 X1.7999 Y75.5553
G01 X1.8000 Y75.5554
G01 X1.8000 Y75.5553
G00 Z1.0000
G00 X1.8000 Y78.0953
G01 F30.00
G01 Z-2.8000
G01 F120.00
G01 X1.8000 Y78.0953
G01 X1.7999 Y78.0953
G01 X1.8000 Y78.0954
G01 X1.8000 Y78.0953
G00 Z1.0000
G00 X1.8000 Y80.6353
G01 F30.00
G01 Z-2.8000
G01 F120.00
G01 X1.8000 Y80.6353
G01 X1.7999 Y80.6353
G01 X1.8000 Y80.6354
G01 X1.8000 Y80.6353
G00 Z1.0000
G00 X1.8000 Y83.1753
G01 F30.00
G01 Z-2.8000
G01 F120.00
G01 X1.8000 Y83.1753
G01 X1.7999 Y83.1753
G01 X1.8000 Y83.1754
G01 X1.8000 Y83.1753
G00 Z1.0000
G00 X1.8000 Y85.7153
G01 F30.00
G01 Z-2.8000
G01 F120.00
G01 X1.8000 Y85.7153
G01 X1.7999 Y85.7153
G01 X1.8000 Y85.7154
G01 X1.8000 Y85.7153
G00 Z1.0000
G00 X1.8000 Y88.2553
G01 F30.00
G01 Z-2.8000
G01 F120.00
G01 X1.8000 Y88.2553
G01 X1.7999 Y88.2553
G01 X1.8000 Y88.2554
G01 X1.8000 Y88.2553
G00 Z1.0000
G00 X1.8000 Y90.7953
G01 F30.00
G01 Z-2.8000
G01 F120.00
G01 X1.8000 Y90.7953
G01 X1.7999 Y90.7953
G01 X1.8000 Y90.7954
G01 X1.8000 Y90.7953
G00 Z1.0000
G00 X1.8000 Y93.3353
G01 F30.00
G01 Z-2.8000
G01 F120.00
G01 X1.8000 Y93.3353
G01 X1.7999 Y93.3353
G01 X1.8000 Y93.3354
G01 X1.8000 Y93.3353
G00 Z1.0000
G00 X10.9999 Y94.0465
G01 F30.00
G01 Z-2.8000
G01 F120.00
G01 X10.9999 Y94.0465
G01 X10.9998 Y94.0465
G01 X10.9999 Y94.0466
G01 X10.9999 Y94.0465
G00 Z1.0000
G00 X10.9999 Y91.5065
G01 F30.00
G01 Z-2.8000
G01 F120.00
G01 X10.9999 Y91.5065
G01 X10.9998 Y91.5065
G01 X10.9999 Y91.5066
G01 X10.9999 Y91.5065
G00 Z1.0000
G00 X10.9999 Y88.9665
G01 F30.00
G01 Z-2.8000
G01 F120.00
G01 X10.9999 Y88.9665
G01 X10.9998 Y88.9665
G01 X10.9999 Y88.9666
G01 X10.9999 Y88.9665
G00 Z1.0000
G00 X10.9999 Y86.4265
G01 F30.00
G01 Z-2.8000
G01 F120.00
G01 X10.9999 Y86.4265
G01 X10.9998 Y86.4265
G01 X10.9999 Y86.4266
G01 X10.9999 Y86.4265
G00 Z1.0000
G00 X10.9999 Y83.8865
G01 F30.00
G01 Z-2.8000
G01 F120.00
G01 X10.9999 Y83.8865
G01 X10.9998 Y83.8865
G01 X10.9999 Y83.8866
G01 X10.9999 Y83.8865
G00 Z1.0000
G00 X10.9999 Y81.3465
G01 F30.00
G01 Z-2.8000
G01 F120.00
G01 X10.9999 Y81.3465
G01 X10.9998 Y81.3465
G01 X10.9999 Y81.3466
G01 X10.9999 Y81.3465
G00 Z1.0000
G00 X10.9999 Y78.8065
G01 F30.00
G01 Z-2.8000
G01 F120.00
G01 X10.9999 Y78.8065
G01 X10.9998 Y78.8065
G01 X10.9999 Y78.8066
G01 X10.9999 Y78.8065
G00 Z1.0000
G00 X10.9999 Y76.2665
G01 F30.00
G01 Z-2.8000
G01 F120.00
G01 X10.9999 Y76.2665
G01 X10.9998 Y76.2665
G01 X10.9999 Y76.2666
G01 X10.9999 Y76.2665
G00 Z1.0000
G00 X10.9999 Y73.7265
G01 F30.00
G01 Z-2.8000
G01 F120.00
G01 X10.9999 Y73.7265
G01 X10.9998 Y73.7265
G01 X10.9999 Y73.7266
G01 X10.9999 Y73.7265
G00 Z1.0000
G00 X10.9999 Y71.1865
G01 F30.00
G01 Z-2.8000
G01 F120.00
G01 X10.9999 Y71.1865
G01 X10.9998 Y71.1865
G01 X10.9999 Y71.1866
G01 X10.9999 Y71.1865
G00 Z1.0000
G00 X10.9999 Y68.6465
G01 F30.00
G01 Z-2.8000
G01 F120.00
G01 X10.9999 Y68.6465
G01 X10.9998 Y68.6465
G01 X10.9999 Y68.6466
G01 X10.9999 Y68.6465
G00 Z1.0000
G00 X10.9999 Y66.1065
G01 F30.00
G01 Z-2.8000
G01 F120.00
G01 X10.9999 Y66.1065
G01 X10.9998 Y66.1065
G01 X10.9999 Y66.1066
G01 X10.9999 Y66.1065
G00 Z1.0000
G00 X10.9999 Y63.5665
G01 F30.00
G01 Z-2.8000
G01 F120.00
G01 X10.9999 Y63.5665
G01 X10.9998 Y63.5665
G01 X10.9999 Y63.5666
G01 X10.9999 Y63.5665
G00 Z1.0000
G00 X10.9999 Y61.0265
G01 F30.00
G01 Z-2.8000
G01 F120.00
G01 X10.9999 Y61.0265
G01 X10.9998 Y61.0265
G01 X10.9999 Y61.0266
G01 X10.9999 Y61.0265
G00 Z1.0000
G00 X10.9999 Y58.4865
G01 F30.00
G01 Z-2.8000
G01 F120.00
G01 X10.9999 Y58.4865
G01 X10.9998 Y58.4865
G01 X10.9999 Y58.4866
G01 X10.9999 Y58.4865
G00 Z1.0000
G00 X10.9999 Y55.9465
G01 F30.00
G01 Z-2.8000
G01 F120.00
G01 X10.9999 Y55.9465
G01 X10.9998 Y55.9465
G01 X10.9999 Y55.9466
G01 X10.9999 Y55.9465
G00 Z1.0000
G00 X10.9999 Y53.4065
G01 F30.00
G01 Z-2.8000
G01 F120.00
G01 X10.9999 Y53.4065
G01 X10.9998 Y53.4065
G01 X10.9999 Y53.4066
G01 X10.9999 Y53.4065
G00 Z1.0000
G00 X10.9999 Y50.8665
G01 F30.00
G01 Z-2.8000
G01 F120.00
G01 X10.9999 Y50.8665
G01 X10.9998 Y50.8665
G01 X10.9999 Y50.8666
G01 X10.9999 Y50.8665
G00 Z1.0000
G00 X10.9999 Y48.3265
G01 F30.00
G01 Z-2.8000
G01 F120.00
G01 X10.9999 Y48.3265
G01 X10.9998 Y48.3265
G01 X10.9999 Y48.3266
G01 X10.9999 Y48.3265
G00 Z1.0000
G00 X10.9999 Y45.7865
G01 F30.00
G01 Z-2.8000
G01 F120.00
G01 X10.9999 Y45.7865
G01 X10.9998 Y45.7865
G01 X10.9999 Y45.7866
G01 X10.9999 Y45.7865
G00 Z1.0000
G00 X13.8904 Y40.9859
G01 F30.00
G01 Z-2.8000
G01 F120.00
G01 X13.8904 Y40.9859
G01 X13.8903 Y40.9859
G01 X13.8904 Y40.9860
G01 X13.8904 Y40.9859
G00 Z1.0000
G00 X19.0898 Y35.8958
G01 F30.00
G01 Z-2.8000
G01 F120.00
G01 X19.0898 Y35.8957
G01 X19.0897 Y35.8958
G01 X19.0898 Y35.8958
G01 X19.0898 Y35.8958
G00 Z1.0000
G00 X13.8904 Y33.3659
G01 F30.00
G01 Z-2.8000
G01 F120.00
G01 X13.8904 Y33.3659
G01 X13.8903 Y33.3659
G01 X13.8904 Y33.3660
G01 X13.8904 Y33.3659
G00 Z1.0000
G00 X7.8249 Y30.5846
G01 F30.00
G01 Z-2.8000
G01 F120.00
G01 X7.8249 Y30.5846
G01 X7.8248 Y30.5846
G01 X7.8249 Y30.5847
G01 X7.8249 Y30.5846
G00 Z1.0000
G00 X12.3893 Y25.4843
G01 F30.00
G01 Z-2.8000
G01 F120.00
G01 X12.3893 Y25.4842
G01 X12.3892 Y25.4843
G01 X12.3893 Y25.4843
G01 X12.3893 Y25.4843
G00 Z1.0000
G00 X7.7894 Y21.2857
G01 F30.00
G01 Z-2.8000
G01 F120.00
G01 X7.7893 Y21.2856
G01 X7.7893 Y21.2857
G01 X7.7893 Y21.2857
G01 X7.7894 Y21.2857
G00 Z1.0000
G00 X12.3893 Y18.1208
G01 F30.00
G01 Z-2.8000
G01 F120.00
G01 X12.3893 Y18.1208
G01 X12.3892 Y18.1208
G01 X12.3893 Y18.1209
G01 X12.3893 Y18.1208
G00 Z1.0000
G00 X14.4899 Y14.4861
G01 F30.00
G01 Z-2.8000
G01 F120.00
G01 X14.4898 Y14.4860
G01 X14.4898 Y14.4861
G01 X14.4898 Y14.4861
G01 X14.4899 Y14.4861
G00 Z1.0000
G00 X12.3563 Y11.9842
G01 F30.00
G01 Z-2.8000
G01 F120.00
G01 X12.3562 Y11.9841
G01 X12.3562 Y11.9842
G01 X12.3562 Y11.9842
G01 X12.3563 Y11.9842
G00 Z1.0000
G00 X7.2407 Y11.9842
G01 F30.00
G01 Z-2.8000
G01 F120.00
G01 X7.2407 Y11.9841
G01 X7.2406 Y11.9842
G01 X7.2407 Y11.9842
G01 X7.2407 Y11.9842
G00 Z1.0000
G00 X5.7396 Y14.7350
G01 F30.00
G01 Z-2.8000
G01 F120.00
G01 X5.7395 Y14.7350
G01 X5.7395 Y14.7350
G01 X5.7395 Y14.7351
G01 X5.7396 Y14.7350
G00 Z1.0000
G00 X8.0561 Y6.9855
G01 F30.00
G01 Z-2.8000
G01 F120.00
G01 X8.0560 Y6.9854
G01 X8.0560 Y6.9855
G01 X8.0560 Y6.9855
G01 X8.0561 Y6.9855
G00 Z1.0000
G00 X17.0908 Y3.8841
G01 F30.00
G01 Z-2.8000
G01 F120.00
G01 X17.0908 Y3.8841
G01 X17.0907 Y3.8841
G01 X17.0908 Y3.8842
G01 X17.0908 Y3.8841
G00 Z1.0000
G00 X19.6308 Y3.8841
G01 F30.00
G01 Z-2.8000
G01 F120.00
G01 X19.6308 Y3.8841
G01 X19.6307 Y3.8841
G01 X19.6308 Y3.8842
G01 X19.6308 Y3.8841
G00 Z1.0000
G00 X22.1708 Y3.8841
G01 F30.00
G01 Z-2.8000
G01 F120.00
G01 X22.1708 Y3.8841
G01 X22.1707 Y3.8841
G01 X22.1708 Y3.8842
G01 X22.1708 Y3.8841
G00 Z1.0000
G00 X24.7108 Y3.8841
G01 F30.00
G01 Z-2.8000
G01 F120.00
G01 X24.7108 Y3.8841
G01 X24.7107 Y3.8841
G01 X24.7108 Y3.8842
G01 X24.7108 Y3.8841
G00 Z1.0000
G00 X20.4894 Y6.9855
G01 F30.00
G01 Z-2.8000
G01 F120.00
G01 X20.4893 Y6.9854
G01 X20.4893 Y6.9855
G01 X20.4893 Y6.9855
G01 X20.4894 Y6.9855
G00 Z1.0000
G00 X25.4906 Y12.9850
G01 F30.00
G01 Z-2.8000
G01 F120.00
G01 X25.4906 Y12.9849
G01 X25.4905 Y12.9850
G01 X25.4906 Y12.9850
G01 X25.4906 Y12.9850
G00 Z1.0000
G00 X21.8889 Y16.1854
G01 F30.00
G01 Z-2.8000
G01 F120.00
G01 X21.8889 Y16.1853
G01 X21.8888 Y16.1854
G01 X21.8889 Y16.1854
G01 X21.8889 Y16.1854
G00 Z1.0000
G00 X29.8899 Y8.7863
G01 F30.00
G01 Z-2.8000
G01 F120.00
G01 X29.8899 Y8.7863
G01 X29.8898 Y8.7863
G01 X29.8899 Y8.7864
G01 X29.8899 Y8.7863
G00 Z1.0000
G00 X29.8899 Y2.1849
G01 F30.00
G01 Z-2.8000
G01 F120.00
G01 X29.8899 Y2.1848
G01 X29.8898 Y2.1849
G01 X29.8899 Y2.1849
G01 X29.8899 Y2.1849
G00 Z1.0000
G00 X38.1703 Y4.0848
G01 F30.00
G01 Z-2.8000
G01 F120.00
G01 X38.1703 Y4.0847
G01 X38.1702 Y4.0848
G01 X38.1703 Y4.0848
G01 X38.1703 Y4.0848
G00 Z1.0000
G00 X40.7103 Y4.0848
G01 F30.00
G01 Z-2.8000
G01 F120.00
G01 X40.7103 Y4.0847
G01 X40.7102 Y4.0848
G01 X40.7103 Y4.0848
G01 X40.7103 Y4.0848
G00 Z1.0000
G00 X43.2503 Y4.0848
G01 F30.00
G01 Z-2.8000
G01 F120.00
G01 X43.2503 Y4.0847
G01 X43.2502 Y4.0848
G01 X43.2503 Y4.0848
G01 X43.2503 Y4.0848
G00 Z1.0000
G00 X45.7903 Y4.0848
G01 F30.00
G01 Z-2.8000
G01 F120.00
G01 X45.7903 Y4.0847
G01 X45.7902 Y4.0848
G01 X45.7903 Y4.0848
G01 X45.7903 Y4.0848
G00 Z1.0000
G00 X41.3910 Y8.8854
G01 F30.00
G01 Z-2.8000
G01 F120.00
G01 X41.3910 Y8.8853
G01 X41.3909 Y8.8854
G01 X41.3910 Y8.8854
G01 X41.3910 Y8.8854
G00 Z1.0000
G00 X46.3897 Y12.9850
G01 F30.00
G01 Z-2.8000
G01 F120.00
G01 X46.3897 Y12.9849
G01 X46.3896 Y12.9850
G01 X46.3897 Y12.9850
G01 X46.3897 Y12.9850
G00 Z1.0000
G00 X53.9894 Y14.1559
G01 F30.00
G01 Z-2.8000
G01 F120.00
G01 X53.9894 Y14.1558
G01 X53.9893 Y14.1559
G01 X53.9894 Y14.1559
G01 X53.9894 Y14.1559
G00 Z1.0000
G00 X53.9894 Y11.6159
G01 F30.00
G01 Z-2.8000
G01 F120.00
G01 X53.9894 Y11.6158
G01 X53.9893 Y11.6159
G01 X53.9894 Y11.6159
G01 X53.9894 Y11.6159
G00 Z1.0000
G00 X53.9894 Y9.0759
G01 F30.00
G01 Z-2.8000
G01 F120.00
G01 X53.9894 Y9.0758
G01 X53.9893 Y9.0759
G01 X53.9894 Y9.0759
G01 X53.9894 Y9.0759
G00 Z1.0000
G00 X53.9894 Y6.5359
G01 F30.00
G01 Z-2.8000
G01 F120.00
G01 X53.9894 Y6.5358
G01 X53.9893 Y6.5359
G01 X53.9894 Y6.5359
G01 X53.9894 Y6.5359
G00 Z1.0000
G00 X53.9894 Y3.9959
G01 F30.00
G01 Z-2.8000
G01 F120.00
G01 X53.9894 Y3.9958
G01 X53.9893 Y3.9959
G01 X53.9894 Y3.9959
G01 X53.9894 Y3.9959
G00 Z1.0000
G00 X53.9894 Y16.6959
G01 F30.00
G01 Z-2.8000
G01 F120.00
G01 X53.9894 Y16.6958
G01 X53.9893 Y16.6959
G01 X53.9894 Y16.6959
G01 X53.9894 Y16.6959
G00 Z1.0000
G00 X53.9894 Y19.2359
G01 F30.00
G01 Z-2.8000
G01 F120.00
G01 X53.9894 Y19.2358
G01 X53.9893 Y19.2359
G01 X53.9894 Y19.2359
G01 X53.9894 Y19.2359
G00 Z1.0000
G00 X53.9894 Y21.7759
G01 F30.00
G01 Z-2.8000
G01 F120.00
G01 X53.9894 Y21.7758
G01 X53.9893 Y21.7759
G01 X53.9894 Y21.7759
G01 X53.9894 Y21.7759
G00 Z1.0000
G00 X53.9894 Y24.3159
G01 F30.00
G01 Z-2.8000
G01 F120.00
G01 X53.9894 Y24.3158
G01 X53.9893 Y24.3159
G01 X53.9894 Y24.3159
G01 X53.9894 Y24.3159
G00 Z1.0000
G00 X53.9894 Y26.8559
G01 F30.00
G01 Z-2.8000
G01 F120.00
G01 X53.9894 Y26.8558
G01 X53.9893 Y26.8559
G01 X53.9894 Y26.8559
G01 X53.9894 Y26.8559
G00 Z1.0000
G00 X53.9894 Y29.3959
G01 F30.00
G01 Z-2.8000
G01 F120.00
G01 X53.9894 Y29.3958
G01 X53.9893 Y29.3959
G01 X53.9894 Y29.3959
G01 X53.9894 Y29.3959
G00 Z1.0000
G00 X53.9894 Y31.9359
G01 F30.00
G01 Z-2.8000
G01 F120.00
G01 X53.9894 Y31.9358
G01 X53.9893 Y31.9359
G01 X53.9894 Y31.9359
G01 X53.9894 Y31.9359
G00 Z1.0000
G00 X53.9894 Y34.4759
G01 F30.00
G01 Z-2.8000
G01 F120.00
G01 X53.9894 Y34.4758
G01 X53.9893 Y34.4759
G01 X53.9894 Y34.4759
G01 X53.9894 Y34.4759
G00 Z1.0000
G00 X53.9894 Y37.0159
G01 F30.00
G01 Z-2.8000
G01 F120.00
G01 X53.9894 Y37.0158
G01 X53.9893 Y37.0159
G01 X53.9894 Y37.0159
G01 X53.9894 Y37.0159
G00 Z1.0000
G00 X53.9894 Y39.5559
G01 F30.00
G01 Z-2.8000
G01 F120.00
G01 X53.9894 Y39.5558
G01 X53.9893 Y39.5559
G01 X53.9894 Y39.5559
G01 X53.9894 Y39.5559
G00 Z1.0000
G00 X53.9894 Y42.0959
G01 F30.00
G01 Z-2.8000
G01 F120.00
G01 X53.9894 Y42.0958
G01 X53.9893 Y42.0959
G01 X53.9894 Y42.0959
G01 X53.9894 Y42.0959
G00 Z1.0000
G00 X53.9894 Y44.6359
G01 F30.00
G01 Z-2.8000
G01 F120.00
G01 X53.9894 Y44.6358
G01 X53.9893 Y44.6359
G01 X53.9894 Y44.6359
G01 X53.9894 Y44.6359
G00 Z1.0000
G00 X53.9894 Y47.1759
G01 F30.00
G01 Z-2.8000
G01 F120.00
G01 X53.9894 Y47.1758
G01 X53.9893 Y47.1759
G01 X53.9894 Y47.1759
G01 X53.9894 Y47.1759
G00 Z1.0000
G00 X53.9894 Y49.7159
G01 F30.00
G01 Z-2.8000
G01 F120.00
G01 X53.9894 Y49.7158
G01 X53.9893 Y49.7159
G01 X53.9894 Y49.7159
G01 X53.9894 Y49.7159
G00 Z1.0000
G00 X53.9894 Y52.3067
G01 F30.00
G01 Z-2.8000
G01 F120.00
G01 X53.9894 Y52.3066
G01 X53.9893 Y52.3067
G01 X53.9894 Y52.3067
G01 X53.9894 Y52.3067
G00 Z1.0000
G00 X55.3890 Y55.9846
G01 F30.00
G01 Z-2.8000
G01 F120.00
G01 X55.3889 Y55.9846
G01 X55.3889 Y55.9846
G01 X55.3889 Y55.9847
G01 X55.3890 Y55.9846
G00 Z1.0000
G00 X54.6905 Y59.4847
G01 F30.00
G01 Z-2.8000
G01 F120.00
G01 X54.6904 Y59.4847
G01 X54.6904 Y59.4847
G01 X54.6904 Y59.4848
G01 X54.6905 Y59.4847
G00 Z1.0000
G00 X54.6905 Y61.4863
G01 F30.00
G01 Z-2.8000
G01 F120.00
G01 X54.6904 Y61.4862
G01 X54.6904 Y61.4863
G01 X54.6904 Y61.4863
G01 X54.6905 Y61.4863
G00 Z1.0000
G00 X50.9008 Y59.7362
G01 F30.00
G01 Z-2.8000
G01 F120.00
G01 X50.9007 Y59.7361
G01 X50.9007 Y59.7362
G01 X50.9007 Y59.7362
G01 X50.9008 Y59.7362
G00 Z1.0000
G00 X50.9008 Y63.4852
G01 F30.00
G01 Z-2.8000
G01 F120.00
G01 X50.9007 Y63.4852
G01 X50.9007 Y63.4852
G01 X50.9007 Y63.4853
G01 X50.9008 Y63.4852
G00 Z1.0000
G00 X48.3659 Y69.4847
G01 F30.00
G01 Z-2.8000
G01 F120.00
G01 X48.3658 Y69.4847
G01 X48.3658 Y69.4847
G01 X48.3658 Y69.4848
G01 X48.3659 Y69.4847
G00 Z1.0000
G00 X45.8640 Y69.4847
G01 F30.00
G01 Z-2.8000
G01 F120.00
G01 X45.8639 Y69.4847
G01 X45.8639 Y69.4847
G01 X45.8639 Y69.4848
G01 X45.8640 Y69.4847
G00 Z1.0000
G00 X40.8195 Y66.6755
G01 F30.00
G01 Z-2.8000
G01 F120.00
G01 X40.8195 Y66.6754
G01 X40.8194 Y66.6755
G01 X40.8195 Y66.6755
G01 X40.8195 Y66.6755
G00 Z1.0000
G00 X40.7408 Y63.4852
G01 F30.00
G01 Z-2.8000
G01 F120.00
G01 X40.7407 Y63.4852
G01 X40.7407 Y63.4852
G01 X40.7407 Y63.4853
G01 X40.7408 Y63.4852
G00 Z1.0000
G00 X40.7408 Y59.7362
G01 F30.00
G01 Z-2.8000
G01 F120.00
G01 X40.7407 Y59.7361
G01 X40.7407 Y59.7362
G01 X40.7407 Y59.7362
G01 X40.7408 Y59.7362
G00 Z1.0000
G00 X26.2399 Y58.4865
G01 F30.00
G01 Z-2.8000
G01 F120.00
G01 X26.2399 Y58.4865
G01 X26.2398 Y58.4865
G01 X26.2399 Y58.4866
G01 X26.2399 Y58.4865
G00 Z1.0000
G00 X26.2399 Y61.0265
G01 F30.00
G01 Z-2.8000
G01 F120.00
G01 X26.2399 Y61.0265
G01 X26.2398 Y61.0265
G01 X26.2399 Y61.0266
G01 X26.2399 Y61.0265
G00 Z1.0000
G00 X26.2399 Y63.5665
G01 F30.00
G01 Z-2.8000
G01 F120.00
G01 X26.2399 Y63.5665
G01 X26.2398 Y63.5665
G01 X26.2399 Y63.5666
G01 X26.2399 Y63.5665
G00 Z1.0000
G00 X26.2399 Y66.1065
G01 F30.00
G01 Z-2.8000
G01 F120.00
G01 X26.2399 Y66.1065
G01 X26.2398 Y66.1065
G01 X26.2399 Y66.1066
G01 X26.2399 Y66.1065
G00 Z1.0000
G00 X26.2399 Y68.6465
G01 F30.00
G01 Z-2.8000
G01 F120.00
G01 X26.2399 Y68.6465
G01 X26.2398 Y68.6465
G01 X26.2399 Y68.6466
G01 X26.2399 Y68.6465
G00 Z1.0000
G00 X26.2399 Y71.1865
G01 F30.00
G01 Z-2.8000
G01 F120.00
G01 X26.2399 Y71.1865
G01 X26.2398 Y71.1865
G01 X26.2399 Y71.1866
G01 X26.2399 Y71.1865
G00 Z1.0000
G00 X26.2399 Y73.7265
G01 F30.00
G01 Z-2.8000
G01 F120.00
G01 X26.2399 Y73.7265
G01 X26.2398 Y73.7265
G01 X26.2399 Y73.7266
G01 X26.2399 Y73.7265
G00 Z1.0000
G00 X26.2399 Y76.2665
G01 F30.00
G01 Z-2.8000
G01 F120.00
G01 X26.2399 Y76.2665
G01 X26.2398 Y76.2665
G01 X26.2399 Y76.2666
G01 X26.2399 Y76.2665
G00 Z1.0000
G00 X26.2399 Y78.8065
G01 F30.00
G01 Z-2.8000
G01 F120.00
G01 X26.2399 Y78.8065
G01 X26.2398 Y78.8065
G01 X26.2399 Y78.8066
G01 X26.2399 Y78.8065
G00 Z1.0000
G00 X26.2399 Y81.3465
G01 F30.00
G01 Z-2.8000
G01 F120.00
G01 X26.2399 Y81.3465
G01 X26.2398 Y81.3465
G01 X26.2399 Y81.3466
G01 X26.2399 Y81.3465
G00 Z1.0000
G00 X26.2399 Y83.8865
G01 F30.00
G01 Z-2.8000
G01 F120.00
G01 X26.2399 Y83.8865
G01 X26.2398 Y83.8865
G01 X26.2399 Y83.8866
G01 X26.2399 Y83.8865
G00 Z1.0000
G00 X26.2399 Y86.4265
G01 F30.00
G01 Z-2.8000
G01 F120.00
G01 X26.2399 Y86.4265
G01 X26.2398 Y86.4265
G01 X26.2399 Y86.4266
G01 X26.2399 Y86.4265
G00 Z1.0000
G00 X26.2399 Y88.9665
G01 F30.00
G01 Z-2.8000
G01 F120.00
G01 X26.2399 Y88.9665
G01 X26.2398 Y88.9665
G01 X26.2399 Y88.9666
G01 X26.2399 Y88.9665
G00 Z1.0000
G00 X26.2399 Y91.5065
G01 F30.00
G01 Z-2.8000
G01 F120.00
G01 X26.2399 Y91.5065
G01 X26.2398 Y91.5065
G01 X26.2399 Y91.5066
G01 X26.2399 Y91.5065
G00 Z1.0000
G00 X26.2399 Y94.0465
G01 F30.00
G01 Z-2.8000
G01 F120.00
G01 X26.2399 Y94.0465
G01 X26.2398 Y94.0465
G01 X26.2399 Y94.0466
G01 X26.2399 Y94.0465
G00 Z1.0000
G00 X37.4896 Y78.9843
G01 F30.00
G01 Z-2.8000
G01 F120.00
G01 X37.4895 Y78.9843
G01 X37.4895 Y78.9843
G01 X37.4895 Y78.9844
G01 X37.4896 Y78.9843
G00 Z1.0000
G00 X41.0100 Y80.4855
G01 F30.00
G01 Z-2.8000
G01 F120.00
G01 X41.0100 Y80.4854
G01 X41.0099 Y80.4855
G01 X41.0100 Y80.4855
G01 X41.0100 Y80.4855
G00 Z1.0000
G00 X41.0100 Y76.9853
G01 F30.00
G01 Z-2.8000
G01 F120.00
G01 X41.0100 Y76.9853
G01 X41.0099 Y76.9853
G01 X41.0100 Y76.9854
G01 X41.0100 Y76.9853
G00 Z1.0000
G00 X40.8195 Y74.2955
G01 F30.00
G01 Z-2.8000
G01 F120.00
G01 X40.8195 Y74.2954
G01 X40.8194 Y74.2955
G01 X40.8195 Y74.2955
G01 X40.8195 Y74.2955
G00 Z1.0000
G00 X48.6300 Y76.9853
G01 F30.00
G01 Z-2.8000
G01 F120.00
G01 X48.6300 Y76.9853
G01 X48.6299 Y76.9853
G01 X48.6300 Y76.9854
G01 X48.6300 Y76.9853
G00 Z1.0000
G00 X48.6300 Y80.4855
G01 F30.00
G01 Z-2.8000
G01 F120.00
G01 X48.6300 Y80.4854
G01 X48.6299 Y80.4855
G01 X48.6300 Y80.4855
G01 X48.6300 Y80.4855
G00 Z1.0000
G00 X52.2013 Y80.9858
G01 F30.00
G01 Z-2.8000
G01 F120.00
G01 X52.2012 Y80.9858
G01 X52.2012 Y80.9858
G01 X52.2012 Y80.9859
G01 X52.2013 Y80.9858
G00 Z1.0000
G00 X52.2013 Y83.5258
G01 F30.00
G01 Z-2.8000
G01 F120.00
G01 X52.2012 Y83.5258
G01 X52.2012 Y83.5258
G01 X52.2012 Y83.5259
G01 X52.2013 Y83.5258
G00 Z1.0000
G00 X52.2013 Y86.0658
G01 F30.00
G01 Z-2.8000
G01 F120.00
G01 X52.2012 Y86.0658
G01 X52.2012 Y86.0658
G01 X52.2012 Y86.0659
G01 X52.2013 Y86.0658
G00 Z1.0000
G00 X52.2013 Y88.6058
G01 F30.00
G01 Z-2.8000
G01 F120.00
G01 X52.2012 Y88.6058
G01 X52.2012 Y88.6058
G01 X52.2012 Y88.6059
G01 X52.2013 Y88.6058
G00 Z1.0000
G00 X52.3562 Y91.0849
G01 F30.00
G01 Z-2.8000
G01 F120.00
G01 X52.3562 Y91.0848
G01 X52.3561 Y91.0849
G01 X52.3562 Y91.0849
G01 X52.3562 Y91.0849
G00 Z1.0000
G00 X50.0905 Y93.8865
G01 F30.00
G01 Z-2.8000
G01 F120.00
G01 X50.0905 Y93.8864
G01 X50.0904 Y93.8865
G01 X50.0905 Y93.8865
G01 X50.0905 Y93.8865
G00 Z1.0000
G00 X54.4898 Y95.6112
G01 F30.00
G01 Z-2.8000
G01 F120.00
G01 X54.4898 Y95.6111
G01 X54.4897 Y95.6112
G01 X54.4898 Y95.6112
G01 X54.4898 Y95.6112
G00 Z1.0000
G00 X57.0298 Y95.6112
G01 F30.00
G01 Z-2.8000
G01 F120.00
G01 X57.0298 Y95.6111
G01 X57.0297 Y95.6112
G01 X57.0298 Y95.6112
G01 X57.0298 Y95.6112
G00 Z1.0000
G00 X62.3206 Y93.9856
G01 F30.00
G01 Z-2.8000
G01 F120.00
G01 X62.3206 Y93.9855
G01 X62.3205 Y93.9856
G01 X62.3206 Y93.9856
G01 X62.3206 Y93.9856
G00 Z1.0000
G00 X59.8213 Y88.6058
G01 F30.00
G01 Z-2.8000
G01 F120.00
G01 X59.8212 Y88.6058
G01 X59.8212 Y88.6058
G01 X59.8212 Y88.6059
G01 X59.8213 Y88.6058
G00 Z1.0000
G00 X59.8213 Y86.0658
G01 F30.00
G01 Z-2.8000
G01 F120.00
G01 X59.8212 Y86.0658
G01 X59.8212 Y86.0658
G01 X59.8212 Y86.0659
G01 X59.8213 Y86.0658
G00 Z1.0000
G00 X59.8213 Y83.5258
G01 F30.00
G01 Z-2.8000
G01 F120.00
G01 X59.8212 Y83.5258
G01 X59.8212 Y83.5258
G01 X59.8212 Y83.5259
G01 X59.8213 Y83.5258
G00 Z1.0000
G00 X59.8213 Y80.9858
G01 F30.00
G01 Z-2.8000
G01 F120.00
G01 X59.8212 Y80.9858
G01 X59.8212 Y80.9858
G01 X59.8212 Y80.9859
G01 X59.8213 Y80.9858
G00 Z1.0000
G00 X61.6907 Y77.9861
G01 F30.00
G01 Z-2.8000
G01 F120.00
G01 X61.6907 Y77.9860
G01 X61.6906 Y77.9861
G01 X61.6907 Y77.9861
G01 X61.6907 Y77.9861
G00 Z1.0000
G00 X63.9513 Y79.4847
G01 F30.00
G01 Z-2.8000
G01 F120.00
G01 X63.9513 Y79.4846
G01 X63.9512 Y79.4847
G01 X63.9513 Y79.4847
G01 X63.9513 Y79.4847
G00 Z1.0000
G00 X64.0097 Y82.7359
G01 F30.00
G01 Z-2.8000
G01 F120.00
G01 X64.0097 Y82.7358
G01 X64.0096 Y82.7359
G01 X64.0097 Y82.7359
G01 X64.0097 Y82.7359
G00 Z1.0000
G00 X65.3889 Y87.0844
G01 F30.00
G01 Z-2.8000
G01 F120.00
G01 X65.3889 Y87.0843
G01 X65.3888 Y87.0844
G01 X65.3889 Y87.0844
G01 X65.3889 Y87.0844
G00 Z1.0000
G00 X67.8908 Y87.0844
G01 F30.00
G01 Z-2.8000
G01 F120.00
G01 X67.8908 Y87.0843
G01 X67.8907 Y87.0844
G01 X67.8908 Y87.0844
G01 X67.8908 Y87.0844
G00 Z1.0000
G00 X71.6297 Y82.7359
G01 F30.00
G01 Z-2.8000
G01 F120.00
G01 X71.6297 Y82.7358
G01 X71.6296 Y82.7359
G01 X71.6297 Y82.7359
G01 X71.6297 Y82.7359
G00 Z1.0000
G00 X71.5713 Y79.4847
G01 F30.00
G01 Z-2.8000
G01 F120.00
G01 X71.5713 Y79.4846
G01 X71.5712 Y79.4847
G01 X71.5713 Y79.4847
G01 X71.5713 Y79.4847
G00 Z1.0000
G00 X71.5713 Y76.7948
G01 F30.00
G01 Z-2.8000
G01 F120.00
G01 X71.5713 Y76.7948
G01 X71.5712 Y76.7948
G01 X71.5713 Y76.7949
G01 X71.5713 Y76.7948
G00 Z1.0000
G00 X75.6404 Y75.0346
G01 F30.00
G01 Z-2.8000
G01 F120.00
G01 X75.6403 Y75.0346
G01 X75.6403 Y75.0346
G01 X75.6403 Y75.0347
G01 X75.6404 Y75.0346
G00 Z1.0000
G00 X75.2391 Y80.9858
G01 F30.00
G01 Z-2.8000
G01 F120.00
G01 X75.2390 Y80.9858
G01 X75.2390 Y80.9858
G01 X75.2390 Y80.9859
G01 X75.2391 Y80.9858
G00 Z1.0000
G00 X81.8100 Y80.6353
G01 F30.00
G01 Z-2.8000
G01 F120.00
G01 X81.8100 Y80.6353
G01 X81.8099 Y80.6353
G01 X81.8100 Y80.6354
G01 X81.8100 Y80.6353
G00 Z1.0000
G00 X81.8100 Y78.0953
G01 F30.00
G01 Z-2.8000
G01 F120.00
G01 X81.8100 Y78.0953
G01 X81.8099 Y78.0953
G01 X81.8100 Y78.0954
G01 X81.8100 Y78.0953
G00 Z1.0000
G00 X81.8100 Y75.5553
G01 F30.00
G01 Z-2.8000
G01 F120.00
G01 X81.8100 Y75.5553
G01 X81.8099 Y75.5553
G01 X81.8100 Y75.5554
G01 X81.8100 Y75.5553
G00 Z1.0000
G00 X81.8100 Y69.2053
G01 F30.00
G01 Z-2.8000
G01 F120.00
G01 X81.8100 Y69.2053
G01 X81.8099 Y69.2053
G01 X81.8100 Y69.2054
G01 X81.8100 Y69.2053
G00 Z1.0000
G00 X81.8100 Y66.6653
G01 F30.00
G01 Z-2.8000
G01 F120.00
G01 X81.8100 Y66.6653
G01 X81.8099 Y66.6653
G01 X81.8100 Y66.6654
G01 X81.8100 Y66.6653
G00 Z1.0000
G00 X81.8100 Y64.1253
G01 F30.00
G01 Z-2.8000
G01 F120.00
G01 X81.8100 Y64.1253
G01 X81.8099 Y64.1253
G01 X81.8100 Y64.1254
G01 X81.8100 Y64.1253
G00 Z1.0000
G00 X81.8100 Y61.5853
G01 F30.00
G01 Z-2.8000
G01 F120.00
G01 X81.8100 Y61.5853
G01 X81.8099 Y61.5853
G01 X81.8100 Y61.5854
G01 X81.8100 Y61.5853
G00 Z1.0000
G00 X81.8100 Y59.0453
G01 F30.00
G01 Z-2.8000
G01 F120.00
G01 X81.8100 Y59.0453
G01 X81.8099 Y59.0453
G01 X81.8100 Y59.0454
G01 X81.8100 Y59.0453
G00 Z1.0000
G00 X81.8100 Y56.5053
G01 F30.00
G01 Z-2.8000
G01 F120.00
G01 X81.8100 Y56.5053
G01 X81.8099 Y56.5053
G01 X81.8100 Y56.5054
G01 X81.8100 Y56.5053
G00 Z1.0000
G00 X81.8100 Y53.9653
G01 F30.00
G01 Z-2.8000
G01 F120.00
G01 X81.8100 Y53.9653
G01 X81.8099 Y53.9653
G01 X81.8100 Y53.9654
G01 X81.8100 Y53.9653
G00 Z1.0000
G00 X81.8100 Y51.4253
G01 F30.00
G01 Z-2.8000
G01 F120.00
G01 X81.8100 Y51.4253
G01 X81.8099 Y51.4253
G01 X81.8100 Y51.4254
G01 X81.8100 Y51.4253
G00 Z1.0000
G00 X81.8100 Y48.8853
G01 F30.00
G01 Z-2.8000
G01 F120.00
G01 X81.8100 Y48.8853
G01 X81.8099 Y48.8853
G01 X81.8100 Y48.8854
G01 X81.8100 Y48.8853
G00 Z1.0000
G00 X81.8100 Y46.3453
G01 F30.00
G01 Z-2.8000
G01 F120.00
G01 X81.8100 Y46.3453
G01 X81.8099 Y46.3453
G01 X81.8100 Y46.3454
G01 X81.8100 Y46.3453
G00 Z1.0000
G00 X81.8100 Y43.8053
G01 F30.00
G01 Z-2.8000
G01 F120.00
G01 X81.8100 Y43.8053
G01 X81.8099 Y43.8053
G01 X81.8100 Y43.8054
G01 X81.8100 Y43.8053
G00 Z1.0000
G00 X81.8100 Y41.2653
G01 F30.00
G01 Z-2.8000
G01 F120.00
G01 X81.8100 Y41.2653
G01 X81.8099 Y41.2653
G01 X81.8100 Y41.2654
G01 X81.8100 Y41.2653
G00 Z1.0000
G00 X81.8100 Y38.7253
G01 F30.00
G01 Z-2.8000
G01 F120.00
G01 X81.8100 Y38.7253
G01 X81.8099 Y38.7253
G01 X81.8100 Y38.7254
G01 X81.8100 Y38.7253
G00 Z1.0000
G00 X81.8100 Y36.1853
G01 F30.00
G01 Z-2.8000
G01 F120.00
G01 X81.8100 Y36.1853
G01 X81.8099 Y36.1853
G01 X81.8100 Y36.1854
G01 X81.8100 Y36.1853
G00 Z1.0000
G00 X81.8100 Y33.6453
G01 F30.00
G01 Z-2.8000
G01 F120.00
G01 X81.8100 Y33.6453
G01 X81.8099 Y33.6453
G01 X81.8100 Y33.6454
G01 X81.8100 Y33.6453
G00 Z1.0000
G00 X81.8100 Y31.1053
G01 F30.00
G01 Z-2.8000
G01 F120.00
G01 X81.8100 Y31.1053
G01 X81.8099 Y31.1053
G01 X81.8100 Y31.1054
G01 X81.8100 Y31.1053
G00 Z1.0000
G00 X81.8100 Y28.5653
G01 F30.00
G01 Z-2.8000
G01 F120.00
G01 X81.8100 Y28.5653
G01 X81.8099 Y28.5653
G01 X81.8100 Y28.5654
G01 X81.8100 Y28.5653
G00 Z1.0000
G00 X81.8100 Y26.0253
G01 F30.00
G01 Z-2.8000
G01 F120.00
G01 X81.8100 Y26.0253
G01 X81.8099 Y26.0253
G01 X81.8100 Y26.0254
G01 X81.8100 Y26.0253
G00 Z1.0000
G00 X81.8100 Y23.4853
G01 F30.00
G01 Z-2.8000
G01 F120.00
G01 X81.8100 Y23.4853
G01 X81.8099 Y23.4853
G01 X81.8100 Y23.4854
G01 X81.8100 Y23.4853
G00 Z1.0000
G00 X81.8100 Y20.9453
G01 F30.00
G01 Z-2.8000
G01 F120.00
G01 X81.8100 Y20.9453
G01 X81.8099 Y20.9453
G01 X81.8100 Y20.9454
G01 X81.8100 Y20.9453
G00 Z1.0000
G00 X81.8100 Y18.4053
G01 F30.00
G01 Z-2.8000
G01 F120.00
G01 X81.8100 Y18.4053
G01 X81.8099 Y18.4053
G01 X81.8100 Y18.4054
G01 X81.8100 Y18.4053
G00 Z1.0000
G00 X81.8100 Y15.8653
G01 F30.00
G01 Z-2.8000
G01 F120.00
G01 X81.8100 Y15.8653
G01 X81.8099 Y15.8653
G01 X81.8100 Y15.8654
G01 X81.8100 Y15.8653
G00 Z1.0000
G00 X81.8100 Y13.3253
G01 F30.00
G01 Z-2.8000
G01 F120.00
G01 X81.8100 Y13.3253
G01 X81.8099 Y13.3253
G01 X81.8100 Y13.3254
G01 X81.8100 Y13.3253
G00 Z1.0000
G00 X81.8100 Y10.7853
G01 F30.00
G01 Z-2.8000
G01 F120.00
G01 X81.8100 Y10.7853
G01 X81.8099 Y10.7853
G01 X81.8100 Y10.7854
G01 X81.8100 Y10.7853
G00 Z1.0000
G00 X81.8100 Y8.2453
G01 F30.00
G01 Z-2.8000
G01 F120.00
G01 X81.8100 Y8.2453
G01 X81.8099 Y8.2453
G01 X81.8100 Y8.2454
G01 X81.8100 Y8.2453
G00 Z1.0000
G00 X81.8100 Y5.7053
G01 F30.00
G01 Z-2.8000
G01 F120.00
G01 X81.8100 Y5.7053
G01 X81.8099 Y5.7053
G01 X81.8100 Y5.7054
G01 X81.8100 Y5.7053
G00 Z1.0000
G00 X81.8100 Y3.1653
G01 F30.00
G01 Z-2.8000
G01 F120.00
G01 X81.8100 Y3.1653
G01 X81.8099 Y3.1653
G01 X81.8100 Y3.1654
G01 X81.8100 Y3.1653
G00 Z1.0000
G00 X77.9492 Y1.9258
G01 F30.00
G01 Z-2.8000
G01 F120.00
G01 X77.9492 Y1.9257
G01 X77.9491 Y1.9258
G01 X77.9492 Y1.9258
G01 X77.9492 Y1.9258
G00 Z1.0000
G00 X69.2294 Y3.9959
G01 F30.00
G01 Z-2.8000
G01 F120.00
G01 X69.2294 Y3.9958
G01 X69.2293 Y3.9959
G01 X69.2294 Y3.9959
G01 X69.2294 Y3.9959
G00 Z1.0000
G00 X69.2294 Y6.5359
G01 F30.00
G01 Z-2.8000
G01 F120.00
G01 X69.2294 Y6.5358
G01 X69.2293 Y6.5359
G01 X69.2294 Y6.5359
G01 X69.2294 Y6.5359
G00 Z1.0000
G00 X69.2294 Y9.0759
G01 F30.00
G01 Z-2.8000
G01 F120.00
G01 X69.2294 Y9.0758
G01 X69.2293 Y9.0759
G01 X69.2294 Y9.0759
G01 X69.2294 Y9.0759
G00 Z1.0000
G00 X69.2294 Y11.6159
G01 F30.00
G01 Z-2.8000
G01 F120.00
G01 X69.2294 Y11.6158
G01 X69.2293 Y11.6159
G01 X69.2294 Y11.6159
G01 X69.2294 Y11.6159
G00 Z1.0000
G00 X69.2294 Y14.1559
G01 F30.00
G01 Z-2.8000
G01 F120.00
G01 X69.2294 Y14.1558
G01 X69.2293 Y14.1559
G01 X69.2294 Y14.1559
G01 X69.2294 Y14.1559
G00 Z1.0000
G00 X69.2294 Y16.6959
G01 F30.00
G01 Z-2.8000
G01 F120.00
G01 X69.2294 Y16.6958
G01 X69.2293 Y16.6959
G01 X69.2294 Y16.6959
G01 X69.2294 Y16.6959
G00 Z1.0000
G00 X69.2294 Y19.2359
G01 F30.00
G01 Z-2.8000
G01 F120.00
G01 X69.2294 Y19.2358
G01 X69.2293 Y19.2359
G01 X69.2294 Y19.2359
G01 X69.2294 Y19.2359
G00 Z1.0000
G00 X69.2294 Y21.7759
G01 F30.00
G01 Z-2.8000
G01 F120.00
G01 X69.2294 Y21.7758
G01 X69.2293 Y21.7759
G01 X69.2294 Y21.7759
G01 X69.2294 Y21.7759
G00 Z1.0000
G00 X69.2294 Y24.3159
G01 F30.00
G01 Z-2.8000
G01 F120.00
G01 X69.2294 Y24.3158
G01 X69.2293 Y24.3159
G01 X69.2294 Y24.3159
G01 X69.2294 Y24.3159
G00 Z1.0000
G00 X69.2294 Y26.8559
G01 F30.00
G01 Z-2.8000
G01 F120.00
G01 X69.2294 Y26.8558
G01 X69.2293 Y26.8559
G01 X69.2294 Y26.8559
G01 X69.2294 Y26.8559
G00 Z1.0000
G00 X69.2294 Y29.3959
G01 F30.00
G01 Z-2.8000
G01 F120.00
G01 X69.2294 Y29.3958
G01 X69.2293 Y29.3959
G01 X69.2294 Y29.3959
G01 X69.2294 Y29.3959
G00 Z1.0000
G00 X69.2294 Y31.9359
G01 F30.00
G01 Z-2.8000
G01 F120.00
G01 X69.2294 Y31.9358
G01 X69.2293 Y31.9359
G01 X69.2294 Y31.9359
G01 X69.2294 Y31.9359
G00 Z1.0000
G00 X69.2294 Y34.4759
G01 F30.00
G01 Z-2.8000
G01 F120.00
G01 X69.2294 Y34.4758
G01 X69.2293 Y34.4759
G01 X69.2294 Y34.4759
G01 X69.2294 Y34.4759
G00 Z1.0000
G00 X69.2294 Y37.0159
G01 F30.00
G01 Z-2.8000
G01 F120.00
G01 X69.2294 Y37.0158
G01 X69.2293 Y37.0159
G01 X69.2294 Y37.0159
G01 X69.2294 Y37.0159
G00 Z1.0000
G00 X69.2294 Y39.5559
G01 F30.00
G01 Z-2.8000
G01 F120.00
G01 X69.2294 Y39.5558
G01 X69.2293 Y39.5559
G01 X69.2294 Y39.5559
G01 X69.2294 Y39.5559
G00 Z1.0000
G00 X69.2294 Y42.0959
G01 F30.00
G01 Z-2.8000
G01 F120.00
G01 X69.2294 Y42.0958
G01 X69.2293 Y42.0959
G01 X69.2294 Y42.0959
G01 X69.2294 Y42.0959
G00 Z1.0000
G00 X69.2294 Y44.6359
G01 F30.00
G01 Z-2.8000
G01 F120.00
G01 X69.2294 Y44.6358
G01 X69.2293 Y44.6359
G01 X69.2294 Y44.6359
G01 X69.2294 Y44.6359
G00 Z1.0000
G00 X69.2294 Y47.1759
G01 F30.00
G01 Z-2.8000
G01 F120.00
G01 X69.2294 Y47.1758
G01 X69.2293 Y47.1759
G01 X69.2294 Y47.1759
G01 X69.2294 Y47.1759
G00 Z1.0000
G00 X69.2294 Y49.7159
G01 F30.00
G01 Z-2.8000
G01 F120.00
G01 X69.2294 Y49.7158
G01 X69.2293 Y49.7159
G01 X69.2294 Y49.7159
G01 X69.2294 Y49.7159
G00 Z1.0000
G00 X69.2294 Y52.2559
G01 F30.00
G01 Z-2.8000
G01 F120.00
G01 X69.2294 Y52.2558
G01 X69.2293 Y52.2559
G01 X69.2294 Y52.2559
G01 X69.2294 Y52.2559
G00 Z1.0000
G00 X62.8693 Y48.4459
G01 F30.00
G01 Z-2.8000
G01 F120.00
G01 X62.8692 Y48.4458
G01 X62.8692 Y48.4459
G01 X62.8692 Y48.4459
G01 X62.8693 Y48.4459
G00 Z1.0000
G00 X60.3293 Y48.4459
G01 F30.00
G01 Z-2.8000
G01 F120.00
G01 X60.3292 Y48.4458
G01 X60.3292 Y48.4459
G01 X60.3292 Y48.4459
G01 X60.3293 Y48.4459
G00 Z1.0000
G00 X62.4908 Y55.9846
G01 F30.00
G01 Z-2.8000
G01 F120.00
G01 X62.4908 Y55.9846
G01 X62.4907 Y55.9846
G01 X62.4908 Y55.9847
G01 X62.4908 Y55.9846
G00 Z1.0000
G00 X60.5909 Y59.4847
G01 F30.00
G01 Z-2.8000
G01 F120.00
G01 X60.5908 Y59.4847
G01 X60.5908 Y59.4847
G01 X60.5908 Y59.4848
G01 X60.5909 Y59.4847
G00 Z1.0000
G00 X61.7390 Y62.7359
G01 F30.00
G01 Z-2.8000
G01 F120.00
G01 X61.7389 Y62.7359
G01 X61.7389 Y62.7359
G01 X61.7389 Y62.7360
G01 X61.7390 Y62.7359
G00 Z1.0000
G00 X61.7390 Y66.2361
G01 F30.00
G01 Z-2.8000
G01 F120.00
G01 X61.7389 Y66.2360
G01 X61.7389 Y66.2361
G01 X61.7389 Y66.2361
G01 X61.7390 Y66.2361
G00 Z1.0000
G00 X65.1908 Y70.7852
G01 F30.00
G01 Z-2.8000
G01 F120.00
G01 X65.1908 Y70.7851
G01 X65.1907 Y70.7852
G01 X65.1908 Y70.7852
G01 X65.1908 Y70.7852
G00 Z1.0000
G00 X67.6902 Y70.7852
G01 F30.00
G01 Z-2.8000
G01 F120.00
G01 X67.6901 Y70.7851
G01 X67.6901 Y70.7852
G01 X67.6901 Y70.7852
G01 X67.6902 Y70.7852
G00 Z1.0000
G00 X71.5713 Y69.1748
G01 F30.00
G01 Z-2.8000
G01 F120.00
G01 X71.5713 Y69.1748
G01 X71.5712 Y69.1748
G01 X71.5713 Y69.1749
G01 X71.5713 Y69.1748
G00 Z1.0000
G00 X71.8990 Y66.2361
G01 F30.00
G01 Z-2.8000
G01 F120.00
G01 X71.8989 Y66.2360
G01 X71.8989 Y66.2361
G01 X71.8989 Y66.2361
G01 X71.8990 Y66.2361
G00 Z1.0000
G00 X71.8990 Y62.7359
G01 F30.00
G01 Z-2.8000
G01 F120.00
G01 X71.8989 Y62.7359
G01 X71.8989 Y62.7359
G01 X71.8989 Y62.7360
G01 X71.8990 Y62.7359
G00 Z1.0000
G00 X73.9894 Y59.4847
G01 F30.00
G01 Z-2.8000
G01 F120.00
G01 X73.9893 Y59.4847
G01 X73.9893 Y59.4847
G01 X73.9893 Y59.4848
G01 X73.9894 Y59.4847
G00 Z1.0000
G00 X76.6894 Y61.8063
G01 F30.00
G01 Z-2.8000
G01 F120.00
G01 X76.6894 Y61.8062
G01 X76.6893 Y61.8063
G01 X76.6894 Y61.8063
G01 X76.6894 Y61.8063
G00 Z1.0000
G00 X76.6894 Y64.3463
G01 F30.00
G01 Z-2.8000
G01 F120.00
G01 X76.6894 Y64.3462
G01 X76.6893 Y64.3463
G01 X76.6894 Y64.3463
G01 X76.6894 Y64.3463
G00 Z1.0000
G00 X76.6894 Y66.8863
G01 F30.00
G01 Z-2.8000
G01 F120.00
G01 X76.6894 Y66.8862
G01 X76.6893 Y66.8863
G01 X76.6894 Y66.8863
G01 X76.6894 Y66.8863
G00 Z1.0000
G00 X65.2391 Y59.4847
G01 F30.00
G01 Z-2.8000
G01 F120.00
G01 X65.2390 Y59.4847
G01 X65.2390 Y59.4847
G01 X65.2390 Y59.4848
G01 X65.2391 Y59.4847
G00 Z1.0000
G00 X61.4900 Y75.0854
G01 F30.00
G01 Z-2.8000
G01 F120.00
G01 X61.4900 Y75.0854
G01 X61.4899 Y75.0854
G01 X61.4900 Y75.0855
G01 X61.4900 Y75.0854
G00 Z1.0000
G00 X56.7910 Y77.9861
G01 F30.00
G01 Z-2.8000
G01 F120.00
G01 X56.7910 Y77.9860
G01 X56.7909 Y77.9861
G01 X56.7910 Y77.9861
G01 X56.7910 Y77.9861
G00 Z1.0000
G00 X54.6905 Y77.9861
G01 F30.00
G01 Z-2.8000
G01 F120.00
G01 X54.6904 Y77.9860
G01 X54.6904 Y77.9861
G01 X54.6904 Y77.9861
G01 X54.6905 Y77.9861
G00 Z1.0000
G00 X48.6148 Y85.9846
G01 F30.00
G01 Z-2.8000
G01 F120.00
G01 X48.6147 Y85.9845
G01 X48.6147 Y85.9846
G01 X48.6147 Y85.9846
G01 X48.6148 Y85.9846
G00 Z1.0000
G00 X46.1154 Y85.9846
G01 F30.00
G01 Z-2.8000
G01 F120.00
G01 X46.1154 Y85.9845
G01 X46.1153 Y85.9846
G01 X46.1154 Y85.9846
G01 X46.1154 Y85.9846
G00 Z1.0000
G00 X78.4903 Y91.2017
G01 F30.00
G01 Z-2.8000
G01 F120.00
G01 X78.4902 Y91.2017
G01 X78.4902 Y91.2017
G01 X78.4902 Y91.2018
G01 X78.4903 Y91.2017
G00 Z1.0000
G00 X81.8100 Y90.7953
G01 F30.00
G01 Z-2.8000
G01 F120.00
G01 X81.8100 Y90.7953
G01 X81.8099 Y90.7953
G01 X81.8100 Y90.7954
G01 X81.8100 Y90.7953
G00 Z1.0000
G00 X81.8100 Y93.3353
G01 F30.00
G01 Z-2.8000
G01 F120.00
G01 X81.8100 Y93.3353
G01 X81.8099 Y93.3353
G01 X81.8100 Y93.3354
G01 X81.8100 Y93.3353
G00 Z1.0000
G00 X81.8100 Y88.2553
G01 F30.00
G01 Z-2.8000
G01 F120.00
G01 X81.8100 Y88.2553
G01 X81.8099 Y88.2553
G01 X81.8100 Y88.2554
G01 X81.8100 Y88.2553
G00 Z1.0000
G00 X81.8100 Y85.7153
G01 F30.00
G01 Z-2.8000
G01 F120.00
G01 X81.8100 Y85.7153
G01 X81.8099 Y85.7153
G01 X81.8100 Y85.7154
G01 X81.8100 Y85.7153
G00 Z1.0000
G00 X81.8100 Y83.1753
G01 F30.00
G01 Z-2.8000
G01 F120.00
G01 X81.8100 Y83.1753
G01 X81.8099 Y83.1753
G01 X81.8100 Y83.1754
G01 X81.8100 Y83.1753
G00 Z1.0000
G00 X26.2399 Y55.9465
G01 F30.00
G01 Z-2.8000
G01 F120.00
G01 X26.2399 Y55.9465
G01 X26.2398 Y55.9465
G01 X26.2399 Y55.9466
G01 X26.2399 Y55.9465
G00 Z1.0000
G00 X26.2399 Y53.4065
G01 F30.00
G01 Z-2.8000
G01 F120.00
G01 X26.2399 Y53.4065
G01 X26.2398 Y53.4065
G01 X26.2399 Y53.4066
G01 X26.2399 Y53.4065
G00 Z1.0000
G00 X26.2399 Y50.8665
G01 F30.00
G01 Z-2.8000
G01 F120.00
G01 X26.2399 Y50.8665
G01 X26.2398 Y50.8665
G01 X26.2399 Y50.8666
G01 X26.2399 Y50.8665
G00 Z1.0000
G00 X26.2399 Y48.3265
G01 F30.00
G01 Z-2.8000
G01 F120.00
G01 X26.2399 Y48.3265
G01 X26.2398 Y48.3265
G01 X26.2399 Y48.3266
G01 X26.2399 Y48.3265
G00 Z1.0000
G00 X26.2399 Y45.7357
G01 F30.00
G01 Z-2.8000
G01 F120.00
G01 X26.2399 Y45.7357
G01 X26.2398 Y45.7357
G01 X26.2399 Y45.7358
G01 X26.2399 Y45.7357
G00 Z1.0000
G00 X19.9001 Y49.5965
G01 F30.00
G01 Z-2.8000
G01 F120.00
G01 X19.9000 Y49.5965
G01 X19.9000 Y49.5965
G01 X19.9000 Y49.5966
G01 X19.9001 Y49.5965
G00 Z1.0000
G00 X17.3601 Y49.5965
G01 F30.00
G01 Z-2.8000
G01 F120.00
G01 X17.3600 Y49.5965
G01 X17.3600 Y49.5965
G01 X17.3600 Y49.5966
G01 X17.3601 Y49.5965
G00 Z1.0000
G00 X26.2907 Y33.1856
G01 F30.00
G01 Z-2.8000
G01 F120.00
G01 X26.2907 Y33.1855
G01 X26.2906 Y33.1856
G01 X26.2907 Y33.1856
G01 X26.2907 Y33.1856
G00 Z1.0000
G00 X30.7459 Y28.2758
G01 F30.00
G01 Z-2.8000
G01 F120.00
G01 X30.7458 Y28.2757
G01 X30.7458 Y28.2758
G01 X30.7458 Y28.2758
G01 X30.7459 Y28.2758
G00 Z1.0000
G00 X33.2910 Y30.9859
G01 F30.00
G01 Z-2.8000
G01 F120.00
G01 X33.2909 Y30.9859
G01 X33.2909 Y30.9859
G01 X33.2909 Y30.9860
G01 X33.2910 Y30.9859
G00 Z1.0000
G00 X33.2910 Y33.0865
G01 F30.00
G01 Z-2.8000
G01 F120.00
G01 X33.2909 Y33.0865
G01 X33.2909 Y33.0865
G01 X33.2909 Y33.0866
G01 X33.2910 Y33.0865
G00 Z1.0000
G00 X21.8889 Y28.1843
G01 F30.00
G01 Z-2.8000
G01 F120.00
G01 X21.8889 Y28.1843
G01 X21.8888 Y28.1843
G01 X21.8889 Y28.1844
G01 X21.8889 Y28.1843
G00 Z1.0000
G00 X19.0898 Y28.2758
G01 F30.00
G01 Z-2.8000
G01 F120.00
G01 X19.0898 Y28.2757
G01 X19.0897 Y28.2758
G01 X19.0898 Y28.2758
G01 X19.0898 Y28.2758
G00 Z1.0000
G00 X46.4558 Y31.0850
G01 F30.00
G01 Z-2.8000
G01 F120.00
G01 X46.4557 Y31.0849
G01 X46.4557 Y31.0850
G01 X46.4557 Y31.0850
G01 X46.4558 Y31.0850
G00 Z1.0000
G00 X48.5894 Y28.3850
G01 F30.00
G01 Z-2.8000
G01 F120.00
G01 X48.5893 Y28.3849
G01 X48.5893 Y28.3850
G01 X48.5893 Y28.3850
G01 X48.5894 Y28.3850
G00 Z1.0000
M05
G00 Z1.0000
G00 Z15.00


