(G-CODE GENERATED BY FLATCAM v8.994 - www.flatcam.org - Version Date: 2020/11/7)

(Name: condicionamento_BIA_v02-PTH.drl_mill_1_cnc)
(Type: G-code from Geometry)
(Units: MM)

(Created on sexta, 04 agosto 2023 at 14:24)

(This preprocessor is the default preprocessor used by FlatCAM.)
(It is made to work with MACH3 compatible motion controllers.)

(TOOL DIAMETER: 0.8 mm)
(Feedrate_XY: 120.0 mm/min)
(Feedrate_Z: 10.0 mm/min)
(Feedrate rapids 1500.0 mm/min)

(Z_Cut: -2.8 mm)
(Z_Move: 1.0 mm)
(Z Start: None mm)
(Z End: 15.0 mm)
(X,Y End: None mm)
(Steps per circle: 64)
(Preprocessor Geometry: default)

(X range:    4.1111 ...   85.1702  mm)
(Y range:    2.7406 ...   98.0491  mm)

(Spindle Speed: 1000.0 RPM)
G21
G90
G94

G01 F120.00

M5
G00 Z1.0000
G00 X0.0000 Y0.0000
(T1)
(M6  )  
(MSG, Change to Tool Dia = 0.80000)
(M0)
G00 Z1.0000

M03 S1000.0
G01 F120.00
G00 X4.1112 Y3.1013
G01 F10.00
G01 Z-2.8000
G01 F120.00
G01 X4.1111 Y3.1012
G01 X4.1111 Y3.1013
G01 X4.1111 Y3.1013
G01 X4.1112 Y3.1013
G00 Z1.0000
G00 X6.6512 Y3.1013
G01 F10.00
G01 Z-2.8000
G01 F120.00
G01 X6.6511 Y3.1012
G01 X6.6511 Y3.1013
G01 X6.6511 Y3.1013
G01 X6.6512 Y3.1013
G00 Z1.0000
G00 X5.1602 Y7.7901
G01 F10.00
G01 Z-2.8000
G01 F120.00
G01 X5.1601 Y7.7901
G01 X5.1601 Y7.7901
G01 X5.1601 Y7.7902
G01 X5.1602 Y7.7901
G00 Z1.0000
G00 X5.1602 Y10.3301
G01 F10.00
G01 Z-2.8000
G01 F120.00
G01 X5.1601 Y10.3301
G01 X5.1601 Y10.3301
G01 X5.1601 Y10.3302
G01 X5.1602 Y10.3301
G00 Z1.0000
G00 X5.1602 Y12.8701
G01 F10.00
G01 Z-2.8000
G01 F120.00
G01 X5.1601 Y12.8701
G01 X5.1601 Y12.8701
G01 X5.1601 Y12.8702
G01 X5.1602 Y12.8701
G00 Z1.0000
G00 X5.1602 Y15.4101
G01 F10.00
G01 Z-2.8000
G01 F120.00
G01 X5.1601 Y15.4101
G01 X5.1601 Y15.4101
G01 X5.1601 Y15.4102
G01 X5.1602 Y15.4101
G00 Z1.0000
G00 X5.1602 Y17.9501
G01 F10.00
G01 Z-2.8000
G01 F120.00
G01 X5.1601 Y17.9501
G01 X5.1601 Y17.9501
G01 X5.1601 Y17.9502
G01 X5.1602 Y17.9501
G00 Z1.0000
G00 X5.1602 Y20.4901
G01 F10.00
G01 Z-2.8000
G01 F120.00
G01 X5.1601 Y20.4901
G01 X5.1601 Y20.4901
G01 X5.1601 Y20.4902
G01 X5.1602 Y20.4901
G00 Z1.0000
G00 X5.1602 Y23.0301
G01 F10.00
G01 Z-2.8000
G01 F120.00
G01 X5.1601 Y23.0301
G01 X5.1601 Y23.0301
G01 X5.1601 Y23.0302
G01 X5.1602 Y23.0301
G00 Z1.0000
G00 X5.1602 Y25.5701
G01 F10.00
G01 Z-2.8000
G01 F120.00
G01 X5.1601 Y25.5701
G01 X5.1601 Y25.5701
G01 X5.1601 Y25.5702
G01 X5.1602 Y25.5701
G00 Z1.0000
G00 X5.1602 Y28.1101
G01 F10.00
G01 Z-2.8000
G01 F120.00
G01 X5.1601 Y28.1101
G01 X5.1601 Y28.1101
G01 X5.1601 Y28.1102
G01 X5.1602 Y28.1101
G00 Z1.0000
G00 X5.1602 Y30.6501
G01 F10.00
G01 Z-2.8000
G01 F120.00
G01 X5.1601 Y30.6501
G01 X5.1601 Y30.6501
G01 X5.1601 Y30.6502
G01 X5.1602 Y30.6501
G00 Z1.0000
G00 X5.1602 Y33.1901
G01 F10.00
G01 Z-2.8000
G01 F120.00
G01 X5.1601 Y33.1901
G01 X5.1601 Y33.1901
G01 X5.1601 Y33.1902
G01 X5.1602 Y33.1901
G00 Z1.0000
G00 X5.1602 Y35.7301
G01 F10.00
G01 Z-2.8000
G01 F120.00
G01 X5.1601 Y35.7301
G01 X5.1601 Y35.7301
G01 X5.1601 Y35.7302
G01 X5.1602 Y35.7301
G00 Z1.0000
G00 X5.1602 Y38.2701
G01 F10.00
G01 Z-2.8000
G01 F120.00
G01 X5.1601 Y38.2701
G01 X5.1601 Y38.2701
G01 X5.1601 Y38.2702
G01 X5.1602 Y38.2701
G00 Z1.0000
G00 X5.1602 Y40.8101
G01 F10.00
G01 Z-2.8000
G01 F120.00
G01 X5.1601 Y40.8101
G01 X5.1601 Y40.8101
G01 X5.1601 Y40.8102
G01 X5.1602 Y40.8101
G00 Z1.0000
G00 X5.1602 Y43.3501
G01 F10.00
G01 Z-2.8000
G01 F120.00
G01 X5.1601 Y43.3501
G01 X5.1601 Y43.3501
G01 X5.1601 Y43.3502
G01 X5.1602 Y43.3501
G00 Z1.0000
G00 X5.1602 Y45.8901
G01 F10.00
G01 Z-2.8000
G01 F120.00
G01 X5.1601 Y45.8901
G01 X5.1601 Y45.8901
G01 X5.1601 Y45.8902
G01 X5.1602 Y45.8901
G00 Z1.0000
G00 X5.1602 Y48.4301
G01 F10.00
G01 Z-2.8000
G01 F120.00
G01 X5.1601 Y48.4301
G01 X5.1601 Y48.4301
G01 X5.1601 Y48.4302
G01 X5.1602 Y48.4301
G00 Z1.0000
G00 X5.1602 Y50.9701
G01 F10.00
G01 Z-2.8000
G01 F120.00
G01 X5.1601 Y50.9701
G01 X5.1601 Y50.9701
G01 X5.1601 Y50.9702
G01 X5.1602 Y50.9701
G00 Z1.0000
G00 X5.1602 Y53.5101
G01 F10.00
G01 Z-2.8000
G01 F120.00
G01 X5.1601 Y53.5101
G01 X5.1601 Y53.5101
G01 X5.1601 Y53.5102
G01 X5.1602 Y53.5101
G00 Z1.0000
G00 X5.1602 Y56.0501
G01 F10.00
G01 Z-2.8000
G01 F120.00
G01 X5.1601 Y56.0501
G01 X5.1601 Y56.0501
G01 X5.1601 Y56.0502
G01 X5.1602 Y56.0501
G00 Z1.0000
G00 X5.1602 Y58.5901
G01 F10.00
G01 Z-2.8000
G01 F120.00
G01 X5.1601 Y58.5901
G01 X5.1601 Y58.5901
G01 X5.1601 Y58.5902
G01 X5.1602 Y58.5901
G00 Z1.0000
G00 X5.1602 Y61.1301
G01 F10.00
G01 Z-2.8000
G01 F120.00
G01 X5.1601 Y61.1301
G01 X5.1601 Y61.1301
G01 X5.1601 Y61.1302
G01 X5.1602 Y61.1301
G00 Z1.0000
G00 X5.1602 Y63.6701
G01 F10.00
G01 Z-2.8000
G01 F120.00
G01 X5.1601 Y63.6701
G01 X5.1601 Y63.6701
G01 X5.1601 Y63.6702
G01 X5.1602 Y63.6701
G00 Z1.0000
G00 X5.1602 Y66.2101
G01 F10.00
G01 Z-2.8000
G01 F120.00
G01 X5.1601 Y66.2101
G01 X5.1601 Y66.2101
G01 X5.1601 Y66.2102
G01 X5.1602 Y66.2101
G00 Z1.0000
G00 X5.1602 Y68.7501
G01 F10.00
G01 Z-2.8000
G01 F120.00
G01 X5.1601 Y68.7501
G01 X5.1601 Y68.7501
G01 X5.1601 Y68.7502
G01 X5.1602 Y68.7501
G00 Z1.0000
G00 X5.1602 Y71.2901
G01 F10.00
G01 Z-2.8000
G01 F120.00
G01 X5.1601 Y71.2901
G01 X5.1601 Y71.2901
G01 X5.1601 Y71.2902
G01 X5.1602 Y71.2901
G00 Z1.0000
G00 X5.1602 Y73.8301
G01 F10.00
G01 Z-2.8000
G01 F120.00
G01 X5.1601 Y73.8301
G01 X5.1601 Y73.8301
G01 X5.1601 Y73.8302
G01 X5.1602 Y73.8301
G00 Z1.0000
G00 X5.1602 Y76.3701
G01 F10.00
G01 Z-2.8000
G01 F120.00
G01 X5.1601 Y76.3701
G01 X5.1601 Y76.3701
G01 X5.1601 Y76.3702
G01 X5.1602 Y76.3701
G00 Z1.0000
G00 X5.1602 Y78.9101
G01 F10.00
G01 Z-2.8000
G01 F120.00
G01 X5.1601 Y78.9101
G01 X5.1601 Y78.9101
G01 X5.1601 Y78.9102
G01 X5.1602 Y78.9101
G00 Z1.0000
G00 X5.1602 Y81.4501
G01 F10.00
G01 Z-2.8000
G01 F120.00
G01 X5.1601 Y81.4501
G01 X5.1601 Y81.4501
G01 X5.1601 Y81.4502
G01 X5.1602 Y81.4501
G00 Z1.0000
G00 X5.1602 Y83.9901
G01 F10.00
G01 Z-2.8000
G01 F120.00
G01 X5.1601 Y83.9901
G01 X5.1601 Y83.9901
G01 X5.1601 Y83.9902
G01 X5.1602 Y83.9901
G00 Z1.0000
G00 X5.1602 Y86.5301
G01 F10.00
G01 Z-2.8000
G01 F120.00
G01 X5.1601 Y86.5301
G01 X5.1601 Y86.5301
G01 X5.1601 Y86.5302
G01 X5.1602 Y86.5301
G00 Z1.0000
G00 X5.1602 Y89.0701
G01 F10.00
G01 Z-2.8000
G01 F120.00
G01 X5.1601 Y89.0701
G01 X5.1601 Y89.0701
G01 X5.1601 Y89.0702
G01 X5.1602 Y89.0701
G00 Z1.0000
G00 X5.1602 Y91.6101
G01 F10.00
G01 Z-2.8000
G01 F120.00
G01 X5.1601 Y91.6101
G01 X5.1601 Y91.6101
G01 X5.1601 Y91.6102
G01 X5.1602 Y91.6101
G00 Z1.0000
G00 X5.1602 Y94.1501
G01 F10.00
G01 Z-2.8000
G01 F120.00
G01 X5.1601 Y94.1501
G01 X5.1601 Y94.1501
G01 X5.1601 Y94.1502
G01 X5.1602 Y94.1501
G00 Z1.0000
G00 X8.3504 Y98.0490
G01 F10.00
G01 Z-2.8000
G01 F120.00
G01 X8.3504 Y98.0490
G01 X8.3503 Y98.0490
G01 X8.3504 Y98.0491
G01 X8.3504 Y98.0490
G00 Z1.0000
G00 X14.3601 Y94.8613
G01 F10.00
G01 Z-2.8000
G01 F120.00
G01 X14.3600 Y94.8613
G01 X14.3600 Y94.8613
G01 X14.3600 Y94.8614
G01 X14.3601 Y94.8613
G00 Z1.0000
G00 X14.3601 Y92.3213
G01 F10.00
G01 Z-2.8000
G01 F120.00
G01 X14.3600 Y92.3213
G01 X14.3600 Y92.3213
G01 X14.3600 Y92.3214
G01 X14.3601 Y92.3213
G00 Z1.0000
G00 X14.3601 Y89.7813
G01 F10.00
G01 Z-2.8000
G01 F120.00
G01 X14.3600 Y89.7813
G01 X14.3600 Y89.7813
G01 X14.3600 Y89.7814
G01 X14.3601 Y89.7813
G00 Z1.0000
G00 X14.3601 Y87.2413
G01 F10.00
G01 Z-2.8000
G01 F120.00
G01 X14.3600 Y87.2413
G01 X14.3600 Y87.2413
G01 X14.3600 Y87.2414
G01 X14.3601 Y87.2413
G00 Z1.0000
G00 X14.3601 Y84.7013
G01 F10.00
G01 Z-2.8000
G01 F120.00
G01 X14.3600 Y84.7013
G01 X14.3600 Y84.7013
G01 X14.3600 Y84.7014
G01 X14.3601 Y84.7013
G00 Z1.0000
G00 X14.3601 Y82.1613
G01 F10.00
G01 Z-2.8000
G01 F120.00
G01 X14.3600 Y82.1613
G01 X14.3600 Y82.1613
G01 X14.3600 Y82.1614
G01 X14.3601 Y82.1613
G00 Z1.0000
G00 X14.3601 Y79.6213
G01 F10.00
G01 Z-2.8000
G01 F120.00
G01 X14.3600 Y79.6213
G01 X14.3600 Y79.6213
G01 X14.3600 Y79.6214
G01 X14.3601 Y79.6213
G00 Z1.0000
G00 X14.3601 Y77.0813
G01 F10.00
G01 Z-2.8000
G01 F120.00
G01 X14.3600 Y77.0813
G01 X14.3600 Y77.0813
G01 X14.3600 Y77.0814
G01 X14.3601 Y77.0813
G00 Z1.0000
G00 X14.3601 Y74.5413
G01 F10.00
G01 Z-2.8000
G01 F120.00
G01 X14.3600 Y74.5413
G01 X14.3600 Y74.5413
G01 X14.3600 Y74.5414
G01 X14.3601 Y74.5413
G00 Z1.0000
G00 X14.3601 Y72.0013
G01 F10.00
G01 Z-2.8000
G01 F120.00
G01 X14.3600 Y72.0013
G01 X14.3600 Y72.0013
G01 X14.3600 Y72.0014
G01 X14.3601 Y72.0013
G00 Z1.0000
G00 X14.3601 Y69.4613
G01 F10.00
G01 Z-2.8000
G01 F120.00
G01 X14.3600 Y69.4613
G01 X14.3600 Y69.4613
G01 X14.3600 Y69.4614
G01 X14.3601 Y69.4613
G00 Z1.0000
G00 X14.3601 Y66.9213
G01 F10.00
G01 Z-2.8000
G01 F120.00
G01 X14.3600 Y66.9213
G01 X14.3600 Y66.9213
G01 X14.3600 Y66.9214
G01 X14.3601 Y66.9213
G00 Z1.0000
G00 X14.3601 Y64.3813
G01 F10.00
G01 Z-2.8000
G01 F120.00
G01 X14.3600 Y64.3813
G01 X14.3600 Y64.3813
G01 X14.3600 Y64.3814
G01 X14.3601 Y64.3813
G00 Z1.0000
G00 X14.3601 Y61.8413
G01 F10.00
G01 Z-2.8000
G01 F120.00
G01 X14.3600 Y61.8413
G01 X14.3600 Y61.8413
G01 X14.3600 Y61.8414
G01 X14.3601 Y61.8413
G00 Z1.0000
G00 X14.3601 Y59.3013
G01 F10.00
G01 Z-2.8000
G01 F120.00
G01 X14.3600 Y59.3013
G01 X14.3600 Y59.3013
G01 X14.3600 Y59.3014
G01 X14.3601 Y59.3013
G00 Z1.0000
G00 X14.3601 Y56.7613
G01 F10.00
G01 Z-2.8000
G01 F120.00
G01 X14.3600 Y56.7613
G01 X14.3600 Y56.7613
G01 X14.3600 Y56.7614
G01 X14.3601 Y56.7613
G00 Z1.0000
G00 X14.3601 Y54.2213
G01 F10.00
G01 Z-2.8000
G01 F120.00
G01 X14.3600 Y54.2213
G01 X14.3600 Y54.2213
G01 X14.3600 Y54.2214
G01 X14.3601 Y54.2213
G00 Z1.0000
G00 X14.3601 Y51.6813
G01 F10.00
G01 Z-2.8000
G01 F120.00
G01 X14.3600 Y51.6813
G01 X14.3600 Y51.6813
G01 X14.3600 Y51.6814
G01 X14.3601 Y51.6813
G00 Z1.0000
G00 X14.3601 Y49.1413
G01 F10.00
G01 Z-2.8000
G01 F120.00
G01 X14.3600 Y49.1413
G01 X14.3600 Y49.1413
G01 X14.3600 Y49.1414
G01 X14.3601 Y49.1413
G00 Z1.0000
G00 X14.3601 Y46.6013
G01 F10.00
G01 Z-2.8000
G01 F120.00
G01 X14.3600 Y46.6013
G01 X14.3600 Y46.6013
G01 X14.3600 Y46.6014
G01 X14.3601 Y46.6013
G00 Z1.0000
G00 X17.2506 Y41.8007
G01 F10.00
G01 Z-2.8000
G01 F120.00
G01 X17.2505 Y41.8007
G01 X17.2505 Y41.8007
G01 X17.2505 Y41.8008
G01 X17.2506 Y41.8007
G00 Z1.0000
G00 X22.4500 Y36.7106
G01 F10.00
G01 Z-2.8000
G01 F120.00
G01 X22.4499 Y36.7105
G01 X22.4499 Y36.7106
G01 X22.4499 Y36.7106
G01 X22.4500 Y36.7106
G00 Z1.0000
G00 X17.2506 Y34.1807
G01 F10.00
G01 Z-2.8000
G01 F120.00
G01 X17.2505 Y34.1807
G01 X17.2505 Y34.1807
G01 X17.2505 Y34.1808
G01 X17.2506 Y34.1807
G00 Z1.0000
G00 X11.1851 Y31.3994
G01 F10.00
G01 Z-2.8000
G01 F120.00
G01 X11.1850 Y31.3994
G01 X11.1850 Y31.3994
G01 X11.1850 Y31.3995
G01 X11.1851 Y31.3994
G00 Z1.0000
G00 X15.7494 Y26.2991
G01 F10.00
G01 Z-2.8000
G01 F120.00
G01 X15.7494 Y26.2991
G01 X15.7493 Y26.2991
G01 X15.7494 Y26.2992
G01 X15.7494 Y26.2991
G00 Z1.0000
G00 X11.1495 Y22.1005
G01 F10.00
G01 Z-2.8000
G01 F120.00
G01 X11.1494 Y22.1004
G01 X11.1494 Y22.1005
G01 X11.1494 Y22.1005
G01 X11.1495 Y22.1005
G00 Z1.0000
G00 X15.7494 Y18.9356
G01 F10.00
G01 Z-2.8000
G01 F120.00
G01 X15.7494 Y18.9356
G01 X15.7493 Y18.9356
G01 X15.7494 Y18.9357
G01 X15.7494 Y18.9356
G00 Z1.0000
G00 X17.8500 Y15.3009
G01 F10.00
G01 Z-2.8000
G01 F120.00
G01 X17.8500 Y15.3009
G01 X17.8499 Y15.3009
G01 X17.8500 Y15.3010
G01 X17.8500 Y15.3009
G00 Z1.0000
G00 X15.7164 Y12.7990
G01 F10.00
G01 Z-2.8000
G01 F120.00
G01 X15.7164 Y12.7990
G01 X15.7163 Y12.7990
G01 X15.7164 Y12.7991
G01 X15.7164 Y12.7990
G00 Z1.0000
G00 X10.6009 Y12.7990
G01 F10.00
G01 Z-2.8000
G01 F120.00
G01 X10.6008 Y12.7990
G01 X10.6008 Y12.7990
G01 X10.6008 Y12.7991
G01 X10.6009 Y12.7990
G00 Z1.0000
G00 X9.0997 Y15.5498
G01 F10.00
G01 Z-2.8000
G01 F120.00
G01 X9.0997 Y15.5498
G01 X9.0996 Y15.5498
G01 X9.0997 Y15.5499
G01 X9.0997 Y15.5498
G00 Z1.0000
G00 X11.4162 Y7.8003
G01 F10.00
G01 Z-2.8000
G01 F120.00
G01 X11.4161 Y7.8002
G01 X11.4161 Y7.8003
G01 X11.4161 Y7.8003
G01 X11.4162 Y7.8003
G00 Z1.0000
G00 X20.4510 Y4.6989
G01 F10.00
G01 Z-2.8000
G01 F120.00
G01 X20.4509 Y4.6989
G01 X20.4509 Y4.6989
G01 X20.4509 Y4.6990
G01 X20.4510 Y4.6989
G00 Z1.0000
G00 X22.9910 Y4.6989
G01 F10.00
G01 Z-2.8000
G01 F120.00
G01 X22.9909 Y4.6989
G01 X22.9909 Y4.6989
G01 X22.9909 Y4.6990
G01 X22.9910 Y4.6989
G00 Z1.0000
G00 X25.5310 Y4.6989
G01 F10.00
G01 Z-2.8000
G01 F120.00
G01 X25.5309 Y4.6989
G01 X25.5309 Y4.6989
G01 X25.5309 Y4.6990
G01 X25.5310 Y4.6989
G00 Z1.0000
G00 X28.0710 Y4.6989
G01 F10.00
G01 Z-2.8000
G01 F120.00
G01 X28.0709 Y4.6989
G01 X28.0709 Y4.6989
G01 X28.0709 Y4.6990
G01 X28.0710 Y4.6989
G00 Z1.0000
G00 X23.8495 Y7.8003
G01 F10.00
G01 Z-2.8000
G01 F120.00
G01 X23.8494 Y7.8002
G01 X23.8494 Y7.8003
G01 X23.8494 Y7.8003
G01 X23.8495 Y7.8003
G00 Z1.0000
G00 X28.8508 Y13.7998
G01 F10.00
G01 Z-2.8000
G01 F120.00
G01 X28.8507 Y13.7997
G01 X28.8507 Y13.7998
G01 X28.8507 Y13.7998
G01 X28.8508 Y13.7998
G00 Z1.0000
G00 X25.2490 Y17.0002
G01 F10.00
G01 Z-2.8000
G01 F120.00
G01 X25.2490 Y17.0001
G01 X25.2489 Y17.0002
G01 X25.2490 Y17.0002
G01 X25.2490 Y17.0002
G00 Z1.0000
G00 X33.2500 Y9.6011
G01 F10.00
G01 Z-2.8000
G01 F120.00
G01 X33.2500 Y9.6011
G01 X33.2499 Y9.6011
G01 X33.2500 Y9.6012
G01 X33.2500 Y9.6011
G00 Z1.0000
G00 X33.2500 Y2.9997
G01 F10.00
G01 Z-2.8000
G01 F120.00
G01 X33.2500 Y2.9996
G01 X33.2499 Y2.9997
G01 X33.2500 Y2.9997
G01 X33.2500 Y2.9997
G00 Z1.0000
G00 X41.5304 Y4.8996
G01 F10.00
G01 Z-2.8000
G01 F120.00
G01 X41.5304 Y4.8996
G01 X41.5303 Y4.8996
G01 X41.5304 Y4.8997
G01 X41.5304 Y4.8996
G00 Z1.0000
G00 X44.0704 Y4.8996
G01 F10.00
G01 Z-2.8000
G01 F120.00
G01 X44.0704 Y4.8996
G01 X44.0703 Y4.8996
G01 X44.0704 Y4.8997
G01 X44.0704 Y4.8996
G00 Z1.0000
G00 X46.6104 Y4.8996
G01 F10.00
G01 Z-2.8000
G01 F120.00
G01 X46.6104 Y4.8996
G01 X46.6103 Y4.8996
G01 X46.6104 Y4.8997
G01 X46.6104 Y4.8996
G00 Z1.0000
G00 X49.1504 Y4.8996
G01 F10.00
G01 Z-2.8000
G01 F120.00
G01 X49.1504 Y4.8996
G01 X49.1503 Y4.8996
G01 X49.1504 Y4.8997
G01 X49.1504 Y4.8996
G00 Z1.0000
G00 X44.7512 Y9.7002
G01 F10.00
G01 Z-2.8000
G01 F120.00
G01 X44.7511 Y9.7002
G01 X44.7511 Y9.7002
G01 X44.7511 Y9.7003
G01 X44.7512 Y9.7002
G00 Z1.0000
G00 X49.7499 Y13.7998
G01 F10.00
G01 Z-2.8000
G01 F120.00
G01 X49.7498 Y13.7997
G01 X49.7498 Y13.7998
G01 X49.7498 Y13.7998
G01 X49.7499 Y13.7998
G00 Z1.0000
G00 X57.3496 Y14.9707
G01 F10.00
G01 Z-2.8000
G01 F120.00
G01 X57.3495 Y14.9707
G01 X57.3495 Y14.9707
G01 X57.3495 Y14.9708
G01 X57.3496 Y14.9707
G00 Z1.0000
G00 X57.3496 Y12.4307
G01 F10.00
G01 Z-2.8000
G01 F120.00
G01 X57.3495 Y12.4307
G01 X57.3495 Y12.4307
G01 X57.3495 Y12.4308
G01 X57.3496 Y12.4307
G00 Z1.0000
G00 X57.3496 Y9.8907
G01 F10.00
G01 Z-2.8000
G01 F120.00
G01 X57.3495 Y9.8907
G01 X57.3495 Y9.8907
G01 X57.3495 Y9.8908
G01 X57.3496 Y9.8907
G00 Z1.0000
G00 X57.3496 Y7.3507
G01 F10.00
G01 Z-2.8000
G01 F120.00
G01 X57.3495 Y7.3507
G01 X57.3495 Y7.3507
G01 X57.3495 Y7.3508
G01 X57.3496 Y7.3507
G00 Z1.0000
G00 X57.3496 Y4.8107
G01 F10.00
G01 Z-2.8000
G01 F120.00
G01 X57.3495 Y4.8107
G01 X57.3495 Y4.8107
G01 X57.3495 Y4.8108
G01 X57.3496 Y4.8107
G00 Z1.0000
G00 X57.3496 Y17.5107
G01 F10.00
G01 Z-2.8000
G01 F120.00
G01 X57.3495 Y17.5107
G01 X57.3495 Y17.5107
G01 X57.3495 Y17.5108
G01 X57.3496 Y17.5107
G00 Z1.0000
G00 X57.3496 Y20.0507
G01 F10.00
G01 Z-2.8000
G01 F120.00
G01 X57.3495 Y20.0507
G01 X57.3495 Y20.0507
G01 X57.3495 Y20.0508
G01 X57.3496 Y20.0507
G00 Z1.0000
G00 X57.3496 Y22.5907
G01 F10.00
G01 Z-2.8000
G01 F120.00
G01 X57.3495 Y22.5907
G01 X57.3495 Y22.5907
G01 X57.3495 Y22.5908
G01 X57.3496 Y22.5907
G00 Z1.0000
G00 X57.3496 Y25.1307
G01 F10.00
G01 Z-2.8000
G01 F120.00
G01 X57.3495 Y25.1307
G01 X57.3495 Y25.1307
G01 X57.3495 Y25.1308
G01 X57.3496 Y25.1307
G00 Z1.0000
G00 X57.3496 Y27.6707
G01 F10.00
G01 Z-2.8000
G01 F120.00
G01 X57.3495 Y27.6707
G01 X57.3495 Y27.6707
G01 X57.3495 Y27.6708
G01 X57.3496 Y27.6707
G00 Z1.0000
G00 X57.3496 Y30.2107
G01 F10.00
G01 Z-2.8000
G01 F120.00
G01 X57.3495 Y30.2107
G01 X57.3495 Y30.2107
G01 X57.3495 Y30.2108
G01 X57.3496 Y30.2107
G00 Z1.0000
G00 X57.3496 Y32.7507
G01 F10.00
G01 Z-2.8000
G01 F120.00
G01 X57.3495 Y32.7507
G01 X57.3495 Y32.7507
G01 X57.3495 Y32.7508
G01 X57.3496 Y32.7507
G00 Z1.0000
G00 X57.3496 Y35.2907
G01 F10.00
G01 Z-2.8000
G01 F120.00
G01 X57.3495 Y35.2907
G01 X57.3495 Y35.2907
G01 X57.3495 Y35.2908
G01 X57.3496 Y35.2907
G00 Z1.0000
G00 X57.3496 Y37.8307
G01 F10.00
G01 Z-2.8000
G01 F120.00
G01 X57.3495 Y37.8307
G01 X57.3495 Y37.8307
G01 X57.3495 Y37.8308
G01 X57.3496 Y37.8307
G00 Z1.0000
G00 X57.3496 Y40.3707
G01 F10.00
G01 Z-2.8000
G01 F120.00
G01 X57.3495 Y40.3707
G01 X57.3495 Y40.3707
G01 X57.3495 Y40.3708
G01 X57.3496 Y40.3707
G00 Z1.0000
G00 X57.3496 Y42.9107
G01 F10.00
G01 Z-2.8000
G01 F120.00
G01 X57.3495 Y42.9107
G01 X57.3495 Y42.9107
G01 X57.3495 Y42.9108
G01 X57.3496 Y42.9107
G00 Z1.0000
G00 X57.3496 Y45.4507
G01 F10.00
G01 Z-2.8000
G01 F120.00
G01 X57.3495 Y45.4507
G01 X57.3495 Y45.4507
G01 X57.3495 Y45.4508
G01 X57.3496 Y45.4507
G00 Z1.0000
G00 X57.3496 Y47.9907
G01 F10.00
G01 Z-2.8000
G01 F120.00
G01 X57.3495 Y47.9907
G01 X57.3495 Y47.9907
G01 X57.3495 Y47.9908
G01 X57.3496 Y47.9907
G00 Z1.0000
G00 X57.3496 Y50.5307
G01 F10.00
G01 Z-2.8000
G01 F120.00
G01 X57.3495 Y50.5307
G01 X57.3495 Y50.5307
G01 X57.3495 Y50.5308
G01 X57.3496 Y50.5307
G00 Z1.0000
G00 X57.3496 Y53.1215
G01 F10.00
G01 Z-2.8000
G01 F120.00
G01 X57.3495 Y53.1215
G01 X57.3495 Y53.1215
G01 X57.3495 Y53.1216
G01 X57.3496 Y53.1215
G00 Z1.0000
G00 X58.7491 Y56.7994
G01 F10.00
G01 Z-2.8000
G01 F120.00
G01 X58.7490 Y56.7994
G01 X58.7490 Y56.7994
G01 X58.7490 Y56.7995
G01 X58.7491 Y56.7994
G00 Z1.0000
G00 X58.0506 Y60.2995
G01 F10.00
G01 Z-2.8000
G01 F120.00
G01 X58.0505 Y60.2995
G01 X58.0505 Y60.2995
G01 X58.0505 Y60.2996
G01 X58.0506 Y60.2995
G00 Z1.0000
G00 X58.0506 Y62.3011
G01 F10.00
G01 Z-2.8000
G01 F120.00
G01 X58.0505 Y62.3010
G01 X58.0505 Y62.3011
G01 X58.0505 Y62.3011
G01 X58.0506 Y62.3011
G00 Z1.0000
G00 X54.2609 Y60.5510
G01 F10.00
G01 Z-2.8000
G01 F120.00
G01 X54.2609 Y60.5510
G01 X54.2608 Y60.5510
G01 X54.2609 Y60.5511
G01 X54.2609 Y60.5510
G00 Z1.0000
G00 X54.2609 Y64.3000
G01 F10.00
G01 Z-2.8000
G01 F120.00
G01 X54.2609 Y64.3000
G01 X54.2608 Y64.3000
G01 X54.2609 Y64.3001
G01 X54.2609 Y64.3000
G00 Z1.0000
G00 X51.7260 Y70.2995
G01 F10.00
G01 Z-2.8000
G01 F120.00
G01 X51.7259 Y70.2995
G01 X51.7259 Y70.2995
G01 X51.7259 Y70.2996
G01 X51.7260 Y70.2995
G00 Z1.0000
G00 X49.2241 Y70.2995
G01 F10.00
G01 Z-2.8000
G01 F120.00
G01 X49.2240 Y70.2995
G01 X49.2240 Y70.2995
G01 X49.2240 Y70.2996
G01 X49.2241 Y70.2995
G00 Z1.0000
G00 X44.1797 Y67.4903
G01 F10.00
G01 Z-2.8000
G01 F120.00
G01 X44.1796 Y67.4902
G01 X44.1796 Y67.4903
G01 X44.1796 Y67.4903
G01 X44.1797 Y67.4903
G00 Z1.0000
G00 X44.1009 Y64.3000
G01 F10.00
G01 Z-2.8000
G01 F120.00
G01 X44.1009 Y64.3000
G01 X44.1008 Y64.3000
G01 X44.1009 Y64.3001
G01 X44.1009 Y64.3000
G00 Z1.0000
G00 X44.1009 Y60.5510
G01 F10.00
G01 Z-2.8000
G01 F120.00
G01 X44.1009 Y60.5510
G01 X44.1008 Y60.5510
G01 X44.1009 Y60.5511
G01 X44.1009 Y60.5510
G00 Z1.0000
G00 X40.3493 Y51.8007
G01 F10.00
G01 Z-2.8000
G01 F120.00
G01 X40.3493 Y51.8007
G01 X40.3492 Y51.8007
G01 X40.3493 Y51.8008
G01 X40.3493 Y51.8007
G00 Z1.0000
G00 X29.6001 Y51.6813
G01 F10.00
G01 Z-2.8000
G01 F120.00
G01 X29.6000 Y51.6813
G01 X29.6000 Y51.6813
G01 X29.6000 Y51.6814
G01 X29.6001 Y51.6813
G00 Z1.0000
G00 X29.6001 Y54.2213
G01 F10.00
G01 Z-2.8000
G01 F120.00
G01 X29.6000 Y54.2213
G01 X29.6000 Y54.2213
G01 X29.6000 Y54.2214
G01 X29.6001 Y54.2213
G00 Z1.0000
G00 X29.6001 Y56.7613
G01 F10.00
G01 Z-2.8000
G01 F120.00
G01 X29.6000 Y56.7613
G01 X29.6000 Y56.7613
G01 X29.6000 Y56.7614
G01 X29.6001 Y56.7613
G00 Z1.0000
G00 X29.6001 Y59.3013
G01 F10.00
G01 Z-2.8000
G01 F120.00
G01 X29.6000 Y59.3013
G01 X29.6000 Y59.3013
G01 X29.6000 Y59.3014
G01 X29.6001 Y59.3013
G00 Z1.0000
G00 X29.6001 Y61.8413
G01 F10.00
G01 Z-2.8000
G01 F120.00
G01 X29.6000 Y61.8413
G01 X29.6000 Y61.8413
G01 X29.6000 Y61.8414
G01 X29.6001 Y61.8413
G00 Z1.0000
G00 X29.6001 Y64.3813
G01 F10.00
G01 Z-2.8000
G01 F120.00
G01 X29.6000 Y64.3813
G01 X29.6000 Y64.3813
G01 X29.6000 Y64.3814
G01 X29.6001 Y64.3813
G00 Z1.0000
G00 X29.6001 Y66.9213
G01 F10.00
G01 Z-2.8000
G01 F120.00
G01 X29.6000 Y66.9213
G01 X29.6000 Y66.9213
G01 X29.6000 Y66.9214
G01 X29.6001 Y66.9213
G00 Z1.0000
G00 X29.6001 Y69.4613
G01 F10.00
G01 Z-2.8000
G01 F120.00
G01 X29.6000 Y69.4613
G01 X29.6000 Y69.4613
G01 X29.6000 Y69.4614
G01 X29.6001 Y69.4613
G00 Z1.0000
G00 X29.6001 Y72.0013
G01 F10.00
G01 Z-2.8000
G01 F120.00
G01 X29.6000 Y72.0013
G01 X29.6000 Y72.0013
G01 X29.6000 Y72.0014
G01 X29.6001 Y72.0013
G00 Z1.0000
G00 X29.6001 Y74.5413
G01 F10.00
G01 Z-2.8000
G01 F120.00
G01 X29.6000 Y74.5413
G01 X29.6000 Y74.5413
G01 X29.6000 Y74.5414
G01 X29.6001 Y74.5413
G00 Z1.0000
G00 X29.6001 Y77.0813
G01 F10.00
G01 Z-2.8000
G01 F120.00
G01 X29.6000 Y77.0813
G01 X29.6000 Y77.0813
G01 X29.6000 Y77.0814
G01 X29.6001 Y77.0813
G00 Z1.0000
G00 X29.6001 Y79.6213
G01 F10.00
G01 Z-2.8000
G01 F120.00
G01 X29.6000 Y79.6213
G01 X29.6000 Y79.6213
G01 X29.6000 Y79.6214
G01 X29.6001 Y79.6213
G00 Z1.0000
G00 X29.6001 Y82.1613
G01 F10.00
G01 Z-2.8000
G01 F120.00
G01 X29.6000 Y82.1613
G01 X29.6000 Y82.1613
G01 X29.6000 Y82.1614
G01 X29.6001 Y82.1613
G00 Z1.0000
G00 X29.6001 Y84.7013
G01 F10.00
G01 Z-2.8000
G01 F120.00
G01 X29.6000 Y84.7013
G01 X29.6000 Y84.7013
G01 X29.6000 Y84.7014
G01 X29.6001 Y84.7013
G00 Z1.0000
G00 X29.6001 Y87.2413
G01 F10.00
G01 Z-2.8000
G01 F120.00
G01 X29.6000 Y87.2413
G01 X29.6000 Y87.2413
G01 X29.6000 Y87.2414
G01 X29.6001 Y87.2413
G00 Z1.0000
G00 X29.6001 Y89.7813
G01 F10.00
G01 Z-2.8000
G01 F120.00
G01 X29.6000 Y89.7813
G01 X29.6000 Y89.7813
G01 X29.6000 Y89.7814
G01 X29.6001 Y89.7813
G00 Z1.0000
G00 X29.6001 Y92.3213
G01 F10.00
G01 Z-2.8000
G01 F120.00
G01 X29.6000 Y92.3213
G01 X29.6000 Y92.3213
G01 X29.6000 Y92.3214
G01 X29.6001 Y92.3213
G00 Z1.0000
G00 X29.6001 Y94.8613
G01 F10.00
G01 Z-2.8000
G01 F120.00
G01 X29.6000 Y94.8613
G01 X29.6000 Y94.8613
G01 X29.6000 Y94.8614
G01 X29.6001 Y94.8613
G00 Z1.0000
G00 X37.8500 Y96.7993
G01 F10.00
G01 Z-2.8000
G01 F120.00
G01 X37.8499 Y96.7993
G01 X37.8499 Y96.7993
G01 X37.8499 Y96.7994
G01 X37.8500 Y96.7993
G00 Z1.0000
G00 X49.4756 Y86.7994
G01 F10.00
G01 Z-2.8000
G01 F120.00
G01 X49.4755 Y86.7993
G01 X49.4755 Y86.7994
G01 X49.4755 Y86.7994
G01 X49.4756 Y86.7994
G00 Z1.0000
G00 X51.9749 Y86.7994
G01 F10.00
G01 Z-2.8000
G01 F120.00
G01 X51.9749 Y86.7993
G01 X51.9748 Y86.7994
G01 X51.9749 Y86.7994
G01 X51.9749 Y86.7994
G00 Z1.0000
G00 X55.5614 Y86.8806
G01 F10.00
G01 Z-2.8000
G01 F120.00
G01 X55.5613 Y86.8806
G01 X55.5613 Y86.8806
G01 X55.5613 Y86.8807
G01 X55.5614 Y86.8806
G00 Z1.0000
G00 X55.5614 Y89.4206
G01 F10.00
G01 Z-2.8000
G01 F120.00
G01 X55.5613 Y89.4206
G01 X55.5613 Y89.4206
G01 X55.5613 Y89.4207
G01 X55.5614 Y89.4206
G00 Z1.0000
G00 X55.7163 Y91.8997
G01 F10.00
G01 Z-2.8000
G01 F120.00
G01 X55.7163 Y91.8996
G01 X55.7162 Y91.8997
G01 X55.7163 Y91.8997
G01 X55.7163 Y91.8997
G00 Z1.0000
G00 X53.4507 Y94.7013
G01 F10.00
G01 Z-2.8000
G01 F120.00
G01 X53.4506 Y94.7013
G01 X53.4506 Y94.7013
G01 X53.4506 Y94.7014
G01 X53.4507 Y94.7013
G00 Z1.0000
G00 X57.8499 Y96.4260
G01 F10.00
G01 Z-2.8000
G01 F120.00
G01 X57.8499 Y96.4259
G01 X57.8498 Y96.4260
G01 X57.8499 Y96.4260
G01 X57.8499 Y96.4260
G00 Z1.0000
G00 X60.3899 Y96.4260
G01 F10.00
G01 Z-2.8000
G01 F120.00
G01 X60.3899 Y96.4259
G01 X60.3898 Y96.4260
G01 X60.3899 Y96.4260
G01 X60.3899 Y96.4260
G00 Z1.0000
G00 X65.6808 Y94.8004
G01 F10.00
G01 Z-2.8000
G01 F120.00
G01 X65.6807 Y94.8003
G01 X65.6807 Y94.8004
G01 X65.6807 Y94.8004
G01 X65.6808 Y94.8004
G00 Z1.0000
G00 X63.1814 Y89.4206
G01 F10.00
G01 Z-2.8000
G01 F120.00
G01 X63.1813 Y89.4206
G01 X63.1813 Y89.4206
G01 X63.1813 Y89.4207
G01 X63.1814 Y89.4206
G00 Z1.0000
G00 X63.1814 Y86.8806
G01 F10.00
G01 Z-2.8000
G01 F120.00
G01 X63.1813 Y86.8806
G01 X63.1813 Y86.8806
G01 X63.1813 Y86.8807
G01 X63.1814 Y86.8806
G00 Z1.0000
G00 X63.1814 Y84.3406
G01 F10.00
G01 Z-2.8000
G01 F120.00
G01 X63.1813 Y84.3406
G01 X63.1813 Y84.3406
G01 X63.1813 Y84.3407
G01 X63.1814 Y84.3406
G00 Z1.0000
G00 X63.1814 Y81.8006
G01 F10.00
G01 Z-2.8000
G01 F120.00
G01 X63.1813 Y81.8006
G01 X63.1813 Y81.8006
G01 X63.1813 Y81.8007
G01 X63.1814 Y81.8006
G00 Z1.0000
G00 X65.0508 Y78.8009
G01 F10.00
G01 Z-2.8000
G01 F120.00
G01 X65.0508 Y78.8009
G01 X65.0507 Y78.8009
G01 X65.0508 Y78.8010
G01 X65.0508 Y78.8009
G00 Z1.0000
G00 X67.3114 Y80.2995
G01 F10.00
G01 Z-2.8000
G01 F120.00
G01 X67.3114 Y80.2995
G01 X67.3113 Y80.2995
G01 X67.3114 Y80.2996
G01 X67.3114 Y80.2995
G00 Z1.0000
G00 X67.3699 Y83.5507
G01 F10.00
G01 Z-2.8000
G01 F120.00
G01 X67.3698 Y83.5507
G01 X67.3698 Y83.5507
G01 X67.3698 Y83.5508
G01 X67.3699 Y83.5507
G00 Z1.0000
G00 X68.7491 Y87.8992
G01 F10.00
G01 Z-2.8000
G01 F120.00
G01 X68.7490 Y87.8991
G01 X68.7490 Y87.8992
G01 X68.7490 Y87.8992
G01 X68.7491 Y87.8992
G00 Z1.0000
G00 X71.2510 Y87.8992
G01 F10.00
G01 Z-2.8000
G01 F120.00
G01 X71.2509 Y87.8991
G01 X71.2509 Y87.8992
G01 X71.2509 Y87.8992
G01 X71.2510 Y87.8992
G00 Z1.0000
G00 X74.9899 Y83.5507
G01 F10.00
G01 Z-2.8000
G01 F120.00
G01 X74.9898 Y83.5507
G01 X74.9898 Y83.5507
G01 X74.9898 Y83.5508
G01 X74.9899 Y83.5507
G00 Z1.0000
G00 X74.9314 Y80.2995
G01 F10.00
G01 Z-2.8000
G01 F120.00
G01 X74.9314 Y80.2995
G01 X74.9313 Y80.2995
G01 X74.9314 Y80.2996
G01 X74.9314 Y80.2995
G00 Z1.0000
G00 X74.9314 Y77.6096
G01 F10.00
G01 Z-2.8000
G01 F120.00
G01 X74.9314 Y77.6096
G01 X74.9313 Y77.6096
G01 X74.9314 Y77.6097
G01 X74.9314 Y77.6096
G00 Z1.0000
G00 X79.0005 Y75.8494
G01 F10.00
G01 Z-2.8000
G01 F120.00
G01 X79.0005 Y75.8494
G01 X79.0004 Y75.8494
G01 X79.0005 Y75.8495
G01 X79.0005 Y75.8494
G00 Z1.0000
G00 X78.1014 Y81.8006
G01 F10.00
G01 Z-2.8000
G01 F120.00
G01 X78.1013 Y81.8006
G01 X78.1013 Y81.8006
G01 X78.1013 Y81.8007
G01 X78.1014 Y81.8006
G00 Z1.0000
G00 X85.1702 Y81.4501
G01 F10.00
G01 Z-2.8000
G01 F120.00
G01 X85.1701 Y81.4501
G01 X85.1701 Y81.4501
G01 X85.1701 Y81.4502
G01 X85.1702 Y81.4501
G00 Z1.0000
G00 X85.1702 Y78.9101
G01 F10.00
G01 Z-2.8000
G01 F120.00
G01 X85.1701 Y78.9101
G01 X85.1701 Y78.9101
G01 X85.1701 Y78.9102
G01 X85.1702 Y78.9101
G00 Z1.0000
G00 X85.1702 Y76.3701
G01 F10.00
G01 Z-2.8000
G01 F120.00
G01 X85.1701 Y76.3701
G01 X85.1701 Y76.3701
G01 X85.1701 Y76.3702
G01 X85.1702 Y76.3701
G00 Z1.0000
G00 X85.1702 Y70.0201
G01 F10.00
G01 Z-2.8000
G01 F120.00
G01 X85.1701 Y70.0201
G01 X85.1701 Y70.0201
G01 X85.1701 Y70.0202
G01 X85.1702 Y70.0201
G00 Z1.0000
G00 X85.1702 Y67.4801
G01 F10.00
G01 Z-2.8000
G01 F120.00
G01 X85.1701 Y67.4801
G01 X85.1701 Y67.4801
G01 X85.1701 Y67.4802
G01 X85.1702 Y67.4801
G00 Z1.0000
G00 X85.1702 Y64.9401
G01 F10.00
G01 Z-2.8000
G01 F120.00
G01 X85.1701 Y64.9401
G01 X85.1701 Y64.9401
G01 X85.1701 Y64.9402
G01 X85.1702 Y64.9401
G00 Z1.0000
G00 X85.1702 Y62.4001
G01 F10.00
G01 Z-2.8000
G01 F120.00
G01 X85.1701 Y62.4001
G01 X85.1701 Y62.4001
G01 X85.1701 Y62.4002
G01 X85.1702 Y62.4001
G00 Z1.0000
G00 X85.1702 Y59.8601
G01 F10.00
G01 Z-2.8000
G01 F120.00
G01 X85.1701 Y59.8601
G01 X85.1701 Y59.8601
G01 X85.1701 Y59.8602
G01 X85.1702 Y59.8601
G00 Z1.0000
G00 X85.1702 Y57.3201
G01 F10.00
G01 Z-2.8000
G01 F120.00
G01 X85.1701 Y57.3201
G01 X85.1701 Y57.3201
G01 X85.1701 Y57.3202
G01 X85.1702 Y57.3201
G00 Z1.0000
G00 X85.1702 Y54.7801
G01 F10.00
G01 Z-2.8000
G01 F120.00
G01 X85.1701 Y54.7801
G01 X85.1701 Y54.7801
G01 X85.1701 Y54.7802
G01 X85.1702 Y54.7801
G00 Z1.0000
G00 X85.1702 Y52.2401
G01 F10.00
G01 Z-2.8000
G01 F120.00
G01 X85.1701 Y52.2401
G01 X85.1701 Y52.2401
G01 X85.1701 Y52.2402
G01 X85.1702 Y52.2401
G00 Z1.0000
G00 X85.1702 Y49.7001
G01 F10.00
G01 Z-2.8000
G01 F120.00
G01 X85.1701 Y49.7001
G01 X85.1701 Y49.7001
G01 X85.1701 Y49.7002
G01 X85.1702 Y49.7001
G00 Z1.0000
G00 X85.1702 Y47.1601
G01 F10.00
G01 Z-2.8000
G01 F120.00
G01 X85.1701 Y47.1601
G01 X85.1701 Y47.1601
G01 X85.1701 Y47.1602
G01 X85.1702 Y47.1601
G00 Z1.0000
G00 X85.1702 Y44.6201
G01 F10.00
G01 Z-2.8000
G01 F120.00
G01 X85.1701 Y44.6201
G01 X85.1701 Y44.6201
G01 X85.1701 Y44.6202
G01 X85.1702 Y44.6201
G00 Z1.0000
G00 X85.1702 Y42.0801
G01 F10.00
G01 Z-2.8000
G01 F120.00
G01 X85.1701 Y42.0801
G01 X85.1701 Y42.0801
G01 X85.1701 Y42.0802
G01 X85.1702 Y42.0801
G00 Z1.0000
G00 X85.1702 Y39.5401
G01 F10.00
G01 Z-2.8000
G01 F120.00
G01 X85.1701 Y39.5401
G01 X85.1701 Y39.5401
G01 X85.1701 Y39.5402
G01 X85.1702 Y39.5401
G00 Z1.0000
G00 X85.1702 Y37.0001
G01 F10.00
G01 Z-2.8000
G01 F120.00
G01 X85.1701 Y37.0001
G01 X85.1701 Y37.0001
G01 X85.1701 Y37.0002
G01 X85.1702 Y37.0001
G00 Z1.0000
G00 X85.1702 Y34.4601
G01 F10.00
G01 Z-2.8000
G01 F120.00
G01 X85.1701 Y34.4601
G01 X85.1701 Y34.4601
G01 X85.1701 Y34.4602
G01 X85.1702 Y34.4601
G00 Z1.0000
G00 X85.1702 Y31.9201
G01 F10.00
G01 Z-2.8000
G01 F120.00
G01 X85.1701 Y31.9201
G01 X85.1701 Y31.9201
G01 X85.1701 Y31.9202
G01 X85.1702 Y31.9201
G00 Z1.0000
G00 X85.1702 Y29.3801
G01 F10.00
G01 Z-2.8000
G01 F120.00
G01 X85.1701 Y29.3801
G01 X85.1701 Y29.3801
G01 X85.1701 Y29.3802
G01 X85.1702 Y29.3801
G00 Z1.0000
G00 X85.1702 Y26.8401
G01 F10.00
G01 Z-2.8000
G01 F120.00
G01 X85.1701 Y26.8401
G01 X85.1701 Y26.8401
G01 X85.1701 Y26.8402
G01 X85.1702 Y26.8401
G00 Z1.0000
G00 X85.1702 Y24.3001
G01 F10.00
G01 Z-2.8000
G01 F120.00
G01 X85.1701 Y24.3001
G01 X85.1701 Y24.3001
G01 X85.1701 Y24.3002
G01 X85.1702 Y24.3001
G00 Z1.0000
G00 X85.1702 Y21.7601
G01 F10.00
G01 Z-2.8000
G01 F120.00
G01 X85.1701 Y21.7601
G01 X85.1701 Y21.7601
G01 X85.1701 Y21.7602
G01 X85.1702 Y21.7601
G00 Z1.0000
G00 X85.1702 Y19.2201
G01 F10.00
G01 Z-2.8000
G01 F120.00
G01 X85.1701 Y19.2201
G01 X85.1701 Y19.2201
G01 X85.1701 Y19.2202
G01 X85.1702 Y19.2201
G00 Z1.0000
G00 X85.1702 Y16.6801
G01 F10.00
G01 Z-2.8000
G01 F120.00
G01 X85.1701 Y16.6801
G01 X85.1701 Y16.6801
G01 X85.1701 Y16.6802
G01 X85.1702 Y16.6801
G00 Z1.0000
G00 X85.1702 Y14.1401
G01 F10.00
G01 Z-2.8000
G01 F120.00
G01 X85.1701 Y14.1401
G01 X85.1701 Y14.1401
G01 X85.1701 Y14.1402
G01 X85.1702 Y14.1401
G00 Z1.0000
G00 X85.1702 Y11.6001
G01 F10.00
G01 Z-2.8000
G01 F120.00
G01 X85.1701 Y11.6001
G01 X85.1701 Y11.6001
G01 X85.1701 Y11.6002
G01 X85.1702 Y11.6001
G00 Z1.0000
G00 X85.1702 Y9.0601
G01 F10.00
G01 Z-2.8000
G01 F120.00
G01 X85.1701 Y9.0601
G01 X85.1701 Y9.0601
G01 X85.1701 Y9.0602
G01 X85.1702 Y9.0601
G00 Z1.0000
G00 X85.1702 Y6.5201
G01 F10.00
G01 Z-2.8000
G01 F120.00
G01 X85.1701 Y6.5201
G01 X85.1701 Y6.5201
G01 X85.1701 Y6.5202
G01 X85.1702 Y6.5201
G00 Z1.0000
G00 X85.1702 Y3.9801
G01 F10.00
G01 Z-2.8000
G01 F120.00
G01 X85.1701 Y3.9801
G01 X85.1701 Y3.9801
G01 X85.1701 Y3.9802
G01 X85.1702 Y3.9801
G00 Z1.0000
G00 X81.3094 Y2.7406
G01 F10.00
G01 Z-2.8000
G01 F120.00
G01 X81.3093 Y2.7406
G01 X81.3093 Y2.7406
G01 X81.3093 Y2.7407
G01 X81.3094 Y2.7406
G00 Z1.0000
G00 X72.5896 Y4.8107
G01 F10.00
G01 Z-2.8000
G01 F120.00
G01 X72.5895 Y4.8107
G01 X72.5895 Y4.8107
G01 X72.5895 Y4.8108
G01 X72.5896 Y4.8107
G00 Z1.0000
G00 X72.5896 Y7.3507
G01 F10.00
G01 Z-2.8000
G01 F120.00
G01 X72.5895 Y7.3507
G01 X72.5895 Y7.3507
G01 X72.5895 Y7.3508
G01 X72.5896 Y7.3507
G00 Z1.0000
G00 X72.5896 Y9.8907
G01 F10.00
G01 Z-2.8000
G01 F120.00
G01 X72.5895 Y9.8907
G01 X72.5895 Y9.8907
G01 X72.5895 Y9.8908
G01 X72.5896 Y9.8907
G00 Z1.0000
G00 X72.5896 Y12.4307
G01 F10.00
G01 Z-2.8000
G01 F120.00
G01 X72.5895 Y12.4307
G01 X72.5895 Y12.4307
G01 X72.5895 Y12.4308
G01 X72.5896 Y12.4307
G00 Z1.0000
G00 X72.5896 Y14.9707
G01 F10.00
G01 Z-2.8000
G01 F120.00
G01 X72.5895 Y14.9707
G01 X72.5895 Y14.9707
G01 X72.5895 Y14.9708
G01 X72.5896 Y14.9707
G00 Z1.0000
G00 X72.5896 Y17.5107
G01 F10.00
G01 Z-2.8000
G01 F120.00
G01 X72.5895 Y17.5107
G01 X72.5895 Y17.5107
G01 X72.5895 Y17.5108
G01 X72.5896 Y17.5107
G00 Z1.0000
G00 X72.5896 Y20.0507
G01 F10.00
G01 Z-2.8000
G01 F120.00
G01 X72.5895 Y20.0507
G01 X72.5895 Y20.0507
G01 X72.5895 Y20.0508
G01 X72.5896 Y20.0507
G00 Z1.0000
G00 X72.5896 Y22.5907
G01 F10.00
G01 Z-2.8000
G01 F120.00
G01 X72.5895 Y22.5907
G01 X72.5895 Y22.5907
G01 X72.5895 Y22.5908
G01 X72.5896 Y22.5907
G00 Z1.0000
G00 X72.5896 Y25.1307
G01 F10.00
G01 Z-2.8000
G01 F120.00
G01 X72.5895 Y25.1307
G01 X72.5895 Y25.1307
G01 X72.5895 Y25.1308
G01 X72.5896 Y25.1307
G00 Z1.0000
G00 X72.5896 Y27.6707
G01 F10.00
G01 Z-2.8000
G01 F120.00
G01 X72.5895 Y27.6707
G01 X72.5895 Y27.6707
G01 X72.5895 Y27.6708
G01 X72.5896 Y27.6707
G00 Z1.0000
G00 X72.5896 Y30.2107
G01 F10.00
G01 Z-2.8000
G01 F120.00
G01 X72.5895 Y30.2107
G01 X72.5895 Y30.2107
G01 X72.5895 Y30.2108
G01 X72.5896 Y30.2107
G00 Z1.0000
G00 X72.5896 Y32.7507
G01 F10.00
G01 Z-2.8000
G01 F120.00
G01 X72.5895 Y32.7507
G01 X72.5895 Y32.7507
G01 X72.5895 Y32.7508
G01 X72.5896 Y32.7507
G00 Z1.0000
G00 X72.5896 Y35.2907
G01 F10.00
G01 Z-2.8000
G01 F120.00
G01 X72.5895 Y35.2907
G01 X72.5895 Y35.2907
G01 X72.5895 Y35.2908
G01 X72.5896 Y35.2907
G00 Z1.0000
G00 X72.5896 Y37.8307
G01 F10.00
G01 Z-2.8000
G01 F120.00
G01 X72.5895 Y37.8307
G01 X72.5895 Y37.8307
G01 X72.5895 Y37.8308
G01 X72.5896 Y37.8307
G00 Z1.0000
G00 X72.5896 Y40.3707
G01 F10.00
G01 Z-2.8000
G01 F120.00
G01 X72.5895 Y40.3707
G01 X72.5895 Y40.3707
G01 X72.5895 Y40.3708
G01 X72.5896 Y40.3707
G00 Z1.0000
G00 X72.5896 Y42.9107
G01 F10.00
G01 Z-2.8000
G01 F120.00
G01 X72.5895 Y42.9107
G01 X72.5895 Y42.9107
G01 X72.5895 Y42.9108
G01 X72.5896 Y42.9107
G00 Z1.0000
G00 X72.5896 Y45.4507
G01 F10.00
G01 Z-2.8000
G01 F120.00
G01 X72.5895 Y45.4507
G01 X72.5895 Y45.4507
G01 X72.5895 Y45.4508
G01 X72.5896 Y45.4507
G00 Z1.0000
G00 X72.5896 Y47.9907
G01 F10.00
G01 Z-2.8000
G01 F120.00
G01 X72.5895 Y47.9907
G01 X72.5895 Y47.9907
G01 X72.5895 Y47.9908
G01 X72.5896 Y47.9907
G00 Z1.0000
G00 X72.5896 Y50.5307
G01 F10.00
G01 Z-2.8000
G01 F120.00
G01 X72.5895 Y50.5307
G01 X72.5895 Y50.5307
G01 X72.5895 Y50.5308
G01 X72.5896 Y50.5307
G00 Z1.0000
G00 X72.5896 Y53.0707
G01 F10.00
G01 Z-2.8000
G01 F120.00
G01 X72.5895 Y53.0707
G01 X72.5895 Y53.0707
G01 X72.5895 Y53.0708
G01 X72.5896 Y53.0707
G00 Z1.0000
G00 X66.2294 Y49.2607
G01 F10.00
G01 Z-2.8000
G01 F120.00
G01 X66.2293 Y49.2607
G01 X66.2293 Y49.2607
G01 X66.2293 Y49.2608
G01 X66.2294 Y49.2607
G00 Z1.0000
G00 X63.6894 Y49.2607
G01 F10.00
G01 Z-2.8000
G01 F120.00
G01 X63.6893 Y49.2607
G01 X63.6893 Y49.2607
G01 X63.6893 Y49.2608
G01 X63.6894 Y49.2607
G00 Z1.0000
G00 X65.8509 Y56.7994
G01 F10.00
G01 Z-2.8000
G01 F120.00
G01 X65.8509 Y56.7994
G01 X65.8508 Y56.7994
G01 X65.8509 Y56.7995
G01 X65.8509 Y56.7994
G00 Z1.0000
G00 X63.9510 Y60.2995
G01 F10.00
G01 Z-2.8000
G01 F120.00
G01 X63.9510 Y60.2995
G01 X63.9509 Y60.2995
G01 X63.9510 Y60.2996
G01 X63.9510 Y60.2995
G00 Z1.0000
G00 X65.0991 Y63.5507
G01 F10.00
G01 Z-2.8000
G01 F120.00
G01 X65.0990 Y63.5507
G01 X65.0990 Y63.5507
G01 X65.0990 Y63.5508
G01 X65.0991 Y63.5507
G00 Z1.0000
G00 X65.0991 Y67.0509
G01 F10.00
G01 Z-2.8000
G01 F120.00
G01 X65.0990 Y67.0508
G01 X65.0990 Y67.0509
G01 X65.0990 Y67.0509
G01 X65.0991 Y67.0509
G00 Z1.0000
G00 X68.5510 Y71.6000
G01 F10.00
G01 Z-2.8000
G01 F120.00
G01 X68.5509 Y71.6000
G01 X68.5509 Y71.6000
G01 X68.5509 Y71.6001
G01 X68.5510 Y71.6000
G00 Z1.0000
G00 X71.0503 Y71.6000
G01 F10.00
G01 Z-2.8000
G01 F120.00
G01 X71.0503 Y71.6000
G01 X71.0502 Y71.6000
G01 X71.0503 Y71.6001
G01 X71.0503 Y71.6000
G00 Z1.0000
G00 X74.9314 Y69.9896
G01 F10.00
G01 Z-2.8000
G01 F120.00
G01 X74.9314 Y69.9896
G01 X74.9313 Y69.9896
G01 X74.9314 Y69.9897
G01 X74.9314 Y69.9896
G00 Z1.0000
G00 X75.2591 Y67.0509
G01 F10.00
G01 Z-2.8000
G01 F120.00
G01 X75.2590 Y67.0508
G01 X75.2590 Y67.0509
G01 X75.2590 Y67.0509
G01 X75.2591 Y67.0509
G00 Z1.0000
G00 X75.2591 Y63.5507
G01 F10.00
G01 Z-2.8000
G01 F120.00
G01 X75.2590 Y63.5507
G01 X75.2590 Y63.5507
G01 X75.2590 Y63.5508
G01 X75.2591 Y63.5507
G00 Z1.0000
G00 X77.3495 Y60.2995
G01 F10.00
G01 Z-2.8000
G01 F120.00
G01 X77.3495 Y60.2995
G01 X77.3494 Y60.2995
G01 X77.3495 Y60.2996
G01 X77.3495 Y60.2995
G00 Z1.0000
G00 X79.6000 Y62.6211
G01 F10.00
G01 Z-2.8000
G01 F120.00
G01 X79.5999 Y62.6211
G01 X79.5999 Y62.6211
G01 X79.5999 Y62.6212
G01 X79.6000 Y62.6211
G00 Z1.0000
G00 X79.6000 Y65.1611
G01 F10.00
G01 Z-2.8000
G01 F120.00
G01 X79.5999 Y65.1611
G01 X79.5999 Y65.1611
G01 X79.5999 Y65.1612
G01 X79.6000 Y65.1611
G00 Z1.0000
G00 X79.6000 Y67.7011
G01 F10.00
G01 Z-2.8000
G01 F120.00
G01 X79.5999 Y67.7011
G01 X79.5999 Y67.7011
G01 X79.5999 Y67.7012
G01 X79.6000 Y67.7011
G00 Z1.0000
G00 X80.1003 Y56.0501
G01 F10.00
G01 Z-2.8000
G01 F120.00
G01 X80.1003 Y56.0501
G01 X80.1002 Y56.0501
G01 X80.1003 Y56.0502
G01 X80.1003 Y56.0501
G00 Z1.0000
G00 X68.5992 Y60.2995
G01 F10.00
G01 Z-2.8000
G01 F120.00
G01 X68.5992 Y60.2995
G01 X68.5991 Y60.2995
G01 X68.5992 Y60.2996
G01 X68.5992 Y60.2995
G00 Z1.0000
G00 X64.8502 Y75.9002
G01 F10.00
G01 Z-2.8000
G01 F120.00
G01 X64.8501 Y75.9002
G01 X64.8501 Y75.9002
G01 X64.8501 Y75.9003
G01 X64.8502 Y75.9002
G00 Z1.0000
G00 X60.1512 Y78.8009
G01 F10.00
G01 Z-2.8000
G01 F120.00
G01 X60.1511 Y78.8009
G01 X60.1511 Y78.8009
G01 X60.1511 Y78.8010
G01 X60.1512 Y78.8009
G00 Z1.0000
G00 X58.0506 Y78.8009
G01 F10.00
G01 Z-2.8000
G01 F120.00
G01 X58.0505 Y78.8009
G01 X58.0505 Y78.8009
G01 X58.0505 Y78.8010
G01 X58.0506 Y78.8009
G00 Z1.0000
G00 X55.5614 Y81.8006
G01 F10.00
G01 Z-2.8000
G01 F120.00
G01 X55.5613 Y81.8006
G01 X55.5613 Y81.8006
G01 X55.5613 Y81.8007
G01 X55.5614 Y81.8006
G00 Z1.0000
G00 X55.5614 Y84.3406
G01 F10.00
G01 Z-2.8000
G01 F120.00
G01 X55.5613 Y84.3406
G01 X55.5613 Y84.3406
G01 X55.5613 Y84.3407
G01 X55.5614 Y84.3406
G00 Z1.0000
G00 X51.9902 Y81.3003
G01 F10.00
G01 Z-2.8000
G01 F120.00
G01 X51.9901 Y81.3002
G01 X51.9901 Y81.3003
G01 X51.9901 Y81.3003
G01 X51.9902 Y81.3003
G00 Z1.0000
G00 X51.9902 Y77.8001
G01 F10.00
G01 Z-2.8000
G01 F120.00
G01 X51.9901 Y77.8001
G01 X51.9901 Y77.8001
G01 X51.9901 Y77.8002
G01 X51.9902 Y77.8001
G00 Z1.0000
G00 X44.3702 Y77.8001
G01 F10.00
G01 Z-2.8000
G01 F120.00
G01 X44.3701 Y77.8001
G01 X44.3701 Y77.8001
G01 X44.3701 Y77.8002
G01 X44.3702 Y77.8001
G00 Z1.0000
G00 X44.1797 Y75.1103
G01 F10.00
G01 Z-2.8000
G01 F120.00
G01 X44.1796 Y75.1102
G01 X44.1796 Y75.1103
G01 X44.1796 Y75.1103
G01 X44.1797 Y75.1103
G00 Z1.0000
G00 X40.8497 Y79.7991
G01 F10.00
G01 Z-2.8000
G01 F120.00
G01 X40.8497 Y79.7991
G01 X40.8496 Y79.7991
G01 X40.8497 Y79.7992
G01 X40.8497 Y79.7991
G00 Z1.0000
G00 X44.3702 Y81.3003
G01 F10.00
G01 Z-2.8000
G01 F120.00
G01 X44.3701 Y81.3002
G01 X44.3701 Y81.3003
G01 X44.3701 Y81.3003
G01 X44.3702 Y81.3003
G00 Z1.0000
G00 X29.6001 Y49.1413
G01 F10.00
G01 Z-2.8000
G01 F120.00
G01 X29.6000 Y49.1413
G01 X29.6000 Y49.1413
G01 X29.6000 Y49.1414
G01 X29.6001 Y49.1413
G00 Z1.0000
G00 X29.6001 Y46.5505
G01 F10.00
G01 Z-2.8000
G01 F120.00
G01 X29.6000 Y46.5505
G01 X29.6000 Y46.5505
G01 X29.6000 Y46.5506
G01 X29.6001 Y46.5505
G00 Z1.0000
G00 X23.2602 Y50.4113
G01 F10.00
G01 Z-2.8000
G01 F120.00
G01 X23.2602 Y50.4113
G01 X23.2601 Y50.4113
G01 X23.2602 Y50.4114
G01 X23.2602 Y50.4113
G00 Z1.0000
G00 X20.7202 Y50.4113
G01 F10.00
G01 Z-2.8000
G01 F120.00
G01 X20.7202 Y50.4113
G01 X20.7201 Y50.4113
G01 X20.7202 Y50.4114
G01 X20.7202 Y50.4113
G00 Z1.0000
G00 X29.6509 Y34.0004
G01 F10.00
G01 Z-2.8000
G01 F120.00
G01 X29.6508 Y34.0003
G01 X29.6508 Y34.0004
G01 X29.6508 Y34.0004
G01 X29.6509 Y34.0004
G00 Z1.0000
G00 X34.1060 Y29.0906
G01 F10.00
G01 Z-2.8000
G01 F120.00
G01 X34.1060 Y29.0905
G01 X34.1059 Y29.0906
G01 X34.1060 Y29.0906
G01 X34.1060 Y29.0906
G00 Z1.0000
G00 X36.6511 Y31.8007
G01 F10.00
G01 Z-2.8000
G01 F120.00
G01 X36.6510 Y31.8007
G01 X36.6510 Y31.8007
G01 X36.6510 Y31.8008
G01 X36.6511 Y31.8007
G00 Z1.0000
G00 X36.6511 Y33.9013
G01 F10.00
G01 Z-2.8000
G01 F120.00
G01 X36.6510 Y33.9013
G01 X36.6510 Y33.9013
G01 X36.6510 Y33.9014
G01 X36.6511 Y33.9013
G00 Z1.0000
G00 X25.2490 Y28.9991
G01 F10.00
G01 Z-2.8000
G01 F120.00
G01 X25.2490 Y28.9991
G01 X25.2489 Y28.9991
G01 X25.2490 Y28.9992
G01 X25.2490 Y28.9991
G00 Z1.0000
G00 X22.4500 Y29.0906
G01 F10.00
G01 Z-2.8000
G01 F120.00
G01 X22.4499 Y29.0905
G01 X22.4499 Y29.0906
G01 X22.4499 Y29.0906
G01 X22.4500 Y29.0906
G00 Z1.0000
G00 X49.8159 Y31.8998
G01 F10.00
G01 Z-2.8000
G01 F120.00
G01 X49.8159 Y31.8998
G01 X49.8158 Y31.8998
G01 X49.8159 Y31.8999
G01 X49.8159 Y31.8998
G00 Z1.0000
G00 X51.9495 Y29.1998
G01 F10.00
G01 Z-2.8000
G01 F120.00
G01 X51.9495 Y29.1997
G01 X51.9494 Y29.1998
G01 X51.9495 Y29.1998
G01 X51.9495 Y29.1998
G00 Z1.0000
G00 X78.8507 Y14.5491
G01 F10.00
G01 Z-2.8000
G01 F120.00
G01 X78.8506 Y14.5490
G01 X78.8506 Y14.5491
G01 X78.8506 Y14.5491
G01 X78.8507 Y14.5491
G00 Z1.0000
G00 X85.1702 Y83.9901
G01 F10.00
G01 Z-2.8000
G01 F120.00
G01 X85.1701 Y83.9901
G01 X85.1701 Y83.9901
G01 X85.1701 Y83.9902
G01 X85.1702 Y83.9901
G00 Z1.0000
G00 X85.1702 Y86.5301
G01 F10.00
G01 Z-2.8000
G01 F120.00
G01 X85.1701 Y86.5301
G01 X85.1701 Y86.5301
G01 X85.1701 Y86.5302
G01 X85.1702 Y86.5301
G00 Z1.0000
G00 X85.1702 Y89.0701
G01 F10.00
G01 Z-2.8000
G01 F120.00
G01 X85.1701 Y89.0701
G01 X85.1701 Y89.0701
G01 X85.1701 Y89.0702
G01 X85.1702 Y89.0701
G00 Z1.0000
G00 X85.1702 Y91.6101
G01 F10.00
G01 Z-2.8000
G01 F120.00
G01 X85.1701 Y91.6101
G01 X85.1701 Y91.6101
G01 X85.1701 Y91.6102
G01 X85.1702 Y91.6101
G00 Z1.0000
G00 X85.1702 Y94.1501
G01 F10.00
G01 Z-2.8000
G01 F120.00
G01 X85.1701 Y94.1501
G01 X85.1701 Y94.1501
G01 X85.1701 Y94.1502
G01 X85.1702 Y94.1501
G00 Z1.0000
G00 X81.1849 Y91.8413
G01 F10.00
G01 Z-2.8000
G01 F120.00
G01 X81.1849 Y91.8412
G01 X81.1848 Y91.8413
G01 X81.1849 Y91.8413
G01 X81.1849 Y91.8413
G00 Z1.0000
M05
G00 Z1.0000
G00 Z15.00


