(G-CODE GENERATED BY FLATCAM v8.994 - www.flatcam.org - Version Date: 2020/11/7)

(Name: condicionamento_BIA_v02-PTH.drl_mill_cnc)
(Type: G-code from Geometry)
(Units: MM)

(Created on segunda, 07 agosto 2023 at 16:03)

(This preprocessor is the default preprocessor used by FlatCAM.)
(It is made to work with MACH3 compatible motion controllers.)

(TOOL DIAMETER: 0.8 mm)
(Feedrate_XY: 200.0 mm/min)
(Feedrate_Z: 10.0 mm/min)
(Feedrate rapids 1500.0 mm/min)

(Z_Cut: -2.8 mm)
(Z_Move: 1.0 mm)
(Z Start: None mm)
(Z End: 15.0 mm)
(X,Y End: None mm)
(Steps per circle: 64)
(Preprocessor Geometry: default)

(X range:    0.9509 ...   82.0100  mm)
(Y range:    1.9905 ...   97.2991  mm)

(Spindle Speed: 1000.0 RPM)
G21
G90
G94

G01 F200.00

M5
G00 Z1.0000
G00 X0.0000 Y0.0000
(T1)
(M6    )
(MSG, Change to Tool Dia = 0.80000)
(M0)
G00 Z1.0000

M03 S1000.0
G01 F200.00
G00 X0.9510 Y2.3513
G01 F10.00
G01 Z-2.8000
G01 F200.00
G01 X0.9510 Y2.3512
G01 X0.9509 Y2.3513
G01 X0.9510 Y2.3513
G01 X0.9510 Y2.3513
G00 Z1.0000
G00 X3.4910 Y2.3513
G01 F10.00
G01 Z-2.8000
G01 F200.00
G01 X3.4910 Y2.3512
G01 X3.4909 Y2.3513
G01 X3.4910 Y2.3513
G01 X3.4910 Y2.3513
G00 Z1.0000
G00 X2.0000 Y7.0401
G01 F10.00
G01 Z-2.8000
G01 F200.00
G01 X2.0000 Y7.0401
G01 X1.9999 Y7.0401
G01 X2.0000 Y7.0402
G01 X2.0000 Y7.0401
G00 Z1.0000
G00 X2.0000 Y9.5801
G01 F10.00
G01 Z-2.8000
G01 F200.00
G01 X2.0000 Y9.5801
G01 X1.9999 Y9.5801
G01 X2.0000 Y9.5802
G01 X2.0000 Y9.5801
G00 Z1.0000
G00 X2.0000 Y12.1201
G01 F10.00
G01 Z-2.8000
G01 F200.00
G01 X2.0000 Y12.1201
G01 X1.9999 Y12.1201
G01 X2.0000 Y12.1202
G01 X2.0000 Y12.1201
G00 Z1.0000
G00 X2.0000 Y14.6601
G01 F10.00
G01 Z-2.8000
G01 F200.00
G01 X2.0000 Y14.6601
G01 X1.9999 Y14.6601
G01 X2.0000 Y14.6602
G01 X2.0000 Y14.6601
G00 Z1.0000
G00 X2.0000 Y17.2001
G01 F10.00
G01 Z-2.8000
G01 F200.00
G01 X2.0000 Y17.2001
G01 X1.9999 Y17.2001
G01 X2.0000 Y17.2002
G01 X2.0000 Y17.2001
G00 Z1.0000
G00 X2.0000 Y19.7401
G01 F10.00
G01 Z-2.8000
G01 F200.00
G01 X2.0000 Y19.7401
G01 X1.9999 Y19.7401
G01 X2.0000 Y19.7402
G01 X2.0000 Y19.7401
G00 Z1.0000
G00 X2.0000 Y22.2801
G01 F10.00
G01 Z-2.8000
G01 F200.00
G01 X2.0000 Y22.2801
G01 X1.9999 Y22.2801
G01 X2.0000 Y22.2802
G01 X2.0000 Y22.2801
G00 Z1.0000
G00 X2.0000 Y24.8201
G01 F10.00
G01 Z-2.8000
G01 F200.00
G01 X2.0000 Y24.8201
G01 X1.9999 Y24.8201
G01 X2.0000 Y24.8202
G01 X2.0000 Y24.8201
G00 Z1.0000
G00 X2.0000 Y27.3601
G01 F10.00
G01 Z-2.8000
G01 F200.00
G01 X2.0000 Y27.3601
G01 X1.9999 Y27.3601
G01 X2.0000 Y27.3602
G01 X2.0000 Y27.3601
G00 Z1.0000
G00 X2.0000 Y29.9001
G01 F10.00
G01 Z-2.8000
G01 F200.00
G01 X2.0000 Y29.9001
G01 X1.9999 Y29.9001
G01 X2.0000 Y29.9002
G01 X2.0000 Y29.9001
G00 Z1.0000
G00 X2.0000 Y32.4401
G01 F10.00
G01 Z-2.8000
G01 F200.00
G01 X2.0000 Y32.4401
G01 X1.9999 Y32.4401
G01 X2.0000 Y32.4402
G01 X2.0000 Y32.4401
G00 Z1.0000
G00 X2.0000 Y34.9801
G01 F10.00
G01 Z-2.8000
G01 F200.00
G01 X2.0000 Y34.9801
G01 X1.9999 Y34.9801
G01 X2.0000 Y34.9802
G01 X2.0000 Y34.9801
G00 Z1.0000
G00 X2.0000 Y37.5201
G01 F10.00
G01 Z-2.8000
G01 F200.00
G01 X2.0000 Y37.5201
G01 X1.9999 Y37.5201
G01 X2.0000 Y37.5202
G01 X2.0000 Y37.5201
G00 Z1.0000
G00 X2.0000 Y40.0601
G01 F10.00
G01 Z-2.8000
G01 F200.00
G01 X2.0000 Y40.0601
G01 X1.9999 Y40.0601
G01 X2.0000 Y40.0602
G01 X2.0000 Y40.0601
G00 Z1.0000
G00 X2.0000 Y42.6001
G01 F10.00
G01 Z-2.8000
G01 F200.00
G01 X2.0000 Y42.6001
G01 X1.9999 Y42.6001
G01 X2.0000 Y42.6002
G01 X2.0000 Y42.6001
G00 Z1.0000
G00 X2.0000 Y45.1401
G01 F10.00
G01 Z-2.8000
G01 F200.00
G01 X2.0000 Y45.1401
G01 X1.9999 Y45.1401
G01 X2.0000 Y45.1402
G01 X2.0000 Y45.1401
G00 Z1.0000
G00 X2.0000 Y47.6801
G01 F10.00
G01 Z-2.8000
G01 F200.00
G01 X2.0000 Y47.6801
G01 X1.9999 Y47.6801
G01 X2.0000 Y47.6802
G01 X2.0000 Y47.6801
G00 Z1.0000
G00 X2.0000 Y50.2201
G01 F10.00
G01 Z-2.8000
G01 F200.00
G01 X2.0000 Y50.2201
G01 X1.9999 Y50.2201
G01 X2.0000 Y50.2202
G01 X2.0000 Y50.2201
G00 Z1.0000
G00 X2.0000 Y52.7601
G01 F10.00
G01 Z-2.8000
G01 F200.00
G01 X2.0000 Y52.7601
G01 X1.9999 Y52.7601
G01 X2.0000 Y52.7602
G01 X2.0000 Y52.7601
G00 Z1.0000
G00 X2.0000 Y55.3001
G01 F10.00
G01 Z-2.8000
G01 F200.00
G01 X2.0000 Y55.3001
G01 X1.9999 Y55.3001
G01 X2.0000 Y55.3002
G01 X2.0000 Y55.3001
G00 Z1.0000
G00 X2.0000 Y57.8401
G01 F10.00
G01 Z-2.8000
G01 F200.00
G01 X2.0000 Y57.8401
G01 X1.9999 Y57.8401
G01 X2.0000 Y57.8402
G01 X2.0000 Y57.8401
G00 Z1.0000
G00 X2.0000 Y60.3801
G01 F10.00
G01 Z-2.8000
G01 F200.00
G01 X2.0000 Y60.3801
G01 X1.9999 Y60.3801
G01 X2.0000 Y60.3802
G01 X2.0000 Y60.3801
G00 Z1.0000
G00 X2.0000 Y62.9201
G01 F10.00
G01 Z-2.8000
G01 F200.00
G01 X2.0000 Y62.9201
G01 X1.9999 Y62.9201
G01 X2.0000 Y62.9202
G01 X2.0000 Y62.9201
G00 Z1.0000
G00 X2.0000 Y65.4601
G01 F10.00
G01 Z-2.8000
G01 F200.00
G01 X2.0000 Y65.4601
G01 X1.9999 Y65.4601
G01 X2.0000 Y65.4602
G01 X2.0000 Y65.4601
G00 Z1.0000
G00 X2.0000 Y68.0001
G01 F10.00
G01 Z-2.8000
G01 F200.00
G01 X2.0000 Y68.0001
G01 X1.9999 Y68.0001
G01 X2.0000 Y68.0002
G01 X2.0000 Y68.0001
G00 Z1.0000
G00 X2.0000 Y70.5401
G01 F10.00
G01 Z-2.8000
G01 F200.00
G01 X2.0000 Y70.5401
G01 X1.9999 Y70.5401
G01 X2.0000 Y70.5402
G01 X2.0000 Y70.5401
G00 Z1.0000
G00 X2.0000 Y73.0801
G01 F10.00
G01 Z-2.8000
G01 F200.00
G01 X2.0000 Y73.0801
G01 X1.9999 Y73.0801
G01 X2.0000 Y73.0802
G01 X2.0000 Y73.0801
G00 Z1.0000
G00 X2.0000 Y75.6201
G01 F10.00
G01 Z-2.8000
G01 F200.00
G01 X2.0000 Y75.6201
G01 X1.9999 Y75.6201
G01 X2.0000 Y75.6202
G01 X2.0000 Y75.6201
G00 Z1.0000
G00 X2.0000 Y78.1601
G01 F10.00
G01 Z-2.8000
G01 F200.00
G01 X2.0000 Y78.1601
G01 X1.9999 Y78.1601
G01 X2.0000 Y78.1602
G01 X2.0000 Y78.1601
G00 Z1.0000
G00 X2.0000 Y80.7001
G01 F10.00
G01 Z-2.8000
G01 F200.00
G01 X2.0000 Y80.7001
G01 X1.9999 Y80.7001
G01 X2.0000 Y80.7002
G01 X2.0000 Y80.7001
G00 Z1.0000
G00 X2.0000 Y83.2401
G01 F10.00
G01 Z-2.8000
G01 F200.00
G01 X2.0000 Y83.2401
G01 X1.9999 Y83.2401
G01 X2.0000 Y83.2402
G01 X2.0000 Y83.2401
G00 Z1.0000
G00 X2.0000 Y85.7801
G01 F10.00
G01 Z-2.8000
G01 F200.00
G01 X2.0000 Y85.7801
G01 X1.9999 Y85.7801
G01 X2.0000 Y85.7802
G01 X2.0000 Y85.7801
G00 Z1.0000
G00 X2.0000 Y88.3201
G01 F10.00
G01 Z-2.8000
G01 F200.00
G01 X2.0000 Y88.3201
G01 X1.9999 Y88.3201
G01 X2.0000 Y88.3202
G01 X2.0000 Y88.3201
G00 Z1.0000
G00 X2.0000 Y90.8601
G01 F10.00
G01 Z-2.8000
G01 F200.00
G01 X2.0000 Y90.8601
G01 X1.9999 Y90.8601
G01 X2.0000 Y90.8602
G01 X2.0000 Y90.8601
G00 Z1.0000
G00 X2.0000 Y93.4001
G01 F10.00
G01 Z-2.8000
G01 F200.00
G01 X2.0000 Y93.4001
G01 X1.9999 Y93.4001
G01 X2.0000 Y93.4002
G01 X2.0000 Y93.4001
G00 Z1.0000
G00 X5.1903 Y97.2990
G01 F10.00
G01 Z-2.8000
G01 F200.00
G01 X5.1902 Y97.2990
G01 X5.1902 Y97.2990
G01 X5.1902 Y97.2991
G01 X5.1903 Y97.2990
G00 Z1.0000
G00 X11.1999 Y94.1113
G01 F10.00
G01 Z-2.8000
G01 F200.00
G01 X11.1999 Y94.1113
G01 X11.1998 Y94.1113
G01 X11.1999 Y94.1114
G01 X11.1999 Y94.1113
G00 Z1.0000
G00 X11.1999 Y91.5713
G01 F10.00
G01 Z-2.8000
G01 F200.00
G01 X11.1999 Y91.5713
G01 X11.1998 Y91.5713
G01 X11.1999 Y91.5714
G01 X11.1999 Y91.5713
G00 Z1.0000
G00 X11.1999 Y89.0313
G01 F10.00
G01 Z-2.8000
G01 F200.00
G01 X11.1999 Y89.0313
G01 X11.1998 Y89.0313
G01 X11.1999 Y89.0314
G01 X11.1999 Y89.0313
G00 Z1.0000
G00 X11.1999 Y86.4913
G01 F10.00
G01 Z-2.8000
G01 F200.00
G01 X11.1999 Y86.4913
G01 X11.1998 Y86.4913
G01 X11.1999 Y86.4914
G01 X11.1999 Y86.4913
G00 Z1.0000
G00 X11.1999 Y83.9513
G01 F10.00
G01 Z-2.8000
G01 F200.00
G01 X11.1999 Y83.9513
G01 X11.1998 Y83.9513
G01 X11.1999 Y83.9514
G01 X11.1999 Y83.9513
G00 Z1.0000
G00 X11.1999 Y81.4113
G01 F10.00
G01 Z-2.8000
G01 F200.00
G01 X11.1999 Y81.4113
G01 X11.1998 Y81.4113
G01 X11.1999 Y81.4114
G01 X11.1999 Y81.4113
G00 Z1.0000
G00 X11.1999 Y78.8713
G01 F10.00
G01 Z-2.8000
G01 F200.00
G01 X11.1999 Y78.8713
G01 X11.1998 Y78.8713
G01 X11.1999 Y78.8714
G01 X11.1999 Y78.8713
G00 Z1.0000
G00 X11.1999 Y76.3313
G01 F10.00
G01 Z-2.8000
G01 F200.00
G01 X11.1999 Y76.3313
G01 X11.1998 Y76.3313
G01 X11.1999 Y76.3314
G01 X11.1999 Y76.3313
G00 Z1.0000
G00 X11.1999 Y73.7913
G01 F10.00
G01 Z-2.8000
G01 F200.00
G01 X11.1999 Y73.7913
G01 X11.1998 Y73.7913
G01 X11.1999 Y73.7914
G01 X11.1999 Y73.7913
G00 Z1.0000
G00 X11.1999 Y71.2513
G01 F10.00
G01 Z-2.8000
G01 F200.00
G01 X11.1999 Y71.2513
G01 X11.1998 Y71.2513
G01 X11.1999 Y71.2514
G01 X11.1999 Y71.2513
G00 Z1.0000
G00 X11.1999 Y68.7113
G01 F10.00
G01 Z-2.8000
G01 F200.00
G01 X11.1999 Y68.7113
G01 X11.1998 Y68.7113
G01 X11.1999 Y68.7114
G01 X11.1999 Y68.7113
G00 Z1.0000
G00 X11.1999 Y66.1713
G01 F10.00
G01 Z-2.8000
G01 F200.00
G01 X11.1999 Y66.1713
G01 X11.1998 Y66.1713
G01 X11.1999 Y66.1714
G01 X11.1999 Y66.1713
G00 Z1.0000
G00 X11.1999 Y63.6313
G01 F10.00
G01 Z-2.8000
G01 F200.00
G01 X11.1999 Y63.6313
G01 X11.1998 Y63.6313
G01 X11.1999 Y63.6314
G01 X11.1999 Y63.6313
G00 Z1.0000
G00 X11.1999 Y61.0913
G01 F10.00
G01 Z-2.8000
G01 F200.00
G01 X11.1999 Y61.0913
G01 X11.1998 Y61.0913
G01 X11.1999 Y61.0914
G01 X11.1999 Y61.0913
G00 Z1.0000
G00 X11.1999 Y58.5513
G01 F10.00
G01 Z-2.8000
G01 F200.00
G01 X11.1999 Y58.5513
G01 X11.1998 Y58.5513
G01 X11.1999 Y58.5514
G01 X11.1999 Y58.5513
G00 Z1.0000
G00 X11.1999 Y56.0113
G01 F10.00
G01 Z-2.8000
G01 F200.00
G01 X11.1999 Y56.0113
G01 X11.1998 Y56.0113
G01 X11.1999 Y56.0114
G01 X11.1999 Y56.0113
G00 Z1.0000
G00 X11.1999 Y53.4713
G01 F10.00
G01 Z-2.8000
G01 F200.00
G01 X11.1999 Y53.4713
G01 X11.1998 Y53.4713
G01 X11.1999 Y53.4714
G01 X11.1999 Y53.4713
G00 Z1.0000
G00 X11.1999 Y50.9313
G01 F10.00
G01 Z-2.8000
G01 F200.00
G01 X11.1999 Y50.9313
G01 X11.1998 Y50.9313
G01 X11.1999 Y50.9314
G01 X11.1999 Y50.9313
G00 Z1.0000
G00 X11.1999 Y48.3913
G01 F10.00
G01 Z-2.8000
G01 F200.00
G01 X11.1999 Y48.3913
G01 X11.1998 Y48.3913
G01 X11.1999 Y48.3914
G01 X11.1999 Y48.3913
G00 Z1.0000
G00 X11.1999 Y45.8513
G01 F10.00
G01 Z-2.8000
G01 F200.00
G01 X11.1999 Y45.8513
G01 X11.1998 Y45.8513
G01 X11.1999 Y45.8514
G01 X11.1999 Y45.8513
G00 Z1.0000
G00 X14.0904 Y41.0507
G01 F10.00
G01 Z-2.8000
G01 F200.00
G01 X14.0904 Y41.0507
G01 X14.0903 Y41.0507
G01 X14.0904 Y41.0508
G01 X14.0904 Y41.0507
G00 Z1.0000
G00 X19.2898 Y35.9606
G01 F10.00
G01 Z-2.8000
G01 F200.00
G01 X19.2898 Y35.9605
G01 X19.2897 Y35.9606
G01 X19.2898 Y35.9606
G01 X19.2898 Y35.9606
G00 Z1.0000
G00 X14.0904 Y33.4307
G01 F10.00
G01 Z-2.8000
G01 F200.00
G01 X14.0904 Y33.4307
G01 X14.0903 Y33.4307
G01 X14.0904 Y33.4308
G01 X14.0904 Y33.4307
G00 Z1.0000
G00 X8.0249 Y30.6494
G01 F10.00
G01 Z-2.8000
G01 F200.00
G01 X8.0249 Y30.6494
G01 X8.0248 Y30.6494
G01 X8.0249 Y30.6495
G01 X8.0249 Y30.6494
G00 Z1.0000
G00 X12.5893 Y25.5491
G01 F10.00
G01 Z-2.8000
G01 F200.00
G01 X12.5893 Y25.5490
G01 X12.5892 Y25.5491
G01 X12.5893 Y25.5491
G01 X12.5893 Y25.5491
G00 Z1.0000
G00 X7.9894 Y21.3505
G01 F10.00
G01 Z-2.8000
G01 F200.00
G01 X7.9893 Y21.3504
G01 X7.9893 Y21.3505
G01 X7.9893 Y21.3505
G01 X7.9894 Y21.3505
G00 Z1.0000
G00 X12.5893 Y18.1856
G01 F10.00
G01 Z-2.8000
G01 F200.00
G01 X12.5893 Y18.1856
G01 X12.5892 Y18.1856
G01 X12.5893 Y18.1857
G01 X12.5893 Y18.1856
G00 Z1.0000
G00 X14.6899 Y14.5509
G01 F10.00
G01 Z-2.8000
G01 F200.00
G01 X14.6898 Y14.5508
G01 X14.6898 Y14.5509
G01 X14.6898 Y14.5509
G01 X14.6899 Y14.5509
G00 Z1.0000
G00 X12.5563 Y12.0490
G01 F10.00
G01 Z-2.8000
G01 F200.00
G01 X12.5562 Y12.0489
G01 X12.5562 Y12.0490
G01 X12.5562 Y12.0490
G01 X12.5563 Y12.0490
G00 Z1.0000
G00 X7.4407 Y12.0490
G01 F10.00
G01 Z-2.8000
G01 F200.00
G01 X7.4407 Y12.0489
G01 X7.4406 Y12.0490
G01 X7.4407 Y12.0490
G01 X7.4407 Y12.0490
G00 Z1.0000
G00 X5.9396 Y14.7998
G01 F10.00
G01 Z-2.8000
G01 F200.00
G01 X5.9395 Y14.7998
G01 X5.9395 Y14.7998
G01 X5.9395 Y14.7999
G01 X5.9396 Y14.7998
G00 Z1.0000
G00 X8.2561 Y7.0503
G01 F10.00
G01 Z-2.8000
G01 F200.00
G01 X8.2560 Y7.0502
G01 X8.2560 Y7.0503
G01 X8.2560 Y7.0503
G01 X8.2561 Y7.0503
G00 Z1.0000
G00 X17.2908 Y3.9489
G01 F10.00
G01 Z-2.8000
G01 F200.00
G01 X17.2908 Y3.9489
G01 X17.2907 Y3.9489
G01 X17.2908 Y3.9490
G01 X17.2908 Y3.9489
G00 Z1.0000
G00 X19.8308 Y3.9489
G01 F10.00
G01 Z-2.8000
G01 F200.00
G01 X19.8308 Y3.9489
G01 X19.8307 Y3.9489
G01 X19.8308 Y3.9490
G01 X19.8308 Y3.9489
G00 Z1.0000
G00 X22.3708 Y3.9489
G01 F10.00
G01 Z-2.8000
G01 F200.00
G01 X22.3708 Y3.9489
G01 X22.3707 Y3.9489
G01 X22.3708 Y3.9490
G01 X22.3708 Y3.9489
G00 Z1.0000
G00 X24.9108 Y3.9489
G01 F10.00
G01 Z-2.8000
G01 F200.00
G01 X24.9108 Y3.9489
G01 X24.9107 Y3.9489
G01 X24.9108 Y3.9490
G01 X24.9108 Y3.9489
G00 Z1.0000
G00 X20.6894 Y7.0503
G01 F10.00
G01 Z-2.8000
G01 F200.00
G01 X20.6893 Y7.0502
G01 X20.6893 Y7.0503
G01 X20.6893 Y7.0503
G01 X20.6894 Y7.0503
G00 Z1.0000
G00 X25.6906 Y13.0498
G01 F10.00
G01 Z-2.8000
G01 F200.00
G01 X25.6906 Y13.0497
G01 X25.6905 Y13.0498
G01 X25.6906 Y13.0498
G01 X25.6906 Y13.0498
G00 Z1.0000
G00 X22.0889 Y16.2502
G01 F10.00
G01 Z-2.8000
G01 F200.00
G01 X22.0889 Y16.2501
G01 X22.0888 Y16.2502
G01 X22.0889 Y16.2502
G01 X22.0889 Y16.2502
G00 Z1.0000
G00 X30.0899 Y8.8511
G01 F10.00
G01 Z-2.8000
G01 F200.00
G01 X30.0899 Y8.8511
G01 X30.0898 Y8.8511
G01 X30.0899 Y8.8512
G01 X30.0899 Y8.8511
G00 Z1.0000
G00 X30.0899 Y2.2497
G01 F10.00
G01 Z-2.8000
G01 F200.00
G01 X30.0899 Y2.2496
G01 X30.0898 Y2.2497
G01 X30.0899 Y2.2497
G01 X30.0899 Y2.2497
G00 Z1.0000
G00 X38.3703 Y4.1496
G01 F10.00
G01 Z-2.8000
G01 F200.00
G01 X38.3703 Y4.1495
G01 X38.3702 Y4.1496
G01 X38.3703 Y4.1496
G01 X38.3703 Y4.1496
G00 Z1.0000
G00 X40.9103 Y4.1496
G01 F10.00
G01 Z-2.8000
G01 F200.00
G01 X40.9103 Y4.1495
G01 X40.9102 Y4.1496
G01 X40.9103 Y4.1496
G01 X40.9103 Y4.1496
G00 Z1.0000
G00 X43.4503 Y4.1496
G01 F10.00
G01 Z-2.8000
G01 F200.00
G01 X43.4503 Y4.1495
G01 X43.4502 Y4.1496
G01 X43.4503 Y4.1496
G01 X43.4503 Y4.1496
G00 Z1.0000
G00 X45.9903 Y4.1496
G01 F10.00
G01 Z-2.8000
G01 F200.00
G01 X45.9903 Y4.1495
G01 X45.9902 Y4.1496
G01 X45.9903 Y4.1496
G01 X45.9903 Y4.1496
G00 Z1.0000
G00 X41.5910 Y8.9502
G01 F10.00
G01 Z-2.8000
G01 F200.00
G01 X41.5910 Y8.9501
G01 X41.5909 Y8.9502
G01 X41.5910 Y8.9502
G01 X41.5910 Y8.9502
G00 Z1.0000
G00 X46.5897 Y13.0498
G01 F10.00
G01 Z-2.8000
G01 F200.00
G01 X46.5897 Y13.0497
G01 X46.5896 Y13.0498
G01 X46.5897 Y13.0498
G01 X46.5897 Y13.0498
G00 Z1.0000
G00 X54.1894 Y14.2207
G01 F10.00
G01 Z-2.8000
G01 F200.00
G01 X54.1894 Y14.2206
G01 X54.1893 Y14.2207
G01 X54.1894 Y14.2207
G01 X54.1894 Y14.2207
G00 Z1.0000
G00 X54.1894 Y11.6807
G01 F10.00
G01 Z-2.8000
G01 F200.00
G01 X54.1894 Y11.6806
G01 X54.1893 Y11.6807
G01 X54.1894 Y11.6807
G01 X54.1894 Y11.6807
G00 Z1.0000
G00 X54.1894 Y9.1407
G01 F10.00
G01 Z-2.8000
G01 F200.00
G01 X54.1894 Y9.1406
G01 X54.1893 Y9.1407
G01 X54.1894 Y9.1407
G01 X54.1894 Y9.1407
G00 Z1.0000
G00 X54.1894 Y6.6007
G01 F10.00
G01 Z-2.8000
G01 F200.00
G01 X54.1894 Y6.6006
G01 X54.1893 Y6.6007
G01 X54.1894 Y6.6007
G01 X54.1894 Y6.6007
G00 Z1.0000
G00 X54.1894 Y4.0607
G01 F10.00
G01 Z-2.8000
G01 F200.00
G01 X54.1894 Y4.0606
G01 X54.1893 Y4.0607
G01 X54.1894 Y4.0607
G01 X54.1894 Y4.0607
G00 Z1.0000
G00 X54.1894 Y16.7607
G01 F10.00
G01 Z-2.8000
G01 F200.00
G01 X54.1894 Y16.7606
G01 X54.1893 Y16.7607
G01 X54.1894 Y16.7607
G01 X54.1894 Y16.7607
G00 Z1.0000
G00 X54.1894 Y19.3007
G01 F10.00
G01 Z-2.8000
G01 F200.00
G01 X54.1894 Y19.3006
G01 X54.1893 Y19.3007
G01 X54.1894 Y19.3007
G01 X54.1894 Y19.3007
G00 Z1.0000
G00 X54.1894 Y21.8407
G01 F10.00
G01 Z-2.8000
G01 F200.00
G01 X54.1894 Y21.8406
G01 X54.1893 Y21.8407
G01 X54.1894 Y21.8407
G01 X54.1894 Y21.8407
G00 Z1.0000
G00 X54.1894 Y24.3807
G01 F10.00
G01 Z-2.8000
G01 F200.00
G01 X54.1894 Y24.3806
G01 X54.1893 Y24.3807
G01 X54.1894 Y24.3807
G01 X54.1894 Y24.3807
G00 Z1.0000
G00 X54.1894 Y26.9207
G01 F10.00
G01 Z-2.8000
G01 F200.00
G01 X54.1894 Y26.9206
G01 X54.1893 Y26.9207
G01 X54.1894 Y26.9207
G01 X54.1894 Y26.9207
G00 Z1.0000
G00 X54.1894 Y29.4607
G01 F10.00
G01 Z-2.8000
G01 F200.00
G01 X54.1894 Y29.4606
G01 X54.1893 Y29.4607
G01 X54.1894 Y29.4607
G01 X54.1894 Y29.4607
G00 Z1.0000
G00 X54.1894 Y32.0007
G01 F10.00
G01 Z-2.8000
G01 F200.00
G01 X54.1894 Y32.0006
G01 X54.1893 Y32.0007
G01 X54.1894 Y32.0007
G01 X54.1894 Y32.0007
G00 Z1.0000
G00 X54.1894 Y34.5407
G01 F10.00
G01 Z-2.8000
G01 F200.00
G01 X54.1894 Y34.5406
G01 X54.1893 Y34.5407
G01 X54.1894 Y34.5407
G01 X54.1894 Y34.5407
G00 Z1.0000
G00 X54.1894 Y37.0807
G01 F10.00
G01 Z-2.8000
G01 F200.00
G01 X54.1894 Y37.0806
G01 X54.1893 Y37.0807
G01 X54.1894 Y37.0807
G01 X54.1894 Y37.0807
G00 Z1.0000
G00 X54.1894 Y39.6207
G01 F10.00
G01 Z-2.8000
G01 F200.00
G01 X54.1894 Y39.6206
G01 X54.1893 Y39.6207
G01 X54.1894 Y39.6207
G01 X54.1894 Y39.6207
G00 Z1.0000
G00 X54.1894 Y42.1607
G01 F10.00
G01 Z-2.8000
G01 F200.00
G01 X54.1894 Y42.1606
G01 X54.1893 Y42.1607
G01 X54.1894 Y42.1607
G01 X54.1894 Y42.1607
G00 Z1.0000
G00 X54.1894 Y44.7007
G01 F10.00
G01 Z-2.8000
G01 F200.00
G01 X54.1894 Y44.7006
G01 X54.1893 Y44.7007
G01 X54.1894 Y44.7007
G01 X54.1894 Y44.7007
G00 Z1.0000
G00 X54.1894 Y47.2407
G01 F10.00
G01 Z-2.8000
G01 F200.00
G01 X54.1894 Y47.2406
G01 X54.1893 Y47.2407
G01 X54.1894 Y47.2407
G01 X54.1894 Y47.2407
G00 Z1.0000
G00 X54.1894 Y49.7807
G01 F10.00
G01 Z-2.8000
G01 F200.00
G01 X54.1894 Y49.7806
G01 X54.1893 Y49.7807
G01 X54.1894 Y49.7807
G01 X54.1894 Y49.7807
G00 Z1.0000
G00 X54.1894 Y52.3715
G01 F10.00
G01 Z-2.8000
G01 F200.00
G01 X54.1894 Y52.3714
G01 X54.1893 Y52.3715
G01 X54.1894 Y52.3715
G01 X54.1894 Y52.3715
G00 Z1.0000
G00 X55.5890 Y56.0494
G01 F10.00
G01 Z-2.8000
G01 F200.00
G01 X55.5889 Y56.0494
G01 X55.5889 Y56.0494
G01 X55.5889 Y56.0495
G01 X55.5890 Y56.0494
G00 Z1.0000
G00 X54.8905 Y59.5495
G01 F10.00
G01 Z-2.8000
G01 F200.00
G01 X54.8904 Y59.5495
G01 X54.8904 Y59.5495
G01 X54.8904 Y59.5496
G01 X54.8905 Y59.5495
G00 Z1.0000
G00 X54.8905 Y61.5511
G01 F10.00
G01 Z-2.8000
G01 F200.00
G01 X54.8904 Y61.5510
G01 X54.8904 Y61.5511
G01 X54.8904 Y61.5511
G01 X54.8905 Y61.5511
G00 Z1.0000
G00 X51.1008 Y59.8010
G01 F10.00
G01 Z-2.8000
G01 F200.00
G01 X51.1007 Y59.8009
G01 X51.1007 Y59.8010
G01 X51.1007 Y59.8010
G01 X51.1008 Y59.8010
G00 Z1.0000
G00 X51.1008 Y63.5500
G01 F10.00
G01 Z-2.8000
G01 F200.00
G01 X51.1007 Y63.5500
G01 X51.1007 Y63.5500
G01 X51.1007 Y63.5501
G01 X51.1008 Y63.5500
G00 Z1.0000
G00 X48.5659 Y69.5495
G01 F10.00
G01 Z-2.8000
G01 F200.00
G01 X48.5658 Y69.5495
G01 X48.5658 Y69.5495
G01 X48.5658 Y69.5496
G01 X48.5659 Y69.5495
G00 Z1.0000
G00 X46.0640 Y69.5495
G01 F10.00
G01 Z-2.8000
G01 F200.00
G01 X46.0639 Y69.5495
G01 X46.0639 Y69.5495
G01 X46.0639 Y69.5496
G01 X46.0640 Y69.5495
G00 Z1.0000
G00 X41.0195 Y66.7403
G01 F10.00
G01 Z-2.8000
G01 F200.00
G01 X41.0195 Y66.7402
G01 X41.0194 Y66.7403
G01 X41.0195 Y66.7403
G01 X41.0195 Y66.7403
G00 Z1.0000
G00 X40.9408 Y63.5500
G01 F10.00
G01 Z-2.8000
G01 F200.00
G01 X40.9407 Y63.5500
G01 X40.9407 Y63.5500
G01 X40.9407 Y63.5501
G01 X40.9408 Y63.5500
G00 Z1.0000
G00 X40.9408 Y59.8010
G01 F10.00
G01 Z-2.8000
G01 F200.00
G01 X40.9407 Y59.8009
G01 X40.9407 Y59.8010
G01 X40.9407 Y59.8010
G01 X40.9408 Y59.8010
G00 Z1.0000
G00 X37.1892 Y51.0507
G01 F10.00
G01 Z-2.8000
G01 F200.00
G01 X37.1892 Y51.0506
G01 X37.1891 Y51.0507
G01 X37.1892 Y51.0507
G01 X37.1892 Y51.0507
G00 Z1.0000
G00 X26.4399 Y50.9313
G01 F10.00
G01 Z-2.8000
G01 F200.00
G01 X26.4399 Y50.9313
G01 X26.4398 Y50.9313
G01 X26.4399 Y50.9314
G01 X26.4399 Y50.9313
G00 Z1.0000
G00 X26.4399 Y53.4713
G01 F10.00
G01 Z-2.8000
G01 F200.00
G01 X26.4399 Y53.4713
G01 X26.4398 Y53.4713
G01 X26.4399 Y53.4714
G01 X26.4399 Y53.4713
G00 Z1.0000
G00 X26.4399 Y56.0113
G01 F10.00
G01 Z-2.8000
G01 F200.00
G01 X26.4399 Y56.0113
G01 X26.4398 Y56.0113
G01 X26.4399 Y56.0114
G01 X26.4399 Y56.0113
G00 Z1.0000
G00 X26.4399 Y58.5513
G01 F10.00
G01 Z-2.8000
G01 F200.00
G01 X26.4399 Y58.5513
G01 X26.4398 Y58.5513
G01 X26.4399 Y58.5514
G01 X26.4399 Y58.5513
G00 Z1.0000
G00 X26.4399 Y61.0913
G01 F10.00
G01 Z-2.8000
G01 F200.00
G01 X26.4399 Y61.0913
G01 X26.4398 Y61.0913
G01 X26.4399 Y61.0914
G01 X26.4399 Y61.0913
G00 Z1.0000
G00 X26.4399 Y63.6313
G01 F10.00
G01 Z-2.8000
G01 F200.00
G01 X26.4399 Y63.6313
G01 X26.4398 Y63.6313
G01 X26.4399 Y63.6314
G01 X26.4399 Y63.6313
G00 Z1.0000
G00 X26.4399 Y66.1713
G01 F10.00
G01 Z-2.8000
G01 F200.00
G01 X26.4399 Y66.1713
G01 X26.4398 Y66.1713
G01 X26.4399 Y66.1714
G01 X26.4399 Y66.1713
G00 Z1.0000
G00 X26.4399 Y68.7113
G01 F10.00
G01 Z-2.8000
G01 F200.00
G01 X26.4399 Y68.7113
G01 X26.4398 Y68.7113
G01 X26.4399 Y68.7114
G01 X26.4399 Y68.7113
G00 Z1.0000
G00 X26.4399 Y71.2513
G01 F10.00
G01 Z-2.8000
G01 F200.00
G01 X26.4399 Y71.2513
G01 X26.4398 Y71.2513
G01 X26.4399 Y71.2514
G01 X26.4399 Y71.2513
G00 Z1.0000
G00 X26.4399 Y73.7913
G01 F10.00
G01 Z-2.8000
G01 F200.00
G01 X26.4399 Y73.7913
G01 X26.4398 Y73.7913
G01 X26.4399 Y73.7914
G01 X26.4399 Y73.7913
G00 Z1.0000
G00 X26.4399 Y76.3313
G01 F10.00
G01 Z-2.8000
G01 F200.00
G01 X26.4399 Y76.3313
G01 X26.4398 Y76.3313
G01 X26.4399 Y76.3314
G01 X26.4399 Y76.3313
G00 Z1.0000
G00 X26.4399 Y78.8713
G01 F10.00
G01 Z-2.8000
G01 F200.00
G01 X26.4399 Y78.8713
G01 X26.4398 Y78.8713
G01 X26.4399 Y78.8714
G01 X26.4399 Y78.8713
G00 Z1.0000
G00 X26.4399 Y81.4113
G01 F10.00
G01 Z-2.8000
G01 F200.00
G01 X26.4399 Y81.4113
G01 X26.4398 Y81.4113
G01 X26.4399 Y81.4114
G01 X26.4399 Y81.4113
G00 Z1.0000
G00 X26.4399 Y83.9513
G01 F10.00
G01 Z-2.8000
G01 F200.00
G01 X26.4399 Y83.9513
G01 X26.4398 Y83.9513
G01 X26.4399 Y83.9514
G01 X26.4399 Y83.9513
G00 Z1.0000
G00 X26.4399 Y86.4913
G01 F10.00
G01 Z-2.8000
G01 F200.00
G01 X26.4399 Y86.4913
G01 X26.4398 Y86.4913
G01 X26.4399 Y86.4914
G01 X26.4399 Y86.4913
G00 Z1.0000
G00 X26.4399 Y89.0313
G01 F10.00
G01 Z-2.8000
G01 F200.00
G01 X26.4399 Y89.0313
G01 X26.4398 Y89.0313
G01 X26.4399 Y89.0314
G01 X26.4399 Y89.0313
G00 Z1.0000
G00 X26.4399 Y91.5713
G01 F10.00
G01 Z-2.8000
G01 F200.00
G01 X26.4399 Y91.5713
G01 X26.4398 Y91.5713
G01 X26.4399 Y91.5714
G01 X26.4399 Y91.5713
G00 Z1.0000
G00 X26.4399 Y94.1113
G01 F10.00
G01 Z-2.8000
G01 F200.00
G01 X26.4399 Y94.1113
G01 X26.4398 Y94.1113
G01 X26.4399 Y94.1114
G01 X26.4399 Y94.1113
G00 Z1.0000
G00 X34.6898 Y96.0493
G01 F10.00
G01 Z-2.8000
G01 F200.00
G01 X34.6898 Y96.0493
G01 X34.6897 Y96.0493
G01 X34.6898 Y96.0494
G01 X34.6898 Y96.0493
G00 Z1.0000
G00 X46.3154 Y86.0494
G01 F10.00
G01 Z-2.8000
G01 F200.00
G01 X46.3154 Y86.0493
G01 X46.3153 Y86.0494
G01 X46.3154 Y86.0494
G01 X46.3154 Y86.0494
G00 Z1.0000
G00 X48.8148 Y86.0494
G01 F10.00
G01 Z-2.8000
G01 F200.00
G01 X48.8147 Y86.0493
G01 X48.8147 Y86.0494
G01 X48.8147 Y86.0494
G01 X48.8148 Y86.0494
G00 Z1.0000
G00 X52.4013 Y86.1306
G01 F10.00
G01 Z-2.8000
G01 F200.00
G01 X52.4012 Y86.1306
G01 X52.4012 Y86.1306
G01 X52.4012 Y86.1307
G01 X52.4013 Y86.1306
G00 Z1.0000
G00 X52.4013 Y88.6706
G01 F10.00
G01 Z-2.8000
G01 F200.00
G01 X52.4012 Y88.6706
G01 X52.4012 Y88.6706
G01 X52.4012 Y88.6707
G01 X52.4013 Y88.6706
G00 Z1.0000
G00 X52.5562 Y91.1497
G01 F10.00
G01 Z-2.8000
G01 F200.00
G01 X52.5562 Y91.1496
G01 X52.5561 Y91.1497
G01 X52.5562 Y91.1497
G01 X52.5562 Y91.1497
G00 Z1.0000
G00 X50.2905 Y93.9513
G01 F10.00
G01 Z-2.8000
G01 F200.00
G01 X50.2905 Y93.9512
G01 X50.2904 Y93.9513
G01 X50.2905 Y93.9513
G01 X50.2905 Y93.9513
G00 Z1.0000
G00 X54.6898 Y95.6760
G01 F10.00
G01 Z-2.8000
G01 F200.00
G01 X54.6898 Y95.6759
G01 X54.6897 Y95.6760
G01 X54.6898 Y95.6760
G01 X54.6898 Y95.6760
G00 Z1.0000
G00 X57.2298 Y95.6760
G01 F10.00
G01 Z-2.8000
G01 F200.00
G01 X57.2298 Y95.6759
G01 X57.2297 Y95.6760
G01 X57.2298 Y95.6760
G01 X57.2298 Y95.6760
G00 Z1.0000
G00 X62.5206 Y94.0504
G01 F10.00
G01 Z-2.8000
G01 F200.00
G01 X62.5206 Y94.0503
G01 X62.5205 Y94.0504
G01 X62.5206 Y94.0504
G01 X62.5206 Y94.0504
G00 Z1.0000
G00 X60.0213 Y88.6706
G01 F10.00
G01 Z-2.8000
G01 F200.00
G01 X60.0212 Y88.6706
G01 X60.0212 Y88.6706
G01 X60.0212 Y88.6707
G01 X60.0213 Y88.6706
G00 Z1.0000
G00 X60.0213 Y86.1306
G01 F10.00
G01 Z-2.8000
G01 F200.00
G01 X60.0212 Y86.1306
G01 X60.0212 Y86.1306
G01 X60.0212 Y86.1307
G01 X60.0213 Y86.1306
G00 Z1.0000
G00 X60.0213 Y83.5906
G01 F10.00
G01 Z-2.8000
G01 F200.00
G01 X60.0212 Y83.5906
G01 X60.0212 Y83.5906
G01 X60.0212 Y83.5907
G01 X60.0213 Y83.5906
G00 Z1.0000
G00 X60.0213 Y81.0506
G01 F10.00
G01 Z-2.8000
G01 F200.00
G01 X60.0212 Y81.0506
G01 X60.0212 Y81.0506
G01 X60.0212 Y81.0507
G01 X60.0213 Y81.0506
G00 Z1.0000
G00 X61.8907 Y78.0509
G01 F10.00
G01 Z-2.8000
G01 F200.00
G01 X61.8907 Y78.0508
G01 X61.8906 Y78.0509
G01 X61.8907 Y78.0509
G01 X61.8907 Y78.0509
G00 Z1.0000
G00 X64.1513 Y79.5495
G01 F10.00
G01 Z-2.8000
G01 F200.00
G01 X64.1513 Y79.5494
G01 X64.1512 Y79.5495
G01 X64.1513 Y79.5495
G01 X64.1513 Y79.5495
G00 Z1.0000
G00 X64.2097 Y82.8007
G01 F10.00
G01 Z-2.8000
G01 F200.00
G01 X64.2097 Y82.8006
G01 X64.2096 Y82.8007
G01 X64.2097 Y82.8007
G01 X64.2097 Y82.8007
G00 Z1.0000
G00 X65.5889 Y87.1492
G01 F10.00
G01 Z-2.8000
G01 F200.00
G01 X65.5889 Y87.1491
G01 X65.5888 Y87.1492
G01 X65.5889 Y87.1492
G01 X65.5889 Y87.1492
G00 Z1.0000
G00 X68.0908 Y87.1492
G01 F10.00
G01 Z-2.8000
G01 F200.00
G01 X68.0908 Y87.1491
G01 X68.0907 Y87.1492
G01 X68.0908 Y87.1492
G01 X68.0908 Y87.1492
G00 Z1.0000
G00 X71.8297 Y82.8007
G01 F10.00
G01 Z-2.8000
G01 F200.00
G01 X71.8297 Y82.8006
G01 X71.8296 Y82.8007
G01 X71.8297 Y82.8007
G01 X71.8297 Y82.8007
G00 Z1.0000
G00 X71.7713 Y79.5495
G01 F10.00
G01 Z-2.8000
G01 F200.00
G01 X71.7713 Y79.5494
G01 X71.7712 Y79.5495
G01 X71.7713 Y79.5495
G01 X71.7713 Y79.5495
G00 Z1.0000
G00 X71.7713 Y76.8596
G01 F10.00
G01 Z-2.8000
G01 F200.00
G01 X71.7713 Y76.8596
G01 X71.7712 Y76.8596
G01 X71.7713 Y76.8597
G01 X71.7713 Y76.8596
G00 Z1.0000
G00 X75.4391 Y74.2993
G01 F10.00
G01 Z-2.8000
G01 F200.00
G01 X75.4390 Y74.2993
G01 X75.4390 Y74.2993
G01 X75.4390 Y74.2994
G01 X75.4391 Y74.2993
G00 Z1.0000
G00 X71.7713 Y69.2396
G01 F10.00
G01 Z-2.8000
G01 F200.00
G01 X71.7713 Y69.2396
G01 X71.7712 Y69.2396
G01 X71.7713 Y69.2397
G01 X71.7713 Y69.2396
G00 Z1.0000
G00 X72.0990 Y66.3009
G01 F10.00
G01 Z-2.8000
G01 F200.00
G01 X72.0989 Y66.3008
G01 X72.0989 Y66.3009
G01 X72.0989 Y66.3009
G01 X72.0990 Y66.3009
G00 Z1.0000
G00 X72.0990 Y62.8007
G01 F10.00
G01 Z-2.8000
G01 F200.00
G01 X72.0989 Y62.8007
G01 X72.0989 Y62.8007
G01 X72.0989 Y62.8008
G01 X72.0990 Y62.8007
G00 Z1.0000
G00 X74.1894 Y59.5495
G01 F10.00
G01 Z-2.8000
G01 F200.00
G01 X74.1893 Y59.5495
G01 X74.1893 Y59.5495
G01 X74.1893 Y59.5496
G01 X74.1894 Y59.5495
G00 Z1.0000
G00 X76.4398 Y61.8711
G01 F10.00
G01 Z-2.8000
G01 F200.00
G01 X76.4398 Y61.8710
G01 X76.4397 Y61.8711
G01 X76.4398 Y61.8711
G01 X76.4398 Y61.8711
G00 Z1.0000
G00 X76.4398 Y64.4111
G01 F10.00
G01 Z-2.8000
G01 F200.00
G01 X76.4398 Y64.4110
G01 X76.4397 Y64.4111
G01 X76.4398 Y64.4111
G01 X76.4398 Y64.4111
G00 Z1.0000
G00 X76.4398 Y66.9511
G01 F10.00
G01 Z-2.8000
G01 F200.00
G01 X76.4398 Y66.9510
G01 X76.4397 Y66.9511
G01 X76.4398 Y66.9511
G01 X76.4398 Y66.9511
G00 Z1.0000
G00 X82.0100 Y66.7301
G01 F10.00
G01 Z-2.8000
G01 F200.00
G01 X82.0100 Y66.7301
G01 X82.0099 Y66.7301
G01 X82.0100 Y66.7302
G01 X82.0100 Y66.7301
G00 Z1.0000
G00 X82.0100 Y69.2701
G01 F10.00
G01 Z-2.8000
G01 F200.00
G01 X82.0100 Y69.2701
G01 X82.0099 Y69.2701
G01 X82.0100 Y69.2702
G01 X82.0100 Y69.2701
G00 Z1.0000
G00 X82.0100 Y64.1901
G01 F10.00
G01 Z-2.8000
G01 F200.00
G01 X82.0100 Y64.1901
G01 X82.0099 Y64.1901
G01 X82.0100 Y64.1902
G01 X82.0100 Y64.1901
G00 Z1.0000
G00 X82.0100 Y61.6501
G01 F10.00
G01 Z-2.8000
G01 F200.00
G01 X82.0100 Y61.6501
G01 X82.0099 Y61.6501
G01 X82.0100 Y61.6502
G01 X82.0100 Y61.6501
G00 Z1.0000
G00 X82.0100 Y59.1101
G01 F10.00
G01 Z-2.8000
G01 F200.00
G01 X82.0100 Y59.1101
G01 X82.0099 Y59.1101
G01 X82.0100 Y59.1102
G01 X82.0100 Y59.1101
G00 Z1.0000
G00 X82.0100 Y56.5701
G01 F10.00
G01 Z-2.8000
G01 F200.00
G01 X82.0100 Y56.5701
G01 X82.0099 Y56.5701
G01 X82.0100 Y56.5702
G01 X82.0100 Y56.5701
G00 Z1.0000
G00 X82.0100 Y54.0301
G01 F10.00
G01 Z-2.8000
G01 F200.00
G01 X82.0100 Y54.0301
G01 X82.0099 Y54.0301
G01 X82.0100 Y54.0302
G01 X82.0100 Y54.0301
G00 Z1.0000
G00 X82.0100 Y51.4901
G01 F10.00
G01 Z-2.8000
G01 F200.00
G01 X82.0100 Y51.4901
G01 X82.0099 Y51.4901
G01 X82.0100 Y51.4902
G01 X82.0100 Y51.4901
G00 Z1.0000
G00 X82.0100 Y48.9501
G01 F10.00
G01 Z-2.8000
G01 F200.00
G01 X82.0100 Y48.9501
G01 X82.0099 Y48.9501
G01 X82.0100 Y48.9502
G01 X82.0100 Y48.9501
G00 Z1.0000
G00 X82.0100 Y46.4101
G01 F10.00
G01 Z-2.8000
G01 F200.00
G01 X82.0100 Y46.4101
G01 X82.0099 Y46.4101
G01 X82.0100 Y46.4102
G01 X82.0100 Y46.4101
G00 Z1.0000
G00 X82.0100 Y43.8701
G01 F10.00
G01 Z-2.8000
G01 F200.00
G01 X82.0100 Y43.8701
G01 X82.0099 Y43.8701
G01 X82.0100 Y43.8702
G01 X82.0100 Y43.8701
G00 Z1.0000
G00 X82.0100 Y41.3301
G01 F10.00
G01 Z-2.8000
G01 F200.00
G01 X82.0100 Y41.3301
G01 X82.0099 Y41.3301
G01 X82.0100 Y41.3302
G01 X82.0100 Y41.3301
G00 Z1.0000
G00 X82.0100 Y38.7901
G01 F10.00
G01 Z-2.8000
G01 F200.00
G01 X82.0100 Y38.7901
G01 X82.0099 Y38.7901
G01 X82.0100 Y38.7902
G01 X82.0100 Y38.7901
G00 Z1.0000
G00 X82.0100 Y36.2501
G01 F10.00
G01 Z-2.8000
G01 F200.00
G01 X82.0100 Y36.2501
G01 X82.0099 Y36.2501
G01 X82.0100 Y36.2502
G01 X82.0100 Y36.2501
G00 Z1.0000
G00 X82.0100 Y33.7101
G01 F10.00
G01 Z-2.8000
G01 F200.00
G01 X82.0100 Y33.7101
G01 X82.0099 Y33.7101
G01 X82.0100 Y33.7102
G01 X82.0100 Y33.7101
G00 Z1.0000
G00 X82.0100 Y31.1701
G01 F10.00
G01 Z-2.8000
G01 F200.00
G01 X82.0100 Y31.1701
G01 X82.0099 Y31.1701
G01 X82.0100 Y31.1702
G01 X82.0100 Y31.1701
G00 Z1.0000
G00 X82.0100 Y28.6301
G01 F10.00
G01 Z-2.8000
G01 F200.00
G01 X82.0100 Y28.6301
G01 X82.0099 Y28.6301
G01 X82.0100 Y28.6302
G01 X82.0100 Y28.6301
G00 Z1.0000
G00 X82.0100 Y26.0901
G01 F10.00
G01 Z-2.8000
G01 F200.00
G01 X82.0100 Y26.0901
G01 X82.0099 Y26.0901
G01 X82.0100 Y26.0902
G01 X82.0100 Y26.0901
G00 Z1.0000
G00 X82.0100 Y23.5501
G01 F10.00
G01 Z-2.8000
G01 F200.00
G01 X82.0100 Y23.5501
G01 X82.0099 Y23.5501
G01 X82.0100 Y23.5502
G01 X82.0100 Y23.5501
G00 Z1.0000
G00 X82.0100 Y21.0101
G01 F10.00
G01 Z-2.8000
G01 F200.00
G01 X82.0100 Y21.0101
G01 X82.0099 Y21.0101
G01 X82.0100 Y21.0102
G01 X82.0100 Y21.0101
G00 Z1.0000
G00 X82.0100 Y18.4701
G01 F10.00
G01 Z-2.8000
G01 F200.00
G01 X82.0100 Y18.4701
G01 X82.0099 Y18.4701
G01 X82.0100 Y18.4702
G01 X82.0100 Y18.4701
G00 Z1.0000
G00 X82.0100 Y15.9301
G01 F10.00
G01 Z-2.8000
G01 F200.00
G01 X82.0100 Y15.9301
G01 X82.0099 Y15.9301
G01 X82.0100 Y15.9302
G01 X82.0100 Y15.9301
G00 Z1.0000
G00 X82.0100 Y13.3901
G01 F10.00
G01 Z-2.8000
G01 F200.00
G01 X82.0100 Y13.3901
G01 X82.0099 Y13.3901
G01 X82.0100 Y13.3902
G01 X82.0100 Y13.3901
G00 Z1.0000
G00 X82.0100 Y10.8501
G01 F10.00
G01 Z-2.8000
G01 F200.00
G01 X82.0100 Y10.8501
G01 X82.0099 Y10.8501
G01 X82.0100 Y10.8502
G01 X82.0100 Y10.8501
G00 Z1.0000
G00 X82.0100 Y8.3101
G01 F10.00
G01 Z-2.8000
G01 F200.00
G01 X82.0100 Y8.3101
G01 X82.0099 Y8.3101
G01 X82.0100 Y8.3102
G01 X82.0100 Y8.3101
G00 Z1.0000
G00 X82.0100 Y5.7701
G01 F10.00
G01 Z-2.8000
G01 F200.00
G01 X82.0100 Y5.7701
G01 X82.0099 Y5.7701
G01 X82.0100 Y5.7702
G01 X82.0100 Y5.7701
G00 Z1.0000
G00 X82.0100 Y3.2301
G01 F10.00
G01 Z-2.8000
G01 F200.00
G01 X82.0100 Y3.2301
G01 X82.0099 Y3.2301
G01 X82.0100 Y3.2302
G01 X82.0100 Y3.2301
G00 Z1.0000
G00 X78.1492 Y1.9906
G01 F10.00
G01 Z-2.8000
G01 F200.00
G01 X78.1492 Y1.9905
G01 X78.1491 Y1.9906
G01 X78.1492 Y1.9906
G01 X78.1492 Y1.9906
G00 Z1.0000
G00 X69.4294 Y4.0607
G01 F10.00
G01 Z-2.8000
G01 F200.00
G01 X69.4294 Y4.0606
G01 X69.4293 Y4.0607
G01 X69.4294 Y4.0607
G01 X69.4294 Y4.0607
G00 Z1.0000
G00 X69.4294 Y6.6007
G01 F10.00
G01 Z-2.8000
G01 F200.00
G01 X69.4294 Y6.6006
G01 X69.4293 Y6.6007
G01 X69.4294 Y6.6007
G01 X69.4294 Y6.6007
G00 Z1.0000
G00 X69.4294 Y9.1407
G01 F10.00
G01 Z-2.8000
G01 F200.00
G01 X69.4294 Y9.1406
G01 X69.4293 Y9.1407
G01 X69.4294 Y9.1407
G01 X69.4294 Y9.1407
G00 Z1.0000
G00 X69.4294 Y11.6807
G01 F10.00
G01 Z-2.8000
G01 F200.00
G01 X69.4294 Y11.6806
G01 X69.4293 Y11.6807
G01 X69.4294 Y11.6807
G01 X69.4294 Y11.6807
G00 Z1.0000
G00 X69.4294 Y14.2207
G01 F10.00
G01 Z-2.8000
G01 F200.00
G01 X69.4294 Y14.2206
G01 X69.4293 Y14.2207
G01 X69.4294 Y14.2207
G01 X69.4294 Y14.2207
G00 Z1.0000
G00 X69.4294 Y16.7607
G01 F10.00
G01 Z-2.8000
G01 F200.00
G01 X69.4294 Y16.7606
G01 X69.4293 Y16.7607
G01 X69.4294 Y16.7607
G01 X69.4294 Y16.7607
G00 Z1.0000
G00 X69.4294 Y19.3007
G01 F10.00
G01 Z-2.8000
G01 F200.00
G01 X69.4294 Y19.3006
G01 X69.4293 Y19.3007
G01 X69.4294 Y19.3007
G01 X69.4294 Y19.3007
G00 Z1.0000
G00 X69.4294 Y21.8407
G01 F10.00
G01 Z-2.8000
G01 F200.00
G01 X69.4294 Y21.8406
G01 X69.4293 Y21.8407
G01 X69.4294 Y21.8407
G01 X69.4294 Y21.8407
G00 Z1.0000
G00 X69.4294 Y24.3807
G01 F10.00
G01 Z-2.8000
G01 F200.00
G01 X69.4294 Y24.3806
G01 X69.4293 Y24.3807
G01 X69.4294 Y24.3807
G01 X69.4294 Y24.3807
G00 Z1.0000
G00 X69.4294 Y26.9207
G01 F10.00
G01 Z-2.8000
G01 F200.00
G01 X69.4294 Y26.9206
G01 X69.4293 Y26.9207
G01 X69.4294 Y26.9207
G01 X69.4294 Y26.9207
G00 Z1.0000
G00 X69.4294 Y29.4607
G01 F10.00
G01 Z-2.8000
G01 F200.00
G01 X69.4294 Y29.4606
G01 X69.4293 Y29.4607
G01 X69.4294 Y29.4607
G01 X69.4294 Y29.4607
G00 Z1.0000
G00 X69.4294 Y32.0007
G01 F10.00
G01 Z-2.8000
G01 F200.00
G01 X69.4294 Y32.0006
G01 X69.4293 Y32.0007
G01 X69.4294 Y32.0007
G01 X69.4294 Y32.0007
G00 Z1.0000
G00 X69.4294 Y34.5407
G01 F10.00
G01 Z-2.8000
G01 F200.00
G01 X69.4294 Y34.5406
G01 X69.4293 Y34.5407
G01 X69.4294 Y34.5407
G01 X69.4294 Y34.5407
G00 Z1.0000
G00 X69.4294 Y37.0807
G01 F10.00
G01 Z-2.8000
G01 F200.00
G01 X69.4294 Y37.0806
G01 X69.4293 Y37.0807
G01 X69.4294 Y37.0807
G01 X69.4294 Y37.0807
G00 Z1.0000
G00 X69.4294 Y39.6207
G01 F10.00
G01 Z-2.8000
G01 F200.00
G01 X69.4294 Y39.6206
G01 X69.4293 Y39.6207
G01 X69.4294 Y39.6207
G01 X69.4294 Y39.6207
G00 Z1.0000
G00 X69.4294 Y42.1607
G01 F10.00
G01 Z-2.8000
G01 F200.00
G01 X69.4294 Y42.1606
G01 X69.4293 Y42.1607
G01 X69.4294 Y42.1607
G01 X69.4294 Y42.1607
G00 Z1.0000
G00 X69.4294 Y44.7007
G01 F10.00
G01 Z-2.8000
G01 F200.00
G01 X69.4294 Y44.7006
G01 X69.4293 Y44.7007
G01 X69.4294 Y44.7007
G01 X69.4294 Y44.7007
G00 Z1.0000
G00 X69.4294 Y47.2407
G01 F10.00
G01 Z-2.8000
G01 F200.00
G01 X69.4294 Y47.2406
G01 X69.4293 Y47.2407
G01 X69.4294 Y47.2407
G01 X69.4294 Y47.2407
G00 Z1.0000
G00 X69.4294 Y49.7807
G01 F10.00
G01 Z-2.8000
G01 F200.00
G01 X69.4294 Y49.7806
G01 X69.4293 Y49.7807
G01 X69.4294 Y49.7807
G01 X69.4294 Y49.7807
G00 Z1.0000
G00 X69.4294 Y52.3207
G01 F10.00
G01 Z-2.8000
G01 F200.00
G01 X69.4294 Y52.3206
G01 X69.4293 Y52.3207
G01 X69.4294 Y52.3207
G01 X69.4294 Y52.3207
G00 Z1.0000
G00 X63.0693 Y48.5107
G01 F10.00
G01 Z-2.8000
G01 F200.00
G01 X63.0692 Y48.5106
G01 X63.0692 Y48.5107
G01 X63.0692 Y48.5107
G01 X63.0693 Y48.5107
G00 Z1.0000
G00 X60.5293 Y48.5107
G01 F10.00
G01 Z-2.8000
G01 F200.00
G01 X60.5292 Y48.5106
G01 X60.5292 Y48.5107
G01 X60.5292 Y48.5107
G01 X60.5293 Y48.5107
G00 Z1.0000
G00 X62.6908 Y56.0494
G01 F10.00
G01 Z-2.8000
G01 F200.00
G01 X62.6908 Y56.0494
G01 X62.6907 Y56.0494
G01 X62.6908 Y56.0495
G01 X62.6908 Y56.0494
G00 Z1.0000
G00 X60.7909 Y59.5495
G01 F10.00
G01 Z-2.8000
G01 F200.00
G01 X60.7908 Y59.5495
G01 X60.7908 Y59.5495
G01 X60.7908 Y59.5496
G01 X60.7909 Y59.5495
G00 Z1.0000
G00 X61.9390 Y62.8007
G01 F10.00
G01 Z-2.8000
G01 F200.00
G01 X61.9389 Y62.8007
G01 X61.9389 Y62.8007
G01 X61.9389 Y62.8008
G01 X61.9390 Y62.8007
G00 Z1.0000
G00 X61.9390 Y66.3009
G01 F10.00
G01 Z-2.8000
G01 F200.00
G01 X61.9389 Y66.3008
G01 X61.9389 Y66.3009
G01 X61.9389 Y66.3009
G01 X61.9390 Y66.3009
G00 Z1.0000
G00 X65.3908 Y70.8500
G01 F10.00
G01 Z-2.8000
G01 F200.00
G01 X65.3908 Y70.8499
G01 X65.3907 Y70.8500
G01 X65.3908 Y70.8500
G01 X65.3908 Y70.8500
G00 Z1.0000
G00 X67.8902 Y70.8500
G01 F10.00
G01 Z-2.8000
G01 F200.00
G01 X67.8901 Y70.8499
G01 X67.8901 Y70.8500
G01 X67.8901 Y70.8500
G01 X67.8902 Y70.8500
G00 Z1.0000
G00 X61.7739 Y74.6549
G01 F10.00
G01 Z-2.8000
G01 F200.00
G01 X61.7738 Y74.6549
G01 X61.7738 Y74.6549
G01 X61.7738 Y74.6550
G01 X61.7739 Y74.6549
G00 Z1.0000
G00 X56.9910 Y78.0509
G01 F10.00
G01 Z-2.8000
G01 F200.00
G01 X56.9910 Y78.0508
G01 X56.9909 Y78.0509
G01 X56.9910 Y78.0509
G01 X56.9910 Y78.0509
G00 Z1.0000
G00 X54.8905 Y78.0509
G01 F10.00
G01 Z-2.8000
G01 F200.00
G01 X54.8904 Y78.0508
G01 X54.8904 Y78.0509
G01 X54.8904 Y78.0509
G01 X54.8905 Y78.0509
G00 Z1.0000
G00 X52.4013 Y81.0506
G01 F10.00
G01 Z-2.8000
G01 F200.00
G01 X52.4012 Y81.0506
G01 X52.4012 Y81.0506
G01 X52.4012 Y81.0507
G01 X52.4013 Y81.0506
G00 Z1.0000
G00 X52.4013 Y83.5906
G01 F10.00
G01 Z-2.8000
G01 F200.00
G01 X52.4012 Y83.5906
G01 X52.4012 Y83.5906
G01 X52.4012 Y83.5907
G01 X52.4013 Y83.5906
G00 Z1.0000
G00 X48.8300 Y80.5503
G01 F10.00
G01 Z-2.8000
G01 F200.00
G01 X48.8300 Y80.5502
G01 X48.8299 Y80.5503
G01 X48.8300 Y80.5503
G01 X48.8300 Y80.5503
G00 Z1.0000
G00 X48.8300 Y77.0501
G01 F10.00
G01 Z-2.8000
G01 F200.00
G01 X48.8300 Y77.0501
G01 X48.8299 Y77.0501
G01 X48.8300 Y77.0502
G01 X48.8300 Y77.0501
G00 Z1.0000
G00 X41.2100 Y77.0501
G01 F10.00
G01 Z-2.8000
G01 F200.00
G01 X41.2100 Y77.0501
G01 X41.2099 Y77.0501
G01 X41.2100 Y77.0502
G01 X41.2100 Y77.0501
G00 Z1.0000
G00 X41.0195 Y74.3603
G01 F10.00
G01 Z-2.8000
G01 F200.00
G01 X41.0195 Y74.3602
G01 X41.0194 Y74.3603
G01 X41.0195 Y74.3603
G01 X41.0195 Y74.3603
G00 Z1.0000
G00 X37.6896 Y79.0491
G01 F10.00
G01 Z-2.8000
G01 F200.00
G01 X37.6895 Y79.0491
G01 X37.6895 Y79.0491
G01 X37.6895 Y79.0492
G01 X37.6896 Y79.0491
G00 Z1.0000
G00 X41.2100 Y80.5503
G01 F10.00
G01 Z-2.8000
G01 F200.00
G01 X41.2100 Y80.5502
G01 X41.2099 Y80.5503
G01 X41.2100 Y80.5503
G01 X41.2100 Y80.5503
G00 Z1.0000
G00 X65.4391 Y59.5495
G01 F10.00
G01 Z-2.8000
G01 F200.00
G01 X65.4390 Y59.5495
G01 X65.4390 Y59.5495
G01 X65.4390 Y59.5496
G01 X65.4391 Y59.5495
G00 Z1.0000
G00 X76.9402 Y55.3001
G01 F10.00
G01 Z-2.8000
G01 F200.00
G01 X76.9402 Y55.3001
G01 X76.9401 Y55.3001
G01 X76.9402 Y55.3002
G01 X76.9402 Y55.3001
G00 Z1.0000
G00 X82.0100 Y75.6201
G01 F10.00
G01 Z-2.8000
G01 F200.00
G01 X82.0100 Y75.6201
G01 X82.0099 Y75.6201
G01 X82.0100 Y75.6202
G01 X82.0100 Y75.6201
G00 Z1.0000
G00 X82.0100 Y78.1601
G01 F10.00
G01 Z-2.8000
G01 F200.00
G01 X82.0100 Y78.1601
G01 X82.0099 Y78.1601
G01 X82.0100 Y78.1602
G01 X82.0100 Y78.1601
G00 Z1.0000
G00 X82.0100 Y80.7001
G01 F10.00
G01 Z-2.8000
G01 F200.00
G01 X82.0100 Y80.7001
G01 X82.0099 Y80.7001
G01 X82.0100 Y80.7002
G01 X82.0100 Y80.7001
G00 Z1.0000
G00 X82.0100 Y83.2401
G01 F10.00
G01 Z-2.8000
G01 F200.00
G01 X82.0100 Y83.2401
G01 X82.0099 Y83.2401
G01 X82.0100 Y83.2402
G01 X82.0100 Y83.2401
G00 Z1.0000
G00 X82.0100 Y85.7801
G01 F10.00
G01 Z-2.8000
G01 F200.00
G01 X82.0100 Y85.7801
G01 X82.0099 Y85.7801
G01 X82.0100 Y85.7802
G01 X82.0100 Y85.7801
G00 Z1.0000
G00 X82.0100 Y88.3201
G01 F10.00
G01 Z-2.8000
G01 F200.00
G01 X82.0100 Y88.3201
G01 X82.0099 Y88.3201
G01 X82.0100 Y88.3202
G01 X82.0100 Y88.3201
G00 Z1.0000
G00 X82.0100 Y90.8601
G01 F10.00
G01 Z-2.8000
G01 F200.00
G01 X82.0100 Y90.8601
G01 X82.0099 Y90.8601
G01 X82.0100 Y90.8602
G01 X82.0100 Y90.8601
G00 Z1.0000
G00 X82.0100 Y93.4001
G01 F10.00
G01 Z-2.8000
G01 F200.00
G01 X82.0100 Y93.4001
G01 X82.0099 Y93.4001
G01 X82.0100 Y93.4002
G01 X82.0100 Y93.4001
G00 Z1.0000
G00 X78.0248 Y91.0913
G01 F10.00
G01 Z-2.8000
G01 F200.00
G01 X78.0247 Y91.0912
G01 X78.0247 Y91.0913
G01 X78.0247 Y91.0913
G01 X78.0248 Y91.0913
G00 Z1.0000
G00 X74.9412 Y81.0506
G01 F10.00
G01 Z-2.8000
G01 F200.00
G01 X74.9412 Y81.0506
G01 X74.9411 Y81.0506
G01 X74.9412 Y81.0507
G01 X74.9412 Y81.0506
G00 Z1.0000
G00 X46.6558 Y31.1498
G01 F10.00
G01 Z-2.8000
G01 F200.00
G01 X46.6557 Y31.1497
G01 X46.6557 Y31.1498
G01 X46.6557 Y31.1498
G01 X46.6558 Y31.1498
G00 Z1.0000
G00 X48.7894 Y28.4498
G01 F10.00
G01 Z-2.8000
G01 F200.00
G01 X48.7893 Y28.4497
G01 X48.7893 Y28.4498
G01 X48.7893 Y28.4498
G01 X48.7894 Y28.4498
G00 Z1.0000
G00 X33.4910 Y31.0507
G01 F10.00
G01 Z-2.8000
G01 F200.00
G01 X33.4909 Y31.0507
G01 X33.4909 Y31.0507
G01 X33.4909 Y31.0508
G01 X33.4910 Y31.0507
G00 Z1.0000
G00 X33.4910 Y33.1513
G01 F10.00
G01 Z-2.8000
G01 F200.00
G01 X33.4909 Y33.1513
G01 X33.4909 Y33.1513
G01 X33.4909 Y33.1514
G01 X33.4910 Y33.1513
G00 Z1.0000
G00 X30.9459 Y28.3406
G01 F10.00
G01 Z-2.8000
G01 F200.00
G01 X30.9458 Y28.3405
G01 X30.9458 Y28.3406
G01 X30.9458 Y28.3406
G01 X30.9459 Y28.3406
G00 Z1.0000
G00 X26.4907 Y33.2504
G01 F10.00
G01 Z-2.8000
G01 F200.00
G01 X26.4907 Y33.2503
G01 X26.4906 Y33.2504
G01 X26.4907 Y33.2504
G01 X26.4907 Y33.2504
G00 Z1.0000
G00 X22.0889 Y28.2491
G01 F10.00
G01 Z-2.8000
G01 F200.00
G01 X22.0889 Y28.2491
G01 X22.0888 Y28.2491
G01 X22.0889 Y28.2492
G01 X22.0889 Y28.2491
G00 Z1.0000
G00 X19.2898 Y28.3406
G01 F10.00
G01 Z-2.8000
G01 F200.00
G01 X19.2898 Y28.3405
G01 X19.2897 Y28.3406
G01 X19.2898 Y28.3406
G01 X19.2898 Y28.3406
G00 Z1.0000
G00 X26.4399 Y45.8005
G01 F10.00
G01 Z-2.8000
G01 F200.00
G01 X26.4399 Y45.8005
G01 X26.4398 Y45.8005
G01 X26.4399 Y45.8006
G01 X26.4399 Y45.8005
G00 Z1.0000
G00 X26.4399 Y48.3913
G01 F10.00
G01 Z-2.8000
G01 F200.00
G01 X26.4399 Y48.3913
G01 X26.4398 Y48.3913
G01 X26.4399 Y48.3914
G01 X26.4399 Y48.3913
G00 Z1.0000
G00 X20.1001 Y49.6613
G01 F10.00
G01 Z-2.8000
G01 F200.00
G01 X20.1000 Y49.6613
G01 X20.1000 Y49.6613
G01 X20.1000 Y49.6614
G01 X20.1001 Y49.6613
G00 Z1.0000
G00 X17.5601 Y49.6613
G01 F10.00
G01 Z-2.8000
G01 F200.00
G01 X17.5600 Y49.6613
G01 X17.5600 Y49.6613
G01 X17.5600 Y49.6614
G01 X17.5601 Y49.6613
G00 Z1.0000
G00 X75.6905 Y13.7991
G01 F10.00
G01 Z-2.8000
G01 F200.00
G01 X75.6905 Y13.7990
G01 X75.6904 Y13.7991
G01 X75.6905 Y13.7991
G01 X75.6905 Y13.7991
G00 Z1.0000
M05
G00 Z1.0000
G00 Z15.00


