(G-CODE GENERATED BY FLATCAM v8.994 - www.flatcam.org - Version Date: 2020/11/7)

(Name: condicionamento_BIA_v02-PTH.drl_mill_cnc)
(Type: G-code from Geometry)
(Units: MM)

(Created on sexta, 04 agosto 2023 at 15:10)

(This preprocessor is the default preprocessor used by FlatCAM.)
(It is made to work with MACH3 compatible motion controllers.)

(TOOL DIAMETER: 0.8 mm)
(Feedrate_XY: 120.0 mm/min)
(Feedrate_Z: 10.0 mm/min)
(Feedrate rapids 1500.0 mm/min)

(Z_Cut: -2.8 mm)
(Z_Move: 1.0 mm)
(Z Start: None mm)
(Z End: 15.0 mm)
(X,Y End: None mm)
(Steps per circle: 64)
(Preprocessor Geometry: default)

(X range:    0.9509 ...   82.0100  mm)
(Y range:    1.5307 ...   96.8393  mm)

(Spindle Speed: 1000.0 RPM)
G21
G90
G94

G01 F120.00

M5
G00 Z15.0000
G00 X0.0000 Y0.0000
T1
M6    
(MSG, Change to Tool Dia = 0.80000)
M0
G00 Z15.0000

M03 S1000.0
G01 F120.00
G00 X0.9510 Y1.8915
G01 F10.00
G01 Z-2.8000
G01 F120.00
G01 X0.9510 Y1.8914
G01 X0.9509 Y1.8915
G01 X0.9510 Y1.8915
G01 X0.9510 Y1.8915
G00 Z1.0000
G00 X3.4910 Y1.8915
G01 F10.00
G01 Z-2.8000
G01 F120.00
G01 X3.4910 Y1.8914
G01 X3.4909 Y1.8915
G01 X3.4910 Y1.8915
G01 X3.4910 Y1.8915
G00 Z1.0000
G00 X2.0000 Y6.5803
G01 F10.00
G01 Z-2.8000
G01 F120.00
G01 X2.0000 Y6.5803
G01 X1.9999 Y6.5803
G01 X2.0000 Y6.5804
G01 X2.0000 Y6.5803
G00 Z1.0000
G00 X2.0000 Y9.1203
G01 F10.00
G01 Z-2.8000
G01 F120.00
G01 X2.0000 Y9.1203
G01 X1.9999 Y9.1203
G01 X2.0000 Y9.1204
G01 X2.0000 Y9.1203
G00 Z1.0000
G00 X2.0000 Y11.6603
G01 F10.00
G01 Z-2.8000
G01 F120.00
G01 X2.0000 Y11.6603
G01 X1.9999 Y11.6603
G01 X2.0000 Y11.6604
G01 X2.0000 Y11.6603
G00 Z1.0000
G00 X2.0000 Y14.2003
G01 F10.00
G01 Z-2.8000
G01 F120.00
G01 X2.0000 Y14.2003
G01 X1.9999 Y14.2003
G01 X2.0000 Y14.2004
G01 X2.0000 Y14.2003
G00 Z1.0000
G00 X2.0000 Y16.7403
G01 F10.00
G01 Z-2.8000
G01 F120.00
G01 X2.0000 Y16.7403
G01 X1.9999 Y16.7403
G01 X2.0000 Y16.7404
G01 X2.0000 Y16.7403
G00 Z1.0000
G00 X2.0000 Y19.2803
G01 F10.00
G01 Z-2.8000
G01 F120.00
G01 X2.0000 Y19.2803
G01 X1.9999 Y19.2803
G01 X2.0000 Y19.2804
G01 X2.0000 Y19.2803
G00 Z1.0000
G00 X2.0000 Y21.8203
G01 F10.00
G01 Z-2.8000
G01 F120.00
G01 X2.0000 Y21.8203
G01 X1.9999 Y21.8203
G01 X2.0000 Y21.8204
G01 X2.0000 Y21.8203
G00 Z1.0000
G00 X2.0000 Y24.3603
G01 F10.00
G01 Z-2.8000
G01 F120.00
G01 X2.0000 Y24.3603
G01 X1.9999 Y24.3603
G01 X2.0000 Y24.3604
G01 X2.0000 Y24.3603
G00 Z1.0000
G00 X2.0000 Y26.9003
G01 F10.00
G01 Z-2.8000
G01 F120.00
G01 X2.0000 Y26.9003
G01 X1.9999 Y26.9003
G01 X2.0000 Y26.9004
G01 X2.0000 Y26.9003
G00 Z1.0000
G00 X2.0000 Y29.4403
G01 F10.00
G01 Z-2.8000
G01 F120.00
G01 X2.0000 Y29.4403
G01 X1.9999 Y29.4403
G01 X2.0000 Y29.4404
G01 X2.0000 Y29.4403
G00 Z1.0000
G00 X2.0000 Y31.9803
G01 F10.00
G01 Z-2.8000
G01 F120.00
G01 X2.0000 Y31.9803
G01 X1.9999 Y31.9803
G01 X2.0000 Y31.9804
G01 X2.0000 Y31.9803
G00 Z1.0000
G00 X2.0000 Y34.5203
G01 F10.00
G01 Z-2.8000
G01 F120.00
G01 X2.0000 Y34.5203
G01 X1.9999 Y34.5203
G01 X2.0000 Y34.5204
G01 X2.0000 Y34.5203
G00 Z1.0000
G00 X2.0000 Y37.0603
G01 F10.00
G01 Z-2.8000
G01 F120.00
G01 X2.0000 Y37.0603
G01 X1.9999 Y37.0603
G01 X2.0000 Y37.0604
G01 X2.0000 Y37.0603
G00 Z1.0000
G00 X2.0000 Y39.6003
G01 F10.00
G01 Z-2.8000
G01 F120.00
G01 X2.0000 Y39.6003
G01 X1.9999 Y39.6003
G01 X2.0000 Y39.6004
G01 X2.0000 Y39.6003
G00 Z1.0000
G00 X2.0000 Y42.1403
G01 F10.00
G01 Z-2.8000
G01 F120.00
G01 X2.0000 Y42.1403
G01 X1.9999 Y42.1403
G01 X2.0000 Y42.1404
G01 X2.0000 Y42.1403
G00 Z1.0000
G00 X2.0000 Y44.6803
G01 F10.00
G01 Z-2.8000
G01 F120.00
G01 X2.0000 Y44.6803
G01 X1.9999 Y44.6803
G01 X2.0000 Y44.6804
G01 X2.0000 Y44.6803
G00 Z1.0000
G00 X2.0000 Y47.2203
G01 F10.00
G01 Z-2.8000
G01 F120.00
G01 X2.0000 Y47.2203
G01 X1.9999 Y47.2203
G01 X2.0000 Y47.2204
G01 X2.0000 Y47.2203
G00 Z1.0000
G00 X2.0000 Y49.7603
G01 F10.00
G01 Z-2.8000
G01 F120.00
G01 X2.0000 Y49.7603
G01 X1.9999 Y49.7603
G01 X2.0000 Y49.7604
G01 X2.0000 Y49.7603
G00 Z1.0000
G00 X2.0000 Y52.3003
G01 F10.00
G01 Z-2.8000
G01 F120.00
G01 X2.0000 Y52.3003
G01 X1.9999 Y52.3003
G01 X2.0000 Y52.3004
G01 X2.0000 Y52.3003
G00 Z1.0000
G00 X2.0000 Y54.8403
G01 F10.00
G01 Z-2.8000
G01 F120.00
G01 X2.0000 Y54.8403
G01 X1.9999 Y54.8403
G01 X2.0000 Y54.8404
G01 X2.0000 Y54.8403
G00 Z1.0000
G00 X2.0000 Y57.3803
G01 F10.00
G01 Z-2.8000
G01 F120.00
G01 X2.0000 Y57.3803
G01 X1.9999 Y57.3803
G01 X2.0000 Y57.3804
G01 X2.0000 Y57.3803
G00 Z1.0000
G00 X2.0000 Y59.9203
G01 F10.00
G01 Z-2.8000
G01 F120.00
G01 X2.0000 Y59.9203
G01 X1.9999 Y59.9203
G01 X2.0000 Y59.9204
G01 X2.0000 Y59.9203
G00 Z1.0000
G00 X2.0000 Y62.4603
G01 F10.00
G01 Z-2.8000
G01 F120.00
G01 X2.0000 Y62.4603
G01 X1.9999 Y62.4603
G01 X2.0000 Y62.4604
G01 X2.0000 Y62.4603
G00 Z1.0000
G00 X2.0000 Y65.0003
G01 F10.00
G01 Z-2.8000
G01 F120.00
G01 X2.0000 Y65.0003
G01 X1.9999 Y65.0003
G01 X2.0000 Y65.0004
G01 X2.0000 Y65.0003
G00 Z1.0000
G00 X2.0000 Y67.5403
G01 F10.00
G01 Z-2.8000
G01 F120.00
G01 X2.0000 Y67.5403
G01 X1.9999 Y67.5403
G01 X2.0000 Y67.5404
G01 X2.0000 Y67.5403
G00 Z1.0000
G00 X2.0000 Y70.0803
G01 F10.00
G01 Z-2.8000
G01 F120.00
G01 X2.0000 Y70.0803
G01 X1.9999 Y70.0803
G01 X2.0000 Y70.0804
G01 X2.0000 Y70.0803
G00 Z1.0000
G00 X2.0000 Y72.6203
G01 F10.00
G01 Z-2.8000
G01 F120.00
G01 X2.0000 Y72.6203
G01 X1.9999 Y72.6203
G01 X2.0000 Y72.6204
G01 X2.0000 Y72.6203
G00 Z1.0000
G00 X2.0000 Y75.1603
G01 F10.00
G01 Z-2.8000
G01 F120.00
G01 X2.0000 Y75.1603
G01 X1.9999 Y75.1603
G01 X2.0000 Y75.1604
G01 X2.0000 Y75.1603
G00 Z1.0000
G00 X2.0000 Y77.7003
G01 F10.00
G01 Z-2.8000
G01 F120.00
G01 X2.0000 Y77.7003
G01 X1.9999 Y77.7003
G01 X2.0000 Y77.7004
G01 X2.0000 Y77.7003
G00 Z1.0000
G00 X2.0000 Y80.2403
G01 F10.00
G01 Z-2.8000
G01 F120.00
G01 X2.0000 Y80.2403
G01 X1.9999 Y80.2403
G01 X2.0000 Y80.2404
G01 X2.0000 Y80.2403
G00 Z1.0000
G00 X2.0000 Y82.7803
G01 F10.00
G01 Z-2.8000
G01 F120.00
G01 X2.0000 Y82.7803
G01 X1.9999 Y82.7803
G01 X2.0000 Y82.7804
G01 X2.0000 Y82.7803
G00 Z1.0000
G00 X2.0000 Y85.3203
G01 F10.00
G01 Z-2.8000
G01 F120.00
G01 X2.0000 Y85.3203
G01 X1.9999 Y85.3203
G01 X2.0000 Y85.3204
G01 X2.0000 Y85.3203
G00 Z1.0000
G00 X2.0000 Y87.8603
G01 F10.00
G01 Z-2.8000
G01 F120.00
G01 X2.0000 Y87.8603
G01 X1.9999 Y87.8603
G01 X2.0000 Y87.8604
G01 X2.0000 Y87.8603
G00 Z1.0000
G00 X2.0000 Y90.4003
G01 F10.00
G01 Z-2.8000
G01 F120.00
G01 X2.0000 Y90.4003
G01 X1.9999 Y90.4003
G01 X2.0000 Y90.4004
G01 X2.0000 Y90.4003
G00 Z1.0000
G00 X2.0000 Y92.9403
G01 F10.00
G01 Z-2.8000
G01 F120.00
G01 X2.0000 Y92.9403
G01 X1.9999 Y92.9403
G01 X2.0000 Y92.9404
G01 X2.0000 Y92.9403
G00 Z1.0000
G00 X5.1903 Y96.8392
G01 F10.00
G01 Z-2.8000
G01 F120.00
G01 X5.1902 Y96.8392
G01 X5.1902 Y96.8392
G01 X5.1902 Y96.8393
G01 X5.1903 Y96.8392
G00 Z1.0000
G00 X11.1999 Y93.6515
G01 F10.00
G01 Z-2.8000
G01 F120.00
G01 X11.1999 Y93.6515
G01 X11.1998 Y93.6515
G01 X11.1999 Y93.6516
G01 X11.1999 Y93.6515
G00 Z1.0000
G00 X11.1999 Y91.1115
G01 F10.00
G01 Z-2.8000
G01 F120.00
G01 X11.1999 Y91.1115
G01 X11.1998 Y91.1115
G01 X11.1999 Y91.1116
G01 X11.1999 Y91.1115
G00 Z1.0000
G00 X11.1999 Y88.5715
G01 F10.00
G01 Z-2.8000
G01 F120.00
G01 X11.1999 Y88.5715
G01 X11.1998 Y88.5715
G01 X11.1999 Y88.5716
G01 X11.1999 Y88.5715
G00 Z1.0000
G00 X11.1999 Y86.0315
G01 F10.00
G01 Z-2.8000
G01 F120.00
G01 X11.1999 Y86.0315
G01 X11.1998 Y86.0315
G01 X11.1999 Y86.0316
G01 X11.1999 Y86.0315
G00 Z1.0000
G00 X11.1999 Y83.4915
G01 F10.00
G01 Z-2.8000
G01 F120.00
G01 X11.1999 Y83.4915
G01 X11.1998 Y83.4915
G01 X11.1999 Y83.4916
G01 X11.1999 Y83.4915
G00 Z1.0000
G00 X11.1999 Y80.9515
G01 F10.00
G01 Z-2.8000
G01 F120.00
G01 X11.1999 Y80.9515
G01 X11.1998 Y80.9515
G01 X11.1999 Y80.9516
G01 X11.1999 Y80.9515
G00 Z1.0000
G00 X11.1999 Y78.4115
G01 F10.00
G01 Z-2.8000
G01 F120.00
G01 X11.1999 Y78.4115
G01 X11.1998 Y78.4115
G01 X11.1999 Y78.4116
G01 X11.1999 Y78.4115
G00 Z1.0000
G00 X11.1999 Y75.8715
G01 F10.00
G01 Z-2.8000
G01 F120.00
G01 X11.1999 Y75.8715
G01 X11.1998 Y75.8715
G01 X11.1999 Y75.8716
G01 X11.1999 Y75.8715
G00 Z1.0000
G00 X11.1999 Y73.3315
G01 F10.00
G01 Z-2.8000
G01 F120.00
G01 X11.1999 Y73.3315
G01 X11.1998 Y73.3315
G01 X11.1999 Y73.3316
G01 X11.1999 Y73.3315
G00 Z1.0000
G00 X11.1999 Y70.7915
G01 F10.00
G01 Z-2.8000
G01 F120.00
G01 X11.1999 Y70.7915
G01 X11.1998 Y70.7915
G01 X11.1999 Y70.7916
G01 X11.1999 Y70.7915
G00 Z1.0000
G00 X11.1999 Y68.2515
G01 F10.00
G01 Z-2.8000
G01 F120.00
G01 X11.1999 Y68.2515
G01 X11.1998 Y68.2515
G01 X11.1999 Y68.2516
G01 X11.1999 Y68.2515
G00 Z1.0000
G00 X11.1999 Y65.7115
G01 F10.00
G01 Z-2.8000
G01 F120.00
G01 X11.1999 Y65.7115
G01 X11.1998 Y65.7115
G01 X11.1999 Y65.7116
G01 X11.1999 Y65.7115
G00 Z1.0000
G00 X11.1999 Y63.1715
G01 F10.00
G01 Z-2.8000
G01 F120.00
G01 X11.1999 Y63.1715
G01 X11.1998 Y63.1715
G01 X11.1999 Y63.1716
G01 X11.1999 Y63.1715
G00 Z1.0000
G00 X11.1999 Y60.6315
G01 F10.00
G01 Z-2.8000
G01 F120.00
G01 X11.1999 Y60.6315
G01 X11.1998 Y60.6315
G01 X11.1999 Y60.6316
G01 X11.1999 Y60.6315
G00 Z1.0000
G00 X11.1999 Y58.0915
G01 F10.00
G01 Z-2.8000
G01 F120.00
G01 X11.1999 Y58.0915
G01 X11.1998 Y58.0915
G01 X11.1999 Y58.0916
G01 X11.1999 Y58.0915
G00 Z1.0000
G00 X11.1999 Y55.5515
G01 F10.00
G01 Z-2.8000
G01 F120.00
G01 X11.1999 Y55.5515
G01 X11.1998 Y55.5515
G01 X11.1999 Y55.5516
G01 X11.1999 Y55.5515
G00 Z1.0000
G00 X11.1999 Y53.0115
G01 F10.00
G01 Z-2.8000
G01 F120.00
G01 X11.1999 Y53.0115
G01 X11.1998 Y53.0115
G01 X11.1999 Y53.0116
G01 X11.1999 Y53.0115
G00 Z1.0000
G00 X11.1999 Y50.4715
G01 F10.00
G01 Z-2.8000
G01 F120.00
G01 X11.1999 Y50.4715
G01 X11.1998 Y50.4715
G01 X11.1999 Y50.4716
G01 X11.1999 Y50.4715
G00 Z1.0000
G00 X11.1999 Y47.9315
G01 F10.00
G01 Z-2.8000
G01 F120.00
G01 X11.1999 Y47.9315
G01 X11.1998 Y47.9315
G01 X11.1999 Y47.9316
G01 X11.1999 Y47.9315
G00 Z1.0000
G00 X11.1999 Y45.3915
G01 F10.00
G01 Z-2.8000
G01 F120.00
G01 X11.1999 Y45.3915
G01 X11.1998 Y45.3915
G01 X11.1999 Y45.3916
G01 X11.1999 Y45.3915
G00 Z1.0000
G00 X14.0904 Y40.5909
G01 F10.00
G01 Z-2.8000
G01 F120.00
G01 X14.0904 Y40.5909
G01 X14.0903 Y40.5909
G01 X14.0904 Y40.5910
G01 X14.0904 Y40.5909
G00 Z1.0000
G00 X19.2898 Y35.5008
G01 F10.00
G01 Z-2.8000
G01 F120.00
G01 X19.2898 Y35.5007
G01 X19.2897 Y35.5008
G01 X19.2898 Y35.5008
G01 X19.2898 Y35.5008
G00 Z1.0000
G00 X14.0904 Y32.9709
G01 F10.00
G01 Z-2.8000
G01 F120.00
G01 X14.0904 Y32.9709
G01 X14.0903 Y32.9709
G01 X14.0904 Y32.9710
G01 X14.0904 Y32.9709
G00 Z1.0000
G00 X8.0249 Y30.1896
G01 F10.00
G01 Z-2.8000
G01 F120.00
G01 X8.0249 Y30.1896
G01 X8.0248 Y30.1896
G01 X8.0249 Y30.1897
G01 X8.0249 Y30.1896
G00 Z1.0000
G00 X12.5893 Y25.0893
G01 F10.00
G01 Z-2.8000
G01 F120.00
G01 X12.5893 Y25.0892
G01 X12.5892 Y25.0893
G01 X12.5893 Y25.0893
G01 X12.5893 Y25.0893
G00 Z1.0000
G00 X7.9894 Y20.8907
G01 F10.00
G01 Z-2.8000
G01 F120.00
G01 X7.9893 Y20.8906
G01 X7.9893 Y20.8907
G01 X7.9893 Y20.8907
G01 X7.9894 Y20.8907
G00 Z1.0000
G00 X12.5893 Y17.7258
G01 F10.00
G01 Z-2.8000
G01 F120.00
G01 X12.5893 Y17.7258
G01 X12.5892 Y17.7258
G01 X12.5893 Y17.7259
G01 X12.5893 Y17.7258
G00 Z1.0000
G00 X14.6899 Y14.0911
G01 F10.00
G01 Z-2.8000
G01 F120.00
G01 X14.6898 Y14.0910
G01 X14.6898 Y14.0911
G01 X14.6898 Y14.0911
G01 X14.6899 Y14.0911
G00 Z1.0000
G00 X12.5563 Y11.5892
G01 F10.00
G01 Z-2.8000
G01 F120.00
G01 X12.5562 Y11.5891
G01 X12.5562 Y11.5892
G01 X12.5562 Y11.5892
G01 X12.5563 Y11.5892
G00 Z1.0000
G00 X7.4407 Y11.5892
G01 F10.00
G01 Z-2.8000
G01 F120.00
G01 X7.4407 Y11.5891
G01 X7.4406 Y11.5892
G01 X7.4407 Y11.5892
G01 X7.4407 Y11.5892
G00 Z1.0000
G00 X5.9396 Y14.3400
G01 F10.00
G01 Z-2.8000
G01 F120.00
G01 X5.9395 Y14.3400
G01 X5.9395 Y14.3400
G01 X5.9395 Y14.3401
G01 X5.9396 Y14.3400
G00 Z1.0000
G00 X8.2561 Y6.5905
G01 F10.00
G01 Z-2.8000
G01 F120.00
G01 X8.2560 Y6.5904
G01 X8.2560 Y6.5905
G01 X8.2560 Y6.5905
G01 X8.2561 Y6.5905
G00 Z1.0000
G00 X17.2908 Y3.4891
G01 F10.00
G01 Z-2.8000
G01 F120.00
G01 X17.2908 Y3.4891
G01 X17.2907 Y3.4891
G01 X17.2908 Y3.4892
G01 X17.2908 Y3.4891
G00 Z1.0000
G00 X19.8308 Y3.4891
G01 F10.00
G01 Z-2.8000
G01 F120.00
G01 X19.8308 Y3.4891
G01 X19.8307 Y3.4891
G01 X19.8308 Y3.4892
G01 X19.8308 Y3.4891
G00 Z1.0000
G00 X22.3708 Y3.4891
G01 F10.00
G01 Z-2.8000
G01 F120.00
G01 X22.3708 Y3.4891
G01 X22.3707 Y3.4891
G01 X22.3708 Y3.4892
G01 X22.3708 Y3.4891
G00 Z1.0000
G00 X24.9108 Y3.4891
G01 F10.00
G01 Z-2.8000
G01 F120.00
G01 X24.9108 Y3.4891
G01 X24.9107 Y3.4891
G01 X24.9108 Y3.4892
G01 X24.9108 Y3.4891
G00 Z1.0000
G00 X20.6894 Y6.5905
G01 F10.00
G01 Z-2.8000
G01 F120.00
G01 X20.6893 Y6.5904
G01 X20.6893 Y6.5905
G01 X20.6893 Y6.5905
G01 X20.6894 Y6.5905
G00 Z1.0000
G00 X25.6906 Y12.5900
G01 F10.00
G01 Z-2.8000
G01 F120.00
G01 X25.6906 Y12.5899
G01 X25.6905 Y12.5900
G01 X25.6906 Y12.5900
G01 X25.6906 Y12.5900
G00 Z1.0000
G00 X22.0889 Y15.7904
G01 F10.00
G01 Z-2.8000
G01 F120.00
G01 X22.0889 Y15.7903
G01 X22.0888 Y15.7904
G01 X22.0889 Y15.7904
G01 X22.0889 Y15.7904
G00 Z1.0000
G00 X30.0899 Y8.3913
G01 F10.00
G01 Z-2.8000
G01 F120.00
G01 X30.0899 Y8.3913
G01 X30.0898 Y8.3913
G01 X30.0899 Y8.3914
G01 X30.0899 Y8.3913
G00 Z1.0000
G00 X30.0899 Y1.7899
G01 F10.00
G01 Z-2.8000
G01 F120.00
G01 X30.0899 Y1.7898
G01 X30.0898 Y1.7899
G01 X30.0899 Y1.7899
G01 X30.0899 Y1.7899
G00 Z1.0000
G00 X38.3703 Y3.6898
G01 F10.00
G01 Z-2.8000
G01 F120.00
G01 X38.3703 Y3.6897
G01 X38.3702 Y3.6898
G01 X38.3703 Y3.6898
G01 X38.3703 Y3.6898
G00 Z1.0000
G00 X40.9103 Y3.6898
G01 F10.00
G01 Z-2.8000
G01 F120.00
G01 X40.9103 Y3.6897
G01 X40.9102 Y3.6898
G01 X40.9103 Y3.6898
G01 X40.9103 Y3.6898
G00 Z1.0000
G00 X43.4503 Y3.6898
G01 F10.00
G01 Z-2.8000
G01 F120.00
G01 X43.4503 Y3.6897
G01 X43.4502 Y3.6898
G01 X43.4503 Y3.6898
G01 X43.4503 Y3.6898
G00 Z1.0000
G00 X45.9903 Y3.6898
G01 F10.00
G01 Z-2.8000
G01 F120.00
G01 X45.9903 Y3.6897
G01 X45.9902 Y3.6898
G01 X45.9903 Y3.6898
G01 X45.9903 Y3.6898
G00 Z1.0000
G00 X41.5910 Y8.4904
G01 F10.00
G01 Z-2.8000
G01 F120.00
G01 X41.5910 Y8.4903
G01 X41.5909 Y8.4904
G01 X41.5910 Y8.4904
G01 X41.5910 Y8.4904
G00 Z1.0000
G00 X46.5897 Y12.5900
G01 F10.00
G01 Z-2.8000
G01 F120.00
G01 X46.5897 Y12.5899
G01 X46.5896 Y12.5900
G01 X46.5897 Y12.5900
G01 X46.5897 Y12.5900
G00 Z1.0000
G00 X54.1894 Y13.7609
G01 F10.00
G01 Z-2.8000
G01 F120.00
G01 X54.1894 Y13.7608
G01 X54.1893 Y13.7609
G01 X54.1894 Y13.7609
G01 X54.1894 Y13.7609
G00 Z1.0000
G00 X54.1894 Y11.2209
G01 F10.00
G01 Z-2.8000
G01 F120.00
G01 X54.1894 Y11.2208
G01 X54.1893 Y11.2209
G01 X54.1894 Y11.2209
G01 X54.1894 Y11.2209
G00 Z1.0000
G00 X54.1894 Y8.6809
G01 F10.00
G01 Z-2.8000
G01 F120.00
G01 X54.1894 Y8.6808
G01 X54.1893 Y8.6809
G01 X54.1894 Y8.6809
G01 X54.1894 Y8.6809
G00 Z1.0000
G00 X54.1894 Y6.1409
G01 F10.00
G01 Z-2.8000
G01 F120.00
G01 X54.1894 Y6.1408
G01 X54.1893 Y6.1409
G01 X54.1894 Y6.1409
G01 X54.1894 Y6.1409
G00 Z1.0000
G00 X54.1894 Y3.6009
G01 F10.00
G01 Z-2.8000
G01 F120.00
G01 X54.1894 Y3.6008
G01 X54.1893 Y3.6009
G01 X54.1894 Y3.6009
G01 X54.1894 Y3.6009
G00 Z1.0000
G00 X54.1894 Y16.3009
G01 F10.00
G01 Z-2.8000
G01 F120.00
G01 X54.1894 Y16.3008
G01 X54.1893 Y16.3009
G01 X54.1894 Y16.3009
G01 X54.1894 Y16.3009
G00 Z1.0000
G00 X54.1894 Y18.8409
G01 F10.00
G01 Z-2.8000
G01 F120.00
G01 X54.1894 Y18.8408
G01 X54.1893 Y18.8409
G01 X54.1894 Y18.8409
G01 X54.1894 Y18.8409
G00 Z1.0000
G00 X54.1894 Y21.3809
G01 F10.00
G01 Z-2.8000
G01 F120.00
G01 X54.1894 Y21.3808
G01 X54.1893 Y21.3809
G01 X54.1894 Y21.3809
G01 X54.1894 Y21.3809
G00 Z1.0000
G00 X54.1894 Y23.9209
G01 F10.00
G01 Z-2.8000
G01 F120.00
G01 X54.1894 Y23.9208
G01 X54.1893 Y23.9209
G01 X54.1894 Y23.9209
G01 X54.1894 Y23.9209
G00 Z1.0000
G00 X54.1894 Y26.4609
G01 F10.00
G01 Z-2.8000
G01 F120.00
G01 X54.1894 Y26.4608
G01 X54.1893 Y26.4609
G01 X54.1894 Y26.4609
G01 X54.1894 Y26.4609
G00 Z1.0000
G00 X54.1894 Y29.0009
G01 F10.00
G01 Z-2.8000
G01 F120.00
G01 X54.1894 Y29.0008
G01 X54.1893 Y29.0009
G01 X54.1894 Y29.0009
G01 X54.1894 Y29.0009
G00 Z1.0000
G00 X54.1894 Y31.5409
G01 F10.00
G01 Z-2.8000
G01 F120.00
G01 X54.1894 Y31.5408
G01 X54.1893 Y31.5409
G01 X54.1894 Y31.5409
G01 X54.1894 Y31.5409
G00 Z1.0000
G00 X54.1894 Y34.0809
G01 F10.00
G01 Z-2.8000
G01 F120.00
G01 X54.1894 Y34.0808
G01 X54.1893 Y34.0809
G01 X54.1894 Y34.0809
G01 X54.1894 Y34.0809
G00 Z1.0000
G00 X54.1894 Y36.6209
G01 F10.00
G01 Z-2.8000
G01 F120.00
G01 X54.1894 Y36.6208
G01 X54.1893 Y36.6209
G01 X54.1894 Y36.6209
G01 X54.1894 Y36.6209
G00 Z1.0000
G00 X54.1894 Y39.1609
G01 F10.00
G01 Z-2.8000
G01 F120.00
G01 X54.1894 Y39.1608
G01 X54.1893 Y39.1609
G01 X54.1894 Y39.1609
G01 X54.1894 Y39.1609
G00 Z1.0000
G00 X54.1894 Y41.7009
G01 F10.00
G01 Z-2.8000
G01 F120.00
G01 X54.1894 Y41.7008
G01 X54.1893 Y41.7009
G01 X54.1894 Y41.7009
G01 X54.1894 Y41.7009
G00 Z1.0000
G00 X54.1894 Y44.2409
G01 F10.00
G01 Z-2.8000
G01 F120.00
G01 X54.1894 Y44.2408
G01 X54.1893 Y44.2409
G01 X54.1894 Y44.2409
G01 X54.1894 Y44.2409
G00 Z1.0000
G00 X54.1894 Y46.7809
G01 F10.00
G01 Z-2.8000
G01 F120.00
G01 X54.1894 Y46.7808
G01 X54.1893 Y46.7809
G01 X54.1894 Y46.7809
G01 X54.1894 Y46.7809
G00 Z1.0000
G00 X54.1894 Y49.3209
G01 F10.00
G01 Z-2.8000
G01 F120.00
G01 X54.1894 Y49.3208
G01 X54.1893 Y49.3209
G01 X54.1894 Y49.3209
G01 X54.1894 Y49.3209
G00 Z1.0000
G00 X54.1894 Y51.9117
G01 F10.00
G01 Z-2.8000
G01 F120.00
G01 X54.1894 Y51.9116
G01 X54.1893 Y51.9117
G01 X54.1894 Y51.9117
G01 X54.1894 Y51.9117
G00 Z1.0000
G00 X55.5890 Y55.5896
G01 F10.00
G01 Z-2.8000
G01 F120.00
G01 X55.5889 Y55.5896
G01 X55.5889 Y55.5896
G01 X55.5889 Y55.5897
G01 X55.5890 Y55.5896
G00 Z1.0000
G00 X54.8905 Y59.0897
G01 F10.00
G01 Z-2.8000
G01 F120.00
G01 X54.8904 Y59.0897
G01 X54.8904 Y59.0897
G01 X54.8904 Y59.0898
G01 X54.8905 Y59.0897
G00 Z1.0000
G00 X54.8905 Y61.0913
G01 F10.00
G01 Z-2.8000
G01 F120.00
G01 X54.8904 Y61.0912
G01 X54.8904 Y61.0913
G01 X54.8904 Y61.0913
G01 X54.8905 Y61.0913
G00 Z1.0000
G00 X51.1008 Y59.3412
G01 F10.00
G01 Z-2.8000
G01 F120.00
G01 X51.1007 Y59.3411
G01 X51.1007 Y59.3412
G01 X51.1007 Y59.3412
G01 X51.1008 Y59.3412
G00 Z1.0000
G00 X51.1008 Y63.0902
G01 F10.00
G01 Z-2.8000
G01 F120.00
G01 X51.1007 Y63.0902
G01 X51.1007 Y63.0902
G01 X51.1007 Y63.0903
G01 X51.1008 Y63.0902
G00 Z1.0000
G00 X48.5659 Y69.0897
G01 F10.00
G01 Z-2.8000
G01 F120.00
G01 X48.5658 Y69.0897
G01 X48.5658 Y69.0897
G01 X48.5658 Y69.0898
G01 X48.5659 Y69.0897
G00 Z1.0000
G00 X46.0640 Y69.0897
G01 F10.00
G01 Z-2.8000
G01 F120.00
G01 X46.0639 Y69.0897
G01 X46.0639 Y69.0897
G01 X46.0639 Y69.0898
G01 X46.0640 Y69.0897
G00 Z1.0000
G00 X41.0195 Y66.2805
G01 F10.00
G01 Z-2.8000
G01 F120.00
G01 X41.0195 Y66.2804
G01 X41.0194 Y66.2805
G01 X41.0195 Y66.2805
G01 X41.0195 Y66.2805
G00 Z1.0000
G00 X40.9408 Y63.0902
G01 F10.00
G01 Z-2.8000
G01 F120.00
G01 X40.9407 Y63.0902
G01 X40.9407 Y63.0902
G01 X40.9407 Y63.0903
G01 X40.9408 Y63.0902
G00 Z1.0000
G00 X40.9408 Y59.3412
G01 F10.00
G01 Z-2.8000
G01 F120.00
G01 X40.9407 Y59.3411
G01 X40.9407 Y59.3412
G01 X40.9407 Y59.3412
G01 X40.9408 Y59.3412
G00 Z1.0000
G00 X37.1892 Y50.5909
G01 F10.00
G01 Z-2.8000
G01 F120.00
G01 X37.1892 Y50.5908
G01 X37.1891 Y50.5909
G01 X37.1892 Y50.5909
G01 X37.1892 Y50.5909
G00 Z1.0000
G00 X26.4399 Y50.4715
G01 F10.00
G01 Z-2.8000
G01 F120.00
G01 X26.4399 Y50.4715
G01 X26.4398 Y50.4715
G01 X26.4399 Y50.4716
G01 X26.4399 Y50.4715
G00 Z1.0000
G00 X26.4399 Y53.0115
G01 F10.00
G01 Z-2.8000
G01 F120.00
G01 X26.4399 Y53.0115
G01 X26.4398 Y53.0115
G01 X26.4399 Y53.0116
G01 X26.4399 Y53.0115
G00 Z1.0000
G00 X26.4399 Y55.5515
G01 F10.00
G01 Z-2.8000
G01 F120.00
G01 X26.4399 Y55.5515
G01 X26.4398 Y55.5515
G01 X26.4399 Y55.5516
G01 X26.4399 Y55.5515
G00 Z1.0000
G00 X26.4399 Y58.0915
G01 F10.00
G01 Z-2.8000
G01 F120.00
G01 X26.4399 Y58.0915
G01 X26.4398 Y58.0915
G01 X26.4399 Y58.0916
G01 X26.4399 Y58.0915
G00 Z1.0000
G00 X26.4399 Y60.6315
G01 F10.00
G01 Z-2.8000
G01 F120.00
G01 X26.4399 Y60.6315
G01 X26.4398 Y60.6315
G01 X26.4399 Y60.6316
G01 X26.4399 Y60.6315
G00 Z1.0000
G00 X26.4399 Y63.1715
G01 F10.00
G01 Z-2.8000
G01 F120.00
G01 X26.4399 Y63.1715
G01 X26.4398 Y63.1715
G01 X26.4399 Y63.1716
G01 X26.4399 Y63.1715
G00 Z1.0000
G00 X26.4399 Y65.7115
G01 F10.00
G01 Z-2.8000
G01 F120.00
G01 X26.4399 Y65.7115
G01 X26.4398 Y65.7115
G01 X26.4399 Y65.7116
G01 X26.4399 Y65.7115
G00 Z1.0000
G00 X26.4399 Y68.2515
G01 F10.00
G01 Z-2.8000
G01 F120.00
G01 X26.4399 Y68.2515
G01 X26.4398 Y68.2515
G01 X26.4399 Y68.2516
G01 X26.4399 Y68.2515
G00 Z1.0000
G00 X26.4399 Y70.7915
G01 F10.00
G01 Z-2.8000
G01 F120.00
G01 X26.4399 Y70.7915
G01 X26.4398 Y70.7915
G01 X26.4399 Y70.7916
G01 X26.4399 Y70.7915
G00 Z1.0000
G00 X26.4399 Y73.3315
G01 F10.00
G01 Z-2.8000
G01 F120.00
G01 X26.4399 Y73.3315
G01 X26.4398 Y73.3315
G01 X26.4399 Y73.3316
G01 X26.4399 Y73.3315
G00 Z1.0000
G00 X26.4399 Y75.8715
G01 F10.00
G01 Z-2.8000
G01 F120.00
G01 X26.4399 Y75.8715
G01 X26.4398 Y75.8715
G01 X26.4399 Y75.8716
G01 X26.4399 Y75.8715
G00 Z1.0000
G00 X26.4399 Y78.4115
G01 F10.00
G01 Z-2.8000
G01 F120.00
G01 X26.4399 Y78.4115
G01 X26.4398 Y78.4115
G01 X26.4399 Y78.4116
G01 X26.4399 Y78.4115
G00 Z1.0000
G00 X26.4399 Y80.9515
G01 F10.00
G01 Z-2.8000
G01 F120.00
G01 X26.4399 Y80.9515
G01 X26.4398 Y80.9515
G01 X26.4399 Y80.9516
G01 X26.4399 Y80.9515
G00 Z1.0000
G00 X26.4399 Y83.4915
G01 F10.00
G01 Z-2.8000
G01 F120.00
G01 X26.4399 Y83.4915
G01 X26.4398 Y83.4915
G01 X26.4399 Y83.4916
G01 X26.4399 Y83.4915
G00 Z1.0000
G00 X26.4399 Y86.0315
G01 F10.00
G01 Z-2.8000
G01 F120.00
G01 X26.4399 Y86.0315
G01 X26.4398 Y86.0315
G01 X26.4399 Y86.0316
G01 X26.4399 Y86.0315
G00 Z1.0000
G00 X26.4399 Y88.5715
G01 F10.00
G01 Z-2.8000
G01 F120.00
G01 X26.4399 Y88.5715
G01 X26.4398 Y88.5715
G01 X26.4399 Y88.5716
G01 X26.4399 Y88.5715
G00 Z1.0000
G00 X26.4399 Y91.1115
G01 F10.00
G01 Z-2.8000
G01 F120.00
G01 X26.4399 Y91.1115
G01 X26.4398 Y91.1115
G01 X26.4399 Y91.1116
G01 X26.4399 Y91.1115
G00 Z1.0000
G00 X26.4399 Y93.6515
G01 F10.00
G01 Z-2.8000
G01 F120.00
G01 X26.4399 Y93.6515
G01 X26.4398 Y93.6515
G01 X26.4399 Y93.6516
G01 X26.4399 Y93.6515
G00 Z1.0000
G00 X34.6898 Y95.5895
G01 F10.00
G01 Z-2.8000
G01 F120.00
G01 X34.6898 Y95.5895
G01 X34.6897 Y95.5895
G01 X34.6898 Y95.5896
G01 X34.6898 Y95.5895
G00 Z1.0000
G00 X46.3154 Y85.5896
G01 F10.00
G01 Z-2.8000
G01 F120.00
G01 X46.3154 Y85.5895
G01 X46.3153 Y85.5896
G01 X46.3154 Y85.5896
G01 X46.3154 Y85.5896
G00 Z1.0000
G00 X48.8148 Y85.5896
G01 F10.00
G01 Z-2.8000
G01 F120.00
G01 X48.8147 Y85.5895
G01 X48.8147 Y85.5896
G01 X48.8147 Y85.5896
G01 X48.8148 Y85.5896
G00 Z1.0000
G00 X52.4013 Y85.6708
G01 F10.00
G01 Z-2.8000
G01 F120.00
G01 X52.4012 Y85.6708
G01 X52.4012 Y85.6708
G01 X52.4012 Y85.6709
G01 X52.4013 Y85.6708
G00 Z1.0000
G00 X52.4013 Y88.2108
G01 F10.00
G01 Z-2.8000
G01 F120.00
G01 X52.4012 Y88.2108
G01 X52.4012 Y88.2108
G01 X52.4012 Y88.2109
G01 X52.4013 Y88.2108
G00 Z1.0000
G00 X52.5562 Y90.6899
G01 F10.00
G01 Z-2.8000
G01 F120.00
G01 X52.5562 Y90.6898
G01 X52.5561 Y90.6899
G01 X52.5562 Y90.6899
G01 X52.5562 Y90.6899
G00 Z1.0000
G00 X50.2905 Y93.4915
G01 F10.00
G01 Z-2.8000
G01 F120.00
G01 X50.2905 Y93.4914
G01 X50.2904 Y93.4915
G01 X50.2905 Y93.4915
G01 X50.2905 Y93.4915
G00 Z1.0000
G00 X54.6898 Y95.2162
G01 F10.00
G01 Z-2.8000
G01 F120.00
G01 X54.6898 Y95.2161
G01 X54.6897 Y95.2162
G01 X54.6898 Y95.2162
G01 X54.6898 Y95.2162
G00 Z1.0000
G00 X57.2298 Y95.2162
G01 F10.00
G01 Z-2.8000
G01 F120.00
G01 X57.2298 Y95.2161
G01 X57.2297 Y95.2162
G01 X57.2298 Y95.2162
G01 X57.2298 Y95.2162
G00 Z1.0000
G00 X62.5206 Y93.5906
G01 F10.00
G01 Z-2.8000
G01 F120.00
G01 X62.5206 Y93.5905
G01 X62.5205 Y93.5906
G01 X62.5206 Y93.5906
G01 X62.5206 Y93.5906
G00 Z1.0000
G00 X60.0213 Y88.2108
G01 F10.00
G01 Z-2.8000
G01 F120.00
G01 X60.0212 Y88.2108
G01 X60.0212 Y88.2108
G01 X60.0212 Y88.2109
G01 X60.0213 Y88.2108
G00 Z1.0000
G00 X60.0213 Y85.6708
G01 F10.00
G01 Z-2.8000
G01 F120.00
G01 X60.0212 Y85.6708
G01 X60.0212 Y85.6708
G01 X60.0212 Y85.6709
G01 X60.0213 Y85.6708
G00 Z1.0000
G00 X60.0213 Y83.1308
G01 F10.00
G01 Z-2.8000
G01 F120.00
G01 X60.0212 Y83.1308
G01 X60.0212 Y83.1308
G01 X60.0212 Y83.1309
G01 X60.0213 Y83.1308
G00 Z1.0000
G00 X60.0213 Y80.5908
G01 F10.00
G01 Z-2.8000
G01 F120.00
G01 X60.0212 Y80.5908
G01 X60.0212 Y80.5908
G01 X60.0212 Y80.5909
G01 X60.0213 Y80.5908
G00 Z1.0000
G00 X61.8907 Y77.5911
G01 F10.00
G01 Z-2.8000
G01 F120.00
G01 X61.8907 Y77.5910
G01 X61.8906 Y77.5911
G01 X61.8907 Y77.5911
G01 X61.8907 Y77.5911
G00 Z1.0000
G00 X64.1513 Y79.0897
G01 F10.00
G01 Z-2.8000
G01 F120.00
G01 X64.1513 Y79.0896
G01 X64.1512 Y79.0897
G01 X64.1513 Y79.0897
G01 X64.1513 Y79.0897
G00 Z1.0000
G00 X64.2097 Y82.3409
G01 F10.00
G01 Z-2.8000
G01 F120.00
G01 X64.2097 Y82.3408
G01 X64.2096 Y82.3409
G01 X64.2097 Y82.3409
G01 X64.2097 Y82.3409
G00 Z1.0000
G00 X65.5889 Y86.6894
G01 F10.00
G01 Z-2.8000
G01 F120.00
G01 X65.5889 Y86.6893
G01 X65.5888 Y86.6894
G01 X65.5889 Y86.6894
G01 X65.5889 Y86.6894
G00 Z1.0000
G00 X68.0908 Y86.6894
G01 F10.00
G01 Z-2.8000
G01 F120.00
G01 X68.0908 Y86.6893
G01 X68.0907 Y86.6894
G01 X68.0908 Y86.6894
G01 X68.0908 Y86.6894
G00 Z1.0000
G00 X71.8297 Y82.3409
G01 F10.00
G01 Z-2.8000
G01 F120.00
G01 X71.8297 Y82.3408
G01 X71.8296 Y82.3409
G01 X71.8297 Y82.3409
G01 X71.8297 Y82.3409
G00 Z1.0000
G00 X71.7713 Y79.0897
G01 F10.00
G01 Z-2.8000
G01 F120.00
G01 X71.7713 Y79.0896
G01 X71.7712 Y79.0897
G01 X71.7713 Y79.0897
G01 X71.7713 Y79.0897
G00 Z1.0000
G00 X71.7713 Y76.3998
G01 F10.00
G01 Z-2.8000
G01 F120.00
G01 X71.7713 Y76.3998
G01 X71.7712 Y76.3998
G01 X71.7713 Y76.3999
G01 X71.7713 Y76.3998
G00 Z1.0000
G00 X75.8404 Y74.6396
G01 F10.00
G01 Z-2.8000
G01 F120.00
G01 X75.8403 Y74.6396
G01 X75.8403 Y74.6396
G01 X75.8403 Y74.6397
G01 X75.8404 Y74.6396
G00 Z1.0000
G00 X74.9412 Y80.5908
G01 F10.00
G01 Z-2.8000
G01 F120.00
G01 X74.9412 Y80.5908
G01 X74.9411 Y80.5908
G01 X74.9412 Y80.5909
G01 X74.9412 Y80.5908
G00 Z1.0000
G00 X82.0100 Y80.2403
G01 F10.00
G01 Z-2.8000
G01 F120.00
G01 X82.0100 Y80.2403
G01 X82.0099 Y80.2403
G01 X82.0100 Y80.2404
G01 X82.0100 Y80.2403
G00 Z1.0000
G00 X82.0100 Y77.7003
G01 F10.00
G01 Z-2.8000
G01 F120.00
G01 X82.0100 Y77.7003
G01 X82.0099 Y77.7003
G01 X82.0100 Y77.7004
G01 X82.0100 Y77.7003
G00 Z1.0000
G00 X82.0100 Y75.1603
G01 F10.00
G01 Z-2.8000
G01 F120.00
G01 X82.0100 Y75.1603
G01 X82.0099 Y75.1603
G01 X82.0100 Y75.1604
G01 X82.0100 Y75.1603
G00 Z1.0000
G00 X82.0100 Y68.8103
G01 F10.00
G01 Z-2.8000
G01 F120.00
G01 X82.0100 Y68.8103
G01 X82.0099 Y68.8103
G01 X82.0100 Y68.8104
G01 X82.0100 Y68.8103
G00 Z1.0000
G00 X82.0100 Y66.2703
G01 F10.00
G01 Z-2.8000
G01 F120.00
G01 X82.0100 Y66.2703
G01 X82.0099 Y66.2703
G01 X82.0100 Y66.2704
G01 X82.0100 Y66.2703
G00 Z1.0000
G00 X82.0100 Y63.7303
G01 F10.00
G01 Z-2.8000
G01 F120.00
G01 X82.0100 Y63.7303
G01 X82.0099 Y63.7303
G01 X82.0100 Y63.7304
G01 X82.0100 Y63.7303
G00 Z1.0000
G00 X82.0100 Y61.1903
G01 F10.00
G01 Z-2.8000
G01 F120.00
G01 X82.0100 Y61.1903
G01 X82.0099 Y61.1903
G01 X82.0100 Y61.1904
G01 X82.0100 Y61.1903
G00 Z1.0000
G00 X82.0100 Y58.6503
G01 F10.00
G01 Z-2.8000
G01 F120.00
G01 X82.0100 Y58.6503
G01 X82.0099 Y58.6503
G01 X82.0100 Y58.6504
G01 X82.0100 Y58.6503
G00 Z1.0000
G00 X82.0100 Y56.1103
G01 F10.00
G01 Z-2.8000
G01 F120.00
G01 X82.0100 Y56.1103
G01 X82.0099 Y56.1103
G01 X82.0100 Y56.1104
G01 X82.0100 Y56.1103
G00 Z1.0000
G00 X82.0100 Y53.5703
G01 F10.00
G01 Z-2.8000
G01 F120.00
G01 X82.0100 Y53.5703
G01 X82.0099 Y53.5703
G01 X82.0100 Y53.5704
G01 X82.0100 Y53.5703
G00 Z1.0000
G00 X82.0100 Y51.0303
G01 F10.00
G01 Z-2.8000
G01 F120.00
G01 X82.0100 Y51.0303
G01 X82.0099 Y51.0303
G01 X82.0100 Y51.0304
G01 X82.0100 Y51.0303
G00 Z1.0000
G00 X82.0100 Y48.4903
G01 F10.00
G01 Z-2.8000
G01 F120.00
G01 X82.0100 Y48.4903
G01 X82.0099 Y48.4903
G01 X82.0100 Y48.4904
G01 X82.0100 Y48.4903
G00 Z1.0000
G00 X82.0100 Y45.9503
G01 F10.00
G01 Z-2.8000
G01 F120.00
G01 X82.0100 Y45.9503
G01 X82.0099 Y45.9503
G01 X82.0100 Y45.9504
G01 X82.0100 Y45.9503
G00 Z1.0000
G00 X82.0100 Y43.4103
G01 F10.00
G01 Z-2.8000
G01 F120.00
G01 X82.0100 Y43.4103
G01 X82.0099 Y43.4103
G01 X82.0100 Y43.4104
G01 X82.0100 Y43.4103
G00 Z1.0000
G00 X82.0100 Y40.8703
G01 F10.00
G01 Z-2.8000
G01 F120.00
G01 X82.0100 Y40.8703
G01 X82.0099 Y40.8703
G01 X82.0100 Y40.8704
G01 X82.0100 Y40.8703
G00 Z1.0000
G00 X82.0100 Y38.3303
G01 F10.00
G01 Z-2.8000
G01 F120.00
G01 X82.0100 Y38.3303
G01 X82.0099 Y38.3303
G01 X82.0100 Y38.3304
G01 X82.0100 Y38.3303
G00 Z1.0000
G00 X82.0100 Y35.7903
G01 F10.00
G01 Z-2.8000
G01 F120.00
G01 X82.0100 Y35.7903
G01 X82.0099 Y35.7903
G01 X82.0100 Y35.7904
G01 X82.0100 Y35.7903
G00 Z1.0000
G00 X82.0100 Y33.2503
G01 F10.00
G01 Z-2.8000
G01 F120.00
G01 X82.0100 Y33.2503
G01 X82.0099 Y33.2503
G01 X82.0100 Y33.2504
G01 X82.0100 Y33.2503
G00 Z1.0000
G00 X82.0100 Y30.7103
G01 F10.00
G01 Z-2.8000
G01 F120.00
G01 X82.0100 Y30.7103
G01 X82.0099 Y30.7103
G01 X82.0100 Y30.7104
G01 X82.0100 Y30.7103
G00 Z1.0000
G00 X82.0100 Y28.1703
G01 F10.00
G01 Z-2.8000
G01 F120.00
G01 X82.0100 Y28.1703
G01 X82.0099 Y28.1703
G01 X82.0100 Y28.1704
G01 X82.0100 Y28.1703
G00 Z1.0000
G00 X82.0100 Y25.6303
G01 F10.00
G01 Z-2.8000
G01 F120.00
G01 X82.0100 Y25.6303
G01 X82.0099 Y25.6303
G01 X82.0100 Y25.6304
G01 X82.0100 Y25.6303
G00 Z1.0000
G00 X82.0100 Y23.0903
G01 F10.00
G01 Z-2.8000
G01 F120.00
G01 X82.0100 Y23.0903
G01 X82.0099 Y23.0903
G01 X82.0100 Y23.0904
G01 X82.0100 Y23.0903
G00 Z1.0000
G00 X82.0100 Y20.5503
G01 F10.00
G01 Z-2.8000
G01 F120.00
G01 X82.0100 Y20.5503
G01 X82.0099 Y20.5503
G01 X82.0100 Y20.5504
G01 X82.0100 Y20.5503
G00 Z1.0000
G00 X82.0100 Y18.0103
G01 F10.00
G01 Z-2.8000
G01 F120.00
G01 X82.0100 Y18.0103
G01 X82.0099 Y18.0103
G01 X82.0100 Y18.0104
G01 X82.0100 Y18.0103
G00 Z1.0000
G00 X82.0100 Y15.4703
G01 F10.00
G01 Z-2.8000
G01 F120.00
G01 X82.0100 Y15.4703
G01 X82.0099 Y15.4703
G01 X82.0100 Y15.4704
G01 X82.0100 Y15.4703
G00 Z1.0000
G00 X82.0100 Y12.9303
G01 F10.00
G01 Z-2.8000
G01 F120.00
G01 X82.0100 Y12.9303
G01 X82.0099 Y12.9303
G01 X82.0100 Y12.9304
G01 X82.0100 Y12.9303
G00 Z1.0000
G00 X82.0100 Y10.3903
G01 F10.00
G01 Z-2.8000
G01 F120.00
G01 X82.0100 Y10.3903
G01 X82.0099 Y10.3903
G01 X82.0100 Y10.3904
G01 X82.0100 Y10.3903
G00 Z1.0000
G00 X82.0100 Y7.8503
G01 F10.00
G01 Z-2.8000
G01 F120.00
G01 X82.0100 Y7.8503
G01 X82.0099 Y7.8503
G01 X82.0100 Y7.8504
G01 X82.0100 Y7.8503
G00 Z1.0000
G00 X82.0100 Y5.3103
G01 F10.00
G01 Z-2.8000
G01 F120.00
G01 X82.0100 Y5.3103
G01 X82.0099 Y5.3103
G01 X82.0100 Y5.3104
G01 X82.0100 Y5.3103
G00 Z1.0000
G00 X82.0100 Y2.7703
G01 F10.00
G01 Z-2.8000
G01 F120.00
G01 X82.0100 Y2.7703
G01 X82.0099 Y2.7703
G01 X82.0100 Y2.7704
G01 X82.0100 Y2.7703
G00 Z1.0000
G00 X78.1492 Y1.5308
G01 F10.00
G01 Z-2.8000
G01 F120.00
G01 X78.1492 Y1.5307
G01 X78.1491 Y1.5308
G01 X78.1492 Y1.5308
G01 X78.1492 Y1.5308
G00 Z1.0000
G00 X69.4294 Y3.6009
G01 F10.00
G01 Z-2.8000
G01 F120.00
G01 X69.4294 Y3.6008
G01 X69.4293 Y3.6009
G01 X69.4294 Y3.6009
G01 X69.4294 Y3.6009
G00 Z1.0000
G00 X69.4294 Y6.1409
G01 F10.00
G01 Z-2.8000
G01 F120.00
G01 X69.4294 Y6.1408
G01 X69.4293 Y6.1409
G01 X69.4294 Y6.1409
G01 X69.4294 Y6.1409
G00 Z1.0000
G00 X69.4294 Y8.6809
G01 F10.00
G01 Z-2.8000
G01 F120.00
G01 X69.4294 Y8.6808
G01 X69.4293 Y8.6809
G01 X69.4294 Y8.6809
G01 X69.4294 Y8.6809
G00 Z1.0000
G00 X69.4294 Y11.2209
G01 F10.00
G01 Z-2.8000
G01 F120.00
G01 X69.4294 Y11.2208
G01 X69.4293 Y11.2209
G01 X69.4294 Y11.2209
G01 X69.4294 Y11.2209
G00 Z1.0000
G00 X69.4294 Y13.7609
G01 F10.00
G01 Z-2.8000
G01 F120.00
G01 X69.4294 Y13.7608
G01 X69.4293 Y13.7609
G01 X69.4294 Y13.7609
G01 X69.4294 Y13.7609
G00 Z1.0000
G00 X69.4294 Y16.3009
G01 F10.00
G01 Z-2.8000
G01 F120.00
G01 X69.4294 Y16.3008
G01 X69.4293 Y16.3009
G01 X69.4294 Y16.3009
G01 X69.4294 Y16.3009
G00 Z1.0000
G00 X69.4294 Y18.8409
G01 F10.00
G01 Z-2.8000
G01 F120.00
G01 X69.4294 Y18.8408
G01 X69.4293 Y18.8409
G01 X69.4294 Y18.8409
G01 X69.4294 Y18.8409
G00 Z1.0000
G00 X69.4294 Y21.3809
G01 F10.00
G01 Z-2.8000
G01 F120.00
G01 X69.4294 Y21.3808
G01 X69.4293 Y21.3809
G01 X69.4294 Y21.3809
G01 X69.4294 Y21.3809
G00 Z1.0000
G00 X69.4294 Y23.9209
G01 F10.00
G01 Z-2.8000
G01 F120.00
G01 X69.4294 Y23.9208
G01 X69.4293 Y23.9209
G01 X69.4294 Y23.9209
G01 X69.4294 Y23.9209
G00 Z1.0000
G00 X69.4294 Y26.4609
G01 F10.00
G01 Z-2.8000
G01 F120.00
G01 X69.4294 Y26.4608
G01 X69.4293 Y26.4609
G01 X69.4294 Y26.4609
G01 X69.4294 Y26.4609
G00 Z1.0000
G00 X69.4294 Y29.0009
G01 F10.00
G01 Z-2.8000
G01 F120.00
G01 X69.4294 Y29.0008
G01 X69.4293 Y29.0009
G01 X69.4294 Y29.0009
G01 X69.4294 Y29.0009
G00 Z1.0000
G00 X69.4294 Y31.5409
G01 F10.00
G01 Z-2.8000
G01 F120.00
G01 X69.4294 Y31.5408
G01 X69.4293 Y31.5409
G01 X69.4294 Y31.5409
G01 X69.4294 Y31.5409
G00 Z1.0000
G00 X69.4294 Y34.0809
G01 F10.00
G01 Z-2.8000
G01 F120.00
G01 X69.4294 Y34.0808
G01 X69.4293 Y34.0809
G01 X69.4294 Y34.0809
G01 X69.4294 Y34.0809
G00 Z1.0000
G00 X69.4294 Y36.6209
G01 F10.00
G01 Z-2.8000
G01 F120.00
G01 X69.4294 Y36.6208
G01 X69.4293 Y36.6209
G01 X69.4294 Y36.6209
G01 X69.4294 Y36.6209
G00 Z1.0000
G00 X69.4294 Y39.1609
G01 F10.00
G01 Z-2.8000
G01 F120.00
G01 X69.4294 Y39.1608
G01 X69.4293 Y39.1609
G01 X69.4294 Y39.1609
G01 X69.4294 Y39.1609
G00 Z1.0000
G00 X69.4294 Y41.7009
G01 F10.00
G01 Z-2.8000
G01 F120.00
G01 X69.4294 Y41.7008
G01 X69.4293 Y41.7009
G01 X69.4294 Y41.7009
G01 X69.4294 Y41.7009
G00 Z1.0000
G00 X69.4294 Y44.2409
G01 F10.00
G01 Z-2.8000
G01 F120.00
G01 X69.4294 Y44.2408
G01 X69.4293 Y44.2409
G01 X69.4294 Y44.2409
G01 X69.4294 Y44.2409
G00 Z1.0000
G00 X69.4294 Y46.7809
G01 F10.00
G01 Z-2.8000
G01 F120.00
G01 X69.4294 Y46.7808
G01 X69.4293 Y46.7809
G01 X69.4294 Y46.7809
G01 X69.4294 Y46.7809
G00 Z1.0000
G00 X69.4294 Y49.3209
G01 F10.00
G01 Z-2.8000
G01 F120.00
G01 X69.4294 Y49.3208
G01 X69.4293 Y49.3209
G01 X69.4294 Y49.3209
G01 X69.4294 Y49.3209
G00 Z1.0000
G00 X69.4294 Y51.8609
G01 F10.00
G01 Z-2.8000
G01 F120.00
G01 X69.4294 Y51.8608
G01 X69.4293 Y51.8609
G01 X69.4294 Y51.8609
G01 X69.4294 Y51.8609
G00 Z1.0000
G00 X63.0693 Y48.0509
G01 F10.00
G01 Z-2.8000
G01 F120.00
G01 X63.0692 Y48.0508
G01 X63.0692 Y48.0509
G01 X63.0692 Y48.0509
G01 X63.0693 Y48.0509
G00 Z1.0000
G00 X60.5293 Y48.0509
G01 F10.00
G01 Z-2.8000
G01 F120.00
G01 X60.5292 Y48.0508
G01 X60.5292 Y48.0509
G01 X60.5292 Y48.0509
G01 X60.5293 Y48.0509
G00 Z1.0000
G00 X62.6908 Y55.5896
G01 F10.00
G01 Z-2.8000
G01 F120.00
G01 X62.6908 Y55.5896
G01 X62.6907 Y55.5896
G01 X62.6908 Y55.5897
G01 X62.6908 Y55.5896
G00 Z1.0000
G00 X60.7909 Y59.0897
G01 F10.00
G01 Z-2.8000
G01 F120.00
G01 X60.7908 Y59.0897
G01 X60.7908 Y59.0897
G01 X60.7908 Y59.0898
G01 X60.7909 Y59.0897
G00 Z1.0000
G00 X61.9390 Y62.3409
G01 F10.00
G01 Z-2.8000
G01 F120.00
G01 X61.9389 Y62.3409
G01 X61.9389 Y62.3409
G01 X61.9389 Y62.3410
G01 X61.9390 Y62.3409
G00 Z1.0000
G00 X61.9390 Y65.8411
G01 F10.00
G01 Z-2.8000
G01 F120.00
G01 X61.9389 Y65.8410
G01 X61.9389 Y65.8411
G01 X61.9389 Y65.8411
G01 X61.9390 Y65.8411
G00 Z1.0000
G00 X65.3908 Y70.3902
G01 F10.00
G01 Z-2.8000
G01 F120.00
G01 X65.3908 Y70.3901
G01 X65.3907 Y70.3902
G01 X65.3908 Y70.3902
G01 X65.3908 Y70.3902
G00 Z1.0000
G00 X67.8902 Y70.3902
G01 F10.00
G01 Z-2.8000
G01 F120.00
G01 X67.8901 Y70.3901
G01 X67.8901 Y70.3902
G01 X67.8901 Y70.3902
G01 X67.8902 Y70.3902
G00 Z1.0000
G00 X71.7713 Y68.7798
G01 F10.00
G01 Z-2.8000
G01 F120.00
G01 X71.7713 Y68.7798
G01 X71.7712 Y68.7798
G01 X71.7713 Y68.7799
G01 X71.7713 Y68.7798
G00 Z1.0000
G00 X72.0990 Y65.8411
G01 F10.00
G01 Z-2.8000
G01 F120.00
G01 X72.0989 Y65.8410
G01 X72.0989 Y65.8411
G01 X72.0989 Y65.8411
G01 X72.0990 Y65.8411
G00 Z1.0000
G00 X72.0990 Y62.3409
G01 F10.00
G01 Z-2.8000
G01 F120.00
G01 X72.0989 Y62.3409
G01 X72.0989 Y62.3409
G01 X72.0989 Y62.3410
G01 X72.0990 Y62.3409
G00 Z1.0000
G00 X74.1894 Y59.0897
G01 F10.00
G01 Z-2.8000
G01 F120.00
G01 X74.1893 Y59.0897
G01 X74.1893 Y59.0897
G01 X74.1893 Y59.0898
G01 X74.1894 Y59.0897
G00 Z1.0000
G00 X76.4398 Y61.4113
G01 F10.00
G01 Z-2.8000
G01 F120.00
G01 X76.4398 Y61.4112
G01 X76.4397 Y61.4113
G01 X76.4398 Y61.4113
G01 X76.4398 Y61.4113
G00 Z1.0000
G00 X76.4398 Y63.9513
G01 F10.00
G01 Z-2.8000
G01 F120.00
G01 X76.4398 Y63.9512
G01 X76.4397 Y63.9513
G01 X76.4398 Y63.9513
G01 X76.4398 Y63.9513
G00 Z1.0000
G00 X76.4398 Y66.4913
G01 F10.00
G01 Z-2.8000
G01 F120.00
G01 X76.4398 Y66.4912
G01 X76.4397 Y66.4913
G01 X76.4398 Y66.4913
G01 X76.4398 Y66.4913
G00 Z1.0000
G00 X76.9402 Y54.8403
G01 F10.00
G01 Z-2.8000
G01 F120.00
G01 X76.9402 Y54.8403
G01 X76.9401 Y54.8403
G01 X76.9402 Y54.8404
G01 X76.9402 Y54.8403
G00 Z1.0000
G00 X65.4391 Y59.0897
G01 F10.00
G01 Z-2.8000
G01 F120.00
G01 X65.4390 Y59.0897
G01 X65.4390 Y59.0897
G01 X65.4390 Y59.0898
G01 X65.4391 Y59.0897
G00 Z1.0000
G00 X61.6900 Y74.6904
G01 F10.00
G01 Z-2.8000
G01 F120.00
G01 X61.6900 Y74.6904
G01 X61.6899 Y74.6904
G01 X61.6900 Y74.6905
G01 X61.6900 Y74.6904
G00 Z1.0000
G00 X56.9910 Y77.5911
G01 F10.00
G01 Z-2.8000
G01 F120.00
G01 X56.9910 Y77.5910
G01 X56.9909 Y77.5911
G01 X56.9910 Y77.5911
G01 X56.9910 Y77.5911
G00 Z1.0000
G00 X54.8905 Y77.5911
G01 F10.00
G01 Z-2.8000
G01 F120.00
G01 X54.8904 Y77.5910
G01 X54.8904 Y77.5911
G01 X54.8904 Y77.5911
G01 X54.8905 Y77.5911
G00 Z1.0000
G00 X52.4013 Y80.5908
G01 F10.00
G01 Z-2.8000
G01 F120.00
G01 X52.4012 Y80.5908
G01 X52.4012 Y80.5908
G01 X52.4012 Y80.5909
G01 X52.4013 Y80.5908
G00 Z1.0000
G00 X52.4013 Y83.1308
G01 F10.00
G01 Z-2.8000
G01 F120.00
G01 X52.4012 Y83.1308
G01 X52.4012 Y83.1308
G01 X52.4012 Y83.1309
G01 X52.4013 Y83.1308
G00 Z1.0000
G00 X48.8300 Y80.0905
G01 F10.00
G01 Z-2.8000
G01 F120.00
G01 X48.8300 Y80.0904
G01 X48.8299 Y80.0905
G01 X48.8300 Y80.0905
G01 X48.8300 Y80.0905
G00 Z1.0000
G00 X48.8300 Y76.5903
G01 F10.00
G01 Z-2.8000
G01 F120.00
G01 X48.8300 Y76.5903
G01 X48.8299 Y76.5903
G01 X48.8300 Y76.5904
G01 X48.8300 Y76.5903
G00 Z1.0000
G00 X41.2100 Y76.5903
G01 F10.00
G01 Z-2.8000
G01 F120.00
G01 X41.2100 Y76.5903
G01 X41.2099 Y76.5903
G01 X41.2100 Y76.5904
G01 X41.2100 Y76.5903
G00 Z1.0000
G00 X41.0195 Y73.9005
G01 F10.00
G01 Z-2.8000
G01 F120.00
G01 X41.0195 Y73.9004
G01 X41.0194 Y73.9005
G01 X41.0195 Y73.9005
G01 X41.0195 Y73.9005
G00 Z1.0000
G00 X37.6896 Y78.5893
G01 F10.00
G01 Z-2.8000
G01 F120.00
G01 X37.6895 Y78.5893
G01 X37.6895 Y78.5893
G01 X37.6895 Y78.5894
G01 X37.6896 Y78.5893
G00 Z1.0000
G00 X41.2100 Y80.0905
G01 F10.00
G01 Z-2.8000
G01 F120.00
G01 X41.2100 Y80.0904
G01 X41.2099 Y80.0905
G01 X41.2100 Y80.0905
G01 X41.2100 Y80.0905
G00 Z1.0000
G00 X26.4399 Y47.9315
G01 F10.00
G01 Z-2.8000
G01 F120.00
G01 X26.4399 Y47.9315
G01 X26.4398 Y47.9315
G01 X26.4399 Y47.9316
G01 X26.4399 Y47.9315
G00 Z1.0000
G00 X26.4399 Y45.3407
G01 F10.00
G01 Z-2.8000
G01 F120.00
G01 X26.4399 Y45.3407
G01 X26.4398 Y45.3407
G01 X26.4399 Y45.3408
G01 X26.4399 Y45.3407
G00 Z1.0000
G00 X20.1001 Y49.2015
G01 F10.00
G01 Z-2.8000
G01 F120.00
G01 X20.1000 Y49.2015
G01 X20.1000 Y49.2015
G01 X20.1000 Y49.2016
G01 X20.1001 Y49.2015
G00 Z1.0000
G00 X17.5601 Y49.2015
G01 F10.00
G01 Z-2.8000
G01 F120.00
G01 X17.5600 Y49.2015
G01 X17.5600 Y49.2015
G01 X17.5600 Y49.2016
G01 X17.5601 Y49.2015
G00 Z1.0000
G00 X26.4907 Y32.7906
G01 F10.00
G01 Z-2.8000
G01 F120.00
G01 X26.4907 Y32.7905
G01 X26.4906 Y32.7906
G01 X26.4907 Y32.7906
G01 X26.4907 Y32.7906
G00 Z1.0000
G00 X30.9459 Y27.8808
G01 F10.00
G01 Z-2.8000
G01 F120.00
G01 X30.9458 Y27.8807
G01 X30.9458 Y27.8808
G01 X30.9458 Y27.8808
G01 X30.9459 Y27.8808
G00 Z1.0000
G00 X33.4910 Y30.5909
G01 F10.00
G01 Z-2.8000
G01 F120.00
G01 X33.4909 Y30.5909
G01 X33.4909 Y30.5909
G01 X33.4909 Y30.5910
G01 X33.4910 Y30.5909
G00 Z1.0000
G00 X33.4910 Y32.6915
G01 F10.00
G01 Z-2.8000
G01 F120.00
G01 X33.4909 Y32.6915
G01 X33.4909 Y32.6915
G01 X33.4909 Y32.6916
G01 X33.4910 Y32.6915
G00 Z1.0000
G00 X22.0889 Y27.7893
G01 F10.00
G01 Z-2.8000
G01 F120.00
G01 X22.0889 Y27.7893
G01 X22.0888 Y27.7893
G01 X22.0889 Y27.7894
G01 X22.0889 Y27.7893
G00 Z1.0000
G00 X19.2898 Y27.8808
G01 F10.00
G01 Z-2.8000
G01 F120.00
G01 X19.2898 Y27.8807
G01 X19.2897 Y27.8808
G01 X19.2898 Y27.8808
G01 X19.2898 Y27.8808
G00 Z1.0000
G00 X46.6558 Y30.6900
G01 F10.00
G01 Z-2.8000
G01 F120.00
G01 X46.6557 Y30.6899
G01 X46.6557 Y30.6900
G01 X46.6557 Y30.6900
G01 X46.6558 Y30.6900
G00 Z1.0000
G00 X48.7894 Y27.9900
G01 F10.00
G01 Z-2.8000
G01 F120.00
G01 X48.7893 Y27.9899
G01 X48.7893 Y27.9900
G01 X48.7893 Y27.9900
G01 X48.7894 Y27.9900
G00 Z1.0000
G00 X75.6905 Y13.3393
G01 F10.00
G01 Z-2.8000
G01 F120.00
G01 X75.6905 Y13.3392
G01 X75.6904 Y13.3393
G01 X75.6905 Y13.3393
G01 X75.6905 Y13.3393
G00 Z1.0000
G00 X82.0100 Y82.7803
G01 F10.00
G01 Z-2.8000
G01 F120.00
G01 X82.0100 Y82.7803
G01 X82.0099 Y82.7803
G01 X82.0100 Y82.7804
G01 X82.0100 Y82.7803
G00 Z1.0000
G00 X82.0100 Y85.3203
G01 F10.00
G01 Z-2.8000
G01 F120.00
G01 X82.0100 Y85.3203
G01 X82.0099 Y85.3203
G01 X82.0100 Y85.3204
G01 X82.0100 Y85.3203
G00 Z1.0000
G00 X82.0100 Y87.8603
G01 F10.00
G01 Z-2.8000
G01 F120.00
G01 X82.0100 Y87.8603
G01 X82.0099 Y87.8603
G01 X82.0100 Y87.8604
G01 X82.0100 Y87.8603
G00 Z1.0000
G00 X82.0100 Y90.4003
G01 F10.00
G01 Z-2.8000
G01 F120.00
G01 X82.0100 Y90.4003
G01 X82.0099 Y90.4003
G01 X82.0100 Y90.4004
G01 X82.0100 Y90.4003
G00 Z1.0000
G00 X82.0100 Y92.9403
G01 F10.00
G01 Z-2.8000
G01 F120.00
G01 X82.0100 Y92.9403
G01 X82.0099 Y92.9403
G01 X82.0100 Y92.9404
G01 X82.0100 Y92.9403
G00 Z1.0000
G00 X78.0248 Y90.6315
G01 F10.00
G01 Z-2.8000
G01 F120.00
G01 X78.0247 Y90.6314
G01 X78.0247 Y90.6315
G01 X78.0247 Y90.6315
G01 X78.0248 Y90.6315
G00 Z1.0000
M05
G00 Z1.0000
G00 Z15.00


