(G-CODE GENERATED BY FLATCAM v8.994 - www.flatcam.org - Version Date: 2020/11/7)

(Name: condicionamento_BIA_v02-Edge_Cuts.gbr_iso_combined_cnc)
(Type: G-code from Geometry)
(Units: MM)

(Created on sexta, 04 agosto 2023 at 14:21)

(This preprocessor is the default preprocessor used by FlatCAM.)
(It is made to work with MACH3 compatible motion controllers.)

(TOOL DIAMETER: 0.25 mm)
(Feedrate_XY: 60.0 mm/min)
(Feedrate_Z: 60.0 mm/min)
(Feedrate rapids 1500.0 mm/min)

(Z_Cut: -0.14178 mm)
(Z_Move: 1.0 mm)
(Z Start: None mm)
(Z End: 15.0 mm)
(X,Y End: None mm)
(Steps per circle: 64)
(Preprocessor Geometry: default)

(X range:   -0.1250 ...   90.6252  mm)
(Y range:   -0.1250 ...  100.6252  mm)

(Spindle Speed: 1000.0 RPM)
G21
G90
G94

G01 F60.00

M5
G00 Z15.0000
G00 X0.0000 Y0.0000
T1
M6    
(MSG, Change to Tool Dia = 0.25000)
M0
G00 Z15.0000

M03 S1000.0
G01 F60.00
G00 X90.6251 Y0.2442
G01 F60.00
G01 Z-0.1418
G01 F60.00
G01 X90.6252 Y100.2501
G01 X90.6234 Y100.2869
G01 X90.6180 Y100.3233
G01 X90.6091 Y100.3590
G01 X90.5989 Y100.3880
G01 X90.5955 Y100.3965
G01 X90.5824 Y100.4242
G01 X90.5653 Y100.4533
G01 X90.5603 Y100.4611
G01 X90.5439 Y100.4833
G01 X90.5361 Y100.4927
G01 X90.5154 Y100.5154
G01 X90.4927 Y100.5361
G01 X90.4857 Y100.5420
G01 X90.4635 Y100.5585
G01 X90.4560 Y100.5637
G01 X90.4296 Y100.5795
G01 X90.3993 Y100.5942
G01 X90.3880 Y100.5989
G01 X90.3590 Y100.6091
G01 X90.3233 Y100.6180
G01 X90.2869 Y100.6234
G01 X90.2501 Y100.6252
G01 X0.2501 Y100.6252
G01 X0.2134 Y100.6234
G01 X0.1769 Y100.6180
G01 X0.1412 Y100.6091
G01 X0.1123 Y100.5989
G01 X0.1038 Y100.5955
G01 X0.0760 Y100.5824
G01 X0.0469 Y100.5653
G01 X0.0367 Y100.5585
G01 X0.0145 Y100.5420
G01 X0.0075 Y100.5361
G01 X-0.0129 Y100.5175
G01 X-0.0194 Y100.5109
G01 X-0.0399 Y100.4881
G01 X-0.0582 Y100.4635
G01 X-0.0635 Y100.4560
G01 X-0.0792 Y100.4296
G01 X-0.0940 Y100.3993
G01 X-0.0987 Y100.3880
G01 X-0.1088 Y100.3590
G01 X-0.1178 Y100.3233
G01 X-0.1232 Y100.2869
G01 X-0.1250 Y100.2501
G01 X-0.1250 Y0.2501
G01 X-0.1232 Y0.2134
G01 X-0.1178 Y0.1769
G01 X-0.1088 Y0.1412
G01 X-0.0987 Y0.1123
G01 X-0.0940 Y0.1010
G01 X-0.0821 Y0.0760
G01 X-0.0777 Y0.0680
G01 X-0.0600 Y0.0392
G01 X-0.0418 Y0.0145
G01 X-0.0358 Y0.0075
G01 X-0.0173 Y-0.0129
G01 X-0.0107 Y-0.0194
G01 X0.0121 Y-0.0399
G01 X0.0367 Y-0.0582
G01 X0.0443 Y-0.0635
G01 X0.0706 Y-0.0792
G01 X0.1010 Y-0.0940
G01 X0.1123 Y-0.0987
G01 X0.1412 Y-0.1088
G01 X0.1769 Y-0.1178
G01 X0.2134 Y-0.1232
G01 X0.2501 Y-0.1250
G01 X90.2501 Y-0.1248
G01 X90.2869 Y-0.1230
G01 X90.3233 Y-0.1176
G01 X90.3590 Y-0.1086
G01 X90.3937 Y-0.0962
G01 X90.4270 Y-0.0805
G01 X90.4585 Y-0.0616
G01 X90.4881 Y-0.0397
G01 X90.5154 Y-0.0149
G01 X90.5401 Y0.0123
G01 X90.5620 Y0.0419
G01 X90.5810 Y0.0735
G01 X90.5967 Y0.1068
G01 X90.6091 Y0.1414
G01 X90.6180 Y0.1771
G01 X90.6234 Y0.2136
G01 X90.6251 Y0.2442
G00 Z1.0000
G00 X0.6252 Y99.8750
G01 F60.00
G01 Z-0.1418
G01 F60.00
G01 X0.6253 Y0.6254
G01 X89.8750 Y0.6255
G01 X89.8750 Y99.8750
G01 X0.6252 Y99.8750
G00 Z1.0000
M05
G00 Z1.0000
G00 Z15.00


