(G-CODE GENERATED BY FLATCAM v8.994 - www.flatcam.org - Version Date: 2020/11/7)

(Name: condicionamento_BIA_v02-B_Cu.gbr_iso_combined_cnc)
(Type: G-code from Geometry)
(Units: MM)

(Created on quinta, 10 agosto 2023 at 21:45)

(This preprocessor is the default preprocessor used by FlatCAM.)
(It is made to work with MACH3 compatible motion controllers.)

(TOOL DIAMETER: 0.25 mm)
(Feedrate_XY: 60.0 mm/min)
(Feedrate_Z: 30.0 mm/min)
(Feedrate rapids 1500.0 mm/min)

(Z_Cut: -0.14178 mm)
(Z_Move: 1.0 mm)
(Z Start: None mm)
(Z End: 15.0 mm)
(X,Y End: None mm)
(Steps per circle: 64)
(Preprocessor Geometry: default)

(X range:   -0.6250 ...   87.2153  mm)
(Y range:   -0.6250 ...   99.6254  mm)

(Spindle Speed: 1000.0 RPM)
G21
G90
G94

G01 F60.00

M5
G00 Z1.0000
G00 X0.0000 Y0.0000
(T1)
(M6  )  
(MSG, Change to Tool Dia = 0.25000)
(M0)
G00 Z1.0000

M03 S1000.0
G01 F60.00
G00 X-0.0584 Y3.3591
G01 F30.00
G01 Z-0.1418
G01 F60.00
G01 X-0.0850 Y3.3500
G01 X-0.1103 Y3.3391
G01 X-0.1348 Y3.3264
G01 X-0.1583 Y3.3119
G01 X-0.1807 Y3.2957
G01 X-0.2018 Y3.2780
G01 X-0.2152 Y3.2653
G01 X-0.2279 Y3.2520
G01 X-0.2456 Y3.2308
G01 X-0.2618 Y3.2085
G01 X-0.2763 Y3.1850
G01 X-0.2890 Y3.1605
G01 X-0.2999 Y3.1351
G01 X-0.3089 Y3.1090
G01 X-0.3138 Y3.0912
G01 X-0.3178 Y3.0733
G01 X-0.3222 Y3.0460
G01 X-0.3245 Y3.0185
G01 X-0.3250 Y3.0001
G01 X-0.3250 Y1.2001
G01 X-0.3240 Y1.1725
G01 X-0.3222 Y1.1542
G01 X-0.3195 Y1.1360
G01 X-0.3159 Y1.1180
G01 X-0.3114 Y1.1001
G01 X-0.3061 Y1.0825
G01 X-0.2965 Y1.0566
G01 X-0.2890 Y1.0398
G01 X-0.2807 Y1.0233
G01 X-0.2716 Y1.0073
G01 X-0.2566 Y0.9842
G01 X-0.2456 Y0.9694
G01 X-0.2340 Y0.9552
G01 X-0.2216 Y0.9415
G01 X-0.2018 Y0.9223
G01 X-0.1879 Y0.9102
G01 X-0.1734 Y0.8989
G01 X-0.1506 Y0.8833
G01 X-0.1348 Y0.8738
G01 X-0.1186 Y0.8652
G01 X-0.0935 Y0.8537
G01 X-0.0676 Y0.8440
G01 X-0.0411 Y0.8364
G01 X-0.0141 Y0.8306
G01 X0.0132 Y0.8269
G01 X0.0408 Y0.8252
G01 X1.8592 Y0.8252
G01 X1.8776 Y0.8261
G01 X1.8959 Y0.8279
G01 X1.9141 Y0.8306
G01 X1.9322 Y0.8342
G01 X1.9500 Y0.8387
G01 X1.9676 Y0.8440
G01 X1.9850 Y0.8502
G01 X2.0020 Y0.8573
G01 X2.0268 Y0.8694
G01 X2.0428 Y0.8785
G01 X2.0659 Y0.8935
G01 X2.0807 Y0.9045
G01 X2.0949 Y0.9162
G01 X2.1152 Y0.9350
G01 X2.1279 Y0.9483
G01 X2.1456 Y0.9694
G01 X2.1566 Y0.9842
G01 X2.1668 Y0.9995
G01 X2.1807 Y1.0233
G01 X2.1890 Y1.0398
G01 X2.1999 Y1.0652
G01 X2.2061 Y1.0825
G01 X2.2138 Y1.1090
G01 X2.2178 Y1.1270
G01 X2.2209 Y1.1451
G01 X2.2232 Y1.1634
G01 X2.2245 Y1.1817
G01 X2.2250 Y1.2001
G01 X2.2250 Y1.9460
G01 X2.2364 Y1.8695
G01 X2.2395 Y1.8514
G01 X2.2435 Y1.8334
G01 X2.2650 Y1.7477
G01 X2.2699 Y1.7300
G01 X2.2757 Y1.7125
G01 X2.3054 Y1.6294
G01 X2.3121 Y1.6122
G01 X2.3195 Y1.5954
G01 X2.3573 Y1.5155
G01 X2.3656 Y1.4991
G01 X2.3746 Y1.4831
G01 X2.4200 Y1.4073
G01 X2.4299 Y1.3918
G01 X2.4405 Y1.3767
G01 X2.4931 Y1.3058
G01 X2.5044 Y1.2913
G01 X2.5164 Y1.2773
G01 X2.5757 Y1.2119
G01 X2.5884 Y1.1986
G01 X2.6018 Y1.1859
G01 X2.6741 Y1.1205
G01 X2.6957 Y1.1032
G01 X2.7666 Y1.0506
G01 X2.7816 Y1.0400
G01 X2.7972 Y1.0301
G01 X2.8730 Y0.9847
G01 X2.8890 Y0.9757
G01 X2.9054 Y0.9674
G01 X2.9936 Y0.9258
G01 X3.0193 Y0.9155
G01 X3.1024 Y0.8858
G01 X3.1287 Y0.8775
G01 X3.2233 Y0.8536
G01 X3.2413 Y0.8496
G01 X3.2594 Y0.8465
G01 X3.3230 Y0.8370
G01 X3.7460 Y0.4153
G01 X3.7589 Y0.4030
G01 X3.8051 Y0.3612
G01 X3.8191 Y0.3491
G01 X3.8336 Y0.3378
G01 X3.8836 Y0.3007
G01 X3.9064 Y0.2851
G01 X3.9677 Y0.2482
G01 X3.9837 Y0.2391
G01 X4.0002 Y0.2308
G01 X4.0565 Y0.2042
G01 X4.0734 Y0.1967
G01 X4.0905 Y0.1901
G01 X4.1492 Y0.1691
G01 X4.1667 Y0.1633
G01 X4.1845 Y0.1584
G01 X4.2449 Y0.1432
G01 X4.2629 Y0.1392
G01 X4.2810 Y0.1361
G01 X4.3427 Y0.1269
G01 X4.3701 Y0.1239
G01 X4.4416 Y0.1203
G01 X4.4600 Y0.1198
G01 X29.2292 Y0.1199
G01 X29.3099 Y0.1239
G01 X29.3373 Y0.1269
G01 X29.3990 Y0.1361
G01 X29.4171 Y0.1392
G01 X29.4351 Y0.1432
G01 X29.4955 Y0.1584
G01 X29.5221 Y0.1661
G01 X29.5981 Y0.1933
G01 X29.6235 Y0.2042
G01 X29.6881 Y0.2349
G01 X29.7123 Y0.2482
G01 X29.7658 Y0.2802
G01 X29.7813 Y0.2901
G01 X29.7964 Y0.3007
G01 X29.8464 Y0.3378
G01 X29.8680 Y0.3551
G01 X29.9211 Y0.4030
G01 X29.9344 Y0.4157
G01 X30.1461 Y0.6274
G01 X30.2064 Y0.6304
G01 X30.2339 Y0.6328
G01 X30.3401 Y0.6484
G01 X30.3673 Y0.6534
G01 X30.4714 Y0.6794
G01 X30.4891 Y0.6843
G01 X30.5066 Y0.6901
G01 X30.5990 Y0.7232
G01 X30.6246 Y0.7334
G01 X30.7217 Y0.7792
G01 X30.7382 Y0.7875
G01 X30.7542 Y0.7965
G01 X30.8384 Y0.8470
G01 X30.8539 Y0.8568
G01 X30.8690 Y0.8674
G01 X30.9478 Y0.9259
G01 X30.9623 Y0.9372
G01 X30.9762 Y0.9493
G01 X31.0489 Y1.0152
G01 X31.0687 Y1.0344
G01 X31.1409 Y1.1139
G01 X31.1529 Y1.1278
G01 X31.1642 Y1.1423
G01 X31.2227 Y1.2212
G01 X31.2333 Y1.2362
G01 X31.2431 Y1.2518
G01 X31.2936 Y1.3359
G01 X31.3026 Y1.3519
G01 X31.3109 Y1.3684
G01 X31.3529 Y1.4571
G01 X31.3603 Y1.4739
G01 X31.3670 Y1.4911
G01 X31.4000 Y1.5835
G01 X31.4058 Y1.6010
G01 X31.4107 Y1.6187
G01 X31.4345 Y1.7139
G01 X31.4386 Y1.7319
G01 X31.4417 Y1.7500
G01 X31.4561 Y1.8471
G01 X31.4592 Y1.8745
G01 X31.4645 Y1.9817
G01 X31.4650 Y2.0001
G01 X31.4645 Y2.0185
G01 X31.4597 Y2.1165
G01 X31.4584 Y2.1349
G01 X31.4561 Y2.1532
G01 X31.4417 Y2.2502
G01 X31.4386 Y2.2684
G01 X31.4345 Y2.2863
G01 X31.4107 Y2.3815
G01 X31.4058 Y2.3993
G01 X31.4000 Y2.4167
G01 X31.3670 Y2.5091
G01 X31.3603 Y2.5263
G01 X31.3529 Y2.5431
G01 X31.3109 Y2.6318
G01 X31.3026 Y2.6483
G01 X31.2936 Y2.6643
G01 X31.2431 Y2.7485
G01 X31.2333 Y2.7640
G01 X31.2227 Y2.7791
G01 X31.1642 Y2.8579
G01 X31.1529 Y2.8724
G01 X31.1409 Y2.8863
G01 X31.0750 Y2.9591
G01 X31.0623 Y2.9724
G01 X31.0489 Y2.9851
G01 X30.9762 Y3.0510
G01 X30.9623 Y3.0630
G01 X30.9478 Y3.0743
G01 X30.8690 Y3.1328
G01 X30.8539 Y3.1434
G01 X30.8384 Y3.1532
G01 X30.7542 Y3.2037
G01 X30.7382 Y3.2128
G01 X30.7217 Y3.2210
G01 X30.6330 Y3.2630
G01 X30.6162 Y3.2705
G01 X30.5990 Y3.2771
G01 X30.5066 Y3.3101
G01 X30.4891 Y3.3159
G01 X30.4714 Y3.3208
G01 X30.3762 Y3.3447
G01 X30.3582 Y3.3487
G01 X30.3401 Y3.3518
G01 X30.2430 Y3.3662
G01 X30.2248 Y3.3685
G01 X30.2064 Y3.3699
G01 X30.1084 Y3.3747
G01 X30.0900 Y3.3751
G01 X30.0716 Y3.3747
G01 X29.9736 Y3.3699
G01 X29.9552 Y3.3685
G01 X29.9370 Y3.3662
G01 X29.8399 Y3.3518
G01 X29.8218 Y3.3487
G01 X29.8038 Y3.3447
G01 X29.7086 Y3.3208
G01 X29.6909 Y3.3159
G01 X29.6734 Y3.3101
G01 X29.5810 Y3.2771
G01 X29.5638 Y3.2705
G01 X29.5470 Y3.2630
G01 X29.4583 Y3.2210
G01 X29.4418 Y3.2128
G01 X29.4258 Y3.2037
G01 X29.3416 Y3.1532
G01 X29.3261 Y3.1434
G01 X29.3110 Y3.1328
G01 X29.2322 Y3.0743
G01 X29.2177 Y3.0630
G01 X29.2038 Y3.0510
G01 X29.1311 Y2.9851
G01 X29.1177 Y2.9724
G01 X29.1050 Y2.9591
G01 X29.0391 Y2.8863
G01 X29.0271 Y2.8724
G01 X29.0158 Y2.8579
G01 X28.9573 Y2.7791
G01 X28.9467 Y2.7640
G01 X28.9369 Y2.7485
G01 X28.8864 Y2.6643
G01 X28.8774 Y2.6483
G01 X28.8691 Y2.6318
G01 X28.8271 Y2.5431
G01 X28.8197 Y2.5263
G01 X28.8130 Y2.5091
G01 X28.7800 Y2.4167
G01 X28.7742 Y2.3993
G01 X28.7693 Y2.3815
G01 X28.7455 Y2.2863
G01 X28.7414 Y2.2684
G01 X28.7383 Y2.2502
G01 X28.7222 Y2.1404
G01 X23.3803 Y2.1404
G01 X23.3803 Y2.8239
G01 X23.4195 Y2.8767
G01 X23.4301 Y2.8918
G01 X23.4400 Y2.9073
G01 X23.4900 Y2.9910
G01 X23.5027 Y3.0155
G01 X23.5405 Y3.0954
G01 X23.5479 Y3.1122
G01 X23.5546 Y3.1294
G01 X23.5843 Y3.2125
G01 X23.5901 Y3.2300
G01 X23.5950 Y3.2477
G01 X23.6165 Y3.3334
G01 X23.6205 Y3.3514
G01 X23.6236 Y3.3695
G01 X23.6350 Y3.4460
G01 X23.6350 Y2.7001
G01 X23.6360 Y2.6725
G01 X23.6378 Y2.6542
G01 X23.6405 Y2.6360
G01 X23.6441 Y2.6180
G01 X23.6511 Y2.5913
G01 X23.6569 Y2.5738
G01 X23.6672 Y2.5482
G01 X23.6750 Y2.5315
G01 X23.6884 Y2.5073
G01 X23.6982 Y2.4918
G01 X23.7144 Y2.4694
G01 X23.7260 Y2.4552
G01 X23.7384 Y2.4415
G01 X23.7514 Y2.4285
G01 X23.7721 Y2.4102
G01 X23.7866 Y2.3989
G01 X23.8017 Y2.3883
G01 X23.8252 Y2.3738
G01 X23.8414 Y2.3652
G01 X23.8665 Y2.3537
G01 X23.8837 Y2.3470
G01 X23.9011 Y2.3413
G01 X23.9278 Y2.3342
G01 X23.9459 Y2.3306
G01 X23.9641 Y2.3279
G01 X23.9824 Y2.3261
G01 X24.0008 Y2.3252
G01 X25.8192 Y2.3252
G01 X25.8468 Y2.3269
G01 X25.8650 Y2.3292
G01 X25.8832 Y2.3323
G01 X25.9011 Y2.3364
G01 X25.9189 Y2.3413
G01 X25.9363 Y2.3470
G01 X25.9535 Y2.3537
G01 X25.9703 Y2.3611
G01 X25.9868 Y2.3694
G01 X26.0106 Y2.3833
G01 X26.0259 Y2.3935
G01 X26.0407 Y2.4045
G01 X26.0549 Y2.4162
G01 X26.0686 Y2.4285
G01 X26.0879 Y2.4483
G01 X26.1056 Y2.4694
G01 X26.1218 Y2.4918
G01 X26.1316 Y2.5073
G01 X26.1407 Y2.5233
G01 X26.1490 Y2.5398
G01 X26.1565 Y2.5566
G01 X26.1661 Y2.5825
G01 X26.1738 Y2.6090
G01 X26.1778 Y2.6270
G01 X26.1809 Y2.6451
G01 X26.1840 Y2.6725
G01 X26.1850 Y2.7001
G01 X26.1850 Y3.2663
G01 X30.1461 Y7.2274
G01 X30.2064 Y7.2304
G01 X30.2248 Y7.2317
G01 X30.2430 Y7.2340
G01 X30.3492 Y7.2499
G01 X30.3762 Y7.2556
G01 X30.4803 Y7.2818
G01 X30.5066 Y7.2901
G01 X30.5990 Y7.3232
G01 X30.6162 Y7.3298
G01 X30.6330 Y7.3372
G01 X30.7217 Y7.3792
G01 X30.7462 Y7.3919
G01 X30.8384 Y7.4470
G01 X30.8539 Y7.4568
G01 X30.8690 Y7.4674
G01 X30.9478 Y7.5259
G01 X30.9623 Y7.5372
G01 X30.9762 Y7.5493
G01 X31.0489 Y7.6152
G01 X31.0623 Y7.6278
G01 X31.0750 Y7.6412
G01 X31.1409 Y7.7139
G01 X31.1529 Y7.7278
G01 X31.1642 Y7.7423
G01 X31.2281 Y7.8286
G01 X31.2431 Y7.8518
G01 X31.2936 Y7.9359
G01 X31.3026 Y7.9519
G01 X31.3109 Y7.9684
G01 X31.3529 Y8.0571
G01 X31.3603 Y8.0739
G01 X31.3670 Y8.0911
G01 X31.4030 Y8.1922
G01 X31.4107 Y8.2187
G01 X31.4345 Y8.3139
G01 X31.4386 Y8.3319
G01 X31.4417 Y8.3500
G01 X31.4561 Y8.4471
G01 X31.4584 Y8.4653
G01 X31.4597 Y8.4837
G01 X31.4645 Y8.5817
G01 X31.4650 Y8.6001
G01 X31.4645 Y8.6185
G01 X31.4597 Y8.7165
G01 X31.4584 Y8.7349
G01 X31.4561 Y8.7532
G01 X31.4417 Y8.8502
G01 X31.4386 Y8.8684
G01 X31.4345 Y8.8863
G01 X31.4107 Y8.9815
G01 X31.4058 Y8.9993
G01 X31.4000 Y9.0167
G01 X31.3638 Y9.1178
G01 X31.3529 Y9.1431
G01 X31.3109 Y9.2318
G01 X31.3026 Y9.2483
G01 X31.2936 Y9.2643
G01 X31.2431 Y9.3485
G01 X31.2333 Y9.3640
G01 X31.2227 Y9.3791
G01 X31.1642 Y9.4579
G01 X31.1529 Y9.4724
G01 X31.1409 Y9.4863
G01 X31.0750 Y9.5591
G01 X31.0623 Y9.5724
G01 X31.0489 Y9.5851
G01 X30.9762 Y9.6510
G01 X30.9623 Y9.6630
G01 X30.9478 Y9.6743
G01 X30.8690 Y9.7328
G01 X30.8539 Y9.7434
G01 X30.8384 Y9.7532
G01 X30.7542 Y9.8037
G01 X30.7382 Y9.8128
G01 X30.7217 Y9.8210
G01 X30.6330 Y9.8630
G01 X30.6162 Y9.8705
G01 X30.5990 Y9.8771
G01 X30.4979 Y9.9131
G01 X30.4714 Y9.9208
G01 X30.3762 Y9.9447
G01 X30.3492 Y9.9504
G01 X30.2430 Y9.9662
G01 X30.2248 Y9.9685
G01 X30.2064 Y9.9699
G01 X30.1084 Y9.9747
G01 X30.0900 Y9.9751
G01 X30.0716 Y9.9747
G01 X29.9736 Y9.9699
G01 X29.9552 Y9.9685
G01 X29.9370 Y9.9662
G01 X29.8399 Y9.9518
G01 X29.8218 Y9.9487
G01 X29.8038 Y9.9447
G01 X29.7086 Y9.9208
G01 X29.6909 Y9.9159
G01 X29.6734 Y9.9101
G01 X29.5810 Y9.8771
G01 X29.5638 Y9.8705
G01 X29.5470 Y9.8630
G01 X29.4583 Y9.8210
G01 X29.4418 Y9.8128
G01 X29.4258 Y9.8037
G01 X29.3416 Y9.7532
G01 X29.3261 Y9.7434
G01 X29.3110 Y9.7328
G01 X29.2322 Y9.6743
G01 X29.2177 Y9.6630
G01 X29.2038 Y9.6510
G01 X29.1311 Y9.5851
G01 X29.1177 Y9.5724
G01 X29.1050 Y9.5591
G01 X29.0391 Y9.4863
G01 X29.0271 Y9.4724
G01 X29.0158 Y9.4579
G01 X28.9573 Y9.3791
G01 X28.9467 Y9.3640
G01 X28.9369 Y9.3485
G01 X28.8864 Y9.2643
G01 X28.8731 Y9.2401
G01 X28.8271 Y9.1431
G01 X28.8197 Y9.1263
G01 X28.8130 Y9.1091
G01 X28.7800 Y9.0167
G01 X28.7716 Y8.9904
G01 X28.7455 Y8.8863
G01 X28.7397 Y8.8593
G01 X28.7239 Y8.7532
G01 X28.7216 Y8.7349
G01 X28.7203 Y8.7165
G01 X28.7173 Y8.6562
G01 X25.1362 Y5.0751
G01 X24.0100 Y5.0751
G01 X23.9824 Y5.0741
G01 X23.9641 Y5.0723
G01 X23.9459 Y5.0696
G01 X23.9189 Y5.0639
G01 X23.9011 Y5.0590
G01 X23.8837 Y5.0532
G01 X23.8665 Y5.0466
G01 X23.8497 Y5.0391
G01 X23.8252 Y5.0264
G01 X23.8094 Y5.0169
G01 X23.7941 Y5.0067
G01 X23.7721 Y4.9900
G01 X23.7582 Y4.9780
G01 X23.7448 Y4.9653
G01 X23.7321 Y4.9520
G01 X23.7201 Y4.9380
G01 X23.7034 Y4.9160
G01 X23.6884 Y4.8929
G01 X23.6793 Y4.8769
G01 X23.6710 Y4.8605
G01 X23.6635 Y4.8436
G01 X23.6569 Y4.8265
G01 X23.6486 Y4.8001
G01 X23.6441 Y4.7823
G01 X23.6405 Y4.7642
G01 X23.6368 Y4.7369
G01 X23.6355 Y4.7185
G01 X23.6350 Y4.7001
G01 X23.6350 Y3.9542
G01 X23.6236 Y4.0307
G01 X23.6205 Y4.0489
G01 X23.6165 Y4.0668
G01 X23.5950 Y4.1525
G01 X23.5901 Y4.1702
G01 X23.5843 Y4.1877
G01 X23.5546 Y4.2709
G01 X23.5479 Y4.2880
G01 X23.5405 Y4.3049
G01 X23.5027 Y4.3847
G01 X23.4944 Y4.4011
G01 X23.4854 Y4.4172
G01 X23.4400 Y4.4929
G01 X23.4301 Y4.5085
G01 X23.4195 Y4.5235
G01 X23.3669 Y4.5945
G01 X23.3556 Y4.6090
G01 X23.3436 Y4.6229
G01 X23.2843 Y4.6883
G01 X23.2716 Y4.7017
G01 X23.2582 Y4.7144
G01 X23.1859 Y4.7798
G01 X23.1643 Y4.7970
G01 X23.0934 Y4.8496
G01 X23.0784 Y4.8602
G01 X23.0628 Y4.8701
G01 X22.9870 Y4.9155
G01 X22.9710 Y4.9246
G01 X22.9546 Y4.9328
G01 X22.8747 Y4.9706
G01 X22.8579 Y4.9781
G01 X22.8407 Y4.9847
G01 X22.7576 Y5.0144
G01 X22.7401 Y5.0202
G01 X22.7224 Y5.0251
G01 X22.6277 Y5.0487
G01 X22.6006 Y5.0538
G01 X22.5132 Y5.0667
G01 X22.4950 Y5.0690
G01 X22.4766 Y5.0703
G01 X22.3884 Y5.0747
G01 X22.3608 Y5.0750
G01 X22.2634 Y5.0703
G01 X22.2450 Y5.0690
G01 X22.2268 Y5.0667
G01 X22.1394 Y5.0538
G01 X22.1213 Y5.0506
G01 X22.1033 Y5.0466
G01 X22.0176 Y5.0251
G01 X21.9999 Y5.0202
G01 X21.9824 Y5.0144
G01 X21.8993 Y4.9847
G01 X21.8821 Y4.9781
G01 X21.8653 Y4.9706
G01 X21.7854 Y4.9328
G01 X21.7690 Y4.9246
G01 X21.7530 Y4.9155
G01 X21.6772 Y4.8701
G01 X21.6616 Y4.8602
G01 X21.6466 Y4.8496
G01 X21.5757 Y4.7970
G01 X21.5611 Y4.7857
G01 X21.5472 Y4.7737
G01 X21.4818 Y4.7144
G01 X21.4620 Y4.6951
G01 X21.3903 Y4.6160
G01 X21.3731 Y4.5945
G01 X21.3205 Y4.5235
G01 X21.3049 Y4.5008
G01 X21.2546 Y4.4172
G01 X21.2456 Y4.4011
G01 X21.2373 Y4.3847
G01 X21.1995 Y4.3049
G01 X21.1921 Y4.2880
G01 X21.1854 Y4.2709
G01 X21.1557 Y4.1877
G01 X21.1473 Y4.1614
G01 X21.1235 Y4.0668
G01 X21.1195 Y4.0489
G01 X21.1164 Y4.0307
G01 X21.1034 Y3.9434
G01 X21.1011 Y3.9251
G01 X21.1000 Y3.9102
G01 X21.0978 Y3.9342
G01 X21.0836 Y4.0307
G01 X21.0805 Y4.0489
G01 X21.0765 Y4.0668
G01 X21.0550 Y4.1525
G01 X21.0501 Y4.1702
G01 X21.0443 Y4.1877
G01 X21.0114 Y4.2795
G01 X21.0005 Y4.3049
G01 X20.9627 Y4.3847
G01 X20.9500 Y4.4092
G01 X20.9000 Y4.4929
G01 X20.8901 Y4.5085
G01 X20.8795 Y4.5235
G01 X20.8407 Y4.5759
G01 X20.8402 Y4.6510
G01 X20.8362 Y4.7306
G01 X20.8332 Y4.7581
G01 X20.8226 Y4.8288
G01 X20.8169 Y4.8558
G01 X20.8017 Y4.9163
G01 X20.7968 Y4.9341
G01 X20.7910 Y4.9515
G01 X20.7700 Y5.0102
G01 X20.7634 Y5.0274
G01 X20.7560 Y5.0442
G01 X20.7293 Y5.1006
G01 X20.7210 Y5.1170
G01 X20.7119 Y5.1330
G01 X20.6799 Y5.1865
G01 X20.6700 Y5.2021
G01 X20.6594 Y5.2171
G01 X20.6167 Y5.2745
G01 X20.5990 Y5.2956
G01 X20.5508 Y5.3486
G01 X20.4532 Y5.4464
G01 X20.5370 Y5.4340
G01 X20.5552 Y5.4317
G01 X20.5736 Y5.4304
G01 X20.6716 Y5.4256
G01 X20.6992 Y5.4252
G01 X20.8064 Y5.4304
G01 X20.8248 Y5.4317
G01 X20.8430 Y5.4340
G01 X20.9401 Y5.4484
G01 X20.9582 Y5.4515
G01 X20.9762 Y5.4556
G01 X21.0714 Y5.4794
G01 X21.0891 Y5.4843
G01 X21.1066 Y5.4901
G01 X21.1990 Y5.5232
G01 X21.2162 Y5.5298
G01 X21.2330 Y5.5372
G01 X21.3217 Y5.5792
G01 X21.3382 Y5.5875
G01 X21.3542 Y5.5965
G01 X21.4384 Y5.6470
G01 X21.4539 Y5.6568
G01 X21.4690 Y5.6674
G01 X21.5478 Y5.7259
G01 X21.5623 Y5.7372
G01 X21.5762 Y5.7493
G01 X21.6557 Y5.8214
G01 X21.6750 Y5.8412
G01 X21.7409 Y5.9139
G01 X21.7529 Y5.9278
G01 X21.7642 Y5.9423
G01 X21.8227 Y6.0212
G01 X21.8333 Y6.0362
G01 X21.8431 Y6.0518
G01 X21.8936 Y6.1359
G01 X21.9026 Y6.1519
G01 X21.9109 Y6.1684
G01 X21.9567 Y6.2655
G01 X21.9670 Y6.2911
G01 X22.0000 Y6.3835
G01 X22.0058 Y6.4010
G01 X22.0107 Y6.4187
G01 X22.0367 Y6.5229
G01 X22.0417 Y6.5500
G01 X22.0574 Y6.6562
G01 X22.0597 Y6.6837
G01 X22.0627 Y6.7440
G01 X26.4044 Y11.0857
G01 X26.4171 Y11.0990
G01 X26.4590 Y11.1452
G01 X26.4710 Y11.1592
G01 X26.4823 Y11.1737
G01 X26.5194 Y11.2238
G01 X26.5300 Y11.2388
G01 X26.5399 Y11.2544
G01 X26.5719 Y11.3078
G01 X26.5810 Y11.3239
G01 X26.5893 Y11.3403
G01 X26.6160 Y11.3967
G01 X26.6234 Y11.4135
G01 X26.6300 Y11.4307
G01 X26.6540 Y11.4981
G01 X26.6617 Y11.5246
G01 X26.6769 Y11.5851
G01 X26.6809 Y11.6030
G01 X26.6841 Y11.6211
G01 X26.6944 Y11.6919
G01 X26.6968 Y11.7194
G01 X26.7002 Y11.7909
G01 X26.7003 Y11.8692
G01 X26.7409 Y11.9139
G01 X26.7529 Y11.9278
G01 X26.7642 Y11.9423
G01 X26.8281 Y12.0286
G01 X26.8431 Y12.0518
G01 X26.8936 Y12.1359
G01 X26.9069 Y12.1601
G01 X26.9529 Y12.2571
G01 X26.9603 Y12.2739
G01 X26.9670 Y12.2911
G01 X27.0000 Y12.3835
G01 X27.0058 Y12.4010
G01 X27.0107 Y12.4187
G01 X27.0345 Y12.5139
G01 X27.0386 Y12.5319
G01 X27.0417 Y12.5500
G01 X27.0561 Y12.6471
G01 X27.0584 Y12.6653
G01 X27.0597 Y12.6837
G01 X27.0645 Y12.7817
G01 X27.0649 Y12.8093
G01 X27.0597 Y12.9165
G01 X27.0584 Y12.9349
G01 X27.0561 Y12.9532
G01 X27.0417 Y13.0502
G01 X27.0386 Y13.0684
G01 X27.0345 Y13.0863
G01 X27.0107 Y13.1815
G01 X27.0058 Y13.1993
G01 X27.0000 Y13.2167
G01 X26.9670 Y13.3091
G01 X26.9603 Y13.3263
G01 X26.9529 Y13.3431
G01 X26.9069 Y13.4401
G01 X26.8936 Y13.4643
G01 X26.8431 Y13.5485
G01 X26.8333 Y13.5640
G01 X26.8227 Y13.5791
G01 X26.7642 Y13.6579
G01 X26.7529 Y13.6724
G01 X26.7409 Y13.6863
G01 X26.6750 Y13.7591
G01 X26.6623 Y13.7724
G01 X26.6489 Y13.7851
G01 X26.5762 Y13.8510
G01 X26.5623 Y13.8630
G01 X26.5478 Y13.8743
G01 X26.4615 Y13.9382
G01 X26.4384 Y13.9532
G01 X26.3542 Y14.0037
G01 X26.3382 Y14.0128
G01 X26.3217 Y14.0210
G01 X26.2330 Y14.0630
G01 X26.2162 Y14.0705
G01 X26.1990 Y14.0771
G01 X26.1066 Y14.1101
G01 X26.0891 Y14.1159
G01 X26.0714 Y14.1208
G01 X25.9762 Y14.1447
G01 X25.9582 Y14.1487
G01 X25.9401 Y14.1518
G01 X25.8430 Y14.1662
G01 X25.8248 Y14.1685
G01 X25.8064 Y14.1699
G01 X25.7084 Y14.1747
G01 X25.6900 Y14.1751
G01 X25.6716 Y14.1747
G01 X25.5644 Y14.1693
G01 X25.5370 Y14.1662
G01 X25.4399 Y14.1518
G01 X25.4218 Y14.1487
G01 X25.4038 Y14.1447
G01 X25.3086 Y14.1208
G01 X25.2909 Y14.1159
G01 X25.2734 Y14.1101
G01 X25.1810 Y14.0771
G01 X25.1638 Y14.0705
G01 X25.1470 Y14.0630
G01 X25.0583 Y14.0210
G01 X25.0418 Y14.0128
G01 X25.0258 Y14.0037
G01 X24.9416 Y13.9532
G01 X24.9261 Y13.9434
G01 X24.9110 Y13.9328
G01 X24.8322 Y13.8743
G01 X24.8177 Y13.8630
G01 X24.8038 Y13.8510
G01 X24.7311 Y13.7851
G01 X24.7177 Y13.7724
G01 X24.7050 Y13.7591
G01 X24.6391 Y13.6863
G01 X24.6271 Y13.6724
G01 X24.6158 Y13.6579
G01 X24.5573 Y13.5791
G01 X24.5467 Y13.5640
G01 X24.5369 Y13.5485
G01 X24.4818 Y13.4564
G01 X24.4691 Y13.4318
G01 X24.4271 Y13.3431
G01 X24.4197 Y13.3263
G01 X24.4130 Y13.3091
G01 X24.3800 Y13.2167
G01 X24.3742 Y13.1993
G01 X24.3693 Y13.1815
G01 X24.3433 Y13.0774
G01 X24.3383 Y13.0502
G01 X24.3239 Y12.9532
G01 X24.3216 Y12.9349
G01 X24.3203 Y12.9165
G01 X24.3155 Y12.8185
G01 X24.3150 Y12.8001
G01 X24.3155 Y12.7817
G01 X24.3203 Y12.6837
G01 X24.3216 Y12.6653
G01 X24.3239 Y12.6471
G01 X24.3383 Y12.5500
G01 X24.3414 Y12.5319
G01 X24.3455 Y12.5139
G01 X24.3693 Y12.4187
G01 X24.3742 Y12.4010
G01 X24.3800 Y12.3835
G01 X24.4130 Y12.2911
G01 X24.4197 Y12.2739
G01 X24.4271 Y12.2571
G01 X24.4691 Y12.1684
G01 X24.4774 Y12.1519
G01 X24.4864 Y12.1359
G01 X24.5279 Y12.0668
G01 X20.6339 Y8.1728
G01 X20.5736 Y8.1699
G01 X20.5461 Y8.1675
G01 X20.4399 Y8.1518
G01 X20.4127 Y8.1468
G01 X20.3086 Y8.1208
G01 X20.2909 Y8.1159
G01 X20.2734 Y8.1101
G01 X20.1810 Y8.0771
G01 X20.1554 Y8.0668
G01 X20.0583 Y8.0210
G01 X20.0418 Y8.0128
G01 X20.0258 Y8.0037
G01 X19.9416 Y7.9532
G01 X19.9261 Y7.9434
G01 X19.9110 Y7.9328
G01 X19.8322 Y7.8743
G01 X19.8177 Y7.8630
G01 X19.8038 Y7.8510
G01 X19.7311 Y7.7851
G01 X19.7113 Y7.7658
G01 X19.6391 Y7.6863
G01 X19.6271 Y7.6724
G01 X19.6158 Y7.6579
G01 X19.5573 Y7.5791
G01 X19.5467 Y7.5640
G01 X19.5369 Y7.5485
G01 X19.4864 Y7.4643
G01 X19.4774 Y7.4483
G01 X19.4691 Y7.4318
G01 X19.4271 Y7.3431
G01 X19.4197 Y7.3263
G01 X19.4130 Y7.3091
G01 X19.3770 Y7.2080
G01 X19.3693 Y7.1815
G01 X19.3455 Y7.0863
G01 X19.3414 Y7.0684
G01 X19.3383 Y7.0502
G01 X19.3239 Y6.9532
G01 X19.3208 Y6.9257
G01 X19.3155 Y6.8185
G01 X19.3150 Y6.8001
G01 X19.3155 Y6.7817
G01 X19.3203 Y6.6837
G01 X19.3216 Y6.6653
G01 X19.3239 Y6.6471
G01 X19.3341 Y6.5783
G01 X19.3240 Y6.5900
G01 X19.2821 Y6.6362
G01 X19.2694 Y6.6495
G01 X15.7003 Y10.2186
G01 X15.7003 Y13.3692
G01 X15.7409 Y13.4139
G01 X15.7586 Y13.4350
G01 X15.8227 Y13.5212
G01 X15.8383 Y13.5439
G01 X15.8936 Y13.6359
G01 X15.9026 Y13.6519
G01 X15.9109 Y13.6684
G01 X15.9529 Y13.7571
G01 X15.9603 Y13.7739
G01 X15.9670 Y13.7911
G01 X16.0000 Y13.8835
G01 X16.0058 Y13.9010
G01 X16.0107 Y13.9187
G01 X16.0367 Y14.0229
G01 X16.0417 Y14.0500
G01 X16.0574 Y14.1562
G01 X16.0597 Y14.1837
G01 X16.0627 Y14.2440
G01 X16.8085 Y14.9898
G01 X21.1590 Y14.9898
G01 X21.2038 Y14.9493
G01 X21.2177 Y14.9372
G01 X21.2322 Y14.9259
G01 X21.3185 Y14.8621
G01 X21.3416 Y14.8470
G01 X21.4258 Y14.7965
G01 X21.4500 Y14.7832
G01 X21.5470 Y14.7372
G01 X21.5638 Y14.7298
G01 X21.5810 Y14.7232
G01 X21.6734 Y14.6901
G01 X21.6909 Y14.6843
G01 X21.7086 Y14.6794
G01 X21.8038 Y14.6556
G01 X21.8308 Y14.6499
G01 X21.9370 Y14.6340
G01 X21.9552 Y14.6317
G01 X21.9736 Y14.6304
G01 X22.0716 Y14.6256
G01 X22.0900 Y14.6251
G01 X22.1084 Y14.6256
G01 X22.2064 Y14.6304
G01 X22.2248 Y14.6317
G01 X22.2430 Y14.6340
G01 X22.3401 Y14.6484
G01 X22.3582 Y14.6515
G01 X22.3762 Y14.6556
G01 X22.4714 Y14.6794
G01 X22.4891 Y14.6843
G01 X22.5066 Y14.6901
G01 X22.5990 Y14.7232
G01 X22.6162 Y14.7298
G01 X22.6330 Y14.7372
G01 X22.7217 Y14.7792
G01 X22.7382 Y14.7875
G01 X22.7542 Y14.7965
G01 X22.8384 Y14.8470
G01 X22.8539 Y14.8568
G01 X22.8690 Y14.8674
G01 X22.9478 Y14.9259
G01 X22.9623 Y14.9372
G01 X22.9762 Y14.9493
G01 X23.0489 Y15.0152
G01 X23.0623 Y15.0278
G01 X23.0750 Y15.0412
G01 X23.1409 Y15.1139
G01 X23.1529 Y15.1278
G01 X23.1642 Y15.1423
G01 X23.2227 Y15.2212
G01 X23.2333 Y15.2362
G01 X23.2431 Y15.2518
G01 X23.2936 Y15.3359
G01 X23.3026 Y15.3519
G01 X23.3109 Y15.3684
G01 X23.3529 Y15.4571
G01 X23.3603 Y15.4739
G01 X23.3670 Y15.4911
G01 X23.4000 Y15.5835
G01 X23.4058 Y15.6010
G01 X23.4107 Y15.6187
G01 X23.4345 Y15.7139
G01 X23.4386 Y15.7319
G01 X23.4417 Y15.7500
G01 X23.4561 Y15.8471
G01 X23.4584 Y15.8653
G01 X23.4597 Y15.8837
G01 X23.4645 Y15.9817
G01 X23.4650 Y16.0001
G01 X23.4645 Y16.0185
G01 X23.4597 Y16.1165
G01 X23.4584 Y16.1349
G01 X23.4561 Y16.1532
G01 X23.4417 Y16.2502
G01 X23.4386 Y16.2684
G01 X23.4345 Y16.2863
G01 X23.4107 Y16.3815
G01 X23.4058 Y16.3993
G01 X23.4000 Y16.4167
G01 X23.3670 Y16.5091
G01 X23.3603 Y16.5263
G01 X23.3529 Y16.5431
G01 X23.3109 Y16.6318
G01 X23.3026 Y16.6483
G01 X23.2936 Y16.6643
G01 X23.2431 Y16.7485
G01 X23.2333 Y16.7640
G01 X23.2227 Y16.7791
G01 X23.1642 Y16.8579
G01 X23.1529 Y16.8724
G01 X23.1409 Y16.8863
G01 X23.0750 Y16.9591
G01 X23.0623 Y16.9724
G01 X23.0489 Y16.9851
G01 X22.9762 Y17.0510
G01 X22.9623 Y17.0630
G01 X22.9478 Y17.0743
G01 X22.8690 Y17.1328
G01 X22.8539 Y17.1434
G01 X22.8384 Y17.1532
G01 X22.7542 Y17.2037
G01 X22.7382 Y17.2128
G01 X22.7217 Y17.2210
G01 X22.6330 Y17.2630
G01 X22.6162 Y17.2705
G01 X22.5990 Y17.2771
G01 X22.5066 Y17.3101
G01 X22.4891 Y17.3159
G01 X22.4714 Y17.3208
G01 X22.3762 Y17.3447
G01 X22.3582 Y17.3487
G01 X22.3401 Y17.3518
G01 X22.2430 Y17.3662
G01 X22.2156 Y17.3693
G01 X22.1084 Y17.3747
G01 X22.0900 Y17.3751
G01 X22.0716 Y17.3747
G01 X21.9736 Y17.3699
G01 X21.9552 Y17.3685
G01 X21.9370 Y17.3662
G01 X21.8399 Y17.3518
G01 X21.8218 Y17.3487
G01 X21.8038 Y17.3447
G01 X21.7086 Y17.3208
G01 X21.6821 Y17.3131
G01 X21.5810 Y17.2771
G01 X21.5638 Y17.2705
G01 X21.5470 Y17.2630
G01 X21.4583 Y17.2210
G01 X21.4338 Y17.2083
G01 X21.3416 Y17.1532
G01 X21.3185 Y17.1382
G01 X21.2322 Y17.0743
G01 X21.2177 Y17.0630
G01 X21.2038 Y17.0510
G01 X21.1590 Y17.0104
G01 X16.3900 Y17.0104
G01 X16.3716 Y17.0100
G01 X16.3093 Y17.0069
G01 X16.2910 Y17.0056
G01 X16.2727 Y17.0033
G01 X16.2110 Y16.9942
G01 X16.1929 Y16.9910
G01 X16.1749 Y16.9870
G01 X16.1145 Y16.9718
G01 X16.0967 Y16.9669
G01 X16.0792 Y16.9612
G01 X16.0205 Y16.9402
G01 X16.0034 Y16.9335
G01 X15.9865 Y16.9261
G01 X15.9302 Y16.8994
G01 X15.9137 Y16.8911
G01 X15.8977 Y16.8821
G01 X15.8442 Y16.8500
G01 X15.8287 Y16.8402
G01 X15.8136 Y16.8296
G01 X15.7636 Y16.7924
G01 X15.7491 Y16.7811
G01 X15.7351 Y16.7691
G01 X15.6889 Y16.7272
G01 X15.6756 Y16.7145
G01 X14.6339 Y15.6728
G01 X14.5736 Y15.6699
G01 X14.5552 Y15.6685
G01 X14.5370 Y15.6662
G01 X14.4308 Y15.6504
G01 X14.4038 Y15.6447
G01 X14.2997 Y15.6185
G01 X14.2734 Y15.6101
G01 X14.1810 Y15.5771
G01 X14.1638 Y15.5705
G01 X14.1470 Y15.5630
G01 X14.0583 Y15.5210
G01 X14.0418 Y15.5128
G01 X14.0258 Y15.5037
G01 X13.9416 Y15.4532
G01 X13.9261 Y15.4434
G01 X13.9110 Y15.4328
G01 X13.8322 Y15.3743
G01 X13.8177 Y15.3630
G01 X13.8038 Y15.3510
G01 X13.7243 Y15.2788
G01 X13.7050 Y15.2591
G01 X13.6391 Y15.1863
G01 X13.6271 Y15.1724
G01 X13.6158 Y15.1579
G01 X13.5658 Y15.0905
G01 X13.5658 Y16.9660
G01 X13.6409 Y17.0484
G01 X13.6529 Y17.0623
G01 X13.6642 Y17.0768
G01 X13.7227 Y17.1557
G01 X13.7333 Y17.1707
G01 X13.7431 Y17.1863
G01 X13.7936 Y17.2704
G01 X13.8026 Y17.2864
G01 X13.8109 Y17.3029
G01 X13.8529 Y17.3916
G01 X13.8603 Y17.4084
G01 X13.8670 Y17.4256
G01 X13.9000 Y17.5180
G01 X13.9058 Y17.5355
G01 X13.9107 Y17.5532
G01 X13.9345 Y17.6484
G01 X13.9386 Y17.6664
G01 X13.9417 Y17.6845
G01 X13.9561 Y17.7816
G01 X13.9584 Y17.7998
G01 X13.9597 Y17.8182
G01 X13.9645 Y17.9162
G01 X13.9650 Y17.9346
G01 X13.9645 Y17.9530
G01 X13.9597 Y18.0510
G01 X13.9584 Y18.0694
G01 X13.9561 Y18.0877
G01 X13.9403 Y18.1938
G01 X13.9367 Y18.2119
G01 X13.9326 Y18.2288
G01 X13.9822 Y18.1793
G01 X14.0420 Y18.1251
G01 X14.0636 Y18.1078
G01 X14.1211 Y18.0653
G01 X14.1442 Y18.0502
G01 X14.1977 Y18.0182
G01 X14.2137 Y18.0091
G01 X14.2302 Y18.0008
G01 X14.2949 Y17.9703
G01 X14.3205 Y17.9601
G01 X14.3792 Y17.9391
G01 X14.3967 Y17.9333
G01 X14.4145 Y17.9284
G01 X14.4839 Y17.9111
G01 X14.5110 Y17.9061
G01 X14.5818 Y17.8957
G01 X14.6093 Y17.8933
G01 X14.6716 Y17.8903
G01 X14.6900 Y17.8898
G01 X22.9515 Y17.8898
G01 X37.0950 Y3.7463
G01 X37.0950 Y2.9001
G01 X37.0955 Y2.8817
G01 X37.0968 Y2.8634
G01 X37.0991 Y2.8451
G01 X37.1022 Y2.8270
G01 X37.1086 Y2.8001
G01 X37.1139 Y2.7825
G01 X37.1201 Y2.7652
G01 X37.1310 Y2.7398
G01 X37.1437 Y2.7153
G01 X37.1532 Y2.6995
G01 X37.1634 Y2.6842
G01 X37.1744 Y2.6694
G01 X37.1860 Y2.6552
G01 X37.2048 Y2.6350
G01 X37.2251 Y2.6162
G01 X37.2393 Y2.6045
G01 X37.2541 Y2.5935
G01 X37.2772 Y2.5785
G01 X37.2932 Y2.5694
G01 X37.3097 Y2.5611
G01 X37.3265 Y2.5537
G01 X37.3437 Y2.5470
G01 X37.3700 Y2.5387
G01 X37.3968 Y2.5323
G01 X37.4150 Y2.5292
G01 X37.4332 Y2.5269
G01 X37.4516 Y2.5256
G01 X37.4700 Y2.5251
G01 X38.3162 Y2.5251
G01 X39.8556 Y0.9857
G01 X39.8689 Y0.9730
G01 X39.9151 Y0.9312
G01 X39.9291 Y0.9191
G01 X39.9436 Y0.9078
G01 X39.9936 Y0.8707
G01 X40.0087 Y0.8601
G01 X40.0242 Y0.8502
G01 X40.0777 Y0.8182
G01 X40.1019 Y0.8049
G01 X40.1749 Y0.7703
G01 X40.2005 Y0.7601
G01 X40.2592 Y0.7391
G01 X40.2767 Y0.7333
G01 X40.2945 Y0.7284
G01 X40.3639 Y0.7111
G01 X40.3910 Y0.7061
G01 X40.4527 Y0.6969
G01 X40.4710 Y0.6947
G01 X40.4893 Y0.6933
G01 X40.5516 Y0.6903
G01 X40.5700 Y0.6898
G01 X75.0992 Y0.6899
G01 X75.1707 Y0.6933
G01 X75.1890 Y0.6947
G01 X75.2073 Y0.6969
G01 X75.2781 Y0.7075
G01 X75.3051 Y0.7132
G01 X75.3655 Y0.7284
G01 X75.3833 Y0.7333
G01 X75.4008 Y0.7391
G01 X75.4595 Y0.7601
G01 X75.4766 Y0.7667
G01 X75.4935 Y0.7742
G01 X75.5498 Y0.8008
G01 X75.5663 Y0.8091
G01 X75.5823 Y0.8182
G01 X75.6358 Y0.8502
G01 X75.6513 Y0.8601
G01 X75.6664 Y0.8707
G01 X75.7164 Y0.9078
G01 X75.7309 Y0.9191
G01 X75.7449 Y0.9312
G01 X75.7911 Y0.9730
G01 X75.8044 Y0.9857
G01 X76.7955 Y1.9768
G01 X76.7832 Y1.8938
G01 X76.7809 Y1.8756
G01 X76.7796 Y1.8572
G01 X76.7748 Y1.7592
G01 X76.7744 Y1.7316
G01 X76.7796 Y1.6244
G01 X76.7809 Y1.6060
G01 X76.7832 Y1.5878
G01 X76.7976 Y1.4907
G01 X76.8007 Y1.4725
G01 X76.8048 Y1.4546
G01 X76.8286 Y1.3594
G01 X76.8335 Y1.3417
G01 X76.8393 Y1.3242
G01 X76.8724 Y1.2318
G01 X76.8790 Y1.2146
G01 X76.8864 Y1.1978
G01 X76.9284 Y1.1091
G01 X76.9367 Y1.0926
G01 X76.9458 Y1.0766
G01 X76.9962 Y0.9924
G01 X77.0060 Y0.9769
G01 X77.0166 Y0.9618
G01 X77.0751 Y0.8830
G01 X77.0864 Y0.8685
G01 X77.0985 Y0.8546
G01 X77.1706 Y0.7751
G01 X77.1904 Y0.7558
G01 X77.2631 Y0.6899
G01 X77.2770 Y0.6779
G01 X77.2915 Y0.6666
G01 X77.3704 Y0.6081
G01 X77.3854 Y0.5975
G01 X77.4010 Y0.5877
G01 X77.4851 Y0.5372
G01 X77.5011 Y0.5282
G01 X77.5176 Y0.5199
G01 X77.6147 Y0.4741
G01 X77.6403 Y0.4638
G01 X77.7327 Y0.4308
G01 X77.7502 Y0.4250
G01 X77.7679 Y0.4201
G01 X77.8721 Y0.3941
G01 X77.8992 Y0.3891
G01 X78.0054 Y0.3734
G01 X78.0329 Y0.3711
G01 X78.0932 Y0.3681
G01 X78.5404 Y-0.0791
G01 X78.5537 Y-0.0918
G01 X78.5999 Y-0.1336
G01 X78.6139 Y-0.1457
G01 X78.6284 Y-0.1570
G01 X78.6784 Y-0.1941
G01 X78.6935 Y-0.2047
G01 X78.7090 Y-0.2146
G01 X78.7625 Y-0.2466
G01 X78.7785 Y-0.2557
G01 X78.7950 Y-0.2640
G01 X78.8513 Y-0.2906
G01 X78.8682 Y-0.2981
G01 X78.8853 Y-0.3047
G01 X78.9440 Y-0.3257
G01 X78.9615 Y-0.3315
G01 X78.9793 Y-0.3364
G01 X79.0397 Y-0.3516
G01 X79.0577 Y-0.3556
G01 X79.0758 Y-0.3587
G01 X79.1375 Y-0.3679
G01 X79.1558 Y-0.3701
G01 X79.1741 Y-0.3715
G01 X79.2364 Y-0.3745
G01 X79.2548 Y-0.3750
G01 X84.7752 Y-0.3750
G01 X84.7936 Y-0.3745
G01 X84.8559 Y-0.3715
G01 X84.8742 Y-0.3701
G01 X84.8925 Y-0.3679
G01 X84.9542 Y-0.3587
G01 X84.9813 Y-0.3537
G01 X85.0507 Y-0.3364
G01 X85.0685 Y-0.3315
G01 X85.0860 Y-0.3257
G01 X85.1447 Y-0.3047
G01 X85.1618 Y-0.2981
G01 X85.1787 Y-0.2906
G01 X85.2350 Y-0.2640
G01 X85.2515 Y-0.2557
G01 X85.2675 Y-0.2466
G01 X85.3210 Y-0.2146
G01 X85.3365 Y-0.2047
G01 X85.3516 Y-0.1941
G01 X85.4090 Y-0.1514
G01 X85.4301 Y-0.1336
G01 X85.4763 Y-0.0918
G01 X85.4896 Y-0.0791
G01 X86.6694 Y1.1007
G01 X86.6821 Y1.1140
G01 X86.7240 Y1.1602
G01 X86.7360 Y1.1742
G01 X86.7473 Y1.1887
G01 X86.7844 Y1.2388
G01 X86.7950 Y1.2538
G01 X86.8049 Y1.2694
G01 X86.8369 Y1.3228
G01 X86.8460 Y1.3389
G01 X86.8543 Y1.3553
G01 X86.8810 Y1.4117
G01 X86.8884 Y1.4285
G01 X86.8950 Y1.4457
G01 X86.9160 Y1.5044
G01 X86.9218 Y1.5218
G01 X86.9267 Y1.5396
G01 X86.9419 Y1.6001
G01 X86.9459 Y1.6180
G01 X86.9491 Y1.6361
G01 X86.9582 Y1.6978
G01 X86.9605 Y1.7161
G01 X86.9618 Y1.7344
G01 X86.9649 Y1.7967
G01 X86.9653 Y1.8151
G01 X86.9652 Y71.7493
G01 X86.9618 Y71.8208
G01 X86.9605 Y71.8391
G01 X86.9582 Y71.8574
G01 X86.9491 Y71.9191
G01 X86.9459 Y71.9372
G01 X86.9419 Y71.9552
G01 X86.9267 Y72.0157
G01 X86.9218 Y72.0334
G01 X86.9160 Y72.0509
G01 X86.8950 Y72.1096
G01 X86.8884 Y72.1267
G01 X86.8810 Y72.1436
G01 X86.8543 Y72.1999
G01 X86.8460 Y72.2164
G01 X86.8369 Y72.2324
G01 X86.8049 Y72.2859
G01 X86.7950 Y72.3014
G01 X86.7844 Y72.3165
G01 X86.7473 Y72.3665
G01 X86.7360 Y72.3811
G01 X86.7240 Y72.3950
G01 X86.6758 Y72.4479
G01 X86.1553 Y72.9686
G01 X86.1553 Y79.8451
G01 X86.1549 Y79.8635
G01 X86.1518 Y79.9258
G01 X86.1505 Y79.9441
G01 X86.1482 Y79.9624
G01 X86.1391 Y80.0241
G01 X86.1359 Y80.0422
G01 X86.1319 Y80.0602
G01 X86.1167 Y80.1207
G01 X86.1118 Y80.1384
G01 X86.1060 Y80.1559
G01 X86.0818 Y80.2232
G01 X86.0710 Y80.2486
G01 X86.0443 Y80.3049
G01 X86.0360 Y80.3214
G01 X86.0269 Y80.3374
G01 X85.9949 Y80.3909
G01 X85.9850 Y80.4064
G01 X85.9744 Y80.4215
G01 X85.9373 Y80.4715
G01 X85.9260 Y80.4861
G01 X85.9140 Y80.5000
G01 X85.8658 Y80.5529
G01 X85.2544 Y81.1645
G01 X85.2411 Y81.1772
G01 X85.1949 Y81.2191
G01 X85.1809 Y81.2311
G01 X85.1664 Y81.2424
G01 X85.1164 Y81.2796
G01 X85.1013 Y81.2902
G01 X85.0858 Y81.3000
G01 X85.0323 Y81.3321
G01 X85.0163 Y81.3411
G01 X84.9998 Y81.3494
G01 X84.9435 Y81.3761
G01 X84.9266 Y81.3835
G01 X84.9095 Y81.3902
G01 X84.8508 Y81.4112
G01 X84.8333 Y81.4169
G01 X84.8155 Y81.4218
G01 X84.7551 Y81.4370
G01 X84.7371 Y81.4410
G01 X84.7190 Y81.4442
G01 X84.6573 Y81.4533
G01 X84.6390 Y81.4556
G01 X84.6207 Y81.4569
G01 X84.5584 Y81.4600
G01 X84.5400 Y81.4604
G01 X83.8863 Y81.4604
G01 X83.8334 Y81.4996
G01 X83.8184 Y81.5102
G01 X83.8028 Y81.5201
G01 X83.7191 Y81.5701
G01 X83.6946 Y81.5828
G01 X83.6147 Y81.6206
G01 X83.5894 Y81.6315
G01 X83.4976 Y81.6644
G01 X83.4801 Y81.6702
G01 X83.4624 Y81.6751
G01 X83.3767 Y81.6966
G01 X83.3587 Y81.7006
G01 X83.3406 Y81.7038
G01 X83.2441 Y81.7180
G01 X83.2201 Y81.7201
G01 X83.2350 Y81.7213
G01 X83.2532 Y81.7235
G01 X83.3497 Y81.7379
G01 X83.3767 Y81.7436
G01 X83.4624 Y81.7651
G01 X83.4801 Y81.7700
G01 X83.4976 Y81.7758
G01 X83.5894 Y81.8088
G01 X83.6147 Y81.8196
G01 X83.6946 Y81.8574
G01 X83.7110 Y81.8657
G01 X83.7270 Y81.8747
G01 X83.8028 Y81.9201
G01 X83.8184 Y81.9300
G01 X83.8334 Y81.9406
G01 X83.9043 Y81.9932
G01 X83.9189 Y82.0045
G01 X83.9328 Y82.0166
G01 X83.9982 Y82.0759
G01 X84.0116 Y82.0886
G01 X84.0243 Y82.1019
G01 X84.0836 Y82.1673
G01 X84.0956 Y82.1813
G01 X84.1069 Y82.1958
G01 X84.1595 Y82.2667
G01 X84.1701 Y82.2818
G01 X84.1800 Y82.2973
G01 X84.2254 Y82.3731
G01 X84.2344 Y82.3891
G01 X84.2427 Y82.4055
G01 X84.2805 Y82.4854
G01 X84.2914 Y82.5107
G01 X84.3243 Y82.6025
G01 X84.3301 Y82.6200
G01 X84.3350 Y82.6377
G01 X84.3565 Y82.7234
G01 X84.3605 Y82.7414
G01 X84.3636 Y82.7595
G01 X84.3766 Y82.8469
G01 X84.3796 Y82.8743
G01 X84.3845 Y82.9717
G01 X84.3850 Y82.9901
G01 X84.3845 Y83.0085
G01 X84.3802 Y83.0967
G01 X84.3789 Y83.1151
G01 X84.3766 Y83.1334
G01 X84.3636 Y83.2207
G01 X84.3605 Y83.2389
G01 X84.3565 Y83.2568
G01 X84.3350 Y83.3425
G01 X84.3301 Y83.3602
G01 X84.3243 Y83.3777
G01 X84.2946 Y83.4609
G01 X84.2879 Y83.4780
G01 X84.2805 Y83.4949
G01 X84.2427 Y83.5747
G01 X84.2344 Y83.5911
G01 X84.2254 Y83.6072
G01 X84.1800 Y83.6829
G01 X84.1701 Y83.6985
G01 X84.1595 Y83.7135
G01 X84.1069 Y83.7845
G01 X84.0956 Y83.7990
G01 X84.0836 Y83.8129
G01 X84.0243 Y83.8783
G01 X84.0116 Y83.8917
G01 X83.9982 Y83.9044
G01 X83.9328 Y83.9637
G01 X83.9189 Y83.9757
G01 X83.9043 Y83.9870
G01 X83.8334 Y84.0396
G01 X83.8184 Y84.0502
G01 X83.8028 Y84.0601
G01 X83.7270 Y84.1055
G01 X83.7110 Y84.1146
G01 X83.6946 Y84.1228
G01 X83.6147 Y84.1606
G01 X83.5979 Y84.1681
G01 X83.5807 Y84.1747
G01 X83.4976 Y84.2044
G01 X83.4801 Y84.2102
G01 X83.4624 Y84.2151
G01 X83.3767 Y84.2366
G01 X83.3587 Y84.2406
G01 X83.3406 Y84.2438
G01 X83.2532 Y84.2567
G01 X83.2350 Y84.2590
G01 X83.2201 Y84.2601
G01 X83.2350 Y84.2613
G01 X83.2532 Y84.2635
G01 X83.3497 Y84.2779
G01 X83.3767 Y84.2836
G01 X83.4624 Y84.3051
G01 X83.4801 Y84.3100
G01 X83.4976 Y84.3158
G01 X83.5894 Y84.3488
G01 X83.6147 Y84.3596
G01 X83.6946 Y84.3974
G01 X83.7110 Y84.4057
G01 X83.7270 Y84.4147
G01 X83.8028 Y84.4601
G01 X83.8184 Y84.4700
G01 X83.8334 Y84.4806
G01 X83.9043 Y84.5332
G01 X83.9189 Y84.5445
G01 X83.9328 Y84.5566
G01 X83.9982 Y84.6159
G01 X84.0116 Y84.6286
G01 X84.0243 Y84.6419
G01 X84.0836 Y84.7073
G01 X84.0956 Y84.7213
G01 X84.1069 Y84.7358
G01 X84.1595 Y84.8067
G01 X84.1751 Y84.8295
G01 X84.2254 Y84.9131
G01 X84.2344 Y84.9291
G01 X84.2427 Y84.9455
G01 X84.2805 Y85.0254
G01 X84.2879 Y85.0422
G01 X84.2946 Y85.0594
G01 X84.3243 Y85.1425
G01 X84.3301 Y85.1600
G01 X84.3350 Y85.1777
G01 X84.3565 Y85.2634
G01 X84.3605 Y85.2814
G01 X84.3636 Y85.2995
G01 X84.3766 Y85.3869
G01 X84.3789 Y85.4051
G01 X84.3802 Y85.4235
G01 X84.3845 Y85.5117
G01 X84.3850 Y85.5301
G01 X84.3845 Y85.5485
G01 X84.3802 Y85.6367
G01 X84.3789 Y85.6551
G01 X84.3766 Y85.6734
G01 X84.3636 Y85.7607
G01 X84.3605 Y85.7789
G01 X84.3565 Y85.7968
G01 X84.3350 Y85.8825
G01 X84.3301 Y85.9002
G01 X84.3243 Y85.9177
G01 X84.2946 Y86.0009
G01 X84.2879 Y86.0180
G01 X84.2805 Y86.0349
G01 X84.2427 Y86.1147
G01 X84.2344 Y86.1311
G01 X84.2254 Y86.1472
G01 X84.1800 Y86.2229
G01 X84.1701 Y86.2385
G01 X84.1595 Y86.2535
G01 X84.1069 Y86.3245
G01 X84.0956 Y86.3390
G01 X84.0836 Y86.3529
G01 X84.0243 Y86.4183
G01 X84.0116 Y86.4317
G01 X83.9982 Y86.4444
G01 X83.9328 Y86.5037
G01 X83.9189 Y86.5157
G01 X83.9043 Y86.5270
G01 X83.8334 Y86.5796
G01 X83.8184 Y86.5902
G01 X83.8028 Y86.6001
G01 X83.7270 Y86.6455
G01 X83.7110 Y86.6546
G01 X83.6946 Y86.6628
G01 X83.6147 Y86.7006
G01 X83.5979 Y86.7081
G01 X83.5807 Y86.7147
G01 X83.4976 Y86.7444
G01 X83.4801 Y86.7502
G01 X83.4624 Y86.7551
G01 X83.3767 Y86.7766
G01 X83.3587 Y86.7806
G01 X83.3406 Y86.7838
G01 X83.2532 Y86.7967
G01 X83.2350 Y86.7990
G01 X83.2201 Y86.8001
G01 X83.2350 Y86.8013
G01 X83.2532 Y86.8035
G01 X83.3497 Y86.8179
G01 X83.3767 Y86.8236
G01 X83.4624 Y86.8451
G01 X83.4801 Y86.8500
G01 X83.4976 Y86.8558
G01 X83.5894 Y86.8888
G01 X83.6147 Y86.8996
G01 X83.6946 Y86.9374
G01 X83.7110 Y86.9457
G01 X83.7270 Y86.9547
G01 X83.8028 Y87.0001
G01 X83.8184 Y87.0100
G01 X83.8334 Y87.0206
G01 X83.9043 Y87.0732
G01 X83.9189 Y87.0845
G01 X83.9328 Y87.0966
G01 X84.0050 Y87.1621
G01 X84.0243 Y87.1819
G01 X84.0836 Y87.2473
G01 X84.0956 Y87.2613
G01 X84.1069 Y87.2758
G01 X84.1595 Y87.3467
G01 X84.1751 Y87.3695
G01 X84.2254 Y87.4531
G01 X84.2344 Y87.4691
G01 X84.2427 Y87.4855
G01 X84.2805 Y87.5654
G01 X84.2879 Y87.5822
G01 X84.2946 Y87.5994
G01 X84.3243 Y87.6825
G01 X84.3301 Y87.7000
G01 X84.3350 Y87.7177
G01 X84.3565 Y87.8034
G01 X84.3605 Y87.8214
G01 X84.3636 Y87.8395
G01 X84.3766 Y87.9269
G01 X84.3789 Y87.9451
G01 X84.3802 Y87.9635
G01 X84.3845 Y88.0517
G01 X84.3850 Y88.0701
G01 X84.3845 Y88.0885
G01 X84.3802 Y88.1767
G01 X84.3789 Y88.1951
G01 X84.3766 Y88.2134
G01 X84.3636 Y88.3007
G01 X84.3605 Y88.3189
G01 X84.3565 Y88.3368
G01 X84.3350 Y88.4225
G01 X84.3301 Y88.4402
G01 X84.3243 Y88.4577
G01 X84.2946 Y88.5409
G01 X84.2879 Y88.5580
G01 X84.2805 Y88.5749
G01 X84.2427 Y88.6547
G01 X84.2344 Y88.6711
G01 X84.2254 Y88.6872
G01 X84.1800 Y88.7629
G01 X84.1701 Y88.7785
G01 X84.1595 Y88.7935
G01 X84.1069 Y88.8645
G01 X84.0956 Y88.8790
G01 X84.0836 Y88.8929
G01 X84.0243 Y88.9583
G01 X84.0116 Y88.9717
G01 X83.9982 Y88.9844
G01 X83.9328 Y89.0437
G01 X83.9189 Y89.0557
G01 X83.9043 Y89.0670
G01 X83.8334 Y89.1196
G01 X83.8184 Y89.1302
G01 X83.8028 Y89.1401
G01 X83.7270 Y89.1855
G01 X83.7110 Y89.1946
G01 X83.6946 Y89.2028
G01 X83.6147 Y89.2406
G01 X83.5979 Y89.2481
G01 X83.5807 Y89.2547
G01 X83.4976 Y89.2844
G01 X83.4801 Y89.2902
G01 X83.4624 Y89.2951
G01 X83.3767 Y89.3166
G01 X83.3587 Y89.3206
G01 X83.3406 Y89.3238
G01 X83.2532 Y89.3367
G01 X83.2350 Y89.3390
G01 X83.2201 Y89.3401
G01 X83.2441 Y89.3423
G01 X83.3406 Y89.3565
G01 X83.3587 Y89.3596
G01 X83.3767 Y89.3636
G01 X83.4624 Y89.3851
G01 X83.4801 Y89.3900
G01 X83.4976 Y89.3958
G01 X83.5807 Y89.4255
G01 X83.5979 Y89.4322
G01 X83.6147 Y89.4396
G01 X83.6946 Y89.4774
G01 X83.7110 Y89.4857
G01 X83.7270 Y89.4947
G01 X83.8028 Y89.5401
G01 X83.8259 Y89.5552
G01 X83.9043 Y89.6132
G01 X83.9189 Y89.6245
G01 X83.9328 Y89.6366
G01 X83.9982 Y89.6959
G01 X84.0116 Y89.7086
G01 X84.0243 Y89.7219
G01 X84.0836 Y89.7873
G01 X84.0956 Y89.8013
G01 X84.1069 Y89.8158
G01 X84.1595 Y89.8867
G01 X84.1701 Y89.9018
G01 X84.1800 Y89.9173
G01 X84.2254 Y89.9931
G01 X84.2344 Y90.0091
G01 X84.2427 Y90.0255
G01 X84.2843 Y90.1137
G01 X84.2946 Y90.1394
G01 X84.3243 Y90.2225
G01 X84.3301 Y90.2400
G01 X84.3350 Y90.2577
G01 X84.3565 Y90.3434
G01 X84.3605 Y90.3614
G01 X84.3636 Y90.3795
G01 X84.3766 Y90.4669
G01 X84.3789 Y90.4851
G01 X84.3802 Y90.5035
G01 X84.3845 Y90.5917
G01 X84.3850 Y90.6101
G01 X84.3845 Y90.6285
G01 X84.3802 Y90.7167
G01 X84.3789 Y90.7351
G01 X84.3766 Y90.7534
G01 X84.3636 Y90.8407
G01 X84.3605 Y90.8589
G01 X84.3565 Y90.8768
G01 X84.3350 Y90.9625
G01 X84.3301 Y90.9802
G01 X84.3243 Y90.9977
G01 X84.2946 Y91.0809
G01 X84.2879 Y91.0980
G01 X84.2805 Y91.1149
G01 X84.2427 Y91.1947
G01 X84.2344 Y91.2111
G01 X84.2254 Y91.2272
G01 X84.1800 Y91.3029
G01 X84.1701 Y91.3185
G01 X84.1595 Y91.3335
G01 X84.1069 Y91.4045
G01 X84.0956 Y91.4190
G01 X84.0836 Y91.4329
G01 X84.0243 Y91.4983
G01 X84.0050 Y91.5181
G01 X83.9328 Y91.5837
G01 X83.9189 Y91.5957
G01 X83.9043 Y91.6070
G01 X83.8334 Y91.6596
G01 X83.8184 Y91.6702
G01 X83.8028 Y91.6801
G01 X83.7270 Y91.7255
G01 X83.7029 Y91.7388
G01 X83.6064 Y91.7844
G01 X83.5807 Y91.7947
G01 X83.4889 Y91.8274
G01 X83.4624 Y91.8351
G01 X83.3767 Y91.8566
G01 X83.3587 Y91.8606
G01 X83.3406 Y91.8638
G01 X83.2641 Y91.8751
G01 X84.0100 Y91.8751
G01 X84.0284 Y91.8756
G01 X84.0468 Y91.8769
G01 X84.0741 Y91.8806
G01 X84.0922 Y91.8842
G01 X84.1100 Y91.8887
G01 X84.1363 Y91.8970
G01 X84.1620 Y91.9073
G01 X84.1786 Y91.9152
G01 X84.2028 Y91.9285
G01 X84.2183 Y91.9383
G01 X84.2407 Y91.9545
G01 X84.2549 Y91.9662
G01 X84.2686 Y91.9785
G01 X84.2816 Y91.9915
G01 X84.2999 Y92.0122
G01 X84.3112 Y92.0267
G01 X84.3268 Y92.0495
G01 X84.3363 Y92.0653
G01 X84.3450 Y92.0815
G01 X84.3565 Y92.1066
G01 X84.3631 Y92.1238
G01 X84.3689 Y92.1413
G01 X84.3738 Y92.1590
G01 X84.3778 Y92.1770
G01 X84.3809 Y92.1951
G01 X84.3832 Y92.2134
G01 X84.3849 Y92.2409
G01 X84.3850 Y94.0501
G01 X84.3845 Y94.0685
G01 X84.3832 Y94.0869
G01 X84.3809 Y94.1051
G01 X84.3778 Y94.1233
G01 X84.3738 Y94.1412
G01 X84.3689 Y94.1590
G01 X84.3631 Y94.1765
G01 X84.3565 Y94.1936
G01 X84.3490 Y94.2105
G01 X84.3407 Y94.2269
G01 X84.3316 Y94.2429
G01 X84.3218 Y94.2585
G01 X84.3112 Y94.2735
G01 X84.2999 Y94.2880
G01 X84.2879 Y94.3020
G01 X84.2752 Y94.3153
G01 X84.2618 Y94.3280
G01 X84.2479 Y94.3400
G01 X84.2334 Y94.3513
G01 X84.2106 Y94.3669
G01 X84.1868 Y94.3808
G01 X84.1703 Y94.3891
G01 X84.1535 Y94.3966
G01 X84.1363 Y94.4032
G01 X84.1189 Y94.4090
G01 X84.0922 Y94.4160
G01 X84.0741 Y94.4196
G01 X84.0559 Y94.4223
G01 X84.0376 Y94.4241
G01 X84.0192 Y94.4250
G01 X80.0008 Y94.4250
G01 X79.9732 Y94.4233
G01 X79.9459 Y94.4196
G01 X79.9189 Y94.4139
G01 X79.8924 Y94.4062
G01 X79.8665 Y94.3966
G01 X79.8497 Y94.3891
G01 X79.8332 Y94.3808
G01 X79.8094 Y94.3669
G01 X79.7866 Y94.3513
G01 X79.7721 Y94.3400
G01 X79.7582 Y94.3280
G01 X79.7384 Y94.3087
G01 X79.7201 Y94.2880
G01 X79.7034 Y94.2660
G01 X79.6884 Y94.2429
G01 X79.6750 Y94.2187
G01 X79.6635 Y94.1936
G01 X79.6569 Y94.1765
G01 X79.6516 Y94.1604
G01 X77.7085 Y94.1604
G01 X72.7894 Y99.0795
G01 X72.7761 Y99.0922
G01 X72.7299 Y99.1341
G01 X72.7159 Y99.1461
G01 X72.7014 Y99.1574
G01 X72.6514 Y99.1946
G01 X72.6363 Y99.2052
G01 X72.6208 Y99.2150
G01 X72.5673 Y99.2471
G01 X72.5513 Y99.2561
G01 X72.5348 Y99.2644
G01 X72.4785 Y99.2911
G01 X72.4616 Y99.2985
G01 X72.4445 Y99.3052
G01 X72.3858 Y99.3262
G01 X72.3683 Y99.3319
G01 X72.3505 Y99.3368
G01 X72.2901 Y99.3520
G01 X72.2721 Y99.3560
G01 X72.2540 Y99.3592
G01 X72.1923 Y99.3683
G01 X72.1740 Y99.3706
G01 X72.1557 Y99.3719
G01 X72.0842 Y99.3753
G01 X13.6550 Y99.3754
G01 X13.6366 Y99.3750
G01 X13.5743 Y99.3719
G01 X13.5560 Y99.3706
G01 X13.5377 Y99.3683
G01 X13.4669 Y99.3577
G01 X13.4399 Y99.3520
G01 X13.3795 Y99.3368
G01 X13.3529 Y99.3292
G01 X13.2855 Y99.3052
G01 X13.2599 Y99.2949
G01 X13.1952 Y99.2644
G01 X13.1787 Y99.2561
G01 X13.1627 Y99.2471
G01 X13.1092 Y99.2150
G01 X13.0937 Y99.2052
G01 X13.0786 Y99.1946
G01 X13.0286 Y99.1574
G01 X13.0141 Y99.1461
G01 X13.0001 Y99.1341
G01 X12.9539 Y99.0922
G01 X12.9406 Y99.0795
G01 X10.4692 Y96.6079
G01 X10.4210 Y96.5550
G01 X10.4090 Y96.5411
G01 X10.3977 Y96.5265
G01 X10.3605 Y96.4765
G01 X10.3500 Y96.4614
G01 X10.3401 Y96.4459
G01 X10.3081 Y96.3924
G01 X10.2990 Y96.3764
G01 X10.2907 Y96.3599
G01 X10.2640 Y96.3036
G01 X10.2532 Y96.2782
G01 X10.2290 Y96.2109
G01 X10.2232 Y96.1934
G01 X10.2183 Y96.1757
G01 X10.2031 Y96.1152
G01 X10.1974 Y96.0882
G01 X10.1856 Y96.0083
G01 X10.1832 Y95.9808
G01 X10.1801 Y95.9185
G01 X10.1797 Y95.9001
G01 X10.1797 Y94.8380
G01 X10.1600 Y94.8233
G01 X10.1458 Y94.8116
G01 X10.0761 Y94.7486
G01 X10.0563 Y94.7294
G01 X9.9932 Y94.6598
G01 X9.9811 Y94.6459
G01 X9.9698 Y94.6314
G01 X9.9139 Y94.5558
G01 X9.8989 Y94.5327
G01 X9.8553 Y94.4600
G01 X9.8463 Y94.4440
G01 X9.8380 Y94.4275
G01 X9.8017 Y94.3509
G01 X9.7943 Y94.3341
G01 X9.7877 Y94.3169
G01 X9.7591 Y94.2371
G01 X9.7533 Y94.2197
G01 X9.7484 Y94.2019
G01 X9.7278 Y94.1197
G01 X9.7238 Y94.1018
G01 X9.7207 Y94.0836
G01 X9.7082 Y93.9998
G01 X9.7060 Y93.9815
G01 X9.7046 Y93.9632
G01 X9.7005 Y93.8785
G01 X9.7000 Y93.8601
G01 X9.7005 Y93.8417
G01 X9.7046 Y93.7571
G01 X9.7060 Y93.7387
G01 X9.7082 Y93.7204
G01 X9.7207 Y93.6366
G01 X9.7238 Y93.6185
G01 X9.7278 Y93.6005
G01 X9.7484 Y93.5183
G01 X9.7561 Y93.4918
G01 X9.7877 Y93.4033
G01 X9.7943 Y93.3861
G01 X9.8017 Y93.3693
G01 X9.8380 Y93.2927
G01 X9.8463 Y93.2762
G01 X9.8553 Y93.2602
G01 X9.8989 Y93.1875
G01 X9.9087 Y93.1720
G01 X9.9193 Y93.1569
G01 X9.9698 Y93.0889
G01 X9.9811 Y93.0744
G01 X9.9932 Y93.0604
G01 X10.0501 Y92.9976
G01 X10.0628 Y92.9843
G01 X10.0761 Y92.9716
G01 X10.1389 Y92.9147
G01 X10.1528 Y92.9027
G01 X10.1674 Y92.8913
G01 X10.2354 Y92.8409
G01 X10.2505 Y92.8303
G01 X10.2660 Y92.8204
G01 X10.3387 Y92.7768
G01 X10.3629 Y92.7635
G01 X10.4478 Y92.7233
G01 X10.4646 Y92.7158
G01 X10.4818 Y92.7092
G01 X10.5616 Y92.6806
G01 X10.5791 Y92.6749
G01 X10.5968 Y92.6699
G01 X10.6790 Y92.6493
G01 X10.6970 Y92.6453
G01 X10.7151 Y92.6422
G01 X10.8080 Y92.6285
G01 X10.8356 Y92.6261
G01 X10.9202 Y92.6220
G01 X10.9386 Y92.6215
G01 X11.4706 Y92.6216
G01 X11.5644 Y92.6261
G01 X11.5828 Y92.6275
G01 X11.6011 Y92.6297
G01 X11.6849 Y92.6422
G01 X11.7120 Y92.6472
G01 X11.8032 Y92.6699
G01 X11.8209 Y92.6749
G01 X11.8384 Y92.6806
G01 X11.9182 Y92.7092
G01 X11.9354 Y92.7158
G01 X11.9522 Y92.7233
G01 X12.0288 Y92.7595
G01 X12.0453 Y92.7678
G01 X12.0613 Y92.7768
G01 X12.1340 Y92.8204
G01 X12.1495 Y92.8303
G01 X12.1646 Y92.8409
G01 X12.2326 Y92.8913
G01 X12.2472 Y92.9027
G01 X12.2611 Y92.9147
G01 X12.3306 Y92.9779
G01 X12.3499 Y92.9976
G01 X12.4068 Y93.0604
G01 X12.4189 Y93.0744
G01 X12.4302 Y93.0889
G01 X12.4807 Y93.1569
G01 X12.4913 Y93.1720
G01 X12.5011 Y93.1875
G01 X12.5447 Y93.2602
G01 X12.5537 Y93.2762
G01 X12.5620 Y93.2927
G01 X12.5983 Y93.3693
G01 X12.6091 Y93.3947
G01 X12.6409 Y93.4831
G01 X12.6467 Y93.5006
G01 X12.6516 Y93.5183
G01 X12.6722 Y93.6005
G01 X12.6762 Y93.6185
G01 X12.6793 Y93.6366
G01 X12.6918 Y93.7204
G01 X12.6948 Y93.7479
G01 X12.6995 Y93.8417
G01 X12.7000 Y93.8601
G01 X12.6995 Y93.8785
G01 X12.6954 Y93.9632
G01 X12.6940 Y93.9815
G01 X12.6918 Y93.9998
G01 X12.6793 Y94.0836
G01 X12.6743 Y94.1108
G01 X12.6516 Y94.2019
G01 X12.6467 Y94.2197
G01 X12.6409 Y94.2371
G01 X12.6123 Y94.3169
G01 X12.6057 Y94.3341
G01 X12.5983 Y94.3509
G01 X12.5620 Y94.4275
G01 X12.5537 Y94.4440
G01 X12.5447 Y94.4600
G01 X12.4963 Y94.5405
G01 X12.4807 Y94.5633
G01 X12.4302 Y94.6314
G01 X12.4189 Y94.6459
G01 X12.4068 Y94.6598
G01 X12.3436 Y94.7294
G01 X12.3239 Y94.7486
G01 X12.2542 Y94.8116
G01 X12.2400 Y94.8233
G01 X12.2003 Y94.8529
G01 X12.2003 Y95.4816
G01 X14.0735 Y97.3548
G01 X71.6565 Y97.3548
G01 X75.8612 Y93.1501
G01 X75.1756 Y92.4645
G01 X75.1629 Y92.4512
G01 X75.1210 Y92.4050
G01 X75.1090 Y92.3911
G01 X75.0977 Y92.3765
G01 X75.0605 Y92.3265
G01 X75.0500 Y92.3114
G01 X75.0401 Y92.2959
G01 X75.0081 Y92.2424
G01 X74.9990 Y92.2264
G01 X74.9907 Y92.2099
G01 X74.9640 Y92.1536
G01 X74.9566 Y92.1367
G01 X74.9500 Y92.1196
G01 X74.9290 Y92.0609
G01 X74.9232 Y92.0434
G01 X74.9183 Y92.0257
G01 X74.9031 Y91.9652
G01 X74.8991 Y91.9472
G01 X74.8959 Y91.9291
G01 X74.8856 Y91.8583
G01 X74.8832 Y91.8308
G01 X74.8801 Y91.7685
G01 X74.8797 Y91.7501
G01 X74.8797 Y84.3201
G01 X74.8801 Y84.3017
G01 X74.8832 Y84.2394
G01 X74.8845 Y84.2211
G01 X74.8868 Y84.2028
G01 X74.8959 Y84.1411
G01 X74.8991 Y84.1230
G01 X74.9031 Y84.1051
G01 X74.9183 Y84.0446
G01 X74.9232 Y84.0268
G01 X74.9290 Y84.0094
G01 X74.9500 Y83.9507
G01 X74.9566 Y83.9335
G01 X74.9640 Y83.9167
G01 X74.9907 Y83.8603
G01 X74.9990 Y83.8439
G01 X75.0081 Y83.8278
G01 X75.0401 Y83.7744
G01 X75.0552 Y83.7512
G01 X75.0977 Y83.6937
G01 X75.1090 Y83.6792
G01 X75.1210 Y83.6652
G01 X75.1692 Y83.6123
G01 X75.9297 Y82.8516
G01 X75.9297 Y81.9981
G01 X75.9163 Y82.0032
G01 X75.8989 Y82.0090
G01 X75.8811 Y82.0139
G01 X75.8632 Y82.0179
G01 X75.8359 Y82.0223
G01 X75.8176 Y82.0241
G01 X75.7992 Y82.0250
G01 X74.0900 Y82.0251
G01 X74.0624 Y82.0241
G01 X74.0441 Y82.0223
G01 X74.0168 Y82.0179
G01 X73.9900 Y82.0115
G01 X73.9637 Y82.0032
G01 X73.9380 Y81.9929
G01 X73.9132 Y81.9808
G01 X73.8894 Y81.9669
G01 X73.8741 Y81.9567
G01 X73.8521 Y81.9400
G01 X73.8382 Y81.9280
G01 X73.8184 Y81.9087
G01 X73.8001 Y81.8880
G01 X73.7888 Y81.8735
G01 X73.7732 Y81.8507
G01 X73.7593 Y81.8269
G01 X73.7510 Y81.8104
G01 X72.9674 Y81.8104
G01 X72.9849 Y81.8342
G01 X72.9951 Y81.8495
G01 X73.0454 Y81.9331
G01 X73.0587 Y81.9573
G01 X73.1005 Y82.0454
G01 X73.1079 Y82.0622
G01 X73.1146 Y82.0794
G01 X73.1473 Y82.1712
G01 X73.1550 Y82.1977
G01 X73.1765 Y82.2834
G01 X73.1805 Y82.3014
G01 X73.1836 Y82.3195
G01 X73.1966 Y82.4069
G01 X73.1989 Y82.4251
G01 X73.2002 Y82.4435
G01 X73.2049 Y82.5409
G01 X73.2045 Y82.5685
G01 X73.2002 Y82.6567
G01 X73.1989 Y82.6751
G01 X73.1966 Y82.6934
G01 X73.1836 Y82.7807
G01 X73.1805 Y82.7989
G01 X73.1765 Y82.8168
G01 X73.1550 Y82.9025
G01 X73.1501 Y82.9202
G01 X73.1443 Y82.9377
G01 X73.1146 Y83.0209
G01 X73.1079 Y83.0380
G01 X73.1005 Y83.0549
G01 X73.0627 Y83.1347
G01 X73.0544 Y83.1511
G01 X73.0454 Y83.1672
G01 X73.0000 Y83.2429
G01 X72.9901 Y83.2585
G01 X72.9795 Y83.2735
G01 X72.9269 Y83.3445
G01 X72.9097 Y83.3660
G01 X72.8380 Y83.4451
G01 X72.8250 Y83.4581
G01 X72.7814 Y83.4977
G01 X72.7668 Y83.5382
G01 X72.7598 Y83.5552
G01 X72.7253 Y83.6282
G01 X72.7119 Y83.6524
G01 X72.6751 Y83.7137
G01 X72.6594 Y83.7365
G01 X72.6223 Y83.7865
G01 X72.6110 Y83.8011
G01 X72.5990 Y83.8150
G01 X72.5508 Y83.8679
G01 X69.4627 Y86.9562
G01 X69.4596 Y87.0159
G01 X69.4578 Y87.0342
G01 X69.4422 Y87.1398
G01 X69.4365 Y87.1668
G01 X69.4127 Y87.2614
G01 X69.4043 Y87.2877
G01 X69.3746 Y87.3709
G01 X69.3679 Y87.3880
G01 X69.3605 Y87.4049
G01 X69.3187 Y87.4930
G01 X69.3054 Y87.5172
G01 X69.2600 Y87.5929
G01 X69.2501 Y87.6085
G01 X69.2395 Y87.6235
G01 X69.1869 Y87.6945
G01 X69.1756 Y87.7090
G01 X69.1636 Y87.7229
G01 X69.1043 Y87.7883
G01 X69.0916 Y87.8017
G01 X69.0782 Y87.8144
G01 X69.0128 Y87.8737
G01 X68.9917 Y87.8915
G01 X68.9059 Y87.9550
G01 X68.8828 Y87.9701
G01 X68.8070 Y88.0155
G01 X68.7910 Y88.0246
G01 X68.7746 Y88.0328
G01 X68.6947 Y88.0706
G01 X68.6779 Y88.0781
G01 X68.6607 Y88.0847
G01 X68.5776 Y88.1144
G01 X68.5601 Y88.1202
G01 X68.5424 Y88.1251
G01 X68.4567 Y88.1466
G01 X68.4387 Y88.1506
G01 X68.4206 Y88.1538
G01 X68.3332 Y88.1667
G01 X68.3150 Y88.1690
G01 X68.2966 Y88.1703
G01 X68.2084 Y88.1747
G01 X68.1900 Y88.1751
G01 X67.9808 Y88.1750
G01 X67.8834 Y88.1703
G01 X67.8559 Y88.1680
G01 X67.7503 Y88.1523
G01 X67.7233 Y88.1466
G01 X67.6376 Y88.1251
G01 X67.6199 Y88.1202
G01 X67.6024 Y88.1144
G01 X67.5193 Y88.0847
G01 X67.5021 Y88.0781
G01 X67.4853 Y88.0706
G01 X67.4054 Y88.0328
G01 X67.3890 Y88.0246
G01 X67.3730 Y88.0155
G01 X67.2972 Y87.9701
G01 X67.2816 Y87.9602
G01 X67.2666 Y87.9496
G01 X67.1883 Y87.8915
G01 X67.1672 Y87.8737
G01 X67.1018 Y87.8144
G01 X67.0884 Y87.8017
G01 X67.0757 Y87.7883
G01 X67.0164 Y87.7229
G01 X67.0044 Y87.7090
G01 X66.9931 Y87.6945
G01 X66.9405 Y87.6235
G01 X66.9299 Y87.6085
G01 X66.9200 Y87.5929
G01 X66.8746 Y87.5172
G01 X66.8650 Y87.5001
G01 X66.8649 Y87.9093
G01 X66.8640 Y87.9277
G01 X66.8609 Y87.9551
G01 X66.8559 Y87.9823
G01 X66.8514 Y88.0001
G01 X66.8461 Y88.0177
G01 X66.8399 Y88.0351
G01 X66.8290 Y88.0605
G01 X66.8207 Y88.0769
G01 X66.8116 Y88.0929
G01 X66.8018 Y88.1085
G01 X66.7912 Y88.1235
G01 X66.7799 Y88.1380
G01 X66.7616 Y88.1587
G01 X66.7486 Y88.1717
G01 X66.7349 Y88.1841
G01 X66.7207 Y88.1957
G01 X66.7059 Y88.2067
G01 X66.6906 Y88.2169
G01 X66.6748 Y88.2264
G01 X66.6586 Y88.2351
G01 X66.6420 Y88.2429
G01 X66.6163 Y88.2532
G01 X66.5989 Y88.2590
G01 X66.5811 Y88.2639
G01 X66.5632 Y88.2679
G01 X66.5450 Y88.2711
G01 X66.5176 Y88.2741
G01 X66.4992 Y88.2750
G01 X64.6900 Y88.2751
G01 X64.6624 Y88.2741
G01 X64.6350 Y88.2711
G01 X64.6078 Y88.2660
G01 X64.5811 Y88.2590
G01 X64.5550 Y88.2500
G01 X64.5297 Y88.2391
G01 X64.5052 Y88.2264
G01 X64.4849 Y88.2140
G01 X63.5303 Y89.1686
G01 X63.5303 Y92.4253
G01 X63.5476 Y92.4261
G01 X63.5659 Y92.4279
G01 X63.5841 Y92.4306
G01 X63.6022 Y92.4342
G01 X63.6200 Y92.4387
G01 X63.6376 Y92.4440
G01 X63.6550 Y92.4502
G01 X63.6720 Y92.4573
G01 X63.6886 Y92.4652
G01 X63.7048 Y92.4738
G01 X63.7206 Y92.4833
G01 X63.7359 Y92.4935
G01 X63.7507 Y92.5045
G01 X63.7649 Y92.5162
G01 X63.7852 Y92.5350
G01 X63.7979 Y92.5483
G01 X63.8099 Y92.5622
G01 X63.8212 Y92.5767
G01 X63.8318 Y92.5918
G01 X63.8463 Y92.6153
G01 X63.8550 Y92.6315
G01 X63.8628 Y92.6482
G01 X63.8699 Y92.6652
G01 X63.8761 Y92.6825
G01 X63.8814 Y92.7001
G01 X63.8859 Y92.7180
G01 X63.8895 Y92.7360
G01 X63.8922 Y92.7542
G01 X63.8940 Y92.7725
G01 X63.8949 Y92.7909
G01 X63.8950 Y94.8001
G01 X63.8945 Y94.8185
G01 X63.8932 Y94.8369
G01 X63.8895 Y94.8642
G01 X63.8838 Y94.8912
G01 X63.8761 Y94.9177
G01 X63.8699 Y94.9351
G01 X63.8628 Y94.9521
G01 X63.8507 Y94.9769
G01 X63.8368 Y95.0007
G01 X63.8212 Y95.0235
G01 X63.8040 Y95.0451
G01 X63.7852 Y95.0653
G01 X63.7718 Y95.0780
G01 X63.7507 Y95.0957
G01 X63.7283 Y95.1119
G01 X63.7048 Y95.1264
G01 X63.6886 Y95.1351
G01 X63.6635 Y95.1466
G01 X63.6463 Y95.1532
G01 X63.6289 Y95.1590
G01 X63.6022 Y95.1660
G01 X63.5841 Y95.1696
G01 X63.5659 Y95.1723
G01 X63.5476 Y95.1741
G01 X63.5292 Y95.1750
G01 X61.5200 Y95.1751
G01 X61.4924 Y95.1741
G01 X61.4650 Y95.1711
G01 X61.4378 Y95.1660
G01 X61.4200 Y95.1615
G01 X61.3937 Y95.1532
G01 X61.3680 Y95.1429
G01 X61.3432 Y95.1308
G01 X61.3194 Y95.1169
G01 X61.2966 Y95.1013
G01 X61.2751 Y95.0841
G01 X61.2614 Y95.0717
G01 X61.2421 Y95.0520
G01 X61.2244 Y95.0308
G01 X61.2082 Y95.0085
G01 X61.1937 Y94.9850
G01 X61.1810 Y94.9605
G01 X61.1701 Y94.9351
G01 X61.1639 Y94.9177
G01 X61.1586 Y94.9001
G01 X61.1522 Y94.8733
G01 X61.1491 Y94.8551
G01 X61.1468 Y94.8369
G01 X61.1455 Y94.8185
G01 X61.1450 Y94.8001
G01 X61.1450 Y92.8001
G01 X61.1460 Y92.7725
G01 X61.1478 Y92.7542
G01 X61.1505 Y92.7360
G01 X61.1541 Y92.7180
G01 X61.1586 Y92.7001
G01 X61.1639 Y92.6825
G01 X61.1735 Y92.6566
G01 X61.1810 Y92.6398
G01 X61.1893 Y92.6233
G01 X61.2032 Y92.5995
G01 X61.2134 Y92.5842
G01 X61.2244 Y92.5694
G01 X61.2421 Y92.5483
G01 X61.2548 Y92.5350
G01 X61.2682 Y92.5223
G01 X61.2821 Y92.5102
G01 X61.2966 Y92.4989
G01 X61.3194 Y92.4833
G01 X61.3352 Y92.4738
G01 X61.3514 Y92.4652
G01 X61.3765 Y92.4537
G01 X61.4024 Y92.4440
G01 X61.4200 Y92.4387
G01 X61.4378 Y92.4342
G01 X61.4559 Y92.4306
G01 X61.4741 Y92.4279
G01 X61.4924 Y92.4261
G01 X61.5097 Y92.4253
G01 X61.5097 Y89.4304
G01 X61.0630 Y89.4304
G01 X61.0472 Y89.4473
G01 X61.0338 Y89.4600
G01 X61.0199 Y89.4720
G01 X61.0054 Y89.4833
G01 X60.9903 Y89.4939
G01 X60.9748 Y89.5038
G01 X60.9588 Y89.5128
G01 X60.9423 Y89.5211
G01 X60.9255 Y89.5286
G01 X60.9083 Y89.5352
G01 X60.8909 Y89.5410
G01 X60.8731 Y89.5459
G01 X60.8552 Y89.5499
G01 X60.8370 Y89.5531
G01 X60.8188 Y89.5553
G01 X60.8004 Y89.5567
G01 X60.7820 Y89.5571
G01 X59.2580 Y89.5571
G01 X59.2396 Y89.5567
G01 X59.2121 Y89.5543
G01 X59.1848 Y89.5499
G01 X59.1669 Y89.5459
G01 X59.1491 Y89.5410
G01 X59.1230 Y89.5320
G01 X59.0977 Y89.5211
G01 X59.0732 Y89.5084
G01 X59.0497 Y89.4939
G01 X59.0346 Y89.4833
G01 X59.0201 Y89.4720
G01 X58.9994 Y89.4537
G01 X58.9801 Y89.4340
G01 X58.9624 Y89.4128
G01 X58.9462 Y89.3905
G01 X58.9317 Y89.3670
G01 X58.9190 Y89.3425
G01 X58.9115 Y89.3256
G01 X58.9049 Y89.3085
G01 X58.8966 Y89.2821
G01 X58.8902 Y89.2553
G01 X58.8858 Y89.2280
G01 X58.8840 Y89.2097
G01 X58.8830 Y89.1821
G01 X58.8830 Y87.6581
G01 X58.8835 Y87.6397
G01 X58.8848 Y87.6214
G01 X58.8871 Y87.6031
G01 X58.8902 Y87.5850
G01 X58.8942 Y87.5670
G01 X58.8991 Y87.5493
G01 X58.9049 Y87.5318
G01 X58.9115 Y87.5146
G01 X58.9190 Y87.4978
G01 X58.9273 Y87.4813
G01 X58.9364 Y87.4653
G01 X58.9462 Y87.4498
G01 X58.9568 Y87.4347
G01 X58.9681 Y87.4202
G01 X58.9801 Y87.4063
G01 X58.9928 Y87.3930
G01 X59.0097 Y87.3772
G01 X59.0097 Y86.4011
G01 X58.9770 Y86.3321
G01 X58.9695 Y86.3152
G01 X58.9629 Y86.2981
G01 X58.9377 Y86.2276
G01 X58.9320 Y86.2102
G01 X58.9270 Y86.1924
G01 X58.9089 Y86.1199
G01 X58.9048 Y86.1019
G01 X58.9017 Y86.0838
G01 X58.8907 Y86.0098
G01 X58.8885 Y85.9916
G01 X58.8871 Y85.9732
G01 X58.8835 Y85.8985
G01 X58.8830 Y85.8801
G01 X58.8835 Y85.8617
G01 X58.8871 Y85.7870
G01 X58.8895 Y85.7595
G01 X58.9032 Y85.6673
G01 X58.9089 Y85.6403
G01 X58.9270 Y85.5678
G01 X58.9320 Y85.5501
G01 X58.9377 Y85.5326
G01 X58.9629 Y85.4622
G01 X58.9695 Y85.4450
G01 X58.9770 Y85.4282
G01 X59.0090 Y85.3606
G01 X59.0173 Y85.3441
G01 X59.0263 Y85.3281
G01 X59.0648 Y85.2640
G01 X59.0746 Y85.2484
G01 X59.0852 Y85.2334
G01 X59.1298 Y85.1733
G01 X59.1411 Y85.1588
G01 X59.1531 Y85.1449
G01 X59.2033 Y85.0895
G01 X59.2160 Y85.0761
G01 X59.2294 Y85.0634
G01 X59.2848 Y85.0132
G01 X59.2987 Y85.0012
G01 X59.3132 Y84.9899
G01 X59.3733 Y84.9453
G01 X59.3883 Y84.9347
G01 X59.4039 Y84.9249
G01 X59.4680 Y84.8864
G01 X59.4840 Y84.8774
G01 X59.5005 Y84.8691
G01 X59.5681 Y84.8371
G01 X59.5849 Y84.8297
G01 X59.6021 Y84.8230
G01 X59.6725 Y84.7979
G01 X59.6899 Y84.7921
G01 X59.7077 Y84.7872
G01 X59.7802 Y84.7690
G01 X59.7982 Y84.7650
G01 X59.8163 Y84.7618
G01 X59.8903 Y84.7508
G01 X59.9086 Y84.7486
G01 X59.9269 Y84.7472
G01 X60.0016 Y84.7436
G01 X60.0200 Y84.7431
G01 X60.0384 Y84.7436
G01 X60.1131 Y84.7472
G01 X60.1314 Y84.7486
G01 X60.1497 Y84.7508
G01 X60.2237 Y84.7618
G01 X60.2418 Y84.7650
G01 X60.2598 Y84.7690
G01 X60.3323 Y84.7872
G01 X60.3588 Y84.7949
G01 X60.4379 Y84.8230
G01 X60.4551 Y84.8297
G01 X60.4719 Y84.8371
G01 X60.5395 Y84.8691
G01 X60.5640 Y84.8818
G01 X60.6440 Y84.9297
G01 X60.6667 Y84.9453
G01 X60.7268 Y84.9899
G01 X60.7413 Y85.0012
G01 X60.7552 Y85.0132
G01 X60.8106 Y85.0634
G01 X60.8240 Y85.0761
G01 X60.8367 Y85.0895
G01 X60.8869 Y85.1449
G01 X60.8989 Y85.1588
G01 X60.9102 Y85.1733
G01 X60.9548 Y85.2334
G01 X60.9704 Y85.2561
G01 X61.0137 Y85.3281
G01 X61.0227 Y85.3441
G01 X61.0310 Y85.3606
G01 X61.0630 Y85.4282
G01 X61.0705 Y85.4450
G01 X61.0771 Y85.4622
G01 X61.1023 Y85.5326
G01 X61.1080 Y85.5501
G01 X61.1130 Y85.5678
G01 X61.1311 Y85.6403
G01 X61.1352 Y85.6583
G01 X61.1383 Y85.6764
G01 X61.1493 Y85.7504
G01 X61.1515 Y85.7687
G01 X61.1529 Y85.7870
G01 X61.1565 Y85.8617
G01 X61.1570 Y85.8801
G01 X61.1565 Y85.8985
G01 X61.1529 Y85.9732
G01 X61.1515 Y85.9916
G01 X61.1493 Y86.0098
G01 X61.1383 Y86.0838
G01 X61.1332 Y86.1109
G01 X61.1106 Y86.2013
G01 X61.1023 Y86.2276
G01 X61.0771 Y86.2981
G01 X61.0705 Y86.3152
G01 X61.0630 Y86.3321
G01 X61.0303 Y86.4011
G01 X61.0303 Y87.3772
G01 X61.0472 Y87.3930
G01 X61.0630 Y87.4098
G01 X62.1992 Y87.4099
G01 X62.2707 Y87.4133
G01 X62.2982 Y87.4157
G01 X62.3781 Y87.4275
G01 X62.3961 Y87.4311
G01 X62.4075 Y87.4338
G01 X63.6556 Y86.1857
G01 X63.6689 Y86.1730
G01 X63.7220 Y86.1251
G01 X63.7436 Y86.1078
G01 X63.8011 Y86.0653
G01 X63.8242 Y86.0502
G01 X63.8777 Y86.0182
G01 X63.8937 Y86.0091
G01 X63.9102 Y86.0008
G01 X63.9665 Y85.9742
G01 X63.9919 Y85.9633
G01 X64.0592 Y85.9391
G01 X64.0767 Y85.9333
G01 X64.0945 Y85.9284
G01 X64.1639 Y85.9111
G01 X64.1910 Y85.9061
G01 X64.2618 Y85.8957
G01 X64.2801 Y85.8939
G01 X64.3151 Y85.8920
G01 X64.3155 Y85.8817
G01 X64.3168 Y85.8634
G01 X64.3205 Y85.8360
G01 X64.3241 Y85.8180
G01 X64.3286 Y85.8001
G01 X64.3369 Y85.7738
G01 X64.3472 Y85.7482
G01 X64.3593 Y85.7233
G01 X64.3732 Y85.6995
G01 X64.3834 Y85.6842
G01 X64.3944 Y85.6694
G01 X64.4121 Y85.6483
G01 X64.4314 Y85.6285
G01 X64.4451 Y85.6162
G01 X64.4593 Y85.6045
G01 X64.4817 Y85.5883
G01 X64.5052 Y85.5738
G01 X64.5214 Y85.5652
G01 X64.5380 Y85.5573
G01 X64.5550 Y85.5502
G01 X64.5724 Y85.5440
G01 X64.5989 Y85.5364
G01 X64.6168 Y85.5323
G01 X64.6441 Y85.5279
G01 X64.6716 Y85.5256
G01 X64.6900 Y85.5251
G01 X66.4900 Y85.5251
G01 X66.5084 Y85.5256
G01 X66.5268 Y85.5269
G01 X66.5541 Y85.5306
G01 X66.5811 Y85.5364
G01 X66.6076 Y85.5440
G01 X66.6250 Y85.5502
G01 X66.6503 Y85.5611
G01 X66.6668 Y85.5694
G01 X66.6828 Y85.5785
G01 X66.7059 Y85.5935
G01 X66.7207 Y85.6045
G01 X66.7418 Y85.6223
G01 X66.7552 Y85.6350
G01 X66.7679 Y85.6483
G01 X66.7856 Y85.6694
G01 X66.8018 Y85.6918
G01 X66.8116 Y85.7073
G01 X66.8250 Y85.7315
G01 X66.8328 Y85.7482
G01 X66.8399 Y85.7652
G01 X66.8461 Y85.7825
G01 X66.8538 Y85.8090
G01 X66.8595 Y85.8360
G01 X66.8632 Y85.8634
G01 X66.8649 Y85.8909
G01 X66.8650 Y86.3001
G01 X66.8746 Y86.2831
G01 X66.9200 Y86.2073
G01 X66.9299 Y86.1918
G01 X66.9405 Y86.1767
G01 X66.9931 Y86.1058
G01 X67.0044 Y86.0913
G01 X67.0164 Y86.0773
G01 X67.0757 Y86.0119
G01 X67.0884 Y85.9986
G01 X67.1018 Y85.9859
G01 X67.1672 Y85.9266
G01 X67.1811 Y85.9145
G01 X67.1957 Y85.9032
G01 X67.2666 Y85.8506
G01 X67.2894 Y85.8350
G01 X67.3809 Y85.7801
G01 X67.4054 Y85.7674
G01 X67.4853 Y85.7296
G01 X67.5021 Y85.7222
G01 X67.5193 Y85.7155
G01 X67.6111 Y85.6828
G01 X67.6376 Y85.6751
G01 X67.7233 Y85.6536
G01 X67.7503 Y85.6479
G01 X67.8559 Y85.6323
G01 X67.8742 Y85.6305
G01 X67.9339 Y85.6274
G01 X70.5441 Y83.0172
G01 X70.5157 Y82.9377
G01 X70.5099 Y82.9202
G01 X70.5050 Y82.9025
G01 X70.4835 Y82.8168
G01 X70.4778 Y82.7898
G01 X70.4634 Y82.6934
G01 X70.4611 Y82.6751
G01 X70.4598 Y82.6567
G01 X70.4555 Y82.5685
G01 X70.4550 Y82.5501
G01 X70.4555 Y82.5317
G01 X70.4598 Y82.4435
G01 X70.4611 Y82.4251
G01 X70.4634 Y82.4069
G01 X70.4764 Y82.3195
G01 X70.4795 Y82.3014
G01 X70.4835 Y82.2834
G01 X70.5050 Y82.1977
G01 X70.5099 Y82.1800
G01 X70.5157 Y82.1625
G01 X70.5486 Y82.0707
G01 X70.5595 Y82.0454
G01 X70.5973 Y81.9655
G01 X70.6056 Y81.9491
G01 X70.6146 Y81.9331
G01 X70.6600 Y81.8573
G01 X70.6699 Y81.8418
G01 X70.6805 Y81.8267
G01 X70.7331 Y81.7558
G01 X70.7444 Y81.7413
G01 X70.7564 Y81.7273
G01 X70.8197 Y81.6577
G01 X70.8197 Y80.2487
G01 X70.7750 Y80.2081
G01 X70.7620 Y80.1951
G01 X70.6964 Y80.1229
G01 X70.6787 Y80.1018
G01 X70.6205 Y80.0235
G01 X70.6099 Y80.0085
G01 X70.6000 Y79.9929
G01 X70.5546 Y79.9172
G01 X70.5413 Y79.8930
G01 X70.4995 Y79.8049
G01 X70.4921 Y79.7880
G01 X70.4854 Y79.7709
G01 X70.4557 Y79.6877
G01 X70.4499 Y79.6702
G01 X70.4450 Y79.6525
G01 X70.4235 Y79.5668
G01 X70.4195 Y79.5489
G01 X70.4164 Y79.5307
G01 X70.4034 Y79.4434
G01 X70.4011 Y79.4251
G01 X70.3998 Y79.4067
G01 X70.3955 Y79.3185
G01 X70.3950 Y79.3001
G01 X70.3955 Y79.2817
G01 X70.3998 Y79.1935
G01 X70.4011 Y79.1751
G01 X70.4034 Y79.1569
G01 X70.4164 Y79.0695
G01 X70.4195 Y79.0514
G01 X70.4235 Y79.0334
G01 X70.4450 Y78.9477
G01 X70.4499 Y78.9300
G01 X70.4557 Y78.9125
G01 X70.4854 Y78.8294
G01 X70.4921 Y78.8122
G01 X70.4995 Y78.7954
G01 X70.5373 Y78.7155
G01 X70.5500 Y78.6910
G01 X70.6000 Y78.6073
G01 X70.6151 Y78.5842
G01 X70.6787 Y78.4985
G01 X70.6964 Y78.4773
G01 X70.7597 Y78.4077
G01 X70.7597 Y77.5026
G01 X70.6903 Y77.4260
G01 X70.6731 Y77.4045
G01 X70.6205 Y77.3335
G01 X70.6099 Y77.3185
G01 X70.6000 Y77.3029
G01 X70.5546 Y77.2272
G01 X70.5456 Y77.2111
G01 X70.5373 Y77.1947
G01 X70.4995 Y77.1149
G01 X70.4921 Y77.0980
G01 X70.4854 Y77.0809
G01 X70.4557 Y76.9977
G01 X70.4499 Y76.9802
G01 X70.4450 Y76.9625
G01 X70.4235 Y76.8768
G01 X70.4195 Y76.8589
G01 X70.4164 Y76.8407
G01 X70.4034 Y76.7534
G01 X70.4011 Y76.7351
G01 X70.3998 Y76.7167
G01 X70.3955 Y76.6285
G01 X70.3950 Y76.6101
G01 X70.3955 Y76.5917
G01 X70.3998 Y76.5035
G01 X70.4011 Y76.4851
G01 X70.4034 Y76.4669
G01 X70.4164 Y76.3795
G01 X70.4195 Y76.3614
G01 X70.4235 Y76.3434
G01 X70.4450 Y76.2577
G01 X70.4499 Y76.2400
G01 X70.4557 Y76.2225
G01 X70.4854 Y76.1394
G01 X70.4921 Y76.1222
G01 X70.4995 Y76.1054
G01 X70.5373 Y76.0255
G01 X70.5456 Y76.0091
G01 X70.5546 Y75.9931
G01 X70.6000 Y75.9173
G01 X70.6099 Y75.9018
G01 X70.6205 Y75.8867
G01 X70.6731 Y75.8158
G01 X70.6844 Y75.8013
G01 X70.6964 Y75.7873
G01 X70.7557 Y75.7219
G01 X70.7684 Y75.7086
G01 X70.7818 Y75.6959
G01 X70.8472 Y75.6366
G01 X70.8611 Y75.6245
G01 X70.8757 Y75.6132
G01 X70.9466 Y75.5606
G01 X70.9694 Y75.5450
G01 X71.0530 Y75.4947
G01 X71.0690 Y75.4857
G01 X71.0854 Y75.4774
G01 X71.1653 Y75.4396
G01 X71.1821 Y75.4322
G01 X71.1993 Y75.4255
G01 X71.2824 Y75.3958
G01 X71.2999 Y75.3900
G01 X71.3176 Y75.3851
G01 X71.4033 Y75.3636
G01 X71.4303 Y75.3579
G01 X71.5268 Y75.3435
G01 X71.5450 Y75.3413
G01 X71.5634 Y75.3399
G01 X71.6516 Y75.3356
G01 X71.6700 Y75.3351
G01 X71.8700 Y75.3351
G01 X71.8884 Y75.3356
G01 X71.9766 Y75.3399
G01 X71.9950 Y75.3413
G01 X72.0132 Y75.3435
G01 X72.0594 Y75.3504
G01 X70.5194 Y73.8104
G01 X67.4785 Y73.8104
G01 X65.1603 Y76.1286
G01 X65.1603 Y78.4077
G01 X65.2236 Y78.4773
G01 X65.2356 Y78.4913
G01 X65.2469 Y78.5058
G01 X65.2995 Y78.5767
G01 X65.3101 Y78.5918
G01 X65.3200 Y78.6073
G01 X65.3654 Y78.6831
G01 X65.3744 Y78.6991
G01 X65.3827 Y78.7155
G01 X65.4205 Y78.7954
G01 X65.4279 Y78.8122
G01 X65.4346 Y78.8294
G01 X65.4643 Y78.9125
G01 X65.4701 Y78.9300
G01 X65.4750 Y78.9477
G01 X65.4965 Y79.0334
G01 X65.5005 Y79.0514
G01 X65.5036 Y79.0695
G01 X65.5166 Y79.1569
G01 X65.5189 Y79.1751
G01 X65.5202 Y79.1935
G01 X65.5245 Y79.2817
G01 X65.5250 Y79.3001
G01 X65.5245 Y79.3185
G01 X65.5202 Y79.4067
G01 X65.5189 Y79.4251
G01 X65.5166 Y79.4434
G01 X65.5036 Y79.5307
G01 X65.5005 Y79.5489
G01 X65.4965 Y79.5668
G01 X65.4750 Y79.6525
G01 X65.4701 Y79.6702
G01 X65.4643 Y79.6877
G01 X65.4346 Y79.7709
G01 X65.4279 Y79.7880
G01 X65.4205 Y79.8049
G01 X65.3827 Y79.8847
G01 X65.3744 Y79.9011
G01 X65.3654 Y79.9172
G01 X65.3200 Y79.9929
G01 X65.3101 Y80.0085
G01 X65.2995 Y80.0235
G01 X65.2469 Y80.0945
G01 X65.2356 Y80.1090
G01 X65.2236 Y80.1229
G01 X65.1643 Y80.1883
G01 X65.1516 Y80.2017
G01 X65.1382 Y80.2144
G01 X65.0728 Y80.2737
G01 X65.0589 Y80.2857
G01 X65.0443 Y80.2970
G01 X64.9734 Y80.3496
G01 X64.9584 Y80.3602
G01 X64.9428 Y80.3701
G01 X64.8670 Y80.4155
G01 X64.8510 Y80.4246
G01 X64.8346 Y80.4328
G01 X64.7547 Y80.4706
G01 X64.7294 Y80.4815
G01 X64.6289 Y80.5174
G01 X64.6024 Y80.5251
G01 X64.5167 Y80.5466
G01 X64.4987 Y80.5506
G01 X64.4806 Y80.5538
G01 X64.3932 Y80.5667
G01 X64.3658 Y80.5698
G01 X64.2592 Y80.5750
G01 X64.0500 Y80.5751
G01 X64.0316 Y80.5747
G01 X63.9434 Y80.5703
G01 X63.9250 Y80.5690
G01 X63.9068 Y80.5667
G01 X63.8194 Y80.5538
G01 X63.8013 Y80.5506
G01 X63.7833 Y80.5466
G01 X63.6976 Y80.5251
G01 X63.6799 Y80.5202
G01 X63.6624 Y80.5144
G01 X63.5699 Y80.4812
G01 X64.3661 Y81.2774
G01 X64.4258 Y81.2805
G01 X64.4441 Y81.2823
G01 X64.5406 Y81.2965
G01 X64.5677 Y81.3015
G01 X64.6624 Y81.3251
G01 X64.6801 Y81.3300
G01 X64.6976 Y81.3358
G01 X64.7894 Y81.3688
G01 X64.8147 Y81.3796
G01 X64.8946 Y81.4174
G01 X64.9110 Y81.4257
G01 X64.9270 Y81.4347
G01 X65.0028 Y81.4801
G01 X65.0184 Y81.4900
G01 X65.0334 Y81.5006
G01 X65.1043 Y81.5532
G01 X65.1259 Y81.5705
G01 X65.1982 Y81.6359
G01 X65.2116 Y81.6486
G01 X65.2243 Y81.6619
G01 X65.2836 Y81.7273
G01 X65.2956 Y81.7413
G01 X65.3069 Y81.7558
G01 X65.3595 Y81.8267
G01 X65.3701 Y81.8418
G01 X65.3800 Y81.8573
G01 X65.4254 Y81.9331
G01 X65.4344 Y81.9491
G01 X65.4427 Y81.9655
G01 X65.4805 Y82.0454
G01 X65.4879 Y82.0622
G01 X65.4946 Y82.0794
G01 X65.5273 Y82.1712
G01 X65.5350 Y82.1977
G01 X65.5565 Y82.2834
G01 X65.5605 Y82.3014
G01 X65.5636 Y82.3195
G01 X65.5766 Y82.4069
G01 X65.5789 Y82.4251
G01 X65.5802 Y82.4435
G01 X65.5845 Y82.5317
G01 X65.5850 Y82.5501
G01 X65.5845 Y82.5685
G01 X65.5802 Y82.6567
G01 X65.5789 Y82.6751
G01 X65.5766 Y82.6934
G01 X65.5636 Y82.7807
G01 X65.5605 Y82.7989
G01 X65.5565 Y82.8168
G01 X65.5350 Y82.9025
G01 X65.5301 Y82.9202
G01 X65.5243 Y82.9377
G01 X65.4946 Y83.0209
G01 X65.4879 Y83.0380
G01 X65.4805 Y83.0549
G01 X65.4427 Y83.1347
G01 X65.4344 Y83.1511
G01 X65.4254 Y83.1672
G01 X65.3800 Y83.2429
G01 X65.3701 Y83.2585
G01 X65.3595 Y83.2735
G01 X65.3069 Y83.3445
G01 X65.2956 Y83.3590
G01 X65.2836 Y83.3729
G01 X65.2243 Y83.4383
G01 X65.2116 Y83.4517
G01 X65.1982 Y83.4644
G01 X65.1328 Y83.5237
G01 X65.1189 Y83.5357
G01 X65.1043 Y83.5470
G01 X65.0334 Y83.5996
G01 X65.0184 Y83.6102
G01 X65.0028 Y83.6201
G01 X64.9270 Y83.6655
G01 X64.9110 Y83.6746
G01 X64.8946 Y83.6828
G01 X64.8147 Y83.7206
G01 X64.7979 Y83.7281
G01 X64.7807 Y83.7347
G01 X64.6976 Y83.7644
G01 X64.6801 Y83.7702
G01 X64.6624 Y83.7751
G01 X64.5767 Y83.7966
G01 X64.5497 Y83.8023
G01 X64.4532 Y83.8167
G01 X64.4350 Y83.8190
G01 X64.4166 Y83.8203
G01 X64.3284 Y83.8247
G01 X64.3100 Y83.8251
G01 X64.1100 Y83.8251
G01 X64.0916 Y83.8247
G01 X64.0034 Y83.8203
G01 X63.9850 Y83.8190
G01 X63.9668 Y83.8167
G01 X63.8703 Y83.8023
G01 X63.8433 Y83.7966
G01 X63.7576 Y83.7751
G01 X63.7399 Y83.7702
G01 X63.7224 Y83.7644
G01 X63.6393 Y83.7347
G01 X63.6221 Y83.7281
G01 X63.6053 Y83.7206
G01 X63.5254 Y83.6828
G01 X63.5090 Y83.6746
G01 X63.4930 Y83.6655
G01 X63.4172 Y83.6201
G01 X63.4016 Y83.6102
G01 X63.3866 Y83.5996
G01 X63.3157 Y83.5470
G01 X63.3011 Y83.5357
G01 X63.2872 Y83.5237
G01 X63.2218 Y83.4644
G01 X63.2084 Y83.4517
G01 X63.1957 Y83.4383
G01 X63.1364 Y83.3729
G01 X63.1244 Y83.3590
G01 X63.1131 Y83.3445
G01 X63.0605 Y83.2735
G01 X63.0499 Y83.2585
G01 X63.0400 Y83.2429
G01 X62.9946 Y83.1672
G01 X62.9813 Y83.1430
G01 X62.9395 Y83.0549
G01 X62.9321 Y83.0380
G01 X62.9254 Y83.0209
G01 X62.8957 Y82.9377
G01 X62.8873 Y82.9114
G01 X62.8635 Y82.8168
G01 X62.8578 Y82.7898
G01 X62.8422 Y82.6842
G01 X62.8403 Y82.6659
G01 X62.8373 Y82.6062
G01 X61.1756 Y80.9445
G01 X61.1508 Y80.9179
G01 X61.1383 Y81.0038
G01 X61.1352 Y81.0219
G01 X61.1311 Y81.0399
G01 X61.1130 Y81.1124
G01 X61.1080 Y81.1302
G01 X61.1023 Y81.1476
G01 X61.0771 Y81.2181
G01 X61.0705 Y81.2352
G01 X61.0630 Y81.2521
G01 X61.0310 Y81.3197
G01 X61.0227 Y81.3361
G01 X61.0137 Y81.3521
G01 X60.9752 Y81.4163
G01 X60.9654 Y81.4318
G01 X60.9548 Y81.4468
G01 X60.9102 Y81.5069
G01 X60.8989 Y81.5214
G01 X60.8869 Y81.5354
G01 X60.8367 Y81.5908
G01 X60.8240 Y81.6041
G01 X60.8106 Y81.6168
G01 X60.7552 Y81.6670
G01 X60.7413 Y81.6790
G01 X60.7268 Y81.6904
G01 X60.6667 Y81.7349
G01 X60.6517 Y81.7455
G01 X60.6361 Y81.7553
G01 X60.5720 Y81.7938
G01 X60.5560 Y81.8029
G01 X60.5395 Y81.8111
G01 X60.4719 Y81.8431
G01 X60.4551 Y81.8506
G01 X60.4379 Y81.8572
G01 X60.3675 Y81.8824
G01 X60.3501 Y81.8882
G01 X60.3323 Y81.8931
G01 X60.2598 Y81.9112
G01 X60.2418 Y81.9153
G01 X60.2237 Y81.9184
G01 X60.1497 Y81.9294
G01 X60.1314 Y81.9316
G01 X60.1131 Y81.9330
G01 X60.0384 Y81.9367
G01 X60.0200 Y81.9371
G01 X60.0016 Y81.9367
G01 X59.9269 Y81.9330
G01 X59.9086 Y81.9316
G01 X59.8903 Y81.9294
G01 X59.8163 Y81.9184
G01 X59.7982 Y81.9153
G01 X59.7802 Y81.9112
G01 X59.7077 Y81.8931
G01 X59.6899 Y81.8882
G01 X59.6725 Y81.8824
G01 X59.6021 Y81.8572
G01 X59.5849 Y81.8506
G01 X59.5681 Y81.8431
G01 X59.5005 Y81.8111
G01 X59.4840 Y81.8029
G01 X59.4680 Y81.7938
G01 X59.4039 Y81.7553
G01 X59.3883 Y81.7455
G01 X59.3733 Y81.7349
G01 X59.3132 Y81.6904
G01 X59.2987 Y81.6790
G01 X59.2848 Y81.6670
G01 X59.2294 Y81.6168
G01 X59.2160 Y81.6041
G01 X59.2033 Y81.5908
G01 X59.1531 Y81.5354
G01 X59.1411 Y81.5214
G01 X59.1298 Y81.5069
G01 X59.0852 Y81.4468
G01 X59.0746 Y81.4318
G01 X59.0648 Y81.4163
G01 X59.0263 Y81.3521
G01 X59.0173 Y81.3361
G01 X59.0090 Y81.3197
G01 X58.9770 Y81.2521
G01 X58.9695 Y81.2352
G01 X58.9629 Y81.2181
G01 X58.9372 Y81.1461
G01 X58.5436 Y80.7525
G01 X58.5309 Y80.7392
G01 X58.4890 Y80.6930
G01 X58.4770 Y80.6791
G01 X58.4657 Y80.6645
G01 X58.4286 Y80.6145
G01 X58.4180 Y80.5994
G01 X58.4081 Y80.5839
G01 X58.3761 Y80.5304
G01 X58.3670 Y80.5144
G01 X58.3587 Y80.4979
G01 X58.3320 Y80.4416
G01 X58.3246 Y80.4248
G01 X58.3180 Y80.4076
G01 X58.2970 Y80.3489
G01 X58.2912 Y80.3314
G01 X58.2863 Y80.3137
G01 X58.2711 Y80.2532
G01 X58.2671 Y80.2352
G01 X58.2639 Y80.2171
G01 X58.2548 Y80.1554
G01 X58.2525 Y80.1371
G01 X58.2512 Y80.1188
G01 X58.2478 Y80.0473
G01 X58.2477 Y78.3541
G01 X58.2109 Y78.4318
G01 X58.2026 Y78.4483
G01 X58.1936 Y78.4643
G01 X58.1431 Y78.5485
G01 X58.1333 Y78.5640
G01 X58.1227 Y78.5791
G01 X58.0642 Y78.6579
G01 X58.0529 Y78.6724
G01 X58.0409 Y78.6863
G01 X57.9750 Y78.7591
G01 X57.9623 Y78.7724
G01 X57.9489 Y78.7851
G01 X57.8762 Y78.8510
G01 X57.8623 Y78.8630
G01 X57.8478 Y78.8743
G01 X57.7615 Y78.9382
G01 X57.7384 Y78.9532
G01 X57.6542 Y79.0037
G01 X57.6382 Y79.0128
G01 X57.6217 Y79.0210
G01 X57.5330 Y79.0630
G01 X57.5162 Y79.0705
G01 X57.4990 Y79.0771
G01 X57.4066 Y79.1101
G01 X57.3891 Y79.1159
G01 X57.3714 Y79.1208
G01 X57.2762 Y79.1447
G01 X57.2582 Y79.1487
G01 X57.2401 Y79.1518
G01 X57.1430 Y79.1662
G01 X57.1156 Y79.1693
G01 X57.0084 Y79.1747
G01 X56.9900 Y79.1751
G01 X56.9716 Y79.1747
G01 X56.8736 Y79.1699
G01 X56.8552 Y79.1685
G01 X56.8370 Y79.1662
G01 X56.7399 Y79.1518
G01 X56.7218 Y79.1487
G01 X56.7038 Y79.1447
G01 X56.6086 Y79.1208
G01 X56.5821 Y79.1131
G01 X56.4810 Y79.0771
G01 X56.4638 Y79.0705
G01 X56.4470 Y79.0630
G01 X56.3583 Y79.0210
G01 X56.3338 Y79.0083
G01 X56.2416 Y78.9532
G01 X56.2185 Y78.9382
G01 X56.1322 Y78.8743
G01 X56.1177 Y78.8630
G01 X56.1038 Y78.8510
G01 X56.0590 Y78.8104
G01 X55.8210 Y78.8104
G01 X55.7762 Y78.8510
G01 X55.7551 Y78.8688
G01 X55.6690 Y78.9328
G01 X55.6462 Y78.9484
G01 X55.5542 Y79.0037
G01 X55.5382 Y79.0128
G01 X55.5217 Y79.0210
G01 X55.4330 Y79.0630
G01 X55.4076 Y79.0739
G01 X55.3066 Y79.1101
G01 X55.2891 Y79.1159
G01 X55.2714 Y79.1208
G01 X55.1762 Y79.1447
G01 X55.1582 Y79.1487
G01 X55.1401 Y79.1518
G01 X55.0430 Y79.1662
G01 X55.0248 Y79.1685
G01 X55.0064 Y79.1699
G01 X54.9084 Y79.1747
G01 X54.8900 Y79.1751
G01 X54.8716 Y79.1747
G01 X54.7736 Y79.1699
G01 X54.7552 Y79.1685
G01 X54.7370 Y79.1662
G01 X54.6399 Y79.1518
G01 X54.6218 Y79.1487
G01 X54.6038 Y79.1447
G01 X54.5086 Y79.1208
G01 X54.4909 Y79.1159
G01 X54.4734 Y79.1101
G01 X54.3724 Y79.0739
G01 X54.3470 Y79.0630
G01 X54.2583 Y79.0210
G01 X54.2418 Y79.0128
G01 X54.2258 Y79.0037
G01 X54.1338 Y78.9484
G01 X54.1110 Y78.9328
G01 X54.0249 Y78.8688
G01 X54.0038 Y78.8510
G01 X53.9590 Y78.8104
G01 X51.6085 Y78.8104
G01 X50.2014 Y80.2175
G01 X50.2045 Y80.2817
G01 X50.2050 Y80.3001
G01 X50.2045 Y80.3185
G01 X50.2002 Y80.4067
G01 X50.1978 Y80.4342
G01 X50.1822 Y80.5398
G01 X50.1765 Y80.5668
G01 X50.1550 Y80.6525
G01 X50.1501 Y80.6702
G01 X50.1443 Y80.6877
G01 X50.1146 Y80.7709
G01 X50.1043 Y80.7965
G01 X50.0587 Y80.8930
G01 X50.0454 Y80.9172
G01 X50.0000 Y80.9929
G01 X49.9901 Y81.0085
G01 X49.9795 Y81.0235
G01 X49.9269 Y81.0945
G01 X49.9156 Y81.1090
G01 X49.9036 Y81.1229
G01 X49.8443 Y81.1883
G01 X49.8316 Y81.2017
G01 X49.8182 Y81.2144
G01 X49.7528 Y81.2737
G01 X49.7317 Y81.2915
G01 X49.6534 Y81.3496
G01 X49.6384 Y81.3602
G01 X49.6228 Y81.3701
G01 X49.5470 Y81.4155
G01 X49.5310 Y81.4246
G01 X49.5146 Y81.4328
G01 X49.4347 Y81.4706
G01 X49.4179 Y81.4781
G01 X49.4007 Y81.4847
G01 X49.3176 Y81.5144
G01 X49.3001 Y81.5202
G01 X49.2824 Y81.5251
G01 X49.1967 Y81.5466
G01 X49.1787 Y81.5506
G01 X49.1606 Y81.5538
G01 X49.0641 Y81.5680
G01 X49.0366 Y81.5703
G01 X48.9484 Y81.5747
G01 X48.9300 Y81.5751
G01 X48.7208 Y81.5750
G01 X48.6234 Y81.5703
G01 X48.6050 Y81.5690
G01 X48.5868 Y81.5667
G01 X48.4994 Y81.5538
G01 X48.4813 Y81.5506
G01 X48.4633 Y81.5466
G01 X48.3776 Y81.5251
G01 X48.3599 Y81.5202
G01 X48.3424 Y81.5144
G01 X48.2593 Y81.4847
G01 X48.2421 Y81.4781
G01 X48.2253 Y81.4706
G01 X48.1454 Y81.4328
G01 X48.1290 Y81.4246
G01 X48.1130 Y81.4155
G01 X48.0372 Y81.3701
G01 X48.0216 Y81.3602
G01 X48.0066 Y81.3496
G01 X47.9357 Y81.2970
G01 X47.9211 Y81.2857
G01 X47.9072 Y81.2737
G01 X47.8418 Y81.2144
G01 X47.8284 Y81.2017
G01 X47.8157 Y81.1883
G01 X47.7564 Y81.1229
G01 X47.7444 Y81.1090
G01 X47.7331 Y81.0945
G01 X47.6805 Y81.0235
G01 X47.6699 Y81.0085
G01 X47.6600 Y80.9929
G01 X47.6146 Y80.9172
G01 X47.6056 Y80.9011
G01 X47.5973 Y80.8847
G01 X47.5595 Y80.8049
G01 X47.5521 Y80.7880
G01 X47.5454 Y80.7709
G01 X47.5127 Y80.6790
G01 X47.5050 Y80.6525
G01 X47.4835 Y80.5668
G01 X47.4795 Y80.5489
G01 X47.4764 Y80.5307
G01 X47.4634 Y80.4434
G01 X47.4603 Y80.4159
G01 X47.4551 Y80.3093
G01 X47.4555 Y80.2817
G01 X47.4598 Y80.1935
G01 X47.4611 Y80.1751
G01 X47.4634 Y80.1569
G01 X47.4764 Y80.0695
G01 X47.4795 Y80.0514
G01 X47.4835 Y80.0334
G01 X47.5050 Y79.9477
G01 X47.5099 Y79.9300
G01 X47.5157 Y79.9125
G01 X47.5454 Y79.8294
G01 X47.5521 Y79.8122
G01 X47.5595 Y79.7954
G01 X47.5973 Y79.7155
G01 X47.6056 Y79.6991
G01 X47.6146 Y79.6831
G01 X47.6600 Y79.6073
G01 X47.6699 Y79.5918
G01 X47.6805 Y79.5767
G01 X47.7331 Y79.5058
G01 X47.7444 Y79.4913
G01 X47.7564 Y79.4773
G01 X47.8157 Y79.4119
G01 X47.8284 Y79.3986
G01 X47.8418 Y79.3859
G01 X47.9072 Y79.3266
G01 X47.9283 Y79.3088
G01 X48.0141 Y79.2452
G01 X48.0372 Y79.2301
G01 X48.1130 Y79.1847
G01 X48.1290 Y79.1757
G01 X48.1454 Y79.1674
G01 X48.2253 Y79.1296
G01 X48.2421 Y79.1222
G01 X48.2593 Y79.1155
G01 X48.3424 Y79.0858
G01 X48.3687 Y79.0775
G01 X48.4723 Y79.0515
G01 X48.4903 Y79.0479
G01 X48.5175 Y79.0438
G01 X50.4822 Y77.0793
G01 X50.5351 Y77.0312
G01 X50.5491 Y77.0191
G01 X50.5636 Y77.0078
G01 X50.6136 Y76.9707
G01 X50.6364 Y76.9551
G01 X50.7057 Y76.9135
G01 X50.7302 Y76.9008
G01 X50.7865 Y76.8742
G01 X50.8034 Y76.8667
G01 X50.8205 Y76.8601
G01 X50.8792 Y76.8391
G01 X50.9056 Y76.8307
G01 X50.9839 Y76.8111
G01 X51.0110 Y76.8061
G01 X51.0727 Y76.7969
G01 X51.0910 Y76.7947
G01 X51.1093 Y76.7933
G01 X51.1716 Y76.7903
G01 X51.1900 Y76.7898
G01 X53.9590 Y76.7898
G01 X54.0038 Y76.7493
G01 X54.0249 Y76.7315
G01 X54.1110 Y76.6674
G01 X54.1338 Y76.6518
G01 X54.2258 Y76.5965
G01 X54.2418 Y76.5875
G01 X54.2583 Y76.5792
G01 X54.3470 Y76.5372
G01 X54.3724 Y76.5264
G01 X54.4734 Y76.4901
G01 X54.4909 Y76.4843
G01 X54.5086 Y76.4794
G01 X54.6038 Y76.4556
G01 X54.6218 Y76.4515
G01 X54.6399 Y76.4484
G01 X54.7370 Y76.4340
G01 X54.7552 Y76.4317
G01 X54.7736 Y76.4304
G01 X54.8808 Y76.4252
G01 X54.9084 Y76.4256
G01 X55.0064 Y76.4304
G01 X55.0248 Y76.4317
G01 X55.0430 Y76.4340
G01 X55.1401 Y76.4484
G01 X55.1582 Y76.4515
G01 X55.1762 Y76.4556
G01 X55.2714 Y76.4794
G01 X55.2891 Y76.4843
G01 X55.3066 Y76.4901
G01 X55.4076 Y76.5264
G01 X55.4330 Y76.5372
G01 X55.5217 Y76.5792
G01 X55.5382 Y76.5875
G01 X55.5542 Y76.5965
G01 X55.6462 Y76.6518
G01 X55.6690 Y76.6674
G01 X55.7551 Y76.7315
G01 X55.7762 Y76.7493
G01 X55.8210 Y76.7898
G01 X56.0590 Y76.7898
G01 X56.1038 Y76.7493
G01 X56.1249 Y76.7315
G01 X56.2110 Y76.6674
G01 X56.2338 Y76.6518
G01 X56.3258 Y76.5965
G01 X56.3418 Y76.5875
G01 X56.3583 Y76.5792
G01 X56.4470 Y76.5372
G01 X56.4724 Y76.5264
G01 X56.5734 Y76.4901
G01 X56.5909 Y76.4843
G01 X56.6086 Y76.4794
G01 X56.7038 Y76.4556
G01 X56.7218 Y76.4515
G01 X56.7399 Y76.4484
G01 X56.8370 Y76.4340
G01 X56.8552 Y76.4317
G01 X56.8736 Y76.4304
G01 X56.9716 Y76.4256
G01 X56.9900 Y76.4251
G01 X57.0084 Y76.4256
G01 X57.1064 Y76.4304
G01 X57.1248 Y76.4317
G01 X57.1430 Y76.4340
G01 X57.2401 Y76.4484
G01 X57.2582 Y76.4515
G01 X57.2762 Y76.4556
G01 X57.3714 Y76.4794
G01 X57.3891 Y76.4843
G01 X57.4066 Y76.4901
G01 X57.4990 Y76.5232
G01 X57.5162 Y76.5298
G01 X57.5330 Y76.5372
G01 X57.6217 Y76.5792
G01 X57.6382 Y76.5875
G01 X57.6542 Y76.5965
G01 X57.7384 Y76.6470
G01 X57.7539 Y76.6568
G01 X57.7690 Y76.6674
G01 X57.8478 Y76.7259
G01 X57.8623 Y76.7372
G01 X57.8762 Y76.7493
G01 X57.9489 Y76.8152
G01 X57.9623 Y76.8278
G01 X57.9750 Y76.8412
G01 X58.0409 Y76.9139
G01 X58.0529 Y76.9278
G01 X58.0642 Y76.9423
G01 X58.1227 Y77.0212
G01 X58.1333 Y77.0362
G01 X58.1431 Y77.0518
G01 X58.1936 Y77.1359
G01 X58.2026 Y77.1519
G01 X58.2109 Y77.1684
G01 X58.2511 Y77.2533
G01 X58.2525 Y77.2331
G01 X58.2548 Y77.2148
G01 X58.2654 Y77.1441
G01 X58.2711 Y77.1171
G01 X58.2863 Y77.0566
G01 X58.2912 Y77.0388
G01 X58.2970 Y77.0214
G01 X58.3180 Y76.9627
G01 X58.3246 Y76.9455
G01 X58.3320 Y76.9287
G01 X58.3587 Y76.8723
G01 X58.3670 Y76.8559
G01 X58.3761 Y76.8398
G01 X58.4081 Y76.7864
G01 X58.4180 Y76.7708
G01 X58.4286 Y76.7558
G01 X58.4657 Y76.7057
G01 X58.4829 Y76.6841
G01 X58.5309 Y76.6310
G01 X58.5436 Y76.6177
G01 X60.4386 Y74.7227
G01 X60.4283 Y74.6810
G01 X60.4247 Y74.6630
G01 X60.4076 Y74.5477
G01 X60.4053 Y74.5202
G01 X60.4001 Y74.4130
G01 X60.4005 Y74.3854
G01 X60.4058 Y74.2782
G01 X60.4089 Y74.2507
G01 X60.4212 Y74.1677
G01 X59.7744 Y74.8145
G01 X59.7611 Y74.8272
G01 X59.7149 Y74.8691
G01 X59.7009 Y74.8811
G01 X59.6864 Y74.8924
G01 X59.6364 Y74.9296
G01 X59.6213 Y74.9402
G01 X59.6058 Y74.9500
G01 X59.5523 Y74.9821
G01 X59.5363 Y74.9911
G01 X59.5198 Y74.9994
G01 X59.4635 Y75.0261
G01 X59.4466 Y75.0335
G01 X59.4295 Y75.0402
G01 X59.3708 Y75.0612
G01 X59.3533 Y75.0669
G01 X59.3355 Y75.0718
G01 X59.2751 Y75.0870
G01 X59.2571 Y75.0910
G01 X59.2390 Y75.0942
G01 X59.1682 Y75.1046
G01 X59.1407 Y75.1069
G01 X59.0784 Y75.1100
G01 X59.0600 Y75.1104
G01 X51.9485 Y75.1104
G01 X50.2027 Y76.8562
G01 X50.1996 Y76.9159
G01 X50.1978 Y76.9342
G01 X50.1822 Y77.0398
G01 X50.1765 Y77.0668
G01 X50.1527 Y77.1614
G01 X50.1443 Y77.1877
G01 X50.1146 Y77.2709
G01 X50.1079 Y77.2880
G01 X50.1005 Y77.3049
G01 X50.0627 Y77.3847
G01 X50.0500 Y77.4092
G01 X50.0000 Y77.4929
G01 X49.9901 Y77.5085
G01 X49.9795 Y77.5235
G01 X49.9269 Y77.5945
G01 X49.9156 Y77.6090
G01 X49.9036 Y77.6229
G01 X49.8443 Y77.6883
G01 X49.8316 Y77.7017
G01 X49.8182 Y77.7144
G01 X49.7528 Y77.7737
G01 X49.7317 Y77.7915
G01 X49.6459 Y77.8550
G01 X49.6228 Y77.8701
G01 X49.5470 Y77.9155
G01 X49.5310 Y77.9246
G01 X49.5146 Y77.9328
G01 X49.4347 Y77.9706
G01 X49.4179 Y77.9781
G01 X49.4007 Y77.9847
G01 X49.3176 Y78.0144
G01 X49.3001 Y78.0202
G01 X49.2824 Y78.0251
G01 X49.1967 Y78.0466
G01 X49.1787 Y78.0506
G01 X49.1606 Y78.0538
G01 X49.0732 Y78.0667
G01 X49.0550 Y78.0690
G01 X49.0366 Y78.0703
G01 X48.9484 Y78.0747
G01 X48.9300 Y78.0751
G01 X48.7208 Y78.0750
G01 X48.6234 Y78.0703
G01 X48.6050 Y78.0690
G01 X48.5868 Y78.0667
G01 X48.4994 Y78.0538
G01 X48.4723 Y78.0487
G01 X48.3776 Y78.0251
G01 X48.3599 Y78.0202
G01 X48.3424 Y78.0144
G01 X48.2593 Y77.9847
G01 X48.2421 Y77.9781
G01 X48.2253 Y77.9706
G01 X48.1454 Y77.9328
G01 X48.1290 Y77.9246
G01 X48.1130 Y77.9155
G01 X48.0294 Y77.8653
G01 X48.0066 Y77.8496
G01 X47.9357 Y77.7970
G01 X47.9211 Y77.7857
G01 X47.9072 Y77.7737
G01 X47.8418 Y77.7144
G01 X47.8284 Y77.7017
G01 X47.8157 Y77.6883
G01 X47.7564 Y77.6229
G01 X47.7444 Y77.6090
G01 X47.7331 Y77.5945
G01 X47.6805 Y77.5235
G01 X47.6699 Y77.5085
G01 X47.6600 Y77.4929
G01 X47.6146 Y77.4172
G01 X47.6056 Y77.4011
G01 X47.5973 Y77.3847
G01 X47.5595 Y77.3049
G01 X47.5521 Y77.2880
G01 X47.5454 Y77.2709
G01 X47.5157 Y77.1877
G01 X47.5099 Y77.1702
G01 X47.5050 Y77.1525
G01 X47.4835 Y77.0668
G01 X47.4795 Y77.0489
G01 X47.4764 Y77.0307
G01 X47.4634 Y76.9434
G01 X47.4611 Y76.9251
G01 X47.4598 Y76.9067
G01 X47.4555 Y76.8185
G01 X47.4550 Y76.8001
G01 X47.4555 Y76.7817
G01 X47.4598 Y76.6935
G01 X47.4611 Y76.6751
G01 X47.4634 Y76.6569
G01 X47.4764 Y76.5695
G01 X47.4795 Y76.5514
G01 X47.4835 Y76.5334
G01 X47.5050 Y76.4477
G01 X47.5099 Y76.4300
G01 X47.5157 Y76.4125
G01 X47.5454 Y76.3294
G01 X47.5521 Y76.3122
G01 X47.5595 Y76.2954
G01 X47.5973 Y76.2155
G01 X47.6056 Y76.1991
G01 X47.6146 Y76.1831
G01 X47.6649 Y76.0995
G01 X47.6805 Y76.0767
G01 X47.7331 Y76.0058
G01 X47.7444 Y75.9913
G01 X47.7564 Y75.9773
G01 X47.8157 Y75.9119
G01 X47.8284 Y75.8986
G01 X47.8418 Y75.8859
G01 X47.9072 Y75.8266
G01 X47.9211 Y75.8145
G01 X47.9357 Y75.8032
G01 X48.0066 Y75.7506
G01 X48.0294 Y75.7350
G01 X48.1209 Y75.6801
G01 X48.1454 Y75.6674
G01 X48.2253 Y75.6296
G01 X48.2421 Y75.6222
G01 X48.2593 Y75.6155
G01 X48.3424 Y75.5858
G01 X48.3687 Y75.5775
G01 X48.4633 Y75.5536
G01 X48.4903 Y75.5479
G01 X48.5959 Y75.5323
G01 X48.6142 Y75.5305
G01 X48.6739 Y75.5274
G01 X50.8156 Y73.3857
G01 X50.8289 Y73.3730
G01 X50.8751 Y73.3312
G01 X50.8891 Y73.3191
G01 X50.9036 Y73.3078
G01 X50.9536 Y73.2707
G01 X50.9687 Y73.2601
G01 X50.9842 Y73.2502
G01 X51.0377 Y73.2182
G01 X51.0619 Y73.2049
G01 X51.1265 Y73.1742
G01 X51.1434 Y73.1667
G01 X51.1605 Y73.1601
G01 X51.2192 Y73.1391
G01 X51.2367 Y73.1333
G01 X51.2545 Y73.1284
G01 X51.3149 Y73.1132
G01 X51.3329 Y73.1092
G01 X51.3510 Y73.1061
G01 X51.4127 Y73.0969
G01 X51.4310 Y73.0947
G01 X51.4493 Y73.0933
G01 X51.5208 Y73.0899
G01 X58.6415 Y73.0898
G01 X60.5112 Y71.2201
G01 X58.3550 Y69.0639
G01 X57.4044 Y70.0145
G01 X57.3911 Y70.0272
G01 X57.3449 Y70.0691
G01 X57.3238 Y70.0869
G01 X57.2664 Y70.1296
G01 X57.2513 Y70.1402
G01 X57.2358 Y70.1500
G01 X57.1823 Y70.1821
G01 X57.1663 Y70.1911
G01 X57.1498 Y70.1994
G01 X57.0935 Y70.2261
G01 X57.0766 Y70.2335
G01 X57.0595 Y70.2402
G01 X57.0008 Y70.2612
G01 X56.9833 Y70.2669
G01 X56.9655 Y70.2718
G01 X56.9051 Y70.2870
G01 X56.8871 Y70.2910
G01 X56.8690 Y70.2942
G01 X56.8073 Y70.3033
G01 X56.7890 Y70.3056
G01 X56.7707 Y70.3069
G01 X56.7084 Y70.3100
G01 X56.6900 Y70.3104
G01 X49.8397 Y70.3104
G01 X49.8389 Y70.3277
G01 X49.8371 Y70.3460
G01 X49.8327 Y70.3733
G01 X49.8286 Y70.3912
G01 X49.8237 Y70.4090
G01 X49.8148 Y70.4351
G01 X49.8077 Y70.4521
G01 X49.7998 Y70.4687
G01 X49.7865 Y70.4929
G01 X49.7715 Y70.5160
G01 X49.7605 Y70.5308
G01 X49.7488 Y70.5451
G01 X49.7365 Y70.5587
G01 X49.7235 Y70.5717
G01 X49.7028 Y70.5900
G01 X49.6883 Y70.6013
G01 X49.6732 Y70.6119
G01 X49.6497 Y70.6264
G01 X49.6335 Y70.6351
G01 X49.6169 Y70.6429
G01 X49.5912 Y70.6532
G01 X49.5737 Y70.6590
G01 X49.5560 Y70.6639
G01 X49.5290 Y70.6696
G01 X49.5108 Y70.6723
G01 X49.4925 Y70.6741
G01 X49.4649 Y70.6751
G01 X47.6649 Y70.6751
G01 X47.6465 Y70.6747
G01 X47.6190 Y70.6723
G01 X47.6008 Y70.6696
G01 X47.5738 Y70.6639
G01 X47.5473 Y70.6562
G01 X47.5214 Y70.6466
G01 X47.5046 Y70.6391
G01 X47.4801 Y70.6264
G01 X47.4565 Y70.6119
G01 X47.4342 Y70.5957
G01 X47.4199 Y70.5841
G01 X47.3997 Y70.5653
G01 X47.3809 Y70.5451
G01 X47.3637 Y70.5235
G01 X47.3531 Y70.5085
G01 X47.3386 Y70.4850
G01 X47.3259 Y70.4605
G01 X47.3184 Y70.4436
G01 X47.3118 Y70.4265
G01 X47.3035 Y70.4001
G01 X47.2990 Y70.3823
G01 X47.2954 Y70.3642
G01 X47.2927 Y70.3460
G01 X47.2909 Y70.3277
G01 X47.2899 Y70.3001
G01 X47.2899 Y69.9001
G01 X47.2803 Y69.9172
G01 X47.2349 Y69.9929
G01 X47.2250 Y70.0085
G01 X47.2144 Y70.0235
G01 X47.1618 Y70.0945
G01 X47.1505 Y70.1090
G01 X47.1385 Y70.1229
G01 X47.0791 Y70.1883
G01 X47.0664 Y70.2017
G01 X47.0531 Y70.2144
G01 X46.9877 Y70.2737
G01 X46.9737 Y70.2857
G01 X46.9592 Y70.2970
G01 X46.8883 Y70.3496
G01 X46.8732 Y70.3602
G01 X46.8577 Y70.3701
G01 X46.7819 Y70.4155
G01 X46.7659 Y70.4246
G01 X46.7495 Y70.4328
G01 X46.6696 Y70.4706
G01 X46.6528 Y70.4781
G01 X46.6356 Y70.4847
G01 X46.5438 Y70.5174
G01 X46.5173 Y70.5251
G01 X46.4316 Y70.5466
G01 X46.4136 Y70.5506
G01 X46.3955 Y70.5538
G01 X46.3081 Y70.5667
G01 X46.2899 Y70.5690
G01 X46.2715 Y70.5703
G01 X46.1741 Y70.5750
G01 X45.9649 Y70.5751
G01 X45.9465 Y70.5747
G01 X45.8583 Y70.5703
G01 X45.8399 Y70.5690
G01 X45.8216 Y70.5667
G01 X45.7343 Y70.5538
G01 X45.7161 Y70.5506
G01 X45.6982 Y70.5466
G01 X45.6125 Y70.5251
G01 X45.5948 Y70.5202
G01 X45.5773 Y70.5144
G01 X45.4941 Y70.4847
G01 X45.4770 Y70.4781
G01 X45.4601 Y70.4706
G01 X45.3803 Y70.4328
G01 X45.3639 Y70.4246
G01 X45.3478 Y70.4155
G01 X45.2721 Y70.3701
G01 X45.2565 Y70.3602
G01 X45.2415 Y70.3496
G01 X45.1705 Y70.2970
G01 X45.1560 Y70.2857
G01 X45.1421 Y70.2737
G01 X45.0767 Y70.2144
G01 X45.0633 Y70.2017
G01 X45.0506 Y70.1883
G01 X44.9913 Y70.1229
G01 X44.9793 Y70.1090
G01 X44.9680 Y70.0945
G01 X44.9100 Y70.0161
G01 X44.8949 Y69.9929
G01 X44.8495 Y69.9172
G01 X44.8404 Y69.9011
G01 X44.8322 Y69.8847
G01 X44.7944 Y69.8049
G01 X44.7869 Y69.7880
G01 X44.7803 Y69.7709
G01 X44.7476 Y69.6790
G01 X44.7399 Y69.6525
G01 X44.7184 Y69.5668
G01 X44.7127 Y69.5398
G01 X44.6970 Y69.4342
G01 X44.6952 Y69.4159
G01 X44.6922 Y69.3562
G01 X42.8364 Y67.5004
G01 X41.9125 Y67.5004
G01 X41.8428 Y67.5637
G01 X41.8217 Y67.5815
G01 X41.7359 Y67.6450
G01 X41.7128 Y67.6601
G01 X41.6291 Y67.7101
G01 X41.6046 Y67.7228
G01 X41.5247 Y67.7606
G01 X41.5079 Y67.7681
G01 X41.4907 Y67.7747
G01 X41.4076 Y67.8044
G01 X41.3901 Y67.8102
G01 X41.3724 Y67.8151
G01 X41.2867 Y67.8366
G01 X41.2687 Y67.8406
G01 X41.2506 Y67.8438
G01 X41.1632 Y67.8567
G01 X41.1450 Y67.8590
G01 X41.1266 Y67.8603
G01 X41.0384 Y67.8647
G01 X41.0200 Y67.8651
G01 X41.0016 Y67.8647
G01 X40.9042 Y67.8598
G01 X40.8768 Y67.8567
G01 X40.7894 Y67.8438
G01 X40.7713 Y67.8406
G01 X40.7533 Y67.8366
G01 X40.6676 Y67.8151
G01 X40.6499 Y67.8102
G01 X40.6324 Y67.8044
G01 X40.5493 Y67.7747
G01 X40.5321 Y67.7681
G01 X40.5153 Y67.7606
G01 X40.4354 Y67.7228
G01 X40.4190 Y67.7146
G01 X40.4030 Y67.7055
G01 X40.3272 Y67.6601
G01 X40.3041 Y67.6450
G01 X40.2183 Y67.5815
G01 X40.1972 Y67.5637
G01 X40.1318 Y67.5044
G01 X40.1184 Y67.4917
G01 X40.1057 Y67.4783
G01 X40.0464 Y67.4129
G01 X40.0287 Y67.3918
G01 X39.9705 Y67.3135
G01 X39.9599 Y67.2985
G01 X39.9500 Y67.2829
G01 X39.9046 Y67.2072
G01 X39.8956 Y67.1911
G01 X39.8873 Y67.1747
G01 X39.8457 Y67.0865
G01 X39.8354 Y67.0609
G01 X39.8057 Y66.9777
G01 X39.7999 Y66.9602
G01 X39.7950 Y66.9425
G01 X39.7735 Y66.8568
G01 X39.7678 Y66.8298
G01 X39.7534 Y66.7334
G01 X39.7511 Y66.7151
G01 X39.7498 Y66.6967
G01 X39.7451 Y66.5993
G01 X39.7451 Y66.3809
G01 X39.7498 Y66.2835
G01 X39.7511 Y66.2651
G01 X39.7534 Y66.2469
G01 X39.7664 Y66.1595
G01 X39.7714 Y66.1324
G01 X39.7950 Y66.0377
G01 X39.7999 Y66.0200
G01 X39.8057 Y66.0025
G01 X39.8354 Y65.9194
G01 X39.8421 Y65.9022
G01 X39.8495 Y65.8854
G01 X39.8873 Y65.8055
G01 X39.8956 Y65.7891
G01 X39.9046 Y65.7731
G01 X39.9500 Y65.6973
G01 X39.9599 Y65.6818
G01 X39.9705 Y65.6667
G01 X40.0087 Y65.6152
G01 X40.0094 Y64.5751
G01 X39.9400 Y64.5751
G01 X39.9124 Y64.5741
G01 X39.8941 Y64.5723
G01 X39.8759 Y64.5696
G01 X39.8489 Y64.5639
G01 X39.8311 Y64.5590
G01 X39.8137 Y64.5532
G01 X39.7880 Y64.5429
G01 X39.7714 Y64.5351
G01 X39.7552 Y64.5264
G01 X39.7394 Y64.5169
G01 X39.7241 Y64.5067
G01 X39.7093 Y64.4957
G01 X39.6951 Y64.4841
G01 X39.6814 Y64.4717
G01 X39.6684 Y64.4587
G01 X39.6560 Y64.4451
G01 X39.6444 Y64.4308
G01 X39.6282 Y64.4085
G01 X39.6184 Y64.3929
G01 X39.6093 Y64.3769
G01 X39.6010 Y64.3605
G01 X39.5935 Y64.3436
G01 X39.5869 Y64.3265
G01 X39.5811 Y64.3090
G01 X39.5762 Y64.2912
G01 X39.5722 Y64.2733
G01 X39.5691 Y64.2551
G01 X39.5668 Y64.2369
G01 X39.5655 Y64.2185
G01 X39.5650 Y64.2001
G01 X39.5650 Y62.4001
G01 X39.5660 Y62.3725
G01 X39.5683 Y62.3506
G01 X33.2003 Y68.7186
G01 X33.2003 Y93.0501
G01 X33.1999 Y93.0685
G01 X33.1968 Y93.1308
G01 X33.1955 Y93.1491
G01 X33.1932 Y93.1674
G01 X33.1841 Y93.2291
G01 X33.1790 Y93.2562
G01 X33.1617 Y93.3257
G01 X33.1568 Y93.3434
G01 X33.1510 Y93.3609
G01 X33.1268 Y93.4282
G01 X33.1160 Y93.4536
G01 X33.0893 Y93.5099
G01 X33.0810 Y93.5264
G01 X33.0719 Y93.5424
G01 X33.0399 Y93.5959
G01 X33.0300 Y93.6114
G01 X33.0194 Y93.6265
G01 X32.9767 Y93.6839
G01 X32.9590 Y93.7050
G01 X32.9171 Y93.7512
G01 X32.9044 Y93.7645
G01 X31.8791 Y94.7898
G01 X33.3152 Y94.7898
G01 X33.3160 Y94.7725
G01 X33.3178 Y94.7542
G01 X33.3205 Y94.7360
G01 X33.3241 Y94.7180
G01 X33.3286 Y94.7001
G01 X33.3339 Y94.6825
G01 X33.3435 Y94.6566
G01 X33.3510 Y94.6398
G01 X33.3593 Y94.6233
G01 X33.3684 Y94.6073
G01 X33.3782 Y94.5918
G01 X33.3944 Y94.5694
G01 X33.4060 Y94.5552
G01 X33.4184 Y94.5415
G01 X33.4314 Y94.5285
G01 X33.4451 Y94.5162
G01 X33.4593 Y94.5045
G01 X33.4741 Y94.4935
G01 X33.4894 Y94.4833
G01 X33.5052 Y94.4738
G01 X33.5297 Y94.4611
G01 X33.5465 Y94.4537
G01 X33.5637 Y94.4470
G01 X33.5811 Y94.4413
G01 X33.5989 Y94.4364
G01 X33.6168 Y94.4323
G01 X33.6350 Y94.4292
G01 X33.6624 Y94.4261
G01 X33.6900 Y94.4251
G01 X35.6992 Y94.4252
G01 X35.7268 Y94.4269
G01 X35.7450 Y94.4292
G01 X35.7722 Y94.4342
G01 X35.7900 Y94.4387
G01 X35.8163 Y94.4470
G01 X35.8335 Y94.4537
G01 X35.8586 Y94.4652
G01 X35.8828 Y94.4785
G01 X35.9059 Y94.4935
G01 X35.9207 Y94.5045
G01 X35.9418 Y94.5223
G01 X35.9552 Y94.5350
G01 X35.9740 Y94.5552
G01 X35.9856 Y94.5694
G01 X35.9966 Y94.5842
G01 X36.0116 Y94.6073
G01 X36.0250 Y94.6315
G01 X36.0328 Y94.6482
G01 X36.0431 Y94.6738
G01 X36.0489 Y94.6913
G01 X36.0538 Y94.7090
G01 X36.0578 Y94.7270
G01 X36.0609 Y94.7451
G01 X36.0640 Y94.7725
G01 X36.0650 Y94.8001
G01 X36.0650 Y96.8001
G01 X36.0640 Y96.8277
G01 X36.0609 Y96.8551
G01 X36.0578 Y96.8733
G01 X36.0514 Y96.9001
G01 X36.0461 Y96.9177
G01 X36.0365 Y96.9436
G01 X36.0250 Y96.9687
G01 X36.0116 Y96.9929
G01 X35.9966 Y97.0160
G01 X35.9799 Y97.0380
G01 X35.9616 Y97.0587
G01 X35.9486 Y97.0717
G01 X35.9349 Y97.0841
G01 X35.9134 Y97.1013
G01 X35.8906 Y97.1169
G01 X35.8748 Y97.1264
G01 X35.8503 Y97.1391
G01 X35.8335 Y97.1466
G01 X35.8163 Y97.1532
G01 X35.7900 Y97.1615
G01 X35.7632 Y97.1679
G01 X35.7450 Y97.1711
G01 X35.7268 Y97.1733
G01 X35.6992 Y97.1750
G01 X33.6900 Y97.1751
G01 X33.6716 Y97.1747
G01 X33.6441 Y97.1723
G01 X33.6259 Y97.1696
G01 X33.6078 Y97.1660
G01 X33.5900 Y97.1615
G01 X33.5724 Y97.1562
G01 X33.5550 Y97.1500
G01 X33.5380 Y97.1429
G01 X33.5132 Y97.1308
G01 X33.4972 Y97.1218
G01 X33.4817 Y97.1119
G01 X33.4593 Y97.0957
G01 X33.4382 Y97.0780
G01 X33.4248 Y97.0653
G01 X33.4121 Y97.0520
G01 X33.4001 Y97.0380
G01 X33.3888 Y97.0235
G01 X33.3732 Y97.0007
G01 X33.3593 Y96.9769
G01 X33.3510 Y96.9605
G01 X33.3435 Y96.9436
G01 X33.3339 Y96.9177
G01 X33.3286 Y96.9001
G01 X33.3241 Y96.8823
G01 X33.3205 Y96.8642
G01 X33.3178 Y96.8460
G01 X33.3160 Y96.8277
G01 X33.3152 Y96.8104
G01 X29.8533 Y96.8104
G01 X29.8338 Y96.8269
G01 X29.7689 Y96.8750
G01 X29.7458 Y96.8900
G01 X29.6923 Y96.9221
G01 X29.6681 Y96.9354
G01 X29.6035 Y96.9661
G01 X29.5866 Y96.9735
G01 X29.5695 Y96.9802
G01 X29.5108 Y97.0012
G01 X29.4933 Y97.0069
G01 X29.4755 Y97.0118
G01 X29.4151 Y97.0270
G01 X29.3971 Y97.0310
G01 X29.3790 Y97.0342
G01 X29.3173 Y97.0433
G01 X29.2990 Y97.0456
G01 X29.2807 Y97.0469
G01 X29.2184 Y97.0500
G01 X29.2000 Y97.0504
G01 X22.9208 Y97.0503
G01 X22.8493 Y97.0469
G01 X22.8310 Y97.0456
G01 X22.8127 Y97.0433
G01 X22.7510 Y97.0342
G01 X22.7329 Y97.0310
G01 X22.7149 Y97.0270
G01 X22.6545 Y97.0118
G01 X22.6367 Y97.0069
G01 X22.6192 Y97.0012
G01 X22.5605 Y96.9802
G01 X22.5434 Y96.9735
G01 X22.5265 Y96.9661
G01 X22.4702 Y96.9394
G01 X22.4537 Y96.9311
G01 X22.4377 Y96.9221
G01 X22.3842 Y96.8900
G01 X22.3611 Y96.8750
G01 X22.3036 Y96.8324
G01 X22.2891 Y96.8211
G01 X22.2751 Y96.8091
G01 X22.2289 Y96.7672
G01 X22.2156 Y96.7545
G01 X14.9756 Y89.5145
G01 X14.9629 Y89.5012
G01 X14.9210 Y89.4550
G01 X14.9090 Y89.4411
G01 X14.8977 Y89.4265
G01 X14.8605 Y89.3765
G01 X14.8500 Y89.3614
G01 X14.8401 Y89.3459
G01 X14.8081 Y89.2924
G01 X14.7947 Y89.2682
G01 X14.7640 Y89.2036
G01 X14.7532 Y89.1782
G01 X14.7260 Y89.1022
G01 X14.7183 Y89.0757
G01 X14.7031 Y89.0152
G01 X14.6991 Y88.9972
G01 X14.6959 Y88.9791
G01 X14.6868 Y88.9174
G01 X14.6838 Y88.8900
G01 X14.6798 Y88.8093
G01 X14.6797 Y81.4686
G01 X12.8415 Y79.6304
G01 X12.1766 Y79.6304
G01 X12.1571 Y79.6448
G01 X12.1418 Y79.6550
G01 X12.0613 Y79.7034
G01 X12.0453 Y79.7125
G01 X12.0288 Y79.7207
G01 X11.9522 Y79.7570
G01 X11.9268 Y79.7679
G01 X11.8384 Y79.7996
G01 X11.8209 Y79.8054
G01 X11.8032 Y79.8103
G01 X11.7210 Y79.8309
G01 X11.7030 Y79.8349
G01 X11.6849 Y79.8381
G01 X11.6011 Y79.8505
G01 X11.5828 Y79.8528
G01 X11.5644 Y79.8541
G01 X11.4798 Y79.8583
G01 X11.4614 Y79.8587
G01 X10.9294 Y79.8586
G01 X10.8356 Y79.8541
G01 X10.8172 Y79.8528
G01 X10.7989 Y79.8505
G01 X10.7060 Y79.8366
G01 X10.6790 Y79.8309
G01 X10.5968 Y79.8103
G01 X10.5791 Y79.8054
G01 X10.5616 Y79.7996
G01 X10.4818 Y79.7711
G01 X10.4646 Y79.7644
G01 X10.4478 Y79.7570
G01 X10.3712 Y79.7207
G01 X10.3547 Y79.7125
G01 X10.3387 Y79.7034
G01 X10.2660 Y79.6598
G01 X10.2505 Y79.6500
G01 X10.2354 Y79.6394
G01 X10.1674 Y79.5889
G01 X10.1528 Y79.5776
G01 X10.1389 Y79.5655
G01 X10.0761 Y79.5086
G01 X10.0628 Y79.4959
G01 X10.0501 Y79.4826
G01 X9.9932 Y79.4198
G01 X9.9811 Y79.4059
G01 X9.9698 Y79.3914
G01 X9.9193 Y79.3233
G01 X9.9087 Y79.3082
G01 X9.8989 Y79.2927
G01 X9.8553 Y79.2200
G01 X9.8463 Y79.2040
G01 X9.8380 Y79.1875
G01 X9.8017 Y79.1109
G01 X9.7909 Y79.0856
G01 X9.7591 Y78.9971
G01 X9.7533 Y78.9797
G01 X9.7484 Y78.9619
G01 X9.7278 Y78.8797
G01 X9.7238 Y78.8618
G01 X9.7207 Y78.8436
G01 X9.7082 Y78.7598
G01 X9.7060 Y78.7415
G01 X9.7046 Y78.7232
G01 X9.7005 Y78.6385
G01 X9.7000 Y78.6201
G01 X9.7005 Y78.6017
G01 X9.7046 Y78.5171
G01 X9.7060 Y78.4987
G01 X9.7082 Y78.4804
G01 X9.7207 Y78.3966
G01 X9.7238 Y78.3785
G01 X9.7278 Y78.3605
G01 X9.7484 Y78.2783
G01 X9.7533 Y78.2606
G01 X9.7591 Y78.2431
G01 X9.7877 Y78.1633
G01 X9.7943 Y78.1461
G01 X9.8017 Y78.1293
G01 X9.8380 Y78.0527
G01 X9.8463 Y78.0362
G01 X9.8553 Y78.0202
G01 X9.8989 Y77.9475
G01 X9.9087 Y77.9320
G01 X9.9193 Y77.9169
G01 X9.9698 Y77.8489
G01 X9.9811 Y77.8344
G01 X9.9932 Y77.8204
G01 X10.0501 Y77.7576
G01 X10.0628 Y77.7443
G01 X10.0761 Y77.7316
G01 X10.1389 Y77.6747
G01 X10.1528 Y77.6627
G01 X10.1674 Y77.6513
G01 X10.2354 Y77.6009
G01 X10.2505 Y77.5903
G01 X10.2660 Y77.5804
G01 X10.3387 Y77.5368
G01 X10.3547 Y77.5278
G01 X10.3712 Y77.5195
G01 X10.4478 Y77.4833
G01 X10.4732 Y77.4724
G01 X10.5616 Y77.4406
G01 X10.5791 Y77.4349
G01 X10.5968 Y77.4299
G01 X10.6790 Y77.4093
G01 X10.6970 Y77.4053
G01 X10.7151 Y77.4022
G01 X10.7989 Y77.3897
G01 X10.8264 Y77.3867
G01 X10.9202 Y77.3820
G01 X10.9386 Y77.3815
G01 X11.4614 Y77.3815
G01 X11.4798 Y77.3820
G01 X11.5644 Y77.3861
G01 X11.5828 Y77.3875
G01 X11.6011 Y77.3897
G01 X11.6849 Y77.4022
G01 X11.7120 Y77.4072
G01 X11.8032 Y77.4299
G01 X11.8209 Y77.4349
G01 X11.8384 Y77.4406
G01 X11.9182 Y77.4692
G01 X11.9354 Y77.4758
G01 X11.9522 Y77.4833
G01 X12.0288 Y77.5195
G01 X12.0453 Y77.5278
G01 X12.0613 Y77.5368
G01 X12.1418 Y77.5852
G01 X12.1571 Y77.5955
G01 X12.1766 Y77.6098
G01 X13.2692 Y77.6099
G01 X13.3407 Y77.6133
G01 X13.3590 Y77.6147
G01 X13.3773 Y77.6169
G01 X13.4390 Y77.6261
G01 X13.4571 Y77.6292
G01 X13.4751 Y77.6332
G01 X13.5355 Y77.6484
G01 X13.5533 Y77.6533
G01 X13.5708 Y77.6591
G01 X13.6295 Y77.6801
G01 X13.6466 Y77.6867
G01 X13.6635 Y77.6942
G01 X13.7198 Y77.7208
G01 X13.7363 Y77.7291
G01 X13.7523 Y77.7382
G01 X13.8058 Y77.7702
G01 X13.8213 Y77.7801
G01 X13.8364 Y77.7907
G01 X13.8864 Y77.8278
G01 X13.9009 Y77.8391
G01 X13.9149 Y77.8512
G01 X13.9611 Y77.8930
G01 X13.9744 Y77.9057
G01 X16.4044 Y80.3357
G01 X16.4171 Y80.3490
G01 X16.4651 Y80.4021
G01 X16.4823 Y80.4237
G01 X16.5248 Y80.4812
G01 X16.5399 Y80.5044
G01 X16.5719 Y80.5578
G01 X16.5853 Y80.5820
G01 X16.6160 Y80.6467
G01 X16.6234 Y80.6635
G01 X16.6300 Y80.6807
G01 X16.6510 Y80.7394
G01 X16.6568 Y80.7568
G01 X16.6617 Y80.7746
G01 X16.6769 Y80.8351
G01 X16.6809 Y80.8530
G01 X16.6841 Y80.8711
G01 X16.6932 Y80.9328
G01 X16.6955 Y80.9511
G01 X16.6968 Y80.9694
G01 X16.7002 Y81.0409
G01 X16.7003 Y88.3816
G01 X23.3485 Y95.0298
G01 X25.7742 Y95.0298
G01 X25.7218 Y95.0111
G01 X25.7046 Y95.0044
G01 X25.6878 Y94.9970
G01 X25.6029 Y94.9567
G01 X25.5787 Y94.9434
G01 X25.4982 Y94.8950
G01 X25.4754 Y94.8794
G01 X25.4074 Y94.8289
G01 X25.3928 Y94.8176
G01 X25.3789 Y94.8055
G01 X25.3094 Y94.7424
G01 X25.2901 Y94.7226
G01 X25.2332 Y94.6598
G01 X25.2211 Y94.6459
G01 X25.2098 Y94.6314
G01 X25.1593 Y94.5633
G01 X25.1487 Y94.5482
G01 X25.1389 Y94.5327
G01 X25.0953 Y94.4600
G01 X25.0863 Y94.4440
G01 X25.0780 Y94.4275
G01 X25.0379 Y94.3426
G01 X25.0277 Y94.3169
G01 X24.9991 Y94.2371
G01 X24.9933 Y94.2197
G01 X24.9884 Y94.2019
G01 X24.9678 Y94.1197
G01 X24.9638 Y94.1018
G01 X24.9607 Y94.0836
G01 X24.9482 Y93.9998
G01 X24.9460 Y93.9815
G01 X24.9446 Y93.9632
G01 X24.9405 Y93.8785
G01 X24.9400 Y93.8601
G01 X24.9405 Y93.8417
G01 X24.9446 Y93.7571
G01 X24.9460 Y93.7387
G01 X24.9482 Y93.7204
G01 X24.9607 Y93.6366
G01 X24.9638 Y93.6185
G01 X24.9678 Y93.6005
G01 X24.9884 Y93.5183
G01 X24.9933 Y93.5006
G01 X24.9991 Y93.4831
G01 X25.0309 Y93.3947
G01 X25.0417 Y93.3693
G01 X25.0780 Y93.2927
G01 X25.0863 Y93.2762
G01 X25.0953 Y93.2602
G01 X25.1389 Y93.1875
G01 X25.1487 Y93.1720
G01 X25.1593 Y93.1569
G01 X25.2098 Y93.0889
G01 X25.2211 Y93.0744
G01 X25.2332 Y93.0604
G01 X25.2901 Y92.9976
G01 X25.3028 Y92.9843
G01 X25.3161 Y92.9716
G01 X25.3789 Y92.9147
G01 X25.3928 Y92.9027
G01 X25.4074 Y92.8913
G01 X25.4754 Y92.8409
G01 X25.4905 Y92.8303
G01 X25.5060 Y92.8204
G01 X25.5787 Y92.7768
G01 X25.5947 Y92.7678
G01 X25.6112 Y92.7595
G01 X25.6878 Y92.7233
G01 X25.7132 Y92.7124
G01 X25.8016 Y92.6806
G01 X25.8191 Y92.6749
G01 X25.8368 Y92.6699
G01 X25.9190 Y92.6493
G01 X25.9370 Y92.6453
G01 X25.9551 Y92.6422
G01 X26.0389 Y92.6297
G01 X26.0572 Y92.6275
G01 X26.0756 Y92.6261
G01 X26.1602 Y92.6220
G01 X26.1786 Y92.6215
G01 X26.7014 Y92.6215
G01 X26.7198 Y92.6220
G01 X26.8044 Y92.6261
G01 X26.8228 Y92.6275
G01 X26.8411 Y92.6297
G01 X26.9249 Y92.6422
G01 X26.9520 Y92.6472
G01 X27.0432 Y92.6699
G01 X27.0609 Y92.6749
G01 X27.0784 Y92.6806
G01 X27.1582 Y92.7092
G01 X27.1754 Y92.7158
G01 X27.1922 Y92.7233
G01 X27.2688 Y92.7595
G01 X27.2853 Y92.7678
G01 X27.3013 Y92.7768
G01 X27.3740 Y92.8204
G01 X27.3895 Y92.8303
G01 X27.4046 Y92.8409
G01 X27.4726 Y92.8913
G01 X27.4872 Y92.9027
G01 X27.5011 Y92.9147
G01 X27.5639 Y92.9716
G01 X27.5772 Y92.9843
G01 X27.5899 Y92.9976
G01 X27.6468 Y93.0604
G01 X27.6589 Y93.0744
G01 X27.6702 Y93.0889
G01 X27.7207 Y93.1569
G01 X27.7313 Y93.1720
G01 X27.7411 Y93.1875
G01 X27.7847 Y93.2602
G01 X27.7937 Y93.2762
G01 X27.8020 Y93.2927
G01 X27.8421 Y93.3777
G01 X27.8523 Y93.4033
G01 X27.8809 Y93.4831
G01 X27.8867 Y93.5006
G01 X27.8916 Y93.5183
G01 X27.9122 Y93.6005
G01 X27.9179 Y93.6275
G01 X27.9318 Y93.7204
G01 X27.9340 Y93.7387
G01 X27.9354 Y93.7571
G01 X27.9395 Y93.8417
G01 X27.9400 Y93.8601
G01 X27.9395 Y93.8785
G01 X27.9354 Y93.9632
G01 X27.9340 Y93.9815
G01 X27.9318 Y93.9998
G01 X27.9193 Y94.0836
G01 X27.9143 Y94.1108
G01 X27.8916 Y94.2019
G01 X27.8867 Y94.2197
G01 X27.8809 Y94.2371
G01 X27.8523 Y94.3169
G01 X27.8457 Y94.3341
G01 X27.8383 Y94.3509
G01 X27.8020 Y94.4275
G01 X27.7893 Y94.4521
G01 X27.7411 Y94.5327
G01 X27.7313 Y94.5482
G01 X27.7207 Y94.5633
G01 X27.6702 Y94.6314
G01 X27.6589 Y94.6459
G01 X27.6468 Y94.6598
G01 X27.5899 Y94.7226
G01 X27.5772 Y94.7359
G01 X27.5639 Y94.7486
G01 X27.4942 Y94.8116
G01 X27.4726 Y94.8289
G01 X27.4046 Y94.8794
G01 X27.3895 Y94.8900
G01 X27.3740 Y94.8998
G01 X27.2933 Y94.9480
G01 X27.2688 Y94.9607
G01 X27.1839 Y95.0008
G01 X27.1582 Y95.0111
G01 X27.1058 Y95.0298
G01 X28.7815 Y95.0298
G01 X31.1797 Y92.6316
G01 X31.1797 Y68.3001
G01 X31.1801 Y68.2817
