(G-CODE GENERATED BY FLATCAM v8.994 - www.flatcam.org - Version Date: 2020/11/7)

(Name: Barramento_EITduino-PTH.drl_mill_cnc)
(Type: G-code from Geometry)
(Units: MM)

(Created on sexta, 21 julho 2023 at 19:32)

(This preprocessor is the default preprocessor used by FlatCAM.)
(It is made to work with MACH3 compatible motion controllers.)

(TOOL DIAMETER: 0.8 mm)
(Feedrate_XY: 120.0 mm/min)
(Feedrate_Z: 60.0 mm/min)
(Feedrate rapids 1500.0 mm/min)

(Z_Cut: -2.6 mm)
(Z_Move: 1.0 mm)
(Z Start: None mm)
(Z End: 15.0 mm)
(X,Y End: None mm)
(Steps per circle: 64)
(Preprocessor Geometry: default)

(X range:    0.9999 ...   81.0100  mm)
(Y range:    1.2499 ...   91.4200  mm)

(Spindle Speed: 1000.0 RPM)
G21
G90
G94

G01 F120.00

M5
G00 Z1.0000
G00 X0.0000 Y0.0000
(T1)
(M6  )  
(MSG, Change to Tool Dia = 0.80000)
(M0)
G00 Z1.0000

M03 S1000.0
G01 F120.00
G00 X1.0000 Y1.2500
G01 F60.00
G01 Z-2.6000
G01 F120.00
G01 X1.0000 Y1.2499
G01 X0.9999 Y1.2500
G01 X1.0000 Y1.2500
G01 X1.0000 Y1.2500
G00 Z1.0000
G00 X1.0000 Y3.7900
G01 F60.00
G01 Z-2.6000
G01 F120.00
G01 X1.0000 Y3.7899
G01 X0.9999 Y3.7900
G01 X1.0000 Y3.7900
G01 X1.0000 Y3.7900
G00 Z1.0000
G00 X1.0000 Y6.3300
G01 F60.00
G01 Z-2.6000
G01 F120.00
G01 X1.0000 Y6.3299
G01 X0.9999 Y6.3300
G01 X1.0000 Y6.3300
G01 X1.0000 Y6.3300
G00 Z1.0000
G00 X1.0000 Y8.8700
G01 F60.00
G01 Z-2.6000
G01 F120.00
G01 X1.0000 Y8.8699
G01 X0.9999 Y8.8700
G01 X1.0000 Y8.8700
G01 X1.0000 Y8.8700
G00 Z1.0000
G00 X1.0000 Y11.4100
G01 F60.00
G01 Z-2.6000
G01 F120.00
G01 X1.0000 Y11.4099
G01 X0.9999 Y11.4100
G01 X1.0000 Y11.4100
G01 X1.0000 Y11.4100
G00 Z1.0000
G00 X1.0000 Y13.9500
G01 F60.00
G01 Z-2.6000
G01 F120.00
G01 X1.0000 Y13.9499
G01 X0.9999 Y13.9500
G01 X1.0000 Y13.9500
G01 X1.0000 Y13.9500
G00 Z1.0000
G00 X1.0000 Y16.4900
G01 F60.00
G01 Z-2.6000
G01 F120.00
G01 X1.0000 Y16.4899
G01 X0.9999 Y16.4900
G01 X1.0000 Y16.4900
G01 X1.0000 Y16.4900
G00 Z1.0000
G00 X1.0000 Y19.0300
G01 F60.00
G01 Z-2.6000
G01 F120.00
G01 X1.0000 Y19.0299
G01 X0.9999 Y19.0300
G01 X1.0000 Y19.0300
G01 X1.0000 Y19.0300
G00 Z1.0000
G00 X1.0000 Y21.5700
G01 F60.00
G01 Z-2.6000
G01 F120.00
G01 X1.0000 Y21.5699
G01 X0.9999 Y21.5700
G01 X1.0000 Y21.5700
G01 X1.0000 Y21.5700
G00 Z1.0000
G00 X1.0000 Y24.1100
G01 F60.00
G01 Z-2.6000
G01 F120.00
G01 X1.0000 Y24.1099
G01 X0.9999 Y24.1100
G01 X1.0000 Y24.1100
G01 X1.0000 Y24.1100
G00 Z1.0000
G00 X1.0000 Y26.6500
G01 F60.00
G01 Z-2.6000
G01 F120.00
G01 X1.0000 Y26.6499
G01 X0.9999 Y26.6500
G01 X1.0000 Y26.6500
G01 X1.0000 Y26.6500
G00 Z1.0000
G00 X1.0000 Y29.1900
G01 F60.00
G01 Z-2.6000
G01 F120.00
G01 X1.0000 Y29.1899
G01 X0.9999 Y29.1900
G01 X1.0000 Y29.1900
G01 X1.0000 Y29.1900
G00 Z1.0000
G00 X1.0000 Y31.7300
G01 F60.00
G01 Z-2.6000
G01 F120.00
G01 X1.0000 Y31.7299
G01 X0.9999 Y31.7300
G01 X1.0000 Y31.7300
G01 X1.0000 Y31.7300
G00 Z1.0000
G00 X1.0000 Y34.2700
G01 F60.00
G01 Z-2.6000
G01 F120.00
G01 X1.0000 Y34.2699
G01 X0.9999 Y34.2700
G01 X1.0000 Y34.2700
G01 X1.0000 Y34.2700
G00 Z1.0000
G00 X1.0000 Y36.8100
G01 F60.00
G01 Z-2.6000
G01 F120.00
G01 X1.0000 Y36.8099
G01 X0.9999 Y36.8100
G01 X1.0000 Y36.8100
G01 X1.0000 Y36.8100
G00 Z1.0000
G00 X1.0000 Y39.3500
G01 F60.00
G01 Z-2.6000
G01 F120.00
G01 X1.0000 Y39.3499
G01 X0.9999 Y39.3500
G01 X1.0000 Y39.3500
G01 X1.0000 Y39.3500
G00 Z1.0000
G00 X1.0000 Y41.8900
G01 F60.00
G01 Z-2.6000
G01 F120.00
G01 X1.0000 Y41.8899
G01 X0.9999 Y41.8900
G01 X1.0000 Y41.8900
G01 X1.0000 Y41.8900
G00 Z1.0000
G00 X1.0000 Y44.4300
G01 F60.00
G01 Z-2.6000
G01 F120.00
G01 X1.0000 Y44.4299
G01 X0.9999 Y44.4300
G01 X1.0000 Y44.4300
G01 X1.0000 Y44.4300
G00 Z1.0000
G00 X1.0000 Y46.9700
G01 F60.00
G01 Z-2.6000
G01 F120.00
G01 X1.0000 Y46.9699
G01 X0.9999 Y46.9700
G01 X1.0000 Y46.9700
G01 X1.0000 Y46.9700
G00 Z1.0000
G00 X1.0000 Y49.5100
G01 F60.00
G01 Z-2.6000
G01 F120.00
G01 X1.0000 Y49.5099
G01 X0.9999 Y49.5100
G01 X1.0000 Y49.5100
G01 X1.0000 Y49.5100
G00 Z1.0000
G00 X1.0000 Y52.0500
G01 F60.00
G01 Z-2.6000
G01 F120.00
G01 X1.0000 Y52.0499
G01 X0.9999 Y52.0500
G01 X1.0000 Y52.0500
G01 X1.0000 Y52.0500
G00 Z1.0000
G00 X1.0000 Y54.5900
G01 F60.00
G01 Z-2.6000
G01 F120.00
G01 X1.0000 Y54.5899
G01 X0.9999 Y54.5900
G01 X1.0000 Y54.5900
G01 X1.0000 Y54.5900
G00 Z1.0000
G00 X1.0000 Y57.1300
G01 F60.00
G01 Z-2.6000
G01 F120.00
G01 X1.0000 Y57.1299
G01 X0.9999 Y57.1300
G01 X1.0000 Y57.1300
G01 X1.0000 Y57.1300
G00 Z1.0000
G00 X1.0000 Y59.6700
G01 F60.00
G01 Z-2.6000
G01 F120.00
G01 X1.0000 Y59.6699
G01 X0.9999 Y59.6700
G01 X1.0000 Y59.6700
G01 X1.0000 Y59.6700
G00 Z1.0000
G00 X1.0000 Y62.2100
G01 F60.00
G01 Z-2.6000
G01 F120.00
G01 X1.0000 Y62.2099
G01 X0.9999 Y62.2100
G01 X1.0000 Y62.2100
G01 X1.0000 Y62.2100
G00 Z1.0000
G00 X1.0000 Y64.7500
G01 F60.00
G01 Z-2.6000
G01 F120.00
G01 X1.0000 Y64.7499
G01 X0.9999 Y64.7500
G01 X1.0000 Y64.7500
G01 X1.0000 Y64.7500
G00 Z1.0000
G00 X1.0000 Y67.2900
G01 F60.00
G01 Z-2.6000
G01 F120.00
G01 X1.0000 Y67.2899
G01 X0.9999 Y67.2900
G01 X1.0000 Y67.2900
G01 X1.0000 Y67.2900
G00 Z1.0000
G00 X1.0000 Y73.6400
G01 F60.00
G01 Z-2.6000
G01 F120.00
G01 X1.0000 Y73.6399
G01 X0.9999 Y73.6400
G01 X1.0000 Y73.6400
G01 X1.0000 Y73.6400
G00 Z1.0000
G00 X1.0000 Y76.1800
G01 F60.00
G01 Z-2.6000
G01 F120.00
G01 X1.0000 Y76.1799
G01 X0.9999 Y76.1800
G01 X1.0000 Y76.1800
G01 X1.0000 Y76.1800
G00 Z1.0000
G00 X1.0000 Y78.7200
G01 F60.00
G01 Z-2.6000
G01 F120.00
G01 X1.0000 Y78.7199
G01 X0.9999 Y78.7200
G01 X1.0000 Y78.7200
G01 X1.0000 Y78.7200
G00 Z1.0000
G00 X1.0000 Y81.2600
G01 F60.00
G01 Z-2.6000
G01 F120.00
G01 X1.0000 Y81.2599
G01 X0.9999 Y81.2600
G01 X1.0000 Y81.2600
G01 X1.0000 Y81.2600
G00 Z1.0000
G00 X1.0000 Y83.8000
G01 F60.00
G01 Z-2.6000
G01 F120.00
G01 X1.0000 Y83.7999
G01 X0.9999 Y83.8000
G01 X1.0000 Y83.8000
G01 X1.0000 Y83.8000
G00 Z1.0000
G00 X1.0000 Y86.3400
G01 F60.00
G01 Z-2.6000
G01 F120.00
G01 X1.0000 Y86.3399
G01 X0.9999 Y86.3400
G01 X1.0000 Y86.3400
G01 X1.0000 Y86.3400
G00 Z1.0000
G00 X1.0000 Y88.8800
G01 F60.00
G01 Z-2.6000
G01 F120.00
G01 X1.0000 Y88.8799
G01 X0.9999 Y88.8800
G01 X1.0000 Y88.8800
G01 X1.0000 Y88.8800
G00 Z1.0000
G00 X1.0000 Y91.4200
G01 F60.00
G01 Z-2.6000
G01 F120.00
G01 X1.0000 Y91.4199
G01 X0.9999 Y91.4200
G01 X1.0000 Y91.4200
G01 X1.0000 Y91.4200
G00 Z1.0000
G00 X81.0100 Y91.4200
G01 F60.00
G01 Z-2.6000
G01 F120.00
G01 X81.0100 Y91.4199
G01 X81.0099 Y91.4200
G01 X81.0100 Y91.4200
G01 X81.0100 Y91.4200
G00 Z1.0000
G00 X81.0100 Y88.8800
G01 F60.00
G01 Z-2.6000
G01 F120.00
G01 X81.0100 Y88.8799
G01 X81.0099 Y88.8800
G01 X81.0100 Y88.8800
G01 X81.0100 Y88.8800
G00 Z1.0000
G00 X81.0100 Y86.3400
G01 F60.00
G01 Z-2.6000
G01 F120.00
G01 X81.0100 Y86.3399
G01 X81.0099 Y86.3400
G01 X81.0100 Y86.3400
G01 X81.0100 Y86.3400
G00 Z1.0000
G00 X81.0100 Y83.8000
G01 F60.00
G01 Z-2.6000
G01 F120.00
G01 X81.0100 Y83.7999
G01 X81.0099 Y83.8000
G01 X81.0100 Y83.8000
G01 X81.0100 Y83.8000
G00 Z1.0000
G00 X81.0100 Y81.2600
G01 F60.00
G01 Z-2.6000
G01 F120.00
G01 X81.0100 Y81.2599
G01 X81.0099 Y81.2600
G01 X81.0100 Y81.2600
G01 X81.0100 Y81.2600
G00 Z1.0000
G00 X81.0100 Y78.7200
G01 F60.00
G01 Z-2.6000
G01 F120.00
G01 X81.0100 Y78.7199
G01 X81.0099 Y78.7200
G01 X81.0100 Y78.7200
G01 X81.0100 Y78.7200
G00 Z1.0000
G00 X81.0100 Y76.1800
G01 F60.00
G01 Z-2.6000
G01 F120.00
G01 X81.0100 Y76.1799
G01 X81.0099 Y76.1800
G01 X81.0100 Y76.1800
G01 X81.0100 Y76.1800
G00 Z1.0000
G00 X81.0100 Y73.6400
G01 F60.00
G01 Z-2.6000
G01 F120.00
G01 X81.0100 Y73.6399
G01 X81.0099 Y73.6400
G01 X81.0100 Y73.6400
G01 X81.0100 Y73.6400
G00 Z1.0000
G00 X81.0100 Y71.1000
G01 F60.00
G01 Z-2.6000
G01 F120.00
G01 X81.0100 Y71.0999
G01 X81.0099 Y71.1000
G01 X81.0100 Y71.1000
G01 X81.0100 Y71.1000
G00 Z1.0000
G00 X81.0100 Y68.5600
G01 F60.00
G01 Z-2.6000
G01 F120.00
G01 X81.0100 Y68.5599
G01 X81.0099 Y68.5600
G01 X81.0100 Y68.5600
G01 X81.0100 Y68.5600
G00 Z1.0000
G00 X81.0100 Y66.0200
G01 F60.00
G01 Z-2.6000
G01 F120.00
G01 X81.0100 Y66.0199
G01 X81.0099 Y66.0200
G01 X81.0100 Y66.0200
G01 X81.0100 Y66.0200
G00 Z1.0000
G00 X81.0100 Y63.4800
G01 F60.00
G01 Z-2.6000
G01 F120.00
G01 X81.0100 Y63.4799
G01 X81.0099 Y63.4800
G01 X81.0100 Y63.4800
G01 X81.0100 Y63.4800
G00 Z1.0000
G00 X81.0100 Y60.9400
G01 F60.00
G01 Z-2.6000
G01 F120.00
G01 X81.0100 Y60.9399
G01 X81.0099 Y60.9400
G01 X81.0100 Y60.9400
G01 X81.0100 Y60.9400
G00 Z1.0000
G00 X81.0100 Y58.4000
G01 F60.00
G01 Z-2.6000
G01 F120.00
G01 X81.0100 Y58.3999
G01 X81.0099 Y58.4000
G01 X81.0100 Y58.4000
G01 X81.0100 Y58.4000
G00 Z1.0000
G00 X81.0100 Y55.8600
G01 F60.00
G01 Z-2.6000
G01 F120.00
G01 X81.0100 Y55.8599
G01 X81.0099 Y55.8600
G01 X81.0100 Y55.8600
G01 X81.0100 Y55.8600
G00 Z1.0000
G00 X81.0100 Y53.3200
G01 F60.00
G01 Z-2.6000
G01 F120.00
G01 X81.0100 Y53.3199
G01 X81.0099 Y53.3200
G01 X81.0100 Y53.3200
G01 X81.0100 Y53.3200
G00 Z1.0000
G00 X81.0100 Y50.7800
G01 F60.00
G01 Z-2.6000
G01 F120.00
G01 X81.0100 Y50.7799
G01 X81.0099 Y50.7800
G01 X81.0100 Y50.7800
G01 X81.0100 Y50.7800
G00 Z1.0000
G00 X81.0100 Y48.2400
G01 F60.00
G01 Z-2.6000
G01 F120.00
G01 X81.0100 Y48.2399
G01 X81.0099 Y48.2400
G01 X81.0100 Y48.2400
G01 X81.0100 Y48.2400
G00 Z1.0000
G00 X81.0100 Y45.7000
G01 F60.00
G01 Z-2.6000
G01 F120.00
G01 X81.0100 Y45.6999
G01 X81.0099 Y45.7000
G01 X81.0100 Y45.7000
G01 X81.0100 Y45.7000
G00 Z1.0000
G00 X81.0100 Y43.1600
G01 F60.00
G01 Z-2.6000
G01 F120.00
G01 X81.0100 Y43.1599
G01 X81.0099 Y43.1600
G01 X81.0100 Y43.1600
G01 X81.0100 Y43.1600
G00 Z1.0000
G00 X81.0100 Y40.6200
G01 F60.00
G01 Z-2.6000
G01 F120.00
G01 X81.0100 Y40.6199
G01 X81.0099 Y40.6200
G01 X81.0100 Y40.6200
G01 X81.0100 Y40.6200
G00 Z1.0000
G00 X81.0100 Y38.0800
G01 F60.00
G01 Z-2.6000
G01 F120.00
G01 X81.0100 Y38.0799
G01 X81.0099 Y38.0800
G01 X81.0100 Y38.0800
G01 X81.0100 Y38.0800
G00 Z1.0000
G00 X81.0100 Y35.5400
G01 F60.00
G01 Z-2.6000
G01 F120.00
G01 X81.0100 Y35.5399
G01 X81.0099 Y35.5400
G01 X81.0100 Y35.5400
G01 X81.0100 Y35.5400
G00 Z1.0000
G00 X81.0100 Y33.0000
G01 F60.00
G01 Z-2.6000
G01 F120.00
G01 X81.0100 Y32.9999
G01 X81.0099 Y33.0000
G01 X81.0100 Y33.0000
G01 X81.0100 Y33.0000
G00 Z1.0000
G00 X81.0100 Y30.4600
G01 F60.00
G01 Z-2.6000
G01 F120.00
G01 X81.0100 Y30.4599
G01 X81.0099 Y30.4600
G01 X81.0100 Y30.4600
G01 X81.0100 Y30.4600
G00 Z1.0000
G00 X81.0100 Y27.9200
G01 F60.00
G01 Z-2.6000
G01 F120.00
G01 X81.0100 Y27.9199
G01 X81.0099 Y27.9200
G01 X81.0100 Y27.9200
G01 X81.0100 Y27.9200
G00 Z1.0000
G00 X81.0100 Y25.3800
G01 F60.00
G01 Z-2.6000
G01 F120.00
G01 X81.0100 Y25.3799
G01 X81.0099 Y25.3800
G01 X81.0100 Y25.3800
G01 X81.0100 Y25.3800
G00 Z1.0000
G00 X81.0100 Y22.8400
G01 F60.00
G01 Z-2.6000
G01 F120.00
G01 X81.0100 Y22.8399
G01 X81.0099 Y22.8400
G01 X81.0100 Y22.8400
G01 X81.0100 Y22.8400
G00 Z1.0000
G00 X81.0100 Y20.3000
G01 F60.00
G01 Z-2.6000
G01 F120.00
G01 X81.0100 Y20.2999
G01 X81.0099 Y20.3000
G01 X81.0100 Y20.3000
G01 X81.0100 Y20.3000
G00 Z1.0000
G00 X81.0100 Y17.7600
G01 F60.00
G01 Z-2.6000
G01 F120.00
G01 X81.0100 Y17.7599
G01 X81.0099 Y17.7600
G01 X81.0100 Y17.7600
G01 X81.0100 Y17.7600
G00 Z1.0000
G00 X81.0100 Y15.2200
G01 F60.00
G01 Z-2.6000
G01 F120.00
G01 X81.0100 Y15.2199
G01 X81.0099 Y15.2200
G01 X81.0100 Y15.2200
G01 X81.0100 Y15.2200
G00 Z1.0000
G00 X81.0100 Y12.6800
G01 F60.00
G01 Z-2.6000
G01 F120.00
G01 X81.0100 Y12.6799
G01 X81.0099 Y12.6800
G01 X81.0100 Y12.6800
G01 X81.0100 Y12.6800
G00 Z1.0000
G00 X81.0100 Y10.1400
G01 F60.00
G01 Z-2.6000
G01 F120.00
G01 X81.0100 Y10.1399
G01 X81.0099 Y10.1400
G01 X81.0100 Y10.1400
G01 X81.0100 Y10.1400
G00 Z1.0000
G00 X81.0100 Y7.6000
G01 F60.00
G01 Z-2.6000
G01 F120.00
G01 X81.0100 Y7.5999
G01 X81.0099 Y7.6000
G01 X81.0100 Y7.6000
G01 X81.0100 Y7.6000
G00 Z1.0000
G00 X81.0100 Y5.0600
G01 F60.00
G01 Z-2.6000
G01 F120.00
G01 X81.0100 Y5.0599
G01 X81.0099 Y5.0600
G01 X81.0100 Y5.0600
G01 X81.0100 Y5.0600
G00 Z1.0000
M05
G00 Z1.0000
G00 Z15.00


