(G-CODE GENERATED BY FLATCAM v8.994 - www.flatcam.org - Version Date: 2020/11/7)

(Name: Barramento_EITduino-B_Cu.gbr_cutout_cnc)
(Type: G-code from Geometry)
(Units: MM)

(Created on sexta, 21 julho 2023 at 19:32)

(This preprocessor is the default preprocessor used by FlatCAM.)
(It is made to work with MACH3 compatible motion controllers.)

(TOOL DIAMETER: 1.0 mm)
(Feedrate_XY: 60.0 mm/min)
(Feedrate_Z: 60.0 mm/min)
(Feedrate rapids 1500.0 mm/min)

(Z_Cut: -1.6 mm)
(DepthPerCut: 0.2 mm <=>8 passes)
(Z_Move: 1.0 mm)
(Z Start: None mm)
(Z End: 15.0 mm)
(X,Y End: None mm)
(Steps per circle: 64)
(Preprocessor Geometry: default)

(X range:   -2.5000 ...   84.5100  mm)
(Y range:   -2.5000 ...   94.6700  mm)

(Spindle Speed: 1000.0 RPM)
G21
G90
G94

G01 F60.00

M5
G00 Z1.0000
G00 X0.0000 Y0.0000
(T1)
(M6  )  
(MSG, Change to Tool Dia = 1.00000)
(M0)
G00 Z1.0000

M03 S1000.0
G01 F60.00
G00 X82.0100 Y-2.5000
G01 F60.00
G01 Z-0.2000
G01 F60.00
G01 X0.0000 Y-2.5000
G01 X-0.2450 Y-2.4880
G01 X-0.4877 Y-2.4520
G01 X-0.7257 Y-2.3924
G01 X-0.9567 Y-2.3097
G01 X-1.1785 Y-2.2048
G01 X-1.3889 Y-2.0787
G01 X-1.5860 Y-1.9325
G01 X-1.7678 Y-1.7678
G01 X-1.9325 Y-1.5860
G01 X-2.0787 Y-1.3889
G01 X-2.2048 Y-1.1785
G01 X-2.3097 Y-0.9567
G01 X-2.3924 Y-0.7257
G01 X-2.4520 Y-0.4877
G01 X-2.4880 Y-0.2450
G01 X-2.5000 Y0.0000
G01 X-2.5000 Y92.1700
G01 X-2.4880 Y92.4150
G01 X-2.4520 Y92.6577
G01 X-2.3924 Y92.8957
G01 X-2.3097 Y93.1267
G01 X-2.2048 Y93.3485
G01 X-2.0787 Y93.5589
G01 X-1.9325 Y93.7560
G01 X-1.7678 Y93.9378
G01 X-1.5860 Y94.1025
G01 X-1.3889 Y94.2487
G01 X-1.1785 Y94.3748
G01 X-0.9567 Y94.4797
G01 X-0.7257 Y94.5624
G01 X-0.4877 Y94.6220
G01 X-0.2450 Y94.6580
G01 X0.0000 Y94.6700
G01 X82.0100 Y94.6700
G01 X82.2550 Y94.6580
G01 X82.4977 Y94.6220
G01 X82.7357 Y94.5624
G01 X82.9667 Y94.4797
G01 X83.1885 Y94.3748
G01 X83.3989 Y94.2487
G01 X83.5960 Y94.1025
G01 X83.7778 Y93.9378
G01 X83.9425 Y93.7560
G01 X84.0887 Y93.5589
G01 X84.2148 Y93.3485
G01 X84.3197 Y93.1267
G01 X84.4024 Y92.8957
G01 X84.4620 Y92.6577
G01 X84.4980 Y92.4150
G01 X84.5100 Y92.1700
G01 X84.5100 Y0.0000
G01 X84.4980 Y-0.2450
G01 X84.4620 Y-0.4877
G01 X84.4024 Y-0.7257
G01 X84.3197 Y-0.9567
G01 X84.2148 Y-1.1785
G01 X84.0887 Y-1.3889
G01 X83.9425 Y-1.5860
G01 X83.7778 Y-1.7678
G01 X83.5960 Y-1.9325
G01 X83.3989 Y-2.0787
G01 X83.1885 Y-2.2048
G01 X82.9667 Y-2.3097
G01 X82.7357 Y-2.3924
G01 X82.4977 Y-2.4520
G01 X82.2550 Y-2.4880
G01 X82.0100 Y-2.5000
G00 X82.0100 Y-2.5000
G01 F60.00
G01 Z-0.4000
G01 F60.00
G01 X82.2550 Y-2.4880
G01 X82.4977 Y-2.4520
G01 X82.7357 Y-2.3924
G01 X82.9667 Y-2.3097
G01 X83.1885 Y-2.2048
G01 X83.3989 Y-2.0787
G01 X83.5960 Y-1.9325
G01 X83.7778 Y-1.7678
G01 X83.9425 Y-1.5860
G01 X84.0887 Y-1.3889
G01 X84.2148 Y-1.1785
G01 X84.3197 Y-0.9567
G01 X84.4024 Y-0.7257
G01 X84.4620 Y-0.4877
G01 X84.4980 Y-0.2450
G01 X84.5100 Y0.0000
G01 X84.5100 Y92.1700
G01 X84.4980 Y92.4150
G01 X84.4620 Y92.6577
G01 X84.4024 Y92.8957
G01 X84.3197 Y93.1267
G01 X84.2148 Y93.3485
G01 X84.0887 Y93.5589
G01 X83.9425 Y93.7560
G01 X83.7778 Y93.9378
G01 X83.5960 Y94.1025
G01 X83.3989 Y94.2487
G01 X83.1885 Y94.3748
G01 X82.9667 Y94.4797
G01 X82.7357 Y94.5624
G01 X82.4977 Y94.6220
G01 X82.2550 Y94.6580
G01 X82.0100 Y94.6700
G01 X0.0000 Y94.6700
G01 X-0.2450 Y94.6580
G01 X-0.4877 Y94.6220
G01 X-0.7257 Y94.5624
G01 X-0.9567 Y94.4797
G01 X-1.1785 Y94.3748
G01 X-1.3889 Y94.2487
G01 X-1.5860 Y94.1025
G01 X-1.7678 Y93.9378
G01 X-1.9325 Y93.7560
G01 X-2.0787 Y93.5589
G01 X-2.2048 Y93.3485
G01 X-2.3097 Y93.1267
G01 X-2.3924 Y92.8957
G01 X-2.4520 Y92.6577
G01 X-2.4880 Y92.4150
G01 X-2.5000 Y92.1700
G01 X-2.5000 Y0.0000
G01 X-2.4880 Y-0.2450
G01 X-2.4520 Y-0.4877
G01 X-2.3924 Y-0.7257
G01 X-2.3097 Y-0.9567
G01 X-2.2048 Y-1.1785
G01 X-2.0787 Y-1.3889
G01 X-1.9325 Y-1.5860
G01 X-1.7678 Y-1.7678
G01 X-1.5860 Y-1.9325
G01 X-1.3889 Y-2.0787
G01 X-1.1785 Y-2.2048
G01 X-0.9567 Y-2.3097
G01 X-0.7257 Y-2.3924
G01 X-0.4877 Y-2.4520
G01 X-0.2450 Y-2.4880
G01 X0.0000 Y-2.5000
G01 X82.0100 Y-2.5000
G00 X82.0100 Y-2.5000
G01 F60.00
G01 Z-0.6000
G01 F60.00
G01 X0.0000 Y-2.5000
G01 X-0.2450 Y-2.4880
G01 X-0.4877 Y-2.4520
G01 X-0.7257 Y-2.3924
G01 X-0.9567 Y-2.3097
G01 X-1.1785 Y-2.2048
G01 X-1.3889 Y-2.0787
G01 X-1.5860 Y-1.9325
G01 X-1.7678 Y-1.7678
G01 X-1.9325 Y-1.5860
G01 X-2.0787 Y-1.3889
G01 X-2.2048 Y-1.1785
G01 X-2.3097 Y-0.9567
G01 X-2.3924 Y-0.7257
G01 X-2.4520 Y-0.4877
G01 X-2.4880 Y-0.2450
G01 X-2.5000 Y0.0000
G01 X-2.5000 Y92.1700
G01 X-2.4880 Y92.4150
G01 X-2.4520 Y92.6577
G01 X-2.3924 Y92.8957
G01 X-2.3097 Y93.1267
G01 X-2.2048 Y93.3485
G01 X-2.0787 Y93.5589
G01 X-1.9325 Y93.7560
G01 X-1.7678 Y93.9378
G01 X-1.5860 Y94.1025
G01 X-1.3889 Y94.2487
G01 X-1.1785 Y94.3748
G01 X-0.9567 Y94.4797
G01 X-0.7257 Y94.5624
G01 X-0.4877 Y94.6220
G01 X-0.2450 Y94.6580
G01 X0.0000 Y94.6700
G01 X82.0100 Y94.6700
G01 X82.2550 Y94.6580
G01 X82.4977 Y94.6220
G01 X82.7357 Y94.5624
G01 X82.9667 Y94.4797
G01 X83.1885 Y94.3748
G01 X83.3989 Y94.2487
G01 X83.5960 Y94.1025
G01 X83.7778 Y93.9378
G01 X83.9425 Y93.7560
G01 X84.0887 Y93.5589
G01 X84.2148 Y93.3485
G01 X84.3197 Y93.1267
G01 X84.4024 Y92.8957
G01 X84.4620 Y92.6577
G01 X84.4980 Y92.4150
G01 X84.5100 Y92.1700
G01 X84.5100 Y0.0000
G01 X84.4980 Y-0.2450
G01 X84.4620 Y-0.4877
G01 X84.4024 Y-0.7257
G01 X84.3197 Y-0.9567
G01 X84.2148 Y-1.1785
G01 X84.0887 Y-1.3889
G01 X83.9425 Y-1.5860
G01 X83.7778 Y-1.7678
G01 X83.5960 Y-1.9325
G01 X83.3989 Y-2.0787
G01 X83.1885 Y-2.2048
G01 X82.9667 Y-2.3097
G01 X82.7357 Y-2.3924
G01 X82.4977 Y-2.4520
G01 X82.2550 Y-2.4880
G01 X82.0100 Y-2.5000
G00 X82.0100 Y-2.5000
G01 F60.00
G01 Z-0.8000
G01 F60.00
G01 X82.2550 Y-2.4880
G01 X82.4977 Y-2.4520
G01 X82.7357 Y-2.3924
G01 X82.9667 Y-2.3097
G01 X83.1885 Y-2.2048
G01 X83.3989 Y-2.0787
G01 X83.5960 Y-1.9325
G01 X83.7778 Y-1.7678
G01 X83.9425 Y-1.5860
G01 X84.0887 Y-1.3889
G01 X84.2148 Y-1.1785
G01 X84.3197 Y-0.9567
G01 X84.4024 Y-0.7257
G01 X84.4620 Y-0.4877
G01 X84.4980 Y-0.2450
G01 X84.5100 Y0.0000
G01 X84.5100 Y92.1700
G01 X84.4980 Y92.4150
G01 X84.4620 Y92.6577
G01 X84.4024 Y92.8957
G01 X84.3197 Y93.1267
G01 X84.2148 Y93.3485
G01 X84.0887 Y93.5589
G01 X83.9425 Y93.7560
G01 X83.7778 Y93.9378
G01 X83.5960 Y94.1025
G01 X83.3989 Y94.2487
G01 X83.1885 Y94.3748
G01 X82.9667 Y94.4797
G01 X82.7357 Y94.5624
G01 X82.4977 Y94.6220
G01 X82.2550 Y94.6580
G01 X82.0100 Y94.6700
G01 X0.0000 Y94.6700
G01 X-0.2450 Y94.6580
G01 X-0.4877 Y94.6220
G01 X-0.7257 Y94.5624
G01 X-0.9567 Y94.4797
G01 X-1.1785 Y94.3748
G01 X-1.3889 Y94.2487
G01 X-1.5860 Y94.1025
G01 X-1.7678 Y93.9378
G01 X-1.9325 Y93.7560
G01 X-2.0787 Y93.5589
G01 X-2.2048 Y93.3485
G01 X-2.3097 Y93.1267
G01 X-2.3924 Y92.8957
G01 X-2.4520 Y92.6577
G01 X-2.4880 Y92.4150
G01 X-2.5000 Y92.1700
G01 X-2.5000 Y0.0000
G01 X-2.4880 Y-0.2450
G01 X-2.4520 Y-0.4877
G01 X-2.3924 Y-0.7257
G01 X-2.3097 Y-0.9567
G01 X-2.2048 Y-1.1785
G01 X-2.0787 Y-1.3889
G01 X-1.9325 Y-1.5860
G01 X-1.7678 Y-1.7678
G01 X-1.5860 Y-1.9325
G01 X-1.3889 Y-2.0787
G01 X-1.1785 Y-2.2048
G01 X-0.9567 Y-2.3097
G01 X-0.7257 Y-2.3924
G01 X-0.4877 Y-2.4520
G01 X-0.2450 Y-2.4880
G01 X0.0000 Y-2.5000
G01 X82.0100 Y-2.5000
G00 X82.0100 Y-2.5000
G01 F60.00
G01 Z-1.0000
G01 F60.00
G01 X0.0000 Y-2.5000
G01 X-0.2450 Y-2.4880
G01 X-0.4877 Y-2.4520
G01 X-0.7257 Y-2.3924
G01 X-0.9567 Y-2.3097
G01 X-1.1785 Y-2.2048
G01 X-1.3889 Y-2.0787
G01 X-1.5860 Y-1.9325
G01 X-1.7678 Y-1.7678
G01 X-1.9325 Y-1.5860
G01 X-2.0787 Y-1.3889
G01 X-2.2048 Y-1.1785
G01 X-2.3097 Y-0.9567
G01 X-2.3924 Y-0.7257
G01 X-2.4520 Y-0.4877
G01 X-2.4880 Y-0.2450
G01 X-2.5000 Y0.0000
G01 X-2.5000 Y92.1700
G01 X-2.4880 Y92.4150
G01 X-2.4520 Y92.6577
G01 X-2.3924 Y92.8957
G01 X-2.3097 Y93.1267
G01 X-2.2048 Y93.3485
G01 X-2.0787 Y93.5589
G01 X-1.9325 Y93.7560
G01 X-1.7678 Y93.9378
G01 X-1.5860 Y94.1025
G01 X-1.3889 Y94.2487
G01 X-1.1785 Y94.3748
G01 X-0.9567 Y94.4797
G01 X-0.7257 Y94.5624
G01 X-0.4877 Y94.6220
G01 X-0.2450 Y94.6580
G01 X0.0000 Y94.6700
G01 X82.0100 Y94.6700
G01 X82.2550 Y94.6580
G01 X82.4977 Y94.6220
G01 X82.7357 Y94.5624
G01 X82.9667 Y94.4797
G01 X83.1885 Y94.3748
G01 X83.3989 Y94.2487
G01 X83.5960 Y94.1025
G01 X83.7778 Y93.9378
G01 X83.9425 Y93.7560
G01 X84.0887 Y93.5589
G01 X84.2148 Y93.3485
G01 X84.3197 Y93.1267
G01 X84.4024 Y92.8957
G01 X84.4620 Y92.6577
G01 X84.4980 Y92.4150
G01 X84.5100 Y92.1700
G01 X84.5100 Y0.0000
G01 X84.4980 Y-0.2450
G01 X84.4620 Y-0.4877
G01 X84.4024 Y-0.7257
G01 X84.3197 Y-0.9567
G01 X84.2148 Y-1.1785
G01 X84.0887 Y-1.3889
G01 X83.9425 Y-1.5860
G01 X83.7778 Y-1.7678
G01 X83.5960 Y-1.9325
G01 X83.3989 Y-2.0787
G01 X83.1885 Y-2.2048
G01 X82.9667 Y-2.3097
G01 X82.7357 Y-2.3924
G01 X82.4977 Y-2.4520
G01 X82.2550 Y-2.4880
G01 X82.0100 Y-2.5000
G00 X82.0100 Y-2.5000
G01 F60.00
G01 Z-1.2000
G01 F60.00
G01 X82.2550 Y-2.4880
G01 X82.4977 Y-2.4520
G01 X82.7357 Y-2.3924
G01 X82.9667 Y-2.3097
G01 X83.1885 Y-2.2048
G01 X83.3989 Y-2.0787
G01 X83.5960 Y-1.9325
G01 X83.7778 Y-1.7678
G01 X83.9425 Y-1.5860
G01 X84.0887 Y-1.3889
G01 X84.2148 Y-1.1785
G01 X84.3197 Y-0.9567
G01 X84.4024 Y-0.7257
G01 X84.4620 Y-0.4877
G01 X84.4980 Y-0.2450
G01 X84.5100 Y0.0000
G01 X84.5100 Y92.1700
G01 X84.4980 Y92.4150
G01 X84.4620 Y92.6577
G01 X84.4024 Y92.8957
G01 X84.3197 Y93.1267
G01 X84.2148 Y93.3485
G01 X84.0887 Y93.5589
G01 X83.9425 Y93.7560
G01 X83.7778 Y93.9378
G01 X83.5960 Y94.1025
G01 X83.3989 Y94.2487
G01 X83.1885 Y94.3748
G01 X82.9667 Y94.4797
G01 X82.7357 Y94.5624
G01 X82.4977 Y94.6220
G01 X82.2550 Y94.6580
G01 X82.0100 Y94.6700
G01 X0.0000 Y94.6700
G01 X-0.2450 Y94.6580
G01 X-0.4877 Y94.6220
G01 X-0.7257 Y94.5624
G01 X-0.9567 Y94.4797
G01 X-1.1785 Y94.3748
G01 X-1.3889 Y94.2487
G01 X-1.5860 Y94.1025
G01 X-1.7678 Y93.9378
G01 X-1.9325 Y93.7560
G01 X-2.0787 Y93.5589
G01 X-2.2048 Y93.3485
G01 X-2.3097 Y93.1267
G01 X-2.3924 Y92.8957
G01 X-2.4520 Y92.6577
G01 X-2.4880 Y92.4150
G01 X-2.5000 Y92.1700
G01 X-2.5000 Y0.0000
G01 X-2.4880 Y-0.2450
G01 X-2.4520 Y-0.4877
G01 X-2.3924 Y-0.7257
G01 X-2.3097 Y-0.9567
G01 X-2.2048 Y-1.1785
G01 X-2.0787 Y-1.3889
G01 X-1.9325 Y-1.5860
G01 X-1.7678 Y-1.7678
G01 X-1.5860 Y-1.9325
G01 X-1.3889 Y-2.0787
G01 X-1.1785 Y-2.2048
G01 X-0.9567 Y-2.3097
G01 X-0.7257 Y-2.3924
G01 X-0.4877 Y-2.4520
G01 X-0.2450 Y-2.4880
G01 X0.0000 Y-2.5000
G01 X82.0100 Y-2.5000
G00 X82.0100 Y-2.5000
G01 F60.00
G01 Z-1.4000
G01 F60.00
G01 X0.0000 Y-2.5000
G01 X-0.2450 Y-2.4880
G01 X-0.4877 Y-2.4520
G01 X-0.7257 Y-2.3924
G01 X-0.9567 Y-2.3097
G01 X-1.1785 Y-2.2048
G01 X-1.3889 Y-2.0787
G01 X-1.5860 Y-1.9325
G01 X-1.7678 Y-1.7678
G01 X-1.9325 Y-1.5860
G01 X-2.0787 Y-1.3889
G01 X-2.2048 Y-1.1785
G01 X-2.3097 Y-0.9567
G01 X-2.3924 Y-0.7257
G01 X-2.4520 Y-0.4877
G01 X-2.4880 Y-0.2450
G01 X-2.5000 Y0.0000
G01 X-2.5000 Y92.1700
G01 X-2.4880 Y92.4150
G01 X-2.4520 Y92.6577
G01 X-2.3924 Y92.8957
G01 X-2.3097 Y93.1267
G01 X-2.2048 Y93.3485
G01 X-2.0787 Y93.5589
G01 X-1.9325 Y93.7560
G01 X-1.7678 Y93.9378
G01 X-1.5860 Y94.1025
G01 X-1.3889 Y94.2487
G01 X-1.1785 Y94.3748
G01 X-0.9567 Y94.4797
G01 X-0.7257 Y94.5624
G01 X-0.4877 Y94.6220
G01 X-0.2450 Y94.6580
G01 X0.0000 Y94.6700
G01 X82.0100 Y94.6700
G01 X82.2550 Y94.6580
G01 X82.4977 Y94.6220
G01 X82.7357 Y94.5624
G01 X82.9667 Y94.4797
G01 X83.1885 Y94.3748
G01 X83.3989 Y94.2487
G01 X83.5960 Y94.1025
G01 X83.7778 Y93.9378
G01 X83.9425 Y93.7560
G01 X84.0887 Y93.5589
G01 X84.2148 Y93.3485
G01 X84.3197 Y93.1267
G01 X84.4024 Y92.8957
G01 X84.4620 Y92.6577
G01 X84.4980 Y92.4150
G01 X84.5100 Y92.1700
G01 X84.5100 Y0.0000
G01 X84.4980 Y-0.2450
G01 X84.4620 Y-0.4877
G01 X84.4024 Y-0.7257
G01 X84.3197 Y-0.9567
G01 X84.2148 Y-1.1785
G01 X84.0887 Y-1.3889
G01 X83.9425 Y-1.5860
G01 X83.7778 Y-1.7678
G01 X83.5960 Y-1.9325
G01 X83.3989 Y-2.0787
G01 X83.1885 Y-2.2048
G01 X82.9667 Y-2.3097
G01 X82.7357 Y-2.3924
G01 X82.4977 Y-2.4520
G01 X82.2550 Y-2.4880
G01 X82.0100 Y-2.5000
G00 X82.0100 Y-2.5000
G01 F60.00
G01 Z-1.6000
G01 F60.00
G01 X82.2550 Y-2.4880
G01 X82.4977 Y-2.4520
G01 X82.7357 Y-2.3924
G01 X82.9667 Y-2.3097
G01 X83.1885 Y-2.2048
G01 X83.3989 Y-2.0787
G01 X83.5960 Y-1.9325
G01 X83.7778 Y-1.7678
G01 X83.9425 Y-1.5860
G01 X84.0887 Y-1.3889
G01 X84.2148 Y-1.1785
G01 X84.3197 Y-0.9567
G01 X84.4024 Y-0.7257
G01 X84.4620 Y-0.4877
G01 X84.4980 Y-0.2450
G01 X84.5100 Y0.0000
G01 X84.5100 Y92.1700
G01 X84.4980 Y92.4150
G01 X84.4620 Y92.6577
G01 X84.4024 Y92.8957
G01 X84.3197 Y93.1267
G01 X84.2148 Y93.3485
G01 X84.0887 Y93.5589
G01 X83.9425 Y93.7560
G01 X83.7778 Y93.9378
G01 X83.5960 Y94.1025
G01 X83.3989 Y94.2487
G01 X83.1885 Y94.3748
G01 X82.9667 Y94.4797
G01 X82.7357 Y94.5624
G01 X82.4977 Y94.6220
G01 X82.2550 Y94.6580
G01 X82.0100 Y94.6700
G01 X0.0000 Y94.6700
G01 X-0.2450 Y94.6580
G01 X-0.4877 Y94.6220
G01 X-0.7257 Y94.5624
G01 X-0.9567 Y94.4797
G01 X-1.1785 Y94.3748
G01 X-1.3889 Y94.2487
G01 X-1.5860 Y94.1025
G01 X-1.7678 Y93.9378
G01 X-1.9325 Y93.7560
G01 X-2.0787 Y93.5589
G01 X-2.2048 Y93.3485
G01 X-2.3097 Y93.1267
G01 X-2.3924 Y92.8957
G01 X-2.4520 Y92.6577
G01 X-2.4880 Y92.4150
G01 X-2.5000 Y92.1700
G01 X-2.5000 Y0.0000
G01 X-2.4880 Y-0.2450
G01 X-2.4520 Y-0.4877
G01 X-2.3924 Y-0.7257
G01 X-2.3097 Y-0.9567
G01 X-2.2048 Y-1.1785
G01 X-2.0787 Y-1.3889
G01 X-1.9325 Y-1.5860
G01 X-1.7678 Y-1.7678
G01 X-1.5860 Y-1.9325
G01 X-1.3889 Y-2.0787
G01 X-1.1785 Y-2.2048
G01 X-0.9567 Y-2.3097
G01 X-0.7257 Y-2.3924
G01 X-0.4877 Y-2.4520
G01 X-0.2450 Y-2.4880
G01 X0.0000 Y-2.5000
G01 X82.0100 Y-2.5000
G00 Z1.0000
M05
G00 Z1.0000
G00 Z15.00


