(G-CODE GENERATED BY FLATCAM v8.994 - www.flatcam.org - Version Date: 2020/11/7)

(Name: Barramento_EITduino-B_Cu.gbr_iso_combined_cnc)
(Type: G-code from Geometry)
(Units: MM)

(Created on sexta, 21 julho 2023 at 19:31)

(This preprocessor is the default preprocessor used by FlatCAM.)
(It is made to work with MACH3 compatible motion controllers.)

(TOOL DIAMETER: 0.25 mm)
(Feedrate_XY: 60.0 mm/min)
(Feedrate_Z: 60.0 mm/min)
(Feedrate rapids 1500.0 mm/min)

(Z_Cut: -0.14178 mm)
(Z_Move: 1.0 mm)
(Z Start: None mm)
(Z End: 15.0 mm)
(X,Y End: None mm)
(Steps per circle: 64)
(Preprocessor Geometry: default)

(X range:   -0.1250 ...   82.1350  mm)
(Y range:   -0.1250 ...   92.2950  mm)

(Spindle Speed: 1000.0 RPM)
G21
G90
G94

G01 F60.00

M5
G00 Z1.0000
G00 X0.0000 Y0.0000
(T1)
(M6  )  
(MSG, Change to Tool Dia = 0.25000)
(M0)
G00 Z1.0000

M03 S1000.0
G01 F60.00
G00 X-0.1188 Y0.8836
G01 F60.00
G01 Z-0.1418
G01 F60.00
G01 X-0.1034 Y0.7805
G01 X-0.0766 Y0.6734
G01 X-0.0394 Y0.5695
G01 X0.0078 Y0.4697
G01 X0.0646 Y0.3750
G01 X0.1304 Y0.2863
G01 X0.2045 Y0.2045
G01 X0.2863 Y0.1304
G01 X0.3750 Y0.0646
G01 X0.4697 Y0.0078
G01 X0.5695 Y-0.0394
G01 X0.6734 Y-0.0766
G01 X0.7805 Y-0.1034
G01 X0.8897 Y-0.1196
G01 X1.0000 Y-0.1250
G01 X1.1103 Y-0.1196
G01 X1.2195 Y-0.1034
G01 X1.3266 Y-0.0766
G01 X1.4305 Y-0.0394
G01 X1.5303 Y0.0078
G01 X1.6250 Y0.0646
G01 X1.7137 Y0.1304
G01 X1.7955 Y0.2045
G01 X1.8696 Y0.2863
G01 X1.9354 Y0.3750
G01 X1.9922 Y0.4697
G01 X2.0394 Y0.5695
G01 X2.0766 Y0.6734
G01 X2.1034 Y0.7805
G01 X2.1196 Y0.8897
G01 X2.1250 Y1.0000
G01 X2.1196 Y1.1103
G01 X2.1034 Y1.2195
G01 X2.0766 Y1.3266
G01 X2.0394 Y1.4305
G01 X1.9922 Y1.5303
G01 X1.9354 Y1.6250
G01 X1.8696 Y1.7137
G01 X1.7955 Y1.7955
G01 X1.7137 Y1.8696
G01 X1.6250 Y1.9354
G01 X1.5303 Y1.9922
G01 X1.4305 Y2.0394
G01 X1.3266 Y2.0766
G01 X1.2195 Y2.1034
G01 X1.1103 Y2.1196
G01 X1.0000 Y2.1250
G01 X0.8897 Y2.1196
G01 X0.7805 Y2.1034
G01 X0.6734 Y2.0766
G01 X0.5695 Y2.0394
G01 X0.4697 Y1.9922
G01 X0.3750 Y1.9354
G01 X0.2863 Y1.8696
G01 X0.2045 Y1.7955
G01 X0.1304 Y1.7137
G01 X0.0646 Y1.6250
G01 X0.0078 Y1.5303
G01 X-0.0394 Y1.4305
G01 X-0.0766 Y1.3266
G01 X-0.1034 Y1.2195
G01 X-0.1196 Y1.1103
G01 X-0.1250 Y1.0000
G01 X-0.1200 Y0.8958
G01 X-0.1188 Y0.8836
G00 Z1.0000
G00 X-0.1188 Y3.4236
G01 F60.00
G01 Z-0.1418
G01 F60.00
G01 X-0.1034 Y3.3205
G01 X-0.0766 Y3.2134
G01 X-0.0394 Y3.1095
G01 X0.0078 Y3.0097
G01 X0.0646 Y2.9150
G01 X0.1304 Y2.8263
G01 X0.2045 Y2.7445
G01 X0.2863 Y2.6704
G01 X0.3750 Y2.6046
G01 X0.4697 Y2.5478
G01 X0.5695 Y2.5006
G01 X0.6734 Y2.4634
G01 X0.7805 Y2.4366
G01 X0.8897 Y2.4204
G01 X1.0000 Y2.4150
G01 X1.1103 Y2.4204
G01 X1.2195 Y2.4366
G01 X1.3266 Y2.4634
G01 X1.4305 Y2.5006
G01 X1.5303 Y2.5478
G01 X1.6250 Y2.6046
G01 X1.7137 Y2.6704
G01 X1.7955 Y2.7445
G01 X1.8696 Y2.8263
G01 X1.9354 Y2.9150
G01 X1.9922 Y3.0097
G01 X2.0394 Y3.1095
G01 X2.0766 Y3.2134
G01 X2.1034 Y3.3205
G01 X2.1196 Y3.4297
G01 X2.1250 Y3.5400
G01 X2.1196 Y3.6503
G01 X2.1034 Y3.7595
G01 X2.0766 Y3.8666
G01 X2.0394 Y3.9705
G01 X1.9922 Y4.0703
G01 X1.9354 Y4.1650
G01 X1.8696 Y4.2537
G01 X1.7955 Y4.3355
G01 X1.7137 Y4.4096
G01 X1.6250 Y4.4754
G01 X1.5303 Y4.5322
G01 X1.4305 Y4.5794
G01 X1.3266 Y4.6166
G01 X1.2195 Y4.6434
G01 X1.1103 Y4.6596
G01 X1.0000 Y4.6650
G01 X0.8897 Y4.6596
G01 X0.7805 Y4.6434
G01 X0.6734 Y4.6166
G01 X0.5695 Y4.5794
G01 X0.4697 Y4.5322
G01 X0.3750 Y4.4754
G01 X0.2863 Y4.4096
G01 X0.2045 Y4.3355
G01 X0.1304 Y4.2537
G01 X0.0646 Y4.1650
G01 X0.0078 Y4.0703
G01 X-0.0394 Y3.9705
G01 X-0.0766 Y3.8666
G01 X-0.1034 Y3.7595
G01 X-0.1196 Y3.6503
G01 X-0.1250 Y3.5400
G01 X-0.1200 Y3.4358
G01 X-0.1188 Y3.4236
G00 Z1.0000
G00 X-0.1188 Y5.9636
G01 F60.00
G01 Z-0.1418
G01 F60.00
G01 X-0.1034 Y5.8605
G01 X-0.0766 Y5.7534
G01 X-0.0394 Y5.6495
G01 X0.0078 Y5.5497
G01 X0.0646 Y5.4550
G01 X0.1304 Y5.3663
G01 X0.2045 Y5.2845
G01 X0.2863 Y5.2104
G01 X0.3750 Y5.1446
G01 X0.4697 Y5.0878
G01 X0.5695 Y5.0406
G01 X0.6734 Y5.0034
G01 X0.7805 Y4.9766
G01 X0.8897 Y4.9604
G01 X1.0000 Y4.9550
G01 X1.1103 Y4.9604
G01 X1.2195 Y4.9766
G01 X1.3266 Y5.0034
G01 X1.4305 Y5.0406
G01 X1.5303 Y5.0878
G01 X1.6250 Y5.1446
G01 X1.7137 Y5.2104
G01 X1.7955 Y5.2845
G01 X1.8696 Y5.3663
G01 X1.9354 Y5.4550
G01 X1.9922 Y5.5497
G01 X2.0394 Y5.6495
G01 X2.0766 Y5.7534
G01 X2.1034 Y5.8605
G01 X2.1196 Y5.9697
G01 X2.1250 Y6.0800
G01 X2.1196 Y6.1903
G01 X2.1034 Y6.2995
G01 X2.0766 Y6.4066
G01 X2.0394 Y6.5105
G01 X1.9922 Y6.6103
G01 X1.9354 Y6.7050
G01 X1.8696 Y6.7937
G01 X1.7955 Y6.8755
G01 X1.7137 Y6.9496
G01 X1.6250 Y7.0154
G01 X1.5303 Y7.0722
G01 X1.4305 Y7.1194
G01 X1.3266 Y7.1566
G01 X1.2195 Y7.1834
G01 X1.1103 Y7.1996
G01 X1.0000 Y7.2050
G01 X0.8897 Y7.1996
G01 X0.7805 Y7.1834
G01 X0.6734 Y7.1566
G01 X0.5695 Y7.1194
G01 X0.4697 Y7.0722
G01 X0.3750 Y7.0154
G01 X0.2863 Y6.9496
G01 X0.2045 Y6.8755
G01 X0.1304 Y6.7937
G01 X0.0646 Y6.7050
G01 X0.0078 Y6.6103
G01 X-0.0394 Y6.5105
G01 X-0.0766 Y6.4066
G01 X-0.1034 Y6.2995
G01 X-0.1196 Y6.1903
G01 X-0.1250 Y6.0800
G01 X-0.1200 Y5.9758
G01 X-0.1188 Y5.9636
G00 Z1.0000
G00 X-0.1188 Y8.5036
G01 F60.00
G01 Z-0.1418
G01 F60.00
G01 X-0.1034 Y8.4005
G01 X-0.0766 Y8.2934
G01 X-0.0394 Y8.1895
G01 X0.0078 Y8.0897
G01 X0.0646 Y7.9950
G01 X0.1304 Y7.9063
G01 X0.2045 Y7.8245
G01 X0.2863 Y7.7504
G01 X0.3750 Y7.6846
G01 X0.4697 Y7.6278
G01 X0.5695 Y7.5806
G01 X0.6734 Y7.5434
G01 X0.7805 Y7.5166
G01 X0.8897 Y7.5004
G01 X1.0000 Y7.4950
G01 X1.1103 Y7.5004
G01 X1.2195 Y7.5166
G01 X1.3266 Y7.5434
G01 X1.4305 Y7.5806
G01 X1.5303 Y7.6278
G01 X1.6250 Y7.6846
G01 X1.7137 Y7.7504
G01 X1.7955 Y7.8245
G01 X1.8696 Y7.9063
G01 X1.9354 Y7.9950
G01 X1.9922 Y8.0897
G01 X2.0394 Y8.1895
G01 X2.0766 Y8.2934
G01 X2.1034 Y8.4005
G01 X2.1196 Y8.5097
G01 X2.1250 Y8.6200
G01 X2.1196 Y8.7303
G01 X2.1034 Y8.8395
G01 X2.0766 Y8.9466
G01 X2.0394 Y9.0505
G01 X1.9922 Y9.1503
G01 X1.9354 Y9.2450
G01 X1.8696 Y9.3337
G01 X1.7955 Y9.4155
G01 X1.7137 Y9.4896
G01 X1.6250 Y9.5554
G01 X1.5303 Y9.6122
G01 X1.4305 Y9.6594
G01 X1.3266 Y9.6966
G01 X1.2195 Y9.7234
G01 X1.1103 Y9.7396
G01 X1.0000 Y9.7450
G01 X0.8897 Y9.7396
G01 X0.7805 Y9.7234
G01 X0.6734 Y9.6966
G01 X0.5695 Y9.6594
G01 X0.4697 Y9.6122
G01 X0.3750 Y9.5554
G01 X0.2863 Y9.4896
G01 X0.2045 Y9.4155
G01 X0.1304 Y9.3337
G01 X0.0646 Y9.2450
G01 X0.0078 Y9.1503
G01 X-0.0394 Y9.0505
G01 X-0.0766 Y8.9466
G01 X-0.1034 Y8.8395
G01 X-0.1196 Y8.7303
G01 X-0.1250 Y8.6200
G01 X-0.1200 Y8.5158
G01 X-0.1188 Y8.5036
G00 Z1.0000
G00 X-0.1188 Y11.0436
G01 F60.00
G01 Z-0.1418
G01 F60.00
G01 X-0.1034 Y10.9405
G01 X-0.0766 Y10.8334
G01 X-0.0394 Y10.7295
G01 X0.0078 Y10.6297
G01 X0.0646 Y10.5350
G01 X0.1304 Y10.4463
G01 X0.2045 Y10.3645
G01 X0.2863 Y10.2904
G01 X0.3750 Y10.2246
G01 X0.4697 Y10.1678
G01 X0.5695 Y10.1206
G01 X0.6734 Y10.0834
G01 X0.7805 Y10.0566
G01 X0.8897 Y10.0404
G01 X1.0000 Y10.0350
G01 X1.1103 Y10.0404
G01 X1.2195 Y10.0566
G01 X1.3266 Y10.0834
G01 X1.4305 Y10.1206
G01 X1.5303 Y10.1678
G01 X1.6250 Y10.2246
G01 X1.7137 Y10.2904
G01 X1.7955 Y10.3645
G01 X1.8696 Y10.4463
G01 X1.9354 Y10.5350
G01 X1.9922 Y10.6297
G01 X2.0394 Y10.7295
G01 X2.0766 Y10.8334
G01 X2.1034 Y10.9405
G01 X2.1196 Y11.0497
G01 X2.1250 Y11.1600
G01 X2.1196 Y11.2703
G01 X2.1034 Y11.3795
G01 X2.0766 Y11.4866
G01 X2.0394 Y11.5905
G01 X1.9922 Y11.6903
G01 X1.9354 Y11.7850
G01 X1.8696 Y11.8737
G01 X1.7955 Y11.9555
G01 X1.7137 Y12.0296
G01 X1.6250 Y12.0954
G01 X1.5303 Y12.1522
G01 X1.4305 Y12.1994
G01 X1.3266 Y12.2366
G01 X1.2195 Y12.2634
G01 X1.1103 Y12.2796
G01 X1.0000 Y12.2850
G01 X0.8897 Y12.2796
G01 X0.7805 Y12.2634
G01 X0.6734 Y12.2366
G01 X0.5695 Y12.1994
G01 X0.4697 Y12.1522
G01 X0.3750 Y12.0954
G01 X0.2863 Y12.0296
G01 X0.2045 Y11.9555
G01 X0.1304 Y11.8737
G01 X0.0646 Y11.7850
G01 X0.0078 Y11.6903
G01 X-0.0394 Y11.5905
G01 X-0.0766 Y11.4866
G01 X-0.1034 Y11.3795
G01 X-0.1196 Y11.2703
G01 X-0.1250 Y11.1600
G01 X-0.1200 Y11.0558
G01 X-0.1188 Y11.0436
G00 Z1.0000
G00 X-0.1188 Y13.5836
G01 F60.00
G01 Z-0.1418
G01 F60.00
G01 X-0.1034 Y13.4805
G01 X-0.0766 Y13.3734
G01 X-0.0394 Y13.2695
G01 X0.0078 Y13.1697
G01 X0.0646 Y13.0750
G01 X0.1304 Y12.9863
G01 X0.2045 Y12.9045
G01 X0.2863 Y12.8304
G01 X0.3750 Y12.7646
G01 X0.4697 Y12.7078
G01 X0.5695 Y12.6606
G01 X0.6734 Y12.6234
G01 X0.7805 Y12.5966
G01 X0.8897 Y12.5804
G01 X1.0000 Y12.5750
G01 X1.1103 Y12.5804
G01 X1.2195 Y12.5966
G01 X1.3266 Y12.6234
G01 X1.4305 Y12.6606
G01 X1.5303 Y12.7078
G01 X1.6250 Y12.7646
G01 X1.7137 Y12.8304
G01 X1.7955 Y12.9045
G01 X1.8696 Y12.9863
G01 X1.9354 Y13.0750
G01 X1.9922 Y13.1697
G01 X2.0394 Y13.2695
G01 X2.0766 Y13.3734
G01 X2.1034 Y13.4805
G01 X2.1196 Y13.5897
G01 X2.1250 Y13.7000
G01 X2.1196 Y13.8103
G01 X2.1034 Y13.9195
G01 X2.0766 Y14.0266
G01 X2.0394 Y14.1305
G01 X1.9922 Y14.2303
G01 X1.9354 Y14.3250
G01 X1.8696 Y14.4137
G01 X1.7955 Y14.4955
G01 X1.7137 Y14.5696
G01 X1.6250 Y14.6354
G01 X1.5303 Y14.6922
G01 X1.4305 Y14.7394
G01 X1.3266 Y14.7766
G01 X1.2195 Y14.8034
G01 X1.1103 Y14.8196
G01 X1.0000 Y14.8250
G01 X0.8897 Y14.8196
G01 X0.7805 Y14.8034
G01 X0.6734 Y14.7766
G01 X0.5695 Y14.7394
G01 X0.4697 Y14.6922
G01 X0.3750 Y14.6354
G01 X0.2863 Y14.5696
G01 X0.2045 Y14.4955
G01 X0.1304 Y14.4137
G01 X0.0646 Y14.3250
G01 X0.0078 Y14.2303
G01 X-0.0394 Y14.1305
G01 X-0.0766 Y14.0266
G01 X-0.1034 Y13.9195
G01 X-0.1196 Y13.8103
G01 X-0.1250 Y13.7000
G01 X-0.1200 Y13.5958
G01 X-0.1188 Y13.5836
G00 Z1.0000
G00 X-0.1188 Y16.1236
G01 F60.00
G01 Z-0.1418
G01 F60.00
G01 X-0.1034 Y16.0205
G01 X-0.0766 Y15.9134
G01 X-0.0394 Y15.8095
G01 X0.0078 Y15.7097
G01 X0.0646 Y15.6150
G01 X0.1304 Y15.5263
G01 X0.2045 Y15.4445
G01 X0.2863 Y15.3704
G01 X0.3750 Y15.3046
G01 X0.4697 Y15.2478
G01 X0.5695 Y15.2006
G01 X0.6734 Y15.1634
G01 X0.7805 Y15.1366
G01 X0.8897 Y15.1204
G01 X1.0000 Y15.1150
G01 X1.1103 Y15.1204
G01 X1.2195 Y15.1366
G01 X1.3266 Y15.1634
G01 X1.4305 Y15.2006
G01 X1.5303 Y15.2478
G01 X1.6250 Y15.3046
G01 X1.7137 Y15.3704
G01 X1.7955 Y15.4445
G01 X1.8696 Y15.5263
G01 X1.9354 Y15.6150
G01 X1.9922 Y15.7097
G01 X2.0394 Y15.8095
G01 X2.0766 Y15.9134
G01 X2.1034 Y16.0205
G01 X2.1196 Y16.1297
G01 X2.1250 Y16.2400
G01 X2.1196 Y16.3503
G01 X2.1034 Y16.4595
G01 X2.0766 Y16.5666
G01 X2.0394 Y16.6705
G01 X1.9922 Y16.7703
G01 X1.9354 Y16.8650
G01 X1.8696 Y16.9537
G01 X1.7955 Y17.0355
G01 X1.7137 Y17.1096
G01 X1.6250 Y17.1754
G01 X1.5303 Y17.2322
G01 X1.4305 Y17.2794
G01 X1.3266 Y17.3166
G01 X1.2195 Y17.3434
G01 X1.1103 Y17.3596
G01 X1.0000 Y17.3650
G01 X0.8897 Y17.3596
G01 X0.7805 Y17.3434
G01 X0.6734 Y17.3166
G01 X0.5695 Y17.2794
G01 X0.4697 Y17.2322
G01 X0.3750 Y17.1754
G01 X0.2863 Y17.1096
G01 X0.2045 Y17.0355
G01 X0.1304 Y16.9537
G01 X0.0646 Y16.8650
G01 X0.0078 Y16.7703
G01 X-0.0394 Y16.6705
G01 X-0.0766 Y16.5666
G01 X-0.1034 Y16.4595
G01 X-0.1196 Y16.3503
G01 X-0.1250 Y16.2400
G01 X-0.1200 Y16.1358
G01 X-0.1188 Y16.1236
G00 Z1.0000
G00 X-0.1188 Y18.6636
G01 F60.00
G01 Z-0.1418
G01 F60.00
G01 X-0.1034 Y18.5605
G01 X-0.0766 Y18.4534
G01 X-0.0394 Y18.3495
G01 X0.0078 Y18.2497
G01 X0.0646 Y18.1550
G01 X0.1304 Y18.0663
G01 X0.2045 Y17.9845
G01 X0.2863 Y17.9104
G01 X0.3750 Y17.8446
G01 X0.4697 Y17.7878
G01 X0.5695 Y17.7406
G01 X0.6734 Y17.7034
G01 X0.7805 Y17.6766
G01 X0.8897 Y17.6604
G01 X1.0000 Y17.6550
G01 X1.1103 Y17.6604
G01 X1.2195 Y17.6766
G01 X1.3266 Y17.7034
G01 X1.4305 Y17.7406
G01 X1.5303 Y17.7878
G01 X1.6250 Y17.8446
G01 X1.7137 Y17.9104
G01 X1.7955 Y17.9845
G01 X1.8696 Y18.0663
G01 X1.9354 Y18.1550
G01 X1.9922 Y18.2497
G01 X2.0394 Y18.3495
G01 X2.0766 Y18.4534
G01 X2.1034 Y18.5605
G01 X2.1196 Y18.6697
G01 X2.1250 Y18.7800
G01 X2.1196 Y18.8903
G01 X2.1034 Y18.9995
G01 X2.0766 Y19.1066
G01 X2.0394 Y19.2105
G01 X1.9922 Y19.3103
G01 X1.9354 Y19.4050
G01 X1.8696 Y19.4937
G01 X1.7955 Y19.5755
G01 X1.7137 Y19.6496
G01 X1.6250 Y19.7154
G01 X1.5303 Y19.7722
G01 X1.4305 Y19.8194
G01 X1.3266 Y19.8566
G01 X1.2195 Y19.8834
G01 X1.1103 Y19.8996
G01 X1.0000 Y19.9050
G01 X0.8897 Y19.8996
G01 X0.7805 Y19.8834
G01 X0.6734 Y19.8566
G01 X0.5695 Y19.8194
G01 X0.4697 Y19.7722
G01 X0.3750 Y19.7154
G01 X0.2863 Y19.6496
G01 X0.2045 Y19.5755
G01 X0.1304 Y19.4937
G01 X0.0646 Y19.4050
G01 X0.0078 Y19.3103
G01 X-0.0394 Y19.2105
G01 X-0.0766 Y19.1066
G01 X-0.1034 Y18.9995
G01 X-0.1196 Y18.8903
G01 X-0.1250 Y18.7800
G01 X-0.1200 Y18.6758
G01 X-0.1188 Y18.6636
G00 Z1.0000
G00 X-0.1188 Y21.2036
G01 F60.00
G01 Z-0.1418
G01 F60.00
G01 X-0.1034 Y21.1005
G01 X-0.0766 Y20.9934
G01 X-0.0394 Y20.8895
G01 X0.0078 Y20.7897
G01 X0.0646 Y20.6950
G01 X0.1304 Y20.6063
G01 X0.2045 Y20.5245
G01 X0.2863 Y20.4504
G01 X0.3750 Y20.3846
G01 X0.4697 Y20.3278
G01 X0.5695 Y20.2806
G01 X0.6734 Y20.2434
G01 X0.7805 Y20.2166
G01 X0.8897 Y20.2004
G01 X1.0000 Y20.1950
G01 X1.1103 Y20.2004
G01 X1.2195 Y20.2166
G01 X1.3266 Y20.2434
G01 X1.4305 Y20.2806
G01 X1.5303 Y20.3278
G01 X1.6250 Y20.3846
G01 X1.7137 Y20.4504
G01 X1.7955 Y20.5245
G01 X1.8696 Y20.6063
G01 X1.9354 Y20.6950
G01 X1.9922 Y20.7897
G01 X2.0394 Y20.8895
G01 X2.0766 Y20.9934
G01 X2.1034 Y21.1005
G01 X2.1196 Y21.2097
G01 X2.1250 Y21.3200
G01 X2.1196 Y21.4303
G01 X2.1034 Y21.5395
G01 X2.0766 Y21.6466
G01 X2.0394 Y21.7505
G01 X1.9922 Y21.8503
G01 X1.9354 Y21.9450
G01 X1.8696 Y22.0337
G01 X1.7955 Y22.1155
G01 X1.7137 Y22.1896
G01 X1.6250 Y22.2554
G01 X1.5303 Y22.3122
G01 X1.4305 Y22.3594
G01 X1.3266 Y22.3966
G01 X1.2195 Y22.4234
G01 X1.1103 Y22.4396
G01 X1.0000 Y22.4450
G01 X0.8897 Y22.4396
G01 X0.7805 Y22.4234
G01 X0.6734 Y22.3966
G01 X0.5695 Y22.3594
G01 X0.4697 Y22.3122
G01 X0.3750 Y22.2554
G01 X0.2863 Y22.1896
G01 X0.2045 Y22.1155
G01 X0.1304 Y22.0337
G01 X0.0646 Y21.9450
G01 X0.0078 Y21.8503
G01 X-0.0394 Y21.7505
G01 X-0.0766 Y21.6466
G01 X-0.1034 Y21.5395
G01 X-0.1196 Y21.4303
G01 X-0.1250 Y21.3200
G01 X-0.1200 Y21.2158
G01 X-0.1188 Y21.2036
G00 Z1.0000
G00 X-0.1188 Y23.7436
G01 F60.00
G01 Z-0.1418
G01 F60.00
G01 X-0.1034 Y23.6405
G01 X-0.0766 Y23.5334
G01 X-0.0394 Y23.4295
G01 X0.0078 Y23.3297
G01 X0.0646 Y23.2350
G01 X0.1304 Y23.1463
G01 X0.2045 Y23.0645
G01 X0.2863 Y22.9904
G01 X0.3750 Y22.9246
G01 X0.4697 Y22.8678
G01 X0.5695 Y22.8206
G01 X0.6734 Y22.7834
G01 X0.7805 Y22.7566
G01 X0.8897 Y22.7404
G01 X1.0000 Y22.7350
G01 X1.1103 Y22.7404
G01 X1.2195 Y22.7566
G01 X1.3266 Y22.7834
G01 X1.4305 Y22.8206
G01 X1.5303 Y22.8678
G01 X1.6250 Y22.9246
G01 X1.7137 Y22.9904
G01 X1.7955 Y23.0645
G01 X1.8696 Y23.1463
G01 X1.9354 Y23.2350
G01 X1.9922 Y23.3297
G01 X2.0394 Y23.4295
G01 X2.0766 Y23.5334
G01 X2.1034 Y23.6405
G01 X2.1196 Y23.7497
G01 X2.1250 Y23.8600
G01 X2.1196 Y23.9703
G01 X2.1034 Y24.0795
G01 X2.0766 Y24.1866
G01 X2.0394 Y24.2905
G01 X1.9922 Y24.3903
G01 X1.9354 Y24.4850
G01 X1.8696 Y24.5737
G01 X1.7955 Y24.6555
G01 X1.7137 Y24.7296
G01 X1.6250 Y24.7954
G01 X1.5303 Y24.8522
G01 X1.4305 Y24.8994
G01 X1.3266 Y24.9366
G01 X1.2195 Y24.9634
G01 X1.1103 Y24.9796
G01 X1.0000 Y24.9850
G01 X0.8897 Y24.9796
G01 X0.7805 Y24.9634
G01 X0.6734 Y24.9366
G01 X0.5695 Y24.8994
G01 X0.4697 Y24.8522
G01 X0.3750 Y24.7954
G01 X0.2863 Y24.7296
G01 X0.2045 Y24.6555
G01 X0.1304 Y24.5737
G01 X0.0646 Y24.4850
G01 X0.0078 Y24.3903
G01 X-0.0394 Y24.2905
G01 X-0.0766 Y24.1866
G01 X-0.1034 Y24.0795
G01 X-0.1196 Y23.9703
G01 X-0.1250 Y23.8600
G01 X-0.1200 Y23.7558
G01 X-0.1188 Y23.7436
G00 Z1.0000
G00 X-0.1188 Y26.2836
G01 F60.00
G01 Z-0.1418
G01 F60.00
G01 X-0.1034 Y26.1805
G01 X-0.0766 Y26.0734
G01 X-0.0394 Y25.9695
G01 X0.0078 Y25.8697
G01 X0.0646 Y25.7750
G01 X0.1304 Y25.6863
G01 X0.2045 Y25.6045
G01 X0.2863 Y25.5304
G01 X0.3750 Y25.4646
G01 X0.4697 Y25.4078
G01 X0.5695 Y25.3606
G01 X0.6734 Y25.3234
G01 X0.7805 Y25.2966
G01 X0.8897 Y25.2804
G01 X1.0000 Y25.2750
G01 X1.1103 Y25.2804
G01 X1.2195 Y25.2966
G01 X1.3266 Y25.3234
G01 X1.4305 Y25.3606
G01 X1.5303 Y25.4078
G01 X1.6250 Y25.4646
G01 X1.7137 Y25.5304
G01 X1.7955 Y25.6045
G01 X1.8696 Y25.6863
G01 X1.9354 Y25.7750
G01 X1.9922 Y25.8697
G01 X2.0394 Y25.9695
G01 X2.0766 Y26.0734
G01 X2.1034 Y26.1805
G01 X2.1196 Y26.2897
G01 X2.1250 Y26.4000
G01 X2.1196 Y26.5103
G01 X2.1034 Y26.6195
G01 X2.0766 Y26.7266
G01 X2.0394 Y26.8305
G01 X1.9922 Y26.9303
G01 X1.9354 Y27.0250
G01 X1.8696 Y27.1137
G01 X1.7955 Y27.1955
G01 X1.7137 Y27.2696
G01 X1.6250 Y27.3354
G01 X1.5303 Y27.3922
G01 X1.4305 Y27.4394
G01 X1.3266 Y27.4766
G01 X1.2195 Y27.5034
G01 X1.1103 Y27.5196
G01 X1.0000 Y27.5250
G01 X0.8897 Y27.5196
G01 X0.7805 Y27.5034
G01 X0.6734 Y27.4766
G01 X0.5695 Y27.4394
G01 X0.4697 Y27.3922
G01 X0.3750 Y27.3354
G01 X0.2863 Y27.2696
G01 X0.2045 Y27.1955
G01 X0.1304 Y27.1137
G01 X0.0646 Y27.0250
G01 X0.0078 Y26.9303
G01 X-0.0394 Y26.8305
G01 X-0.0766 Y26.7266
G01 X-0.1034 Y26.6195
G01 X-0.1196 Y26.5103
G01 X-0.1250 Y26.4000
G01 X-0.1200 Y26.2958
G01 X-0.1188 Y26.2836
G00 Z1.0000
G00 X-0.1188 Y28.8236
G01 F60.00
G01 Z-0.1418
G01 F60.00
G01 X-0.1034 Y28.7205
G01 X-0.0766 Y28.6134
G01 X-0.0394 Y28.5095
G01 X0.0078 Y28.4097
G01 X0.0646 Y28.3150
G01 X0.1304 Y28.2263
G01 X0.2045 Y28.1445
G01 X0.2863 Y28.0704
G01 X0.3750 Y28.0046
G01 X0.4697 Y27.9478
G01 X0.5695 Y27.9006
G01 X0.6734 Y27.8634
G01 X0.7805 Y27.8366
G01 X0.8897 Y27.8204
G01 X1.0000 Y27.8150
G01 X1.1103 Y27.8204
G01 X1.2195 Y27.8366
G01 X1.3266 Y27.8634
G01 X1.4305 Y27.9006
G01 X1.5303 Y27.9478
G01 X1.6250 Y28.0046
G01 X1.7137 Y28.0704
G01 X1.7955 Y28.1445
G01 X1.8696 Y28.2263
G01 X1.9354 Y28.3150
G01 X1.9922 Y28.4097
G01 X2.0394 Y28.5095
G01 X2.0766 Y28.6134
G01 X2.1034 Y28.7205
G01 X2.1196 Y28.8297
G01 X2.1250 Y28.9400
G01 X2.1196 Y29.0503
G01 X2.1034 Y29.1595
G01 X2.0766 Y29.2666
G01 X2.0394 Y29.3705
G01 X1.9922 Y29.4703
G01 X1.9354 Y29.5650
G01 X1.8696 Y29.6537
G01 X1.7955 Y29.7355
G01 X1.7137 Y29.8096
G01 X1.6250 Y29.8754
G01 X1.5303 Y29.9322
G01 X1.4305 Y29.9794
G01 X1.3266 Y30.0166
G01 X1.2195 Y30.0434
G01 X1.1103 Y30.0596
G01 X1.0000 Y30.0650
G01 X0.8897 Y30.0596
G01 X0.7805 Y30.0434
G01 X0.6734 Y30.0166
G01 X0.5695 Y29.9794
G01 X0.4697 Y29.9322
G01 X0.3750 Y29.8754
G01 X0.2863 Y29.8096
G01 X0.2045 Y29.7355
G01 X0.1304 Y29.6537
G01 X0.0646 Y29.5650
G01 X0.0078 Y29.4703
G01 X-0.0394 Y29.3705
G01 X-0.0766 Y29.2666
G01 X-0.1034 Y29.1595
G01 X-0.1196 Y29.0503
G01 X-0.1250 Y28.9400
G01 X-0.1200 Y28.8358
G01 X-0.1188 Y28.8236
G00 Z1.0000
G00 X-0.1188 Y31.3636
G01 F60.00
G01 Z-0.1418
G01 F60.00
G01 X-0.1034 Y31.2605
G01 X-0.0766 Y31.1534
G01 X-0.0394 Y31.0495
G01 X0.0078 Y30.9497
G01 X0.0646 Y30.8550
G01 X0.1304 Y30.7663
G01 X0.2045 Y30.6845
G01 X0.2863 Y30.6104
G01 X0.3750 Y30.5446
G01 X0.4697 Y30.4878
G01 X0.5695 Y30.4406
G01 X0.6734 Y30.4034
G01 X0.7805 Y30.3766
G01 X0.8897 Y30.3604
G01 X1.0000 Y30.3550
G01 X1.1103 Y30.3604
G01 X1.2195 Y30.3766
G01 X1.3266 Y30.4034
G01 X1.4305 Y30.4406
G01 X1.5303 Y30.4878
G01 X1.6250 Y30.5446
G01 X1.7137 Y30.6104
G01 X1.7955 Y30.6845
G01 X1.8696 Y30.7663
G01 X1.9354 Y30.8550
G01 X1.9922 Y30.9497
G01 X2.0394 Y31.0495
G01 X2.0766 Y31.1534
G01 X2.1034 Y31.2605
G01 X2.1196 Y31.3697
G01 X2.1250 Y31.4800
G01 X2.1196 Y31.5903
G01 X2.1034 Y31.6995
G01 X2.0766 Y31.8066
G01 X2.0394 Y31.9105
G01 X1.9922 Y32.0103
G01 X1.9354 Y32.1050
G01 X1.8696 Y32.1937
G01 X1.7955 Y32.2755
G01 X1.7137 Y32.3496
G01 X1.6250 Y32.4154
G01 X1.5303 Y32.4722
G01 X1.4305 Y32.5194
G01 X1.3266 Y32.5566
G01 X1.2195 Y32.5834
G01 X1.1103 Y32.5996
G01 X1.0000 Y32.6050
G01 X0.8897 Y32.5996
G01 X0.7805 Y32.5834
G01 X0.6734 Y32.5566
G01 X0.5695 Y32.5194
G01 X0.4697 Y32.4722
G01 X0.3750 Y32.4154
G01 X0.2863 Y32.3496
G01 X0.2045 Y32.2755
G01 X0.1304 Y32.1937
G01 X0.0646 Y32.1050
G01 X0.0078 Y32.0103
G01 X-0.0394 Y31.9105
G01 X-0.0766 Y31.8066
G01 X-0.1034 Y31.6995
G01 X-0.1196 Y31.5903
G01 X-0.1250 Y31.4800
G01 X-0.1200 Y31.3758
G01 X-0.1188 Y31.3636
G00 Z1.0000
G00 X-0.1188 Y33.9036
G01 F60.00
G01 Z-0.1418
G01 F60.00
G01 X-0.1034 Y33.8005
G01 X-0.0766 Y33.6934
G01 X-0.0394 Y33.5895
G01 X0.0078 Y33.4897
G01 X0.0646 Y33.3950
G01 X0.1304 Y33.3063
G01 X0.2045 Y33.2245
G01 X0.2863 Y33.1504
G01 X0.3750 Y33.0846
G01 X0.4697 Y33.0278
G01 X0.5695 Y32.9806
G01 X0.6734 Y32.9434
G01 X0.7805 Y32.9166
G01 X0.8897 Y32.9004
G01 X1.0000 Y32.8950
G01 X1.1103 Y32.9004
G01 X1.2195 Y32.9166
G01 X1.3266 Y32.9434
G01 X1.4305 Y32.9806
G01 X1.5303 Y33.0278
G01 X1.6250 Y33.0846
G01 X1.7137 Y33.1504
G01 X1.7955 Y33.2245
G01 X1.8696 Y33.3063
G01 X1.9354 Y33.3950
G01 X1.9922 Y33.4897
G01 X2.0394 Y33.5895
G01 X2.0766 Y33.6934
G01 X2.1034 Y33.8005
G01 X2.1196 Y33.9097
G01 X2.1250 Y34.0200
G01 X2.1196 Y34.1303
G01 X2.1034 Y34.2395
G01 X2.0766 Y34.3466
G01 X2.0394 Y34.4505
G01 X1.9922 Y34.5503
G01 X1.9354 Y34.6450
G01 X1.8696 Y34.7337
G01 X1.7955 Y34.8155
G01 X1.7137 Y34.8896
G01 X1.6250 Y34.9554
G01 X1.5303 Y35.0122
G01 X1.4305 Y35.0594
G01 X1.3266 Y35.0966
G01 X1.2195 Y35.1234
G01 X1.1103 Y35.1396
G01 X1.0000 Y35.1450
G01 X0.8897 Y35.1396
G01 X0.7805 Y35.1234
G01 X0.6734 Y35.0966
G01 X0.5695 Y35.0594
G01 X0.4697 Y35.0122
G01 X0.3750 Y34.9554
G01 X0.2863 Y34.8896
G01 X0.2045 Y34.8155
G01 X0.1304 Y34.7337
G01 X0.0646 Y34.6450
G01 X0.0078 Y34.5503
G01 X-0.0394 Y34.4505
G01 X-0.0766 Y34.3466
G01 X-0.1034 Y34.2395
G01 X-0.1196 Y34.1303
G01 X-0.1250 Y34.0200
G01 X-0.1200 Y33.9158
G01 X-0.1188 Y33.9036
G00 Z1.0000
G00 X-0.1188 Y36.4436
G01 F60.00
G01 Z-0.1418
G01 F60.00
G01 X-0.1034 Y36.3405
G01 X-0.0766 Y36.2334
G01 X-0.0394 Y36.1295
G01 X0.0078 Y36.0297
G01 X0.0646 Y35.9350
G01 X0.1304 Y35.8463
G01 X0.2045 Y35.7645
G01 X0.2863 Y35.6904
G01 X0.3750 Y35.6246
G01 X0.4697 Y35.5678
G01 X0.5695 Y35.5206
G01 X0.6734 Y35.4834
G01 X0.7805 Y35.4566
G01 X0.8897 Y35.4404
G01 X1.0000 Y35.4350
G01 X1.1103 Y35.4404
G01 X1.2195 Y35.4566
G01 X1.3266 Y35.4834
G01 X1.4305 Y35.5206
G01 X1.5303 Y35.5678
G01 X1.6250 Y35.6246
G01 X1.7137 Y35.6904
G01 X1.7955 Y35.7645
G01 X1.8696 Y35.8463
G01 X1.9354 Y35.9350
G01 X1.9922 Y36.0297
G01 X2.0394 Y36.1295
G01 X2.0766 Y36.2334
G01 X2.1034 Y36.3405
G01 X2.1196 Y36.4497
G01 X2.1250 Y36.5600
G01 X2.1196 Y36.6703
G01 X2.1034 Y36.7795
G01 X2.0766 Y36.8866
G01 X2.0394 Y36.9905
G01 X1.9922 Y37.0903
G01 X1.9354 Y37.1850
G01 X1.8696 Y37.2737
G01 X1.7955 Y37.3555
G01 X1.7137 Y37.4296
G01 X1.6250 Y37.4954
G01 X1.5303 Y37.5522
G01 X1.4305 Y37.5994
G01 X1.3266 Y37.6366
G01 X1.2195 Y37.6634
G01 X1.1103 Y37.6796
G01 X1.0000 Y37.6850
G01 X0.8897 Y37.6796
G01 X0.7805 Y37.6634
G01 X0.6734 Y37.6366
G01 X0.5695 Y37.5994
G01 X0.4697 Y37.5522
G01 X0.3750 Y37.4954
G01 X0.2863 Y37.4296
G01 X0.2045 Y37.3555
G01 X0.1304 Y37.2737
G01 X0.0646 Y37.1850
G01 X0.0078 Y37.0903
G01 X-0.0394 Y36.9905
G01 X-0.0766 Y36.8866
G01 X-0.1034 Y36.7795
G01 X-0.1196 Y36.6703
G01 X-0.1250 Y36.5600
G01 X-0.1200 Y36.4558
G01 X-0.1188 Y36.4436
G00 Z1.0000
G00 X-0.1188 Y38.9836
G01 F60.00
G01 Z-0.1418
G01 F60.00
G01 X-0.1034 Y38.8805
G01 X-0.0766 Y38.7734
G01 X-0.0394 Y38.6695
G01 X0.0078 Y38.5697
G01 X0.0646 Y38.4750
G01 X0.1304 Y38.3863
G01 X0.2045 Y38.3045
G01 X0.2863 Y38.2304
G01 X0.3750 Y38.1646
G01 X0.4697 Y38.1078
G01 X0.5695 Y38.0606
G01 X0.6734 Y38.0234
G01 X0.7805 Y37.9966
G01 X0.8897 Y37.9804
G01 X1.0000 Y37.9750
G01 X1.1103 Y37.9804
G01 X1.2195 Y37.9966
G01 X1.3266 Y38.0234
G01 X1.4305 Y38.0606
G01 X1.5303 Y38.1078
G01 X1.6250 Y38.1646
G01 X1.7137 Y38.2304
G01 X1.7955 Y38.3045
G01 X1.8696 Y38.3863
G01 X1.9354 Y38.4750
G01 X1.9922 Y38.5697
G01 X2.0394 Y38.6695
G01 X2.0766 Y38.7734
G01 X2.1034 Y38.8805
G01 X2.1196 Y38.9897
G01 X2.1250 Y39.1000
G01 X2.1196 Y39.2103
G01 X2.1034 Y39.3195
G01 X2.0766 Y39.4266
G01 X2.0394 Y39.5305
G01 X1.9922 Y39.6303
G01 X1.9354 Y39.7250
G01 X1.8696 Y39.8137
G01 X1.7955 Y39.8955
G01 X1.7137 Y39.9696
G01 X1.6250 Y40.0354
G01 X1.5303 Y40.0922
G01 X1.4305 Y40.1394
G01 X1.3266 Y40.1766
G01 X1.2195 Y40.2034
G01 X1.1103 Y40.2196
G01 X1.0000 Y40.2250
G01 X0.8897 Y40.2196
G01 X0.7805 Y40.2034
G01 X0.6734 Y40.1766
G01 X0.5695 Y40.1394
G01 X0.4697 Y40.0922
G01 X0.3750 Y40.0354
G01 X0.2863 Y39.9696
G01 X0.2045 Y39.8955
G01 X0.1304 Y39.8137
G01 X0.0646 Y39.7250
G01 X0.0078 Y39.6303
G01 X-0.0394 Y39.5305
G01 X-0.0766 Y39.4266
G01 X-0.1034 Y39.3195
G01 X-0.1196 Y39.2103
G01 X-0.1250 Y39.1000
G01 X-0.1200 Y38.9958
G01 X-0.1188 Y38.9836
G00 Z1.0000
G00 X-0.1188 Y41.5236
G01 F60.00
G01 Z-0.1418
G01 F60.00
G01 X-0.1034 Y41.4205
G01 X-0.0766 Y41.3134
G01 X-0.0394 Y41.2095
G01 X0.0078 Y41.1097
G01 X0.0646 Y41.0150
G01 X0.1304 Y40.9263
G01 X0.2045 Y40.8445
G01 X0.2863 Y40.7704
G01 X0.3750 Y40.7046
G01 X0.4697 Y40.6478
G01 X0.5695 Y40.6006
G01 X0.6734 Y40.5634
G01 X0.7805 Y40.5366
G01 X0.8897 Y40.5204
G01 X1.0000 Y40.5150
G01 X1.1103 Y40.5204
G01 X1.2195 Y40.5366
G01 X1.3266 Y40.5634
G01 X1.4305 Y40.6006
G01 X1.5303 Y40.6478
G01 X1.6250 Y40.7046
G01 X1.7137 Y40.7704
G01 X1.7955 Y40.8445
G01 X1.8696 Y40.9263
G01 X1.9354 Y41.0150
G01 X1.9922 Y41.1097
G01 X2.0394 Y41.2095
G01 X2.0766 Y41.3134
G01 X2.1034 Y41.4205
G01 X2.1196 Y41.5297
G01 X2.1250 Y41.6400
G01 X2.1196 Y41.7503
G01 X2.1034 Y41.8595
G01 X2.0766 Y41.9666
G01 X2.0394 Y42.0705
G01 X1.9922 Y42.1703
G01 X1.9354 Y42.2650
G01 X1.8696 Y42.3537
G01 X1.7955 Y42.4355
G01 X1.7137 Y42.5096
G01 X1.6250 Y42.5754
G01 X1.5303 Y42.6322
G01 X1.4305 Y42.6794
G01 X1.3266 Y42.7166
G01 X1.2195 Y42.7434
G01 X1.1103 Y42.7596
G01 X1.0000 Y42.7650
G01 X0.8897 Y42.7596
G01 X0.7805 Y42.7434
G01 X0.6734 Y42.7166
G01 X0.5695 Y42.6794
G01 X0.4697 Y42.6322
G01 X0.3750 Y42.5754
G01 X0.2863 Y42.5096
G01 X0.2045 Y42.4355
G01 X0.1304 Y42.3537
G01 X0.0646 Y42.2650
G01 X0.0078 Y42.1703
G01 X-0.0394 Y42.0705
G01 X-0.0766 Y41.9666
G01 X-0.1034 Y41.8595
G01 X-0.1196 Y41.7503
G01 X-0.1250 Y41.6400
G01 X-0.1200 Y41.5358
G01 X-0.1188 Y41.5236
G00 Z1.0000
G00 X-0.1188 Y44.0636
G01 F60.00
G01 Z-0.1418
G01 F60.00
G01 X-0.1034 Y43.9605
G01 X-0.0766 Y43.8534
G01 X-0.0394 Y43.7495
G01 X0.0078 Y43.6497
G01 X0.0646 Y43.5550
G01 X0.1304 Y43.4663
G01 X0.2045 Y43.3845
G01 X0.2863 Y43.3104
G01 X0.3750 Y43.2446
G01 X0.4697 Y43.1878
G01 X0.5695 Y43.1406
G01 X0.6734 Y43.1034
G01 X0.7805 Y43.0766
G01 X0.8897 Y43.0604
G01 X1.0000 Y43.0550
G01 X1.1103 Y43.0604
G01 X1.2195 Y43.0766
G01 X1.3266 Y43.1034
G01 X1.4305 Y43.1406
G01 X1.5303 Y43.1878
G01 X1.6250 Y43.2446
G01 X1.7137 Y43.3104
G01 X1.7955 Y43.3845
G01 X1.8696 Y43.4663
G01 X1.9354 Y43.5550
G01 X1.9922 Y43.6497
G01 X2.0394 Y43.7495
G01 X2.0766 Y43.8534
G01 X2.1034 Y43.9605
G01 X2.1196 Y44.0697
G01 X2.1250 Y44.1800
G01 X2.1196 Y44.2903
G01 X2.1034 Y44.3995
G01 X2.0766 Y44.5066
G01 X2.0394 Y44.6105
G01 X1.9922 Y44.7103
G01 X1.9354 Y44.8050
G01 X1.8696 Y44.8937
G01 X1.7955 Y44.9755
G01 X1.7137 Y45.0496
G01 X1.6250 Y45.1154
G01 X1.5303 Y45.1722
G01 X1.4305 Y45.2194
G01 X1.3266 Y45.2566
G01 X1.2195 Y45.2834
G01 X1.1103 Y45.2996
G01 X1.0000 Y45.3050
G01 X0.8897 Y45.2996
G01 X0.7805 Y45.2834
G01 X0.6734 Y45.2566
G01 X0.5695 Y45.2194
G01 X0.4697 Y45.1722
G01 X0.3750 Y45.1154
G01 X0.2863 Y45.0496
G01 X0.2045 Y44.9755
G01 X0.1304 Y44.8937
G01 X0.0646 Y44.8050
G01 X0.0078 Y44.7103
G01 X-0.0394 Y44.6105
G01 X-0.0766 Y44.5066
G01 X-0.1034 Y44.3995
G01 X-0.1196 Y44.2903
G01 X-0.1250 Y44.1800
G01 X-0.1200 Y44.0758
G01 X-0.1188 Y44.0636
G00 Z1.0000
G00 X-0.1188 Y46.6036
G01 F60.00
G01 Z-0.1418
G01 F60.00
G01 X-0.1034 Y46.5005
G01 X-0.0766 Y46.3934
G01 X-0.0394 Y46.2895
G01 X0.0078 Y46.1897
G01 X0.0646 Y46.0950
G01 X0.1304 Y46.0063
G01 X0.2045 Y45.9245
G01 X0.2863 Y45.8504
G01 X0.3750 Y45.7846
G01 X0.4697 Y45.7278
G01 X0.5695 Y45.6806
G01 X0.6734 Y45.6434
G01 X0.7805 Y45.6166
G01 X0.8897 Y45.6004
G01 X1.0000 Y45.5950
G01 X1.1103 Y45.6004
G01 X1.2195 Y45.6166
G01 X1.3266 Y45.6434
G01 X1.4305 Y45.6806
G01 X1.5303 Y45.7278
G01 X1.6250 Y45.7846
G01 X1.7137 Y45.8504
G01 X1.7955 Y45.9245
G01 X1.8696 Y46.0063
G01 X1.9354 Y46.0950
G01 X1.9922 Y46.1897
G01 X2.0394 Y46.2895
G01 X2.0766 Y46.3934
G01 X2.1034 Y46.5005
G01 X2.1196 Y46.6097
G01 X2.1250 Y46.7200
G01 X2.1196 Y46.8303
G01 X2.1034 Y46.9395
G01 X2.0766 Y47.0466
G01 X2.0394 Y47.1505
G01 X1.9922 Y47.2503
G01 X1.9354 Y47.3450
G01 X1.8696 Y47.4337
G01 X1.7955 Y47.5155
G01 X1.7137 Y47.5896
G01 X1.6250 Y47.6554
G01 X1.5303 Y47.7122
G01 X1.4305 Y47.7594
G01 X1.3266 Y47.7966
G01 X1.2195 Y47.8234
G01 X1.1103 Y47.8396
G01 X1.0000 Y47.8450
G01 X0.8897 Y47.8396
G01 X0.7805 Y47.8234
G01 X0.6734 Y47.7966
G01 X0.5695 Y47.7594
G01 X0.4697 Y47.7122
G01 X0.3750 Y47.6554
G01 X0.2863 Y47.5896
G01 X0.2045 Y47.5155
G01 X0.1304 Y47.4337
G01 X0.0646 Y47.3450
G01 X0.0078 Y47.2503
G01 X-0.0394 Y47.1505
G01 X-0.0766 Y47.0466
G01 X-0.1034 Y46.9395
G01 X-0.1196 Y46.8303
G01 X-0.1250 Y46.7200
G01 X-0.1200 Y46.6158
G01 X-0.1188 Y46.6036
G00 Z1.0000
G00 X-0.1188 Y49.1436
G01 F60.00
G01 Z-0.1418
G01 F60.00
G01 X-0.1034 Y49.0405
G01 X-0.0766 Y48.9334
G01 X-0.0394 Y48.8295
G01 X0.0078 Y48.7297
G01 X0.0646 Y48.6350
G01 X0.1304 Y48.5463
G01 X0.2045 Y48.4645
G01 X0.2863 Y48.3904
G01 X0.3750 Y48.3246
G01 X0.4697 Y48.2678
G01 X0.5695 Y48.2206
G01 X0.6734 Y48.1834
G01 X0.7805 Y48.1566
G01 X0.8897 Y48.1404
G01 X1.0000 Y48.1350
G01 X1.1103 Y48.1404
G01 X1.2195 Y48.1566
G01 X1.3266 Y48.1834
G01 X1.4305 Y48.2206
G01 X1.5303 Y48.2678
G01 X1.6250 Y48.3246
G01 X1.7137 Y48.3904
G01 X1.7955 Y48.4645
G01 X1.8696 Y48.5463
G01 X1.9354 Y48.6350
G01 X1.9922 Y48.7297
G01 X2.0394 Y48.8295
G01 X2.0766 Y48.9334
G01 X2.1034 Y49.0405
G01 X2.1196 Y49.1497
G01 X2.1250 Y49.2600
G01 X2.1196 Y49.3703
G01 X2.1034 Y49.4795
G01 X2.0766 Y49.5866
G01 X2.0394 Y49.6905
G01 X1.9922 Y49.7903
G01 X1.9354 Y49.8850
G01 X1.8696 Y49.9737
G01 X1.7955 Y50.0555
G01 X1.7137 Y50.1296
G01 X1.6250 Y50.1954
G01 X1.5303 Y50.2522
G01 X1.4305 Y50.2994
G01 X1.3266 Y50.3366
G01 X1.2195 Y50.3634
G01 X1.1103 Y50.3796
G01 X1.0000 Y50.3850
G01 X0.8897 Y50.3796
G01 X0.7805 Y50.3634
G01 X0.6734 Y50.3366
G01 X0.5695 Y50.2994
G01 X0.4697 Y50.2522
G01 X0.3750 Y50.1954
G01 X0.2863 Y50.1296
G01 X0.2045 Y50.0555
G01 X0.1304 Y49.9737
G01 X0.0646 Y49.8850
G01 X0.0078 Y49.7903
G01 X-0.0394 Y49.6905
G01 X-0.0766 Y49.5866
G01 X-0.1034 Y49.4795
G01 X-0.1196 Y49.3703
G01 X-0.1250 Y49.2600
G01 X-0.1200 Y49.1558
G01 X-0.1188 Y49.1436
G00 Z1.0000
G00 X-0.1188 Y51.6836
G01 F60.00
G01 Z-0.1418
G01 F60.00
G01 X-0.1034 Y51.5805
G01 X-0.0766 Y51.4734
G01 X-0.0394 Y51.3695
G01 X0.0078 Y51.2697
G01 X0.0646 Y51.1750
G01 X0.1304 Y51.0863
G01 X0.2045 Y51.0045
G01 X0.2863 Y50.9304
G01 X0.3750 Y50.8646
G01 X0.4697 Y50.8078
G01 X0.5695 Y50.7606
G01 X0.6734 Y50.7234
G01 X0.7805 Y50.6966
G01 X0.8897 Y50.6804
G01 X1.0000 Y50.6750
G01 X1.1103 Y50.6804
G01 X1.2195 Y50.6966
G01 X1.3266 Y50.7234
G01 X1.4305 Y50.7606
G01 X1.5303 Y50.8078
G01 X1.6250 Y50.8646
G01 X1.7137 Y50.9304
G01 X1.7955 Y51.0045
G01 X1.8696 Y51.0863
G01 X1.9354 Y51.1750
G01 X1.9922 Y51.2697
G01 X2.0394 Y51.3695
G01 X2.0766 Y51.4734
G01 X2.1034 Y51.5805
G01 X2.1196 Y51.6897
G01 X2.1250 Y51.8000
G01 X2.1196 Y51.9103
G01 X2.1034 Y52.0195
G01 X2.0766 Y52.1266
G01 X2.0394 Y52.2305
G01 X1.9922 Y52.3303
G01 X1.9354 Y52.4250
G01 X1.8696 Y52.5137
G01 X1.7955 Y52.5955
G01 X1.7137 Y52.6696
G01 X1.6250 Y52.7354
G01 X1.5303 Y52.7922
G01 X1.4305 Y52.8394
G01 X1.3266 Y52.8766
G01 X1.2195 Y52.9034
G01 X1.1103 Y52.9196
G01 X1.0000 Y52.9250
G01 X0.8897 Y52.9196
G01 X0.7805 Y52.9034
G01 X0.6734 Y52.8766
G01 X0.5695 Y52.8394
G01 X0.4697 Y52.7922
G01 X0.3750 Y52.7354
G01 X0.2863 Y52.6696
G01 X0.2045 Y52.5955
G01 X0.1304 Y52.5137
G01 X0.0646 Y52.4250
G01 X0.0078 Y52.3303
G01 X-0.0394 Y52.2305
G01 X-0.0766 Y52.1266
G01 X-0.1034 Y52.0195
G01 X-0.1196 Y51.9103
G01 X-0.1250 Y51.8000
G01 X-0.1200 Y51.6958
G01 X-0.1188 Y51.6836
G00 Z1.0000
G00 X-0.1188 Y54.2236
G01 F60.00
G01 Z-0.1418
G01 F60.00
G01 X-0.1034 Y54.1205
G01 X-0.0766 Y54.0134
G01 X-0.0394 Y53.9095
G01 X0.0078 Y53.8097
G01 X0.0646 Y53.7150
G01 X0.1304 Y53.6263
G01 X0.2045 Y53.5445
G01 X0.2863 Y53.4704
G01 X0.3750 Y53.4046
G01 X0.4697 Y53.3478
G01 X0.5695 Y53.3006
G01 X0.6734 Y53.2634
G01 X0.7805 Y53.2366
G01 X0.8897 Y53.2204
G01 X1.0000 Y53.2150
G01 X1.1103 Y53.2204
G01 X1.2195 Y53.2366
G01 X1.3266 Y53.2634
G01 X1.4305 Y53.3006
G01 X1.5303 Y53.3478
G01 X1.6250 Y53.4046
G01 X1.7137 Y53.4704
G01 X1.7955 Y53.5445
G01 X1.8696 Y53.6263
G01 X1.9354 Y53.7150
G01 X1.9922 Y53.8097
G01 X2.0394 Y53.9095
G01 X2.0766 Y54.0134
G01 X2.1034 Y54.1205
G01 X2.1196 Y54.2297
G01 X2.1250 Y54.3400
G01 X2.1196 Y54.4503
G01 X2.1034 Y54.5595
G01 X2.0766 Y54.6666
G01 X2.0394 Y54.7705
G01 X1.9922 Y54.8703
G01 X1.9354 Y54.9650
G01 X1.8696 Y55.0537
G01 X1.7955 Y55.1355
G01 X1.7137 Y55.2096
G01 X1.6250 Y55.2754
G01 X1.5303 Y55.3322
G01 X1.4305 Y55.3794
G01 X1.3266 Y55.4166
G01 X1.2195 Y55.4434
G01 X1.1103 Y55.4596
G01 X1.0000 Y55.4650
G01 X0.8897 Y55.4596
G01 X0.7805 Y55.4434
G01 X0.6734 Y55.4166
G01 X0.5695 Y55.3794
G01 X0.4697 Y55.3322
G01 X0.3750 Y55.2754
G01 X0.2863 Y55.2096
G01 X0.2045 Y55.1355
G01 X0.1304 Y55.0537
G01 X0.0646 Y54.9650
G01 X0.0078 Y54.8703
G01 X-0.0394 Y54.7705
G01 X-0.0766 Y54.6666
G01 X-0.1034 Y54.5595
G01 X-0.1196 Y54.4503
G01 X-0.1250 Y54.3400
G01 X-0.1200 Y54.2358
G01 X-0.1188 Y54.2236
G00 Z1.0000
G00 X-0.1188 Y56.7636
G01 F60.00
G01 Z-0.1418
G01 F60.00
G01 X-0.1034 Y56.6605
G01 X-0.0766 Y56.5534
G01 X-0.0394 Y56.4495
G01 X0.0078 Y56.3497
G01 X0.0646 Y56.2550
G01 X0.1304 Y56.1663
G01 X0.2045 Y56.0845
G01 X0.2863 Y56.0104
G01 X0.3750 Y55.9446
G01 X0.4697 Y55.8878
G01 X0.5695 Y55.8406
G01 X0.6734 Y55.8034
G01 X0.7805 Y55.7766
G01 X0.8897 Y55.7604
G01 X1.0000 Y55.7550
G01 X1.1103 Y55.7604
G01 X1.2195 Y55.7766
G01 X1.3266 Y55.8034
G01 X1.4305 Y55.8406
G01 X1.5303 Y55.8878
G01 X1.6250 Y55.9446
G01 X1.7137 Y56.0104
G01 X1.7955 Y56.0845
G01 X1.8696 Y56.1663
G01 X1.9354 Y56.2550
G01 X1.9922 Y56.3497
G01 X2.0394 Y56.4495
G01 X2.0766 Y56.5534
G01 X2.1034 Y56.6605
G01 X2.1196 Y56.7697
G01 X2.1250 Y56.8800
G01 X2.1196 Y56.9903
G01 X2.1034 Y57.0995
G01 X2.0766 Y57.2066
G01 X2.0394 Y57.3105
G01 X1.9922 Y57.4103
G01 X1.9354 Y57.5050
G01 X1.8696 Y57.5937
G01 X1.7955 Y57.6755
G01 X1.7137 Y57.7496
G01 X1.6250 Y57.8154
G01 X1.5303 Y57.8722
G01 X1.4305 Y57.9194
G01 X1.3266 Y57.9566
G01 X1.2195 Y57.9834
G01 X1.1103 Y57.9996
G01 X1.0000 Y58.0050
G01 X0.8897 Y57.9996
G01 X0.7805 Y57.9834
G01 X0.6734 Y57.9566
G01 X0.5695 Y57.9194
G01 X0.4697 Y57.8722
G01 X0.3750 Y57.8154
G01 X0.2863 Y57.7496
G01 X0.2045 Y57.6755
G01 X0.1304 Y57.5937
G01 X0.0646 Y57.5050
G01 X0.0078 Y57.4103
G01 X-0.0394 Y57.3105
G01 X-0.0766 Y57.2066
G01 X-0.1034 Y57.0995
G01 X-0.1196 Y56.9903
G01 X-0.1250 Y56.8800
G01 X-0.1200 Y56.7758
G01 X-0.1188 Y56.7636
G00 Z1.0000
G00 X-0.1188 Y59.3036
G01 F60.00
G01 Z-0.1418
G01 F60.00
G01 X-0.1034 Y59.2005
G01 X-0.0766 Y59.0934
G01 X-0.0394 Y58.9895
G01 X0.0078 Y58.8897
G01 X0.0646 Y58.7950
G01 X0.1304 Y58.7063
G01 X0.2045 Y58.6245
G01 X0.2863 Y58.5504
G01 X0.3750 Y58.4846
G01 X0.4697 Y58.4278
G01 X0.5695 Y58.3806
G01 X0.6734 Y58.3434
G01 X0.7805 Y58.3166
G01 X0.8897 Y58.3004
G01 X1.0000 Y58.2950
G01 X1.1103 Y58.3004
G01 X1.2195 Y58.3166
G01 X1.3266 Y58.3434
G01 X1.4305 Y58.3806
G01 X1.5303 Y58.4278
G01 X1.6250 Y58.4846
G01 X1.7137 Y58.5504
G01 X1.7955 Y58.6245
G01 X1.8696 Y58.7063
G01 X1.9354 Y58.7950
G01 X1.9922 Y58.8897
G01 X2.0394 Y58.9895
G01 X2.0766 Y59.0934
G01 X2.1034 Y59.2005
G01 X2.1196 Y59.3097
G01 X2.1250 Y59.4200
G01 X2.1196 Y59.5303
G01 X2.1034 Y59.6395
G01 X2.0766 Y59.7466
G01 X2.0394 Y59.8505
G01 X1.9922 Y59.9503
G01 X1.9354 Y60.0450
G01 X1.8696 Y60.1337
G01 X1.7955 Y60.2155
G01 X1.7137 Y60.2896
G01 X1.6250 Y60.3554
G01 X1.5303 Y60.4122
G01 X1.4305 Y60.4594
G01 X1.3266 Y60.4966
G01 X1.2195 Y60.5234
G01 X1.1103 Y60.5396
G01 X1.0000 Y60.5450
G01 X0.8897 Y60.5396
G01 X0.7805 Y60.5234
G01 X0.6734 Y60.4966
G01 X0.5695 Y60.4594
G01 X0.4697 Y60.4122
G01 X0.3750 Y60.3554
G01 X0.2863 Y60.2896
G01 X0.2045 Y60.2155
G01 X0.1304 Y60.1337
G01 X0.0646 Y60.0450
G01 X0.0078 Y59.9503
G01 X-0.0394 Y59.8505
G01 X-0.0766 Y59.7466
G01 X-0.1034 Y59.6395
G01 X-0.1196 Y59.5303
G01 X-0.1250 Y59.4200
G01 X-0.1200 Y59.3158
G01 X-0.1188 Y59.3036
G00 Z1.0000
G00 X-0.1188 Y61.8436
G01 F60.00
G01 Z-0.1418
G01 F60.00
G01 X-0.1034 Y61.7405
G01 X-0.0766 Y61.6334
G01 X-0.0394 Y61.5295
G01 X0.0078 Y61.4297
G01 X0.0646 Y61.3350
G01 X0.1304 Y61.2463
G01 X0.2045 Y61.1645
G01 X0.2863 Y61.0904
G01 X0.3750 Y61.0246
G01 X0.4697 Y60.9678
G01 X0.5695 Y60.9206
G01 X0.6734 Y60.8834
G01 X0.7805 Y60.8566
G01 X0.8897 Y60.8404
G01 X1.0000 Y60.8350
G01 X1.1103 Y60.8404
G01 X1.2195 Y60.8566
G01 X1.3266 Y60.8834
G01 X1.4305 Y60.9206
G01 X1.5303 Y60.9678
G01 X1.6250 Y61.0246
G01 X1.7137 Y61.0904
G01 X1.7955 Y61.1645
G01 X1.8696 Y61.2463
G01 X1.9354 Y61.3350
G01 X1.9922 Y61.4297
G01 X2.0394 Y61.5295
G01 X2.0766 Y61.6334
G01 X2.1034 Y61.7405
G01 X2.1196 Y61.8497
G01 X2.1250 Y61.9600
G01 X2.1196 Y62.0703
G01 X2.1034 Y62.1795
G01 X2.0766 Y62.2866
G01 X2.0394 Y62.3905
G01 X1.9922 Y62.4903
G01 X1.9354 Y62.5850
G01 X1.8696 Y62.6737
G01 X1.7955 Y62.7555
G01 X1.7137 Y62.8296
G01 X1.6250 Y62.8954
G01 X1.5303 Y62.9522
G01 X1.4305 Y62.9994
G01 X1.3266 Y63.0366
G01 X1.2195 Y63.0634
G01 X1.1103 Y63.0796
G01 X1.0000 Y63.0850
G01 X0.8897 Y63.0796
G01 X0.7805 Y63.0634
G01 X0.6734 Y63.0366
G01 X0.5695 Y62.9994
G01 X0.4697 Y62.9522
G01 X0.3750 Y62.8954
G01 X0.2863 Y62.8296
G01 X0.2045 Y62.7555
G01 X0.1304 Y62.6737
G01 X0.0646 Y62.5850
G01 X0.0078 Y62.4903
G01 X-0.0394 Y62.3905
G01 X-0.0766 Y62.2866
G01 X-0.1034 Y62.1795
G01 X-0.1196 Y62.0703
G01 X-0.1250 Y61.9600
G01 X-0.1200 Y61.8558
G01 X-0.1188 Y61.8436
G00 Z1.0000
G00 X-0.1188 Y64.3836
G01 F60.00
G01 Z-0.1418
G01 F60.00
G01 X-0.1034 Y64.2805
G01 X-0.0766 Y64.1734
G01 X-0.0394 Y64.0695
G01 X0.0078 Y63.9697
G01 X0.0646 Y63.8750
G01 X0.1304 Y63.7863
G01 X0.2045 Y63.7045
G01 X0.2863 Y63.6304
G01 X0.3750 Y63.5646
G01 X0.4697 Y63.5078
G01 X0.5695 Y63.4606
G01 X0.6734 Y63.4234
G01 X0.7805 Y63.3966
G01 X0.8897 Y63.3804
G01 X1.0000 Y63.3750
G01 X1.1103 Y63.3804
G01 X1.2195 Y63.3966
G01 X1.3266 Y63.4234
G01 X1.4305 Y63.4606
G01 X1.5303 Y63.5078
G01 X1.6250 Y63.5646
G01 X1.7137 Y63.6304
G01 X1.7955 Y63.7045
G01 X1.8696 Y63.7863
G01 X1.9354 Y63.8750
G01 X1.9922 Y63.9697
G01 X2.0394 Y64.0695
G01 X2.0766 Y64.1734
G01 X2.1034 Y64.2805
G01 X2.1196 Y64.3897
G01 X2.1250 Y64.5000
G01 X2.1196 Y64.6103
G01 X2.1034 Y64.7195
G01 X2.0766 Y64.8266
G01 X2.0394 Y64.9305
G01 X1.9922 Y65.0303
G01 X1.9354 Y65.1250
G01 X1.8696 Y65.2137
G01 X1.7955 Y65.2955
G01 X1.7137 Y65.3696
G01 X1.6250 Y65.4354
G01 X1.5303 Y65.4922
G01 X1.4305 Y65.5394
G01 X1.3266 Y65.5766
G01 X1.2195 Y65.6034
G01 X1.1103 Y65.6196
G01 X1.0000 Y65.6250
G01 X0.8897 Y65.6196
G01 X0.7805 Y65.6034
G01 X0.6734 Y65.5766
G01 X0.5695 Y65.5394
G01 X0.4697 Y65.4922
G01 X0.3750 Y65.4354
G01 X0.2863 Y65.3696
G01 X0.2045 Y65.2955
G01 X0.1304 Y65.2137
G01 X0.0646 Y65.1250
G01 X0.0078 Y65.0303
G01 X-0.0394 Y64.9305
G01 X-0.0766 Y64.8266
G01 X-0.1034 Y64.7195
G01 X-0.1196 Y64.6103
G01 X-0.1250 Y64.5000
G01 X-0.1200 Y64.3958
G01 X-0.1188 Y64.3836
G00 Z1.0000
G00 X-0.1188 Y66.9236
G01 F60.00
G01 Z-0.1418
G01 F60.00
G01 X-0.1034 Y66.8205
G01 X-0.0766 Y66.7134
G01 X-0.0394 Y66.6095
G01 X0.0078 Y66.5097
G01 X0.0646 Y66.4150
G01 X0.1304 Y66.3263
G01 X0.2045 Y66.2445
G01 X0.2863 Y66.1704
G01 X0.3750 Y66.1046
G01 X0.4697 Y66.0478
G01 X0.5695 Y66.0006
G01 X0.6734 Y65.9634
G01 X0.7805 Y65.9366
G01 X0.8897 Y65.9204
G01 X1.0000 Y65.9150
G01 X1.1103 Y65.9204
G01 X1.2195 Y65.9366
G01 X1.3266 Y65.9634
G01 X1.4305 Y66.0006
G01 X1.5303 Y66.0478
G01 X1.6250 Y66.1046
G01 X1.7137 Y66.1704
G01 X1.7955 Y66.2445
G01 X1.8696 Y66.3263
G01 X1.9354 Y66.4150
G01 X1.9922 Y66.5097
G01 X2.0394 Y66.6095
G01 X2.0766 Y66.7134
G01 X2.1034 Y66.8205
G01 X2.1196 Y66.9297
G01 X2.1250 Y67.0400
G01 X2.1196 Y67.1503
G01 X2.1034 Y67.2595
G01 X2.0766 Y67.3666
G01 X2.0394 Y67.4705
G01 X1.9922 Y67.5703
G01 X1.9354 Y67.6650
G01 X1.8696 Y67.7537
G01 X1.7955 Y67.8355
G01 X1.7137 Y67.9096
G01 X1.6250 Y67.9754
G01 X1.5303 Y68.0322
G01 X1.4305 Y68.0794
G01 X1.3266 Y68.1166
G01 X1.2195 Y68.1434
G01 X1.1103 Y68.1596
G01 X1.0000 Y68.1650
G01 X0.8897 Y68.1596
G01 X0.7805 Y68.1434
G01 X0.6734 Y68.1166
G01 X0.5695 Y68.0794
G01 X0.4697 Y68.0322
G01 X0.3750 Y67.9754
G01 X0.2863 Y67.9096
G01 X0.2045 Y67.8355
G01 X0.1304 Y67.7537
G01 X0.0646 Y67.6650
G01 X0.0078 Y67.5703
G01 X-0.0394 Y67.4705
G01 X-0.0766 Y67.3666
G01 X-0.1034 Y67.2595
G01 X-0.1196 Y67.1503
G01 X-0.1250 Y67.0400
G01 X-0.1200 Y66.9358
G01 X-0.1188 Y66.9236
G00 Z1.0000
G00 X-0.1188 Y73.2736
G01 F60.00
G01 Z-0.1418
G01 F60.00
G01 X-0.1034 Y73.1705
G01 X-0.0766 Y73.0634
G01 X-0.0394 Y72.9595
G01 X0.0078 Y72.8597
G01 X0.0646 Y72.7650
G01 X0.1304 Y72.6763
G01 X0.2045 Y72.5945
G01 X0.2863 Y72.5204
G01 X0.3750 Y72.4546
G01 X0.4697 Y72.3978
G01 X0.5695 Y72.3506
G01 X0.6734 Y72.3134
G01 X0.7805 Y72.2866
G01 X0.8897 Y72.2704
G01 X1.0000 Y72.2650
G01 X1.1103 Y72.2704
G01 X1.2195 Y72.2866
G01 X1.3266 Y72.3134
G01 X1.4305 Y72.3506
G01 X1.5303 Y72.3978
G01 X1.6250 Y72.4546
G01 X1.7137 Y72.5204
G01 X1.7955 Y72.5945
G01 X1.8696 Y72.6763
G01 X1.9354 Y72.7650
G01 X1.9922 Y72.8597
G01 X2.0394 Y72.9595
G01 X2.0766 Y73.0634
G01 X2.1034 Y73.1705
G01 X2.1196 Y73.2797
G01 X2.1250 Y73.3900
G01 X2.1196 Y73.5003
G01 X2.1034 Y73.6095
G01 X2.0766 Y73.7166
G01 X2.0394 Y73.8205
G01 X1.9922 Y73.9203
G01 X1.9354 Y74.0150
G01 X1.8696 Y74.1037
G01 X1.7955 Y74.1855
G01 X1.7137 Y74.2596
G01 X1.6250 Y74.3254
G01 X1.5303 Y74.3822
G01 X1.4305 Y74.4294
G01 X1.3266 Y74.4666
G01 X1.2195 Y74.4934
G01 X1.1103 Y74.5096
G01 X1.0000 Y74.5150
G01 X0.8897 Y74.5096
G01 X0.7805 Y74.4934
G01 X0.6734 Y74.4666
G01 X0.5695 Y74.4294
G01 X0.4697 Y74.3822
G01 X0.3750 Y74.3254
G01 X0.2863 Y74.2596
G01 X0.2045 Y74.1855
G01 X0.1304 Y74.1037
G01 X0.0646 Y74.0150
G01 X0.0078 Y73.9203
G01 X-0.0394 Y73.8205
G01 X-0.0766 Y73.7166
G01 X-0.1034 Y73.6095
G01 X-0.1196 Y73.5003
G01 X-0.1250 Y73.3900
G01 X-0.1200 Y73.2858
G01 X-0.1188 Y73.2736
G00 Z1.0000
G00 X-0.1188 Y75.8136
G01 F60.00
G01 Z-0.1418
G01 F60.00
G01 X-0.1034 Y75.7105
G01 X-0.0766 Y75.6034
G01 X-0.0394 Y75.4995
G01 X0.0078 Y75.3997
G01 X0.0646 Y75.3050
G01 X0.1304 Y75.2163
G01 X0.2045 Y75.1345
G01 X0.2863 Y75.0604
G01 X0.3750 Y74.9946
G01 X0.4697 Y74.9378
G01 X0.5695 Y74.8906
G01 X0.6734 Y74.8534
G01 X0.7805 Y74.8266
G01 X0.8897 Y74.8104
G01 X1.0000 Y74.8050
G01 X1.1103 Y74.8104
G01 X1.2195 Y74.8266
G01 X1.3266 Y74.8534
G01 X1.4305 Y74.8906
G01 X1.5303 Y74.9378
G01 X1.6250 Y74.9946
G01 X1.7137 Y75.0604
G01 X1.7955 Y75.1345
G01 X1.8696 Y75.2163
G01 X1.9354 Y75.3050
G01 X1.9922 Y75.3997
G01 X2.0394 Y75.4995
G01 X2.0766 Y75.6034
G01 X2.1034 Y75.7105
G01 X2.1196 Y75.8197
G01 X2.1250 Y75.9300
G01 X2.1196 Y76.0403
G01 X2.1034 Y76.1495
G01 X2.0766 Y76.2566
G01 X2.0394 Y76.3605
G01 X1.9922 Y76.4603
G01 X1.9354 Y76.5550
G01 X1.8696 Y76.6437
G01 X1.7955 Y76.7255
G01 X1.7137 Y76.7996
G01 X1.6250 Y76.8654
G01 X1.5303 Y76.9222
G01 X1.4305 Y76.9694
G01 X1.3266 Y77.0066
G01 X1.2195 Y77.0334
G01 X1.1103 Y77.0496
G01 X1.0000 Y77.0550
G01 X0.8897 Y77.0496
G01 X0.7805 Y77.0334
G01 X0.6734 Y77.0066
G01 X0.5695 Y76.9694
G01 X0.4697 Y76.9222
G01 X0.3750 Y76.8654
G01 X0.2863 Y76.7996
G01 X0.2045 Y76.7255
G01 X0.1304 Y76.6437
G01 X0.0646 Y76.5550
G01 X0.0078 Y76.4603
G01 X-0.0394 Y76.3605
G01 X-0.0766 Y76.2566
G01 X-0.1034 Y76.1495
G01 X-0.1196 Y76.0403
G01 X-0.1250 Y75.9300
G01 X-0.1200 Y75.8258
G01 X-0.1188 Y75.8136
G00 Z1.0000
G00 X-0.1188 Y78.3536
G01 F60.00
G01 Z-0.1418
G01 F60.00
G01 X-0.1034 Y78.2505
G01 X-0.0766 Y78.1434
G01 X-0.0394 Y78.0395
G01 X0.0078 Y77.9397
G01 X0.0646 Y77.8450
G01 X0.1304 Y77.7563
G01 X0.2045 Y77.6745
G01 X0.2863 Y77.6004
G01 X0.3750 Y77.5346
G01 X0.4697 Y77.4778
G01 X0.5695 Y77.4306
G01 X0.6734 Y77.3934
G01 X0.7805 Y77.3666
G01 X0.8897 Y77.3504
G01 X1.0000 Y77.3450
G01 X1.1103 Y77.3504
G01 X1.2195 Y77.3666
G01 X1.3266 Y77.3934
G01 X1.4305 Y77.4306
G01 X1.5303 Y77.4778
G01 X1.6250 Y77.5346
G01 X1.7137 Y77.6004
G01 X1.7955 Y77.6745
G01 X1.8696 Y77.7563
G01 X1.9354 Y77.8450
G01 X1.9922 Y77.9397
G01 X2.0394 Y78.0395
G01 X2.0766 Y78.1434
G01 X2.1034 Y78.2505
G01 X2.1196 Y78.3597
G01 X2.1250 Y78.4700
G01 X2.1196 Y78.5803
G01 X2.1034 Y78.6895
G01 X2.0766 Y78.7966
G01 X2.0394 Y78.9005
G01 X1.9922 Y79.0003
G01 X1.9354 Y79.0950
G01 X1.8696 Y79.1837
G01 X1.7955 Y79.2655
G01 X1.7137 Y79.3396
G01 X1.6250 Y79.4054
G01 X1.5303 Y79.4622
G01 X1.4305 Y79.5094
G01 X1.3266 Y79.5466
G01 X1.2195 Y79.5734
G01 X1.1103 Y79.5896
G01 X1.0000 Y79.5950
G01 X0.8897 Y79.5896
G01 X0.7805 Y79.5734
G01 X0.6734 Y79.5466
G01 X0.5695 Y79.5094
G01 X0.4697 Y79.4622
G01 X0.3750 Y79.4054
G01 X0.2863 Y79.3396
G01 X0.2045 Y79.2655
G01 X0.1304 Y79.1837
G01 X0.0646 Y79.0950
G01 X0.0078 Y79.0003
G01 X-0.0394 Y78.9005
G01 X-0.0766 Y78.7966
G01 X-0.1034 Y78.6895
G01 X-0.1196 Y78.5803
G01 X-0.1250 Y78.4700
G01 X-0.1200 Y78.3658
G01 X-0.1188 Y78.3536
G00 Z1.0000
G00 X-0.1188 Y80.8936
G01 F60.00
G01 Z-0.1418
G01 F60.00
G01 X-0.1034 Y80.7905
G01 X-0.0766 Y80.6834
G01 X-0.0394 Y80.5795
G01 X0.0078 Y80.4797
G01 X0.0646 Y80.3850
G01 X0.1304 Y80.2963
G01 X0.2045 Y80.2145
G01 X0.2863 Y80.1404
G01 X0.3750 Y80.0746
G01 X0.4697 Y80.0178
G01 X0.5695 Y79.9706
G01 X0.6734 Y79.9334
G01 X0.7805 Y79.9066
G01 X0.8897 Y79.8904
G01 X1.0000 Y79.8850
G01 X1.1103 Y79.8904
G01 X1.2195 Y79.9066
G01 X1.3266 Y79.9334
G01 X1.4305 Y79.9706
G01 X1.5303 Y80.0178
G01 X1.6250 Y80.0746
G01 X1.7137 Y80.1404
G01 X1.7955 Y80.2145
G01 X1.8696 Y80.2963
G01 X1.9354 Y80.3850
G01 X1.9922 Y80.4797
G01 X2.0394 Y80.5795
G01 X2.0766 Y80.6834
G01 X2.1034 Y80.7905
G01 X2.1196 Y80.8997
G01 X2.1250 Y81.0100
G01 X2.1196 Y81.1203
G01 X2.1034 Y81.2295
G01 X2.0766 Y81.3366
G01 X2.0394 Y81.4405
G01 X1.9922 Y81.5403
G01 X1.9354 Y81.6350
G01 X1.8696 Y81.7237
G01 X1.7955 Y81.8055
G01 X1.7137 Y81.8796
G01 X1.6250 Y81.9454
G01 X1.5303 Y82.0022
G01 X1.4305 Y82.0494
G01 X1.3266 Y82.0866
G01 X1.2195 Y82.1134
G01 X1.1103 Y82.1296
G01 X1.0000 Y82.1350
G01 X0.8897 Y82.1296
G01 X0.7805 Y82.1134
G01 X0.6734 Y82.0866
G01 X0.5695 Y82.0494
G01 X0.4697 Y82.0022
G01 X0.3750 Y81.9454
G01 X0.2863 Y81.8796
G01 X0.2045 Y81.8055
G01 X0.1304 Y81.7237
G01 X0.0646 Y81.6350
G01 X0.0078 Y81.5403
G01 X-0.0394 Y81.4405
G01 X-0.0766 Y81.3366
G01 X-0.1034 Y81.2295
G01 X-0.1196 Y81.1203
G01 X-0.1250 Y81.0100
G01 X-0.1200 Y80.9058
G01 X-0.1188 Y80.8936
G00 Z1.0000
G00 X-0.1188 Y83.4336
G01 F60.00
G01 Z-0.1418
G01 F60.00
G01 X-0.1034 Y83.3305
G01 X-0.0766 Y83.2234
G01 X-0.0394 Y83.1195
G01 X0.0078 Y83.0197
G01 X0.0646 Y82.9250
G01 X0.1304 Y82.8363
G01 X0.2045 Y82.7545
G01 X0.2863 Y82.6804
G01 X0.3750 Y82.6146
G01 X0.4697 Y82.5578
G01 X0.5695 Y82.5106
G01 X0.6734 Y82.4734
G01 X0.7805 Y82.4466
G01 X0.8897 Y82.4304
G01 X1.0000 Y82.4250
G01 X1.1103 Y82.4304
G01 X1.2195 Y82.4466
G01 X1.3266 Y82.4734
G01 X1.4305 Y82.5106
G01 X1.5303 Y82.5578
G01 X1.6250 Y82.6146
G01 X1.7137 Y82.6804
G01 X1.7955 Y82.7545
G01 X1.8696 Y82.8363
G01 X1.9354 Y82.9250
G01 X1.9922 Y83.0197
G01 X2.0394 Y83.1195
G01 X2.0766 Y83.2234
G01 X2.1034 Y83.3305
G01 X2.1196 Y83.4397
G01 X2.1250 Y83.5500
G01 X2.1196 Y83.6603
G01 X2.1034 Y83.7695
G01 X2.0766 Y83.8766
G01 X2.0394 Y83.9805
G01 X1.9922 Y84.0803
G01 X1.9354 Y84.1750
G01 X1.8696 Y84.2637
G01 X1.7955 Y84.3455
G01 X1.7137 Y84.4196
G01 X1.6250 Y84.4854
G01 X1.5303 Y84.5422
G01 X1.4305 Y84.5894
G01 X1.3266 Y84.6266
G01 X1.2195 Y84.6534
G01 X1.1103 Y84.6696
G01 X1.0000 Y84.6750
G01 X0.8897 Y84.6696
G01 X0.7805 Y84.6534
G01 X0.6734 Y84.6266
G01 X0.5695 Y84.5894
G01 X0.4697 Y84.5422
G01 X0.3750 Y84.4854
G01 X0.2863 Y84.4196
G01 X0.2045 Y84.3455
G01 X0.1304 Y84.2637
G01 X0.0646 Y84.1750
G01 X0.0078 Y84.0803
G01 X-0.0394 Y83.9805
G01 X-0.0766 Y83.8766
G01 X-0.1034 Y83.7695
G01 X-0.1196 Y83.6603
G01 X-0.1250 Y83.5500
G01 X-0.1200 Y83.4458
G01 X-0.1188 Y83.4336
G00 Z1.0000
G00 X-0.1188 Y85.9736
G01 F60.00
G01 Z-0.1418
G01 F60.00
G01 X-0.1034 Y85.8705
G01 X-0.0766 Y85.7634
G01 X-0.0394 Y85.6595
G01 X0.0078 Y85.5597
G01 X0.0646 Y85.4650
G01 X0.1304 Y85.3763
G01 X0.2045 Y85.2945
G01 X0.2863 Y85.2204
G01 X0.3750 Y85.1546
G01 X0.4697 Y85.0978
G01 X0.5695 Y85.0506
G01 X0.6734 Y85.0134
G01 X0.7805 Y84.9866
G01 X0.8897 Y84.9704
G01 X1.0000 Y84.9650
G01 X1.1103 Y84.9704
G01 X1.2195 Y84.9866
G01 X1.3266 Y85.0134
G01 X1.4305 Y85.0506
G01 X1.5303 Y85.0978
G01 X1.6250 Y85.1546
G01 X1.7137 Y85.2204
G01 X1.7955 Y85.2945
G01 X1.8696 Y85.3763
G01 X1.9354 Y85.4650
G01 X1.9922 Y85.5597
G01 X2.0394 Y85.6595
G01 X2.0766 Y85.7634
G01 X2.1034 Y85.8705
G01 X2.1196 Y85.9797
G01 X2.1250 Y86.0900
G01 X2.1196 Y86.2003
G01 X2.1034 Y86.3095
G01 X2.0766 Y86.4166
G01 X2.0394 Y86.5205
G01 X1.9922 Y86.6203
G01 X1.9354 Y86.7150
G01 X1.8696 Y86.8037
G01 X1.7955 Y86.8855
G01 X1.7137 Y86.9596
G01 X1.6250 Y87.0254
G01 X1.5303 Y87.0822
G01 X1.4305 Y87.1294
G01 X1.3266 Y87.1666
G01 X1.2195 Y87.1934
G01 X1.1103 Y87.2096
G01 X1.0000 Y87.2150
G01 X0.8897 Y87.2096
G01 X0.7805 Y87.1934
G01 X0.6734 Y87.1666
G01 X0.5695 Y87.1294
G01 X0.4697 Y87.0822
G01 X0.3750 Y87.0254
G01 X0.2863 Y86.9596
G01 X0.2045 Y86.8855
G01 X0.1304 Y86.8037
G01 X0.0646 Y86.7150
G01 X0.0078 Y86.6203
G01 X-0.0394 Y86.5205
G01 X-0.0766 Y86.4166
G01 X-0.1034 Y86.3095
G01 X-0.1196 Y86.2003
G01 X-0.1250 Y86.0900
G01 X-0.1200 Y85.9858
G01 X-0.1188 Y85.9736
G00 Z1.0000
G00 X-0.1188 Y88.5136
G01 F60.00
G01 Z-0.1418
G01 F60.00
G01 X-0.1034 Y88.4105
G01 X-0.0766 Y88.3034
G01 X-0.0394 Y88.1995
G01 X0.0078 Y88.0997
G01 X0.0646 Y88.0050
G01 X0.1304 Y87.9163
G01 X0.2045 Y87.8345
G01 X0.2863 Y87.7604
G01 X0.3750 Y87.6946
G01 X0.4697 Y87.6378
G01 X0.5695 Y87.5906
G01 X0.6734 Y87.5534
G01 X0.7805 Y87.5266
G01 X0.8897 Y87.5104
G01 X1.0000 Y87.5050
G01 X1.1103 Y87.5104
G01 X1.2195 Y87.5266
G01 X1.3266 Y87.5534
G01 X1.4305 Y87.5906
G01 X1.5303 Y87.6378
G01 X1.6250 Y87.6946
G01 X1.7137 Y87.7604
G01 X1.7955 Y87.8345
G01 X1.8696 Y87.9163
G01 X1.9354 Y88.0050
G01 X1.9922 Y88.0997
G01 X2.0394 Y88.1995
G01 X2.0766 Y88.3034
G01 X2.1034 Y88.4105
G01 X2.1196 Y88.5197
G01 X2.1250 Y88.6300
G01 X2.1196 Y88.7403
G01 X2.1034 Y88.8495
G01 X2.0766 Y88.9566
G01 X2.0394 Y89.0605
G01 X1.9922 Y89.1603
G01 X1.9354 Y89.2550
G01 X1.8696 Y89.3437
G01 X1.7955 Y89.4255
G01 X1.7137 Y89.4996
G01 X1.6250 Y89.5654
G01 X1.5303 Y89.6222
G01 X1.4305 Y89.6694
G01 X1.3266 Y89.7066
G01 X1.2195 Y89.7334
G01 X1.1103 Y89.7496
G01 X1.0000 Y89.7550
G01 X0.8897 Y89.7496
G01 X0.7805 Y89.7334
G01 X0.6734 Y89.7066
G01 X0.5695 Y89.6694
G01 X0.4697 Y89.6222
G01 X0.3750 Y89.5654
G01 X0.2863 Y89.4996
G01 X0.2045 Y89.4255
G01 X0.1304 Y89.3437
G01 X0.0646 Y89.2550
G01 X0.0078 Y89.1603
G01 X-0.0394 Y89.0605
G01 X-0.0766 Y88.9566
G01 X-0.1034 Y88.8495
G01 X-0.1196 Y88.7403
G01 X-0.1250 Y88.6300
G01 X-0.1200 Y88.5258
G01 X-0.1188 Y88.5136
G00 Z1.0000
G00 X0.0000 Y90.0450
G01 F60.00
G01 Z-0.1418
G01 F60.00
G01 X2.0031 Y90.0450
G01 X2.0153 Y90.0459
G01 X2.0274 Y90.0480
G01 X2.0392 Y90.0513
G01 X2.0507 Y90.0557
G01 X2.0616 Y90.0612
G01 X2.0720 Y90.0678
G01 X2.0816 Y90.0753
G01 X2.0905 Y90.0838
G01 X2.0985 Y90.0931
G01 X2.1056 Y90.1031
G01 X2.1102 Y90.1111
G01 X2.1155 Y90.1222
G01 X2.1187 Y90.1308
G01 X2.1220 Y90.1426
G01 X2.1241 Y90.1547
G01 X2.1250 Y90.1669
G01 X2.1250 Y92.1700
G01 X2.1244 Y92.1823
G01 X2.1226 Y92.1944
G01 X2.1196 Y92.2063
G01 X2.1143 Y92.2207
G01 X2.1088 Y92.2316
G01 X2.1022 Y92.2420
G01 X2.0947 Y92.2516
G01 X2.0862 Y92.2605
G01 X2.0769 Y92.2685
G01 X2.0669 Y92.2756
G01 X2.0589 Y92.2802
G01 X2.0478 Y92.2855
G01 X2.0392 Y92.2887
G01 X2.0274 Y92.2920
G01 X2.0153 Y92.2941
G01 X2.0031 Y92.2950
G01 X-0.0000 Y92.2950
G01 X-0.0123 Y92.2944
G01 X-0.0244 Y92.2926
G01 X-0.0363 Y92.2896
G01 X-0.0478 Y92.2855
G01 X-0.0589 Y92.2802
G01 X-0.0694 Y92.2739
G01 X-0.0793 Y92.2666
G01 X-0.0905 Y92.2562
G01 X-0.0966 Y92.2493
G01 X-0.1039 Y92.2394
G01 X-0.1102 Y92.2289
G01 X-0.1155 Y92.2178
G01 X-0.1196 Y92.2063
G01 X-0.1226 Y92.1944
G01 X-0.1241 Y92.1853
G01 X-0.1250 Y92.1731
G01 X-0.1248 Y90.1639
G01 X-0.1236 Y90.1517
G01 X-0.1213 Y90.1396
G01 X-0.1177 Y90.1279
G01 X-0.1130 Y90.1166
G01 X-0.1088 Y90.1084
G01 X-0.1022 Y90.0980
G01 X-0.0947 Y90.0884
G01 X-0.0862 Y90.0795
G01 X-0.0769 Y90.0715
G01 X-0.0694 Y90.0661
G01 X-0.0589 Y90.0598
G01 X-0.0478 Y90.0545
G01 X-0.0363 Y90.0504
G01 X-0.0244 Y90.0474
G01 X-0.0123 Y90.0456
G01 X0.0000 Y90.0450
G00 Z1.0000
G00 X29.8008 Y59.6480
G01 F60.00
G01 Z-0.1418
G01 F60.00
G01 X29.8008 Y58.9697
G01 X30.3372 Y58.9697
G01 X30.4892 Y59.0457
G01 X30.5460 Y59.1025
G01 X30.6220 Y59.2546
G01 X30.6220 Y59.3632
G01 X30.5460 Y59.5152
G01 X30.4892 Y59.5720
G01 X30.3372 Y59.6480
G01 X29.8008 Y59.6480
G00 Z1.0000
G00 X29.8008 Y57.3983
G01 F60.00
G01 Z-0.1418
G01 F60.00
G01 X30.4800 Y57.3983
G01 X30.6321 Y57.4743
G01 X30.6888 Y57.5311
G01 X30.7649 Y57.6831
G01 X30.7649 Y57.9346
G01 X30.6888 Y58.0866
G01 X30.6516 Y58.1238
G01 X30.3648 Y58.2194
G01 X29.8008 Y58.2194
G01 X29.8008 Y57.3983
G00 Z1.0000
G00 X29.0507 Y57.0170
G01 F60.00
G01 Z-0.1418
G01 F60.00
G01 X29.0524 Y56.9864
G01 X29.0578 Y56.9500
G01 X29.0667 Y56.9142
G01 X29.0769 Y56.8853
G01 X29.0816 Y56.8740
G01 X29.0935 Y56.8490
G01 X29.0979 Y56.8410
G01 X29.1138 Y56.8147
G01 X29.1357 Y56.7852
G01 X29.1605 Y56.7579
G01 X29.1831 Y56.7372
G01 X29.1901 Y56.7313
G01 X29.2123 Y56.7148
G01 X29.2225 Y56.7080
G01 X29.2489 Y56.6923
G01 X29.2822 Y56.6766
G01 X29.3168 Y56.6642
G01 X29.3465 Y56.6566
G01 X29.3586 Y56.6542
G01 X29.3889 Y56.6498
G01 X29.4257 Y56.6480
G01 X30.5686 Y56.6480
G01 X30.5921 Y56.6488
G01 X30.6084 Y56.6502
G01 X30.6317 Y56.6534
G01 X30.6448 Y56.6559
G01 X30.6647 Y56.6606
G01 X30.6804 Y56.6651
G01 X30.6998 Y56.6717
G01 X30.7149 Y56.6778
G01 X30.7363 Y56.6876
G01 X31.0220 Y56.8305
G01 X31.0338 Y56.8366
G01 X31.0515 Y56.8469
G01 X31.0627 Y56.8541
G01 X31.0818 Y56.8678
G01 X31.0899 Y56.8741
G01 X31.1122 Y56.8936
G01 X31.2695 Y57.0509
G01 X31.2851 Y57.0685
G01 X31.2953 Y57.0813
G01 X31.3107 Y57.1030
G01 X31.3162 Y57.1116
G01 X31.3265 Y57.1293
G01 X31.3327 Y57.1411
G01 X31.4769 Y57.4296
G01 X31.4854 Y57.4482
G01 X31.4892 Y57.4577
G01 X31.4980 Y57.4828
G01 X31.5026 Y57.4985
G01 X31.5079 Y57.5214
G01 X31.5103 Y57.5345
G01 X31.5133 Y57.5578
G01 X31.5144 Y57.5710
G01 X31.5151 Y57.5946
G01 X31.5151 Y58.0231
G01 X31.5144 Y58.0467
G01 X31.5133 Y58.0599
G01 X31.5098 Y58.0863
G01 X31.5073 Y58.0993
G01 X31.5026 Y58.1193
G01 X31.4980 Y58.1350
G01 X31.4914 Y58.1543
G01 X31.4854 Y58.1695
G01 X31.4755 Y58.1909
G01 X31.3265 Y58.4884
G01 X31.3162 Y58.5061
G01 X31.3090 Y58.5173
G01 X31.2953 Y58.5364
G01 X31.2851 Y58.5492
G01 X31.2716 Y58.5645
G01 X31.2624 Y58.5741
G01 X31.1656 Y58.6710
G01 X31.1734 Y58.6831
G01 X31.1836 Y58.7008
G01 X31.1898 Y58.7125
G01 X31.3327 Y58.9982
G01 X31.3425 Y59.0196
G01 X31.3475 Y59.0319
G01 X31.3552 Y59.0542
G01 X31.3597 Y59.0699
G01 X31.3644 Y59.0898
G01 X31.3674 Y59.1059
G01 X31.3707 Y59.1323
G01 X31.3715 Y59.1425
G01 X31.3722 Y59.1629
G01 X31.3722 Y59.4548
G01 X31.3711 Y59.4814
G01 X31.3701 Y59.4915
G01 X31.3674 Y59.5118
G01 X31.3644 Y59.5279
G01 X31.3597 Y59.5478
G01 X31.3552 Y59.5635
G01 X31.3464 Y59.5886
G01 X31.3425 Y59.5981
G01 X31.3340 Y59.6167
G01 X31.1898 Y59.9052
G01 X31.1836 Y59.9169
G01 X31.1734 Y59.9347
G01 X31.1662 Y59.9458
G01 X31.1487 Y59.9698
G01 X31.1423 Y59.9778
G01 X31.1267 Y59.9954
G01 X30.9694 Y60.1527
G01 X30.9518 Y60.1683
G01 X30.9390 Y60.1785
G01 X30.9224 Y60.1905
G01 X30.9138 Y60.1961
G01 X30.8909 Y60.2096
G01 X30.5935 Y60.3587
G01 X30.5721 Y60.3685
G01 X30.5569 Y60.3746
G01 X30.5375 Y60.3812
G01 X30.5218 Y60.3857
G01 X30.4959 Y60.3916
G01 X30.4858 Y60.3934
G01 X30.4655 Y60.3961
G01 X30.4492 Y60.3975
G01 X30.4257 Y60.3983
G01 X29.4257 Y60.3983
G01 X29.3951 Y60.3969
G01 X29.3829 Y60.3957
G01 X29.3525 Y60.3911
G01 X29.3227 Y60.3838
G01 X29.3110 Y60.3802
G01 X29.2822 Y60.3697
G01 X29.2544 Y60.3567
G01 X29.2435 Y60.3509
G01 X29.2173 Y60.3350
G01 X29.1926 Y60.3169
G01 X29.1831 Y60.3091
G01 X29.1605 Y60.2884
G01 X29.1397 Y60.2658
G01 X29.1320 Y60.2563
G01 X29.1138 Y60.2316
G01 X29.0964 Y60.2027
G01 X29.0921 Y60.1945
G01 X29.0791 Y60.1667
G01 X29.0687 Y60.1379
G01 X29.0651 Y60.1261
G01 X29.0578 Y60.0963
G01 X29.0531 Y60.0660
G01 X29.0521 Y60.0569
G01 X29.0506 Y60.0262
G01 X29.0507 Y57.0170
G00 Z1.0000
G00 X31.9077 Y57.7374
G01 F60.00
G01 Z-0.1418
G01 F60.00
G01 X31.9077 Y57.4517
G01 X31.9087 Y57.4251
G01 X31.9099 Y57.4119
G01 X31.9126 Y57.3916
G01 X31.9156 Y57.3755
G01 X31.9203 Y57.3556
G01 X31.9239 Y57.3428
G01 X31.9325 Y57.3176
G01 X31.9375 Y57.3053
G01 X31.9473 Y57.2840
G01 X32.0902 Y56.9982
G01 X32.0998 Y56.9802
G01 X32.1099 Y56.9636
G01 X32.1196 Y56.9492
G01 X32.1275 Y56.9385
G01 X32.1423 Y56.9202
G01 X32.1555 Y56.9059
G01 X32.1678 Y56.8936
G01 X32.1776 Y56.8846
G01 X32.1957 Y56.8697
G01 X32.2114 Y56.8581
G01 X32.2259 Y56.8485
G01 X32.2373 Y56.8417
G01 X32.2580 Y56.8305
G01 X32.5437 Y56.6876
G01 X32.5679 Y56.6766
G01 X32.5802 Y56.6717
G01 X32.5996 Y56.6651
G01 X32.6153 Y56.6606
G01 X32.6352 Y56.6559
G01 X32.6483 Y56.6534
G01 X32.6716 Y56.6502
G01 X32.6848 Y56.6490
G01 X32.7114 Y56.6480
G01 X33.4288 Y56.6481
G01 X33.4492 Y56.6488
G01 X33.4625 Y56.6498
G01 X33.4858 Y56.6529
G01 X33.4989 Y56.6552
G01 X33.5218 Y56.6606
G01 X33.5346 Y56.6642
G01 X33.5569 Y56.6717
G01 X33.5686 Y56.6763
G01 X33.6025 Y56.6642
G01 X33.6323 Y56.6566
G01 X33.6443 Y56.6542
G01 X33.6747 Y56.6498
G01 X33.7053 Y56.6482
G01 X33.7145 Y56.6481
G01 X33.7421 Y56.6494
G01 X33.7543 Y56.6506
G01 X33.7846 Y56.6552
G01 X33.8144 Y56.6625
G01 X33.8261 Y56.6661
G01 X33.8550 Y56.6766
G01 X33.8828 Y56.6896
G01 X33.8936 Y56.6953
G01 X33.9224 Y56.7130
G01 X33.9446 Y56.7294
G01 X33.9518 Y56.7351
G01 X33.9745 Y56.7557
G01 X33.9809 Y56.7623
G01 X33.9994 Y56.7828
G01 X34.0052 Y56.7900
G01 X34.0233 Y56.8147
G01 X34.0392 Y56.8410
G01 X34.0450 Y56.8518
G01 X34.0580 Y56.8796
G01 X34.0704 Y56.9142
G01 X34.0793 Y56.9500
G01 X34.0847 Y56.9864
G01 X34.0866 Y57.0231
G01 X34.0865 Y58.5976
G01 X34.0858 Y58.6181
G01 X34.0847 Y58.6313
G01 X34.0817 Y58.6547
G01 X34.0793 Y58.6678
G01 X34.0740 Y58.6907
G01 X34.0704 Y58.7035
G01 X34.0628 Y58.7258
G01 X34.0580 Y58.7381
G01 X34.0469 Y58.7623
G01 X33.9041 Y59.0480
G01 X33.8930 Y59.0686
G01 X33.8860 Y59.0801
G01 X33.8747 Y59.0971
G01 X33.8649 Y59.1103
G01 X33.8499 Y59.1284
G01 X33.8409 Y59.1382
G01 X33.8287 Y59.1505
G01 X33.8144 Y59.1637
G01 X33.7986 Y59.1766
G01 X33.7829 Y59.1881
G01 X33.7658 Y59.1994
G01 X33.7543 Y59.2062
G01 X33.7391 Y59.2144
G01 X33.4506 Y59.3587
G01 X33.4264 Y59.3697
G01 X33.4140 Y59.3746
G01 X33.3917 Y59.3821
G01 X33.3790 Y59.3857
G01 X33.3590 Y59.3904
G01 X33.3430 Y59.3934
G01 X33.3227 Y59.3961
G01 X33.3094 Y59.3973
G01 X33.2829 Y59.3983
G01 X32.7114 Y59.3983
G01 X32.6879 Y59.3975
G01 X32.6747 Y59.3965
G01 X32.6513 Y59.3934
G01 X32.6382 Y59.3911
G01 X32.6153 Y59.3857
G01 X32.5996 Y59.3812
G01 X32.5745 Y59.3724
G01 X32.5651 Y59.3685
G01 X32.5464 Y59.3600
G01 X32.2580 Y59.2158
G01 X32.2311 Y59.2009
G01 X32.2208 Y59.1944
G01 X32.1957 Y59.1766
G01 X32.1723 Y59.1568
G01 X32.1656 Y59.1505
G01 X32.1444 Y59.1284
G01 X32.1384 Y59.1213
G01 X32.1196 Y59.0971
G01 X32.1030 Y59.0713
G01 X32.0969 Y59.0607
G01 X32.0832 Y59.0332
G01 X32.0719 Y59.0047
G01 X32.0680 Y58.9930
G01 X32.0599 Y58.9635
G01 X32.0545 Y58.9333
G01 X32.0529 Y58.9211
G01 X32.0507 Y58.8905
G01 X32.0512 Y58.8598
G01 X32.0521 Y58.8476
G01 X32.0559 Y58.8171
G01 X32.0624 Y58.7872
G01 X32.0648 Y58.7783
G01 X32.0754 Y58.7462
G01 X32.0876 Y58.7181
G01 X32.0916 Y58.7098
G01 X32.1066 Y58.6831
G01 X32.1116 Y58.6753
G01 X32.1294 Y58.6503
G01 X32.1492 Y58.6269
G01 X32.1577 Y58.6180
G01 X32.1799 Y58.5969
G01 X32.2040 Y58.5778
G01 X32.2114 Y58.5724
G01 X32.2373 Y58.5559
G01 X32.2672 Y58.5404
G01 X32.2784 Y58.5354
G01 X32.3071 Y58.5244
G01 X32.3425 Y58.5145
G01 X32.3788 Y58.5081
G01 X32.4094 Y58.5056
G01 X32.4216 Y58.5053
G01 X32.4554 Y58.5064
G01 X32.4889 Y58.5105
G01 X32.5188 Y58.5170
G01 X32.5307 Y58.5202
G01 X32.5626 Y58.5311
G01 X32.5935 Y58.5448
G01 X32.8000 Y58.6480
G01 X33.1943 Y58.6480
G01 X33.2890 Y58.6007
G01 X33.3187 Y58.5411
G01 X32.7114 Y58.5411
G01 X32.6818 Y58.5399
G01 X32.6716 Y58.5390
G01 X32.6483 Y58.5358
G01 X32.6352 Y58.5333
G01 X32.6153 Y58.5286
G01 X32.5996 Y58.5240
G01 X32.5745 Y58.5152
G01 X32.5651 Y58.5114
G01 X32.5464 Y58.5029
G01 X32.2580 Y58.3587
G01 X32.2399 Y58.3490
G01 X32.2259 Y58.3406
G01 X32.2114 Y58.3310
G01 X32.1957 Y58.3195
G01 X32.1776 Y58.3045
G01 X32.1678 Y58.2955
G01 X32.1555 Y58.2833
G01 X32.1423 Y58.2689
G01 X32.1275 Y58.2507
G01 X32.1196 Y58.2400
G01 X32.1099 Y58.2256
G01 X32.0983 Y58.2062
G01 X32.0902 Y58.1909
G01 X31.9473 Y57.9052
G01 X31.9363 Y57.8810
G01 X31.9314 Y57.8686
G01 X31.9239 Y57.8463
G01 X31.9203 Y57.8335
G01 X31.9149 Y57.8106
G01 X31.9126 Y57.7975
G01 X31.9095 Y57.7742
G01 X31.9085 Y57.7610
G01 X31.9077 Y57.7374
G00 Z1.0000
G00 X32.7053 Y57.4456
G01 F60.00
G01 Z-0.1418
G01 F60.00
G01 X32.8000 Y57.3983
G01 X33.3363 Y57.3983
G01 X33.3363 Y57.7909
G01 X32.8000 Y57.7909
G01 X32.7053 Y57.7435
G01 X32.6580 Y57.6489
G01 X32.6580 Y57.5403
G01 X32.7053 Y57.4456
G00 Z1.0000
G00 X34.7649 Y59.0231
G01 F60.00
G01 Z-0.1418
G01 F60.00
G01 X34.7649 Y57.0231
G01 X34.7667 Y56.9864
G01 X34.7721 Y56.9500
G01 X34.7810 Y56.9142
G01 X34.7934 Y56.8796
G01 X34.8092 Y56.8463
G01 X34.8281 Y56.8147
G01 X34.8500 Y56.7852
G01 X34.8747 Y56.7579
G01 X34.9020 Y56.7332
G01 X34.9316 Y56.7112
G01 X34.9632 Y56.6923
G01 X34.9964 Y56.6766
G01 X35.0311 Y56.6642
G01 X35.0668 Y56.6552
G01 X35.1032 Y56.6498
G01 X35.1400 Y56.6480
G01 X35.1768 Y56.6498
G01 X35.2132 Y56.6552
G01 X35.2489 Y56.6642
G01 X35.2778 Y56.6744
G01 X35.2892 Y56.6791
G01 X35.3168 Y56.6923
G01 X35.3432 Y56.7080
G01 X35.3534 Y56.7148
G01 X35.3780 Y56.7332
G01 X35.4053 Y56.7579
G01 X35.4260 Y56.7805
G01 X35.4337 Y56.7900
G01 X35.4519 Y56.8147
G01 X35.4708 Y56.8463
G01 X35.4866 Y56.8796
G01 X35.4970 Y56.9084
G01 X35.5006 Y56.9202
G01 X35.5085 Y56.9530
G01 X35.5133 Y56.9864
G01 X35.5151 Y57.0231
G01 X35.5151 Y58.3632
G01 X35.5912 Y58.5152
G01 X35.6479 Y58.5720
G01 X35.8000 Y58.6480
G01 X35.9971 Y58.6480
G01 X36.0278 Y58.6494
G01 X36.0370 Y58.6502
G01 X36.0673 Y58.6547
G01 X36.0763 Y58.6566
G01 X36.1031 Y58.6633
G01 X36.1119 Y58.6661
G01 X36.1407 Y58.6766
G01 X36.1740 Y58.6923
G01 X36.2056 Y58.7112
G01 X36.2303 Y58.7294
G01 X36.2375 Y58.7351
G01 X36.2624 Y58.7579
G01 X36.2831 Y58.7805
G01 X36.2909 Y58.7900
G01 X36.3090 Y58.8147
G01 X36.3249 Y58.8410
G01 X36.3307 Y58.8518
G01 X36.3437 Y58.8796
G01 X36.3542 Y58.9084
G01 X36.3578 Y58.9202
G01 X36.3651 Y58.9500
G01 X36.3697 Y58.9803
G01 X36.3709 Y58.9925
G01 X36.3723 Y59.0231
G01 X36.3709 Y59.0538
G01 X36.3697 Y59.0660
G01 X36.3651 Y59.0963
G01 X36.3561 Y59.1320
G01 X36.3459 Y59.1610
G01 X36.3412 Y59.1723
G01 X36.3280 Y59.2000
G01 X36.3123 Y59.2264
G01 X36.3055 Y59.2366
G01 X36.2871 Y59.2611
G01 X36.2624 Y59.2884
G01 X36.2351 Y59.3131
G01 X36.2106 Y59.3315
G01 X36.2004 Y59.3383
G01 X36.1740 Y59.3540
G01 X36.1463 Y59.3672
G01 X36.1350 Y59.3719
G01 X36.1060 Y59.3821
G01 X36.0763 Y59.3897
G01 X36.0643 Y59.3921
G01 X36.0339 Y59.3965
G01 X35.9971 Y59.3983
G01 X35.7084 Y59.3982
G01 X35.6818 Y59.3971
G01 X35.6716 Y59.3961
G01 X35.6513 Y59.3934
G01 X35.6352 Y59.3904
G01 X35.6123 Y59.3849
G01 X35.5996 Y59.3812
G01 X35.5802 Y59.3746
G01 X35.5679 Y59.3697
G01 X35.5437 Y59.3587
G01 X35.4045 Y59.2891
G01 X35.3780 Y59.3131
G01 X35.3484 Y59.3350
G01 X35.3168 Y59.3540
G01 X35.2836 Y59.3697
G01 X35.2489 Y59.3821
G01 X35.2132 Y59.3911
G01 X35.1768 Y59.3965
G01 X35.1461 Y59.3981
G01 X35.1339 Y59.3981
G01 X35.1032 Y59.3965
G01 X35.0668 Y59.3911
G01 X35.0311 Y59.3821
G01 X34.9964 Y59.3697
G01 X34.9632 Y59.3540
G01 X34.9316 Y59.3350
G01 X34.9020 Y59.3131
G01 X34.8747 Y59.2884
G01 X34.8500 Y59.2611
G01 X34.8281 Y59.2316
G01 X34.8092 Y59.2000
G01 X34.7934 Y59.1667
G01 X34.7810 Y59.1320
G01 X34.7721 Y59.0963
G01 X34.7667 Y59.0599
G01 X34.7649 Y59.0231
G00 Z1.0000
G00 X36.6220 Y59.0231
G01 F60.00
G01 Z-0.1418
G01 F60.00
G01 X36.6220 Y57.0231
G01 X36.6238 Y56.9864
G01 X36.6292 Y56.9500
G01 X36.6382 Y56.9142
G01 X36.6506 Y56.8796
G01 X36.6663 Y56.8463
G01 X36.6852 Y56.8147
G01 X36.7072 Y56.7852
G01 X36.7319 Y56.7579
G01 X36.7592 Y56.7332
G01 X36.7887 Y56.7112
G01 X36.8203 Y56.6923
G01 X36.8536 Y56.6766
G01 X36.8882 Y56.6642
G01 X36.9240 Y56.6552
G01 X36.9604 Y56.6498
G01 X36.9971 Y56.6480
G01 X37.0339 Y56.6498
G01 X37.0703 Y56.6552
G01 X37.1060 Y56.6642
G01 X37.1350 Y56.6744
G01 X37.1463 Y56.6791
G01 X37.1740 Y56.6923
G01 X37.2004 Y56.7080
G01 X37.2106 Y56.7148
G01 X37.2351 Y56.7332
G01 X37.2624 Y56.7579
G01 X37.2831 Y56.7805
G01 X37.2909 Y56.7900
G01 X37.3090 Y56.8147
G01 X37.3280 Y56.8463
G01 X37.3437 Y56.8796
G01 X37.3542 Y56.9084
G01 X37.3578 Y56.9202
G01 X37.3656 Y56.9530
G01 X37.3705 Y56.9864
G01 X37.3723 Y57.0231
G01 X37.3723 Y58.3632
G01 X37.4483 Y58.5152
G01 X37.5051 Y58.5720
G01 X37.6571 Y58.6480
G01 X37.8543 Y58.6480
G01 X37.8849 Y58.6494
G01 X37.8941 Y58.6502
G01 X37.9245 Y58.6547
G01 X37.9335 Y58.6566
G01 X37.9602 Y58.6633
G01 X37.9690 Y58.6661
G01 X37.9978 Y58.6766
G01 X38.0311 Y58.6923
G01 X38.0627 Y58.7112
G01 X38.0874 Y58.7294
G01 X38.0946 Y58.7351
G01 X38.1195 Y58.7579
G01 X38.1403 Y58.7805
G01 X38.1480 Y58.7900
G01 X38.1662 Y58.8147
G01 X38.1821 Y58.8410
G01 X38.1879 Y58.8518
G01 X38.2009 Y58.8796
G01 X38.2113 Y58.9084
G01 X38.2149 Y58.9202
G01 X38.2222 Y58.9500
G01 X38.2269 Y58.9803
G01 X38.2281 Y58.9925
G01 X38.2294 Y59.0231
G01 X38.2281 Y59.0538
G01 X38.2269 Y59.0660
G01 X38.2222 Y59.0963
G01 X38.2133 Y59.1320
G01 X38.2031 Y59.1610
G01 X38.1984 Y59.1723
G01 X38.1851 Y59.2000
G01 X38.1695 Y59.2264
G01 X38.1627 Y59.2366
G01 X38.1443 Y59.2611
G01 X38.1195 Y59.2884
G01 X38.0923 Y59.3131
G01 X38.0677 Y59.3315
G01 X38.0575 Y59.3383
G01 X38.0311 Y59.3540
G01 X38.0034 Y59.3672
G01 X37.9921 Y59.3719
G01 X37.9632 Y59.3821
G01 X37.9335 Y59.3897
G01 X37.9214 Y59.3921
G01 X37.8911 Y59.3965
G01 X37.8543 Y59.3983
G01 X37.5655 Y59.3982
G01 X37.5389 Y59.3971
G01 X37.5288 Y59.3961
G01 X37.5085 Y59.3934
G01 X37.4924 Y59.3904
G01 X37.4695 Y59.3849
G01 X37.4568 Y59.3812
G01 X37.4374 Y59.3746
G01 X37.4250 Y59.3697
G01 X37.4008 Y59.3587
G01 X37.2617 Y59.2891
G01 X37.2351 Y59.3131
G01 X37.2056 Y59.3350
G01 X37.1740 Y59.3540
G01 X37.1407 Y59.3697
G01 X37.1060 Y59.3821
G01 X37.0703 Y59.3911
G01 X37.0339 Y59.3965
G01 X37.0033 Y59.3981
G01 X36.9910 Y59.3981
G01 X36.9604 Y59.3965
G01 X36.9240 Y59.3911
G01 X36.8882 Y59.3821
G01 X36.8536 Y59.3697
G01 X36.8203 Y59.3540
G01 X36.7887 Y59.3350
G01 X36.7592 Y59.3131
G01 X36.7319 Y59.2884
G01 X36.7072 Y59.2611
G01 X36.6852 Y59.2316
G01 X36.6663 Y59.2000
G01 X36.6506 Y59.1667
G01 X36.6382 Y59.1320
G01 X36.6292 Y59.0963
G01 X36.6238 Y59.0599
G01 X36.6220 Y59.0231
G00 Z1.0000
G00 X38.3363 Y57.7374
G01 F60.00
G01 Z-0.1418
G01 F60.00
G01 X38.3363 Y57.4517
G01 X38.3372 Y57.4251
G01 X38.3384 Y57.4119
G01 X38.3412 Y57.3916
G01 X38.3441 Y57.3755
G01 X38.3489 Y57.3556
G01 X38.3525 Y57.3428
G01 X38.3611 Y57.3176
G01 X38.3661 Y57.3053
G01 X38.3759 Y57.2840
G01 X38.5188 Y56.9982
G01 X38.5284 Y56.9802
G01 X38.5385 Y56.9636
G01 X38.5482 Y56.9492
G01 X38.5561 Y56.9385
G01 X38.5709 Y56.9202
G01 X38.5840 Y56.9059
G01 X38.5964 Y56.8936
G01 X38.6062 Y56.8846
G01 X38.6243 Y56.8697
G01 X38.6400 Y56.8581
G01 X38.6544 Y56.8485
G01 X38.6659 Y56.8417
G01 X38.6865 Y56.8305
G01 X38.9722 Y56.6876
G01 X38.9964 Y56.6766
G01 X39.0088 Y56.6717
G01 X39.0282 Y56.6651
G01 X39.0439 Y56.6606
G01 X39.0638 Y56.6559
G01 X39.0769 Y56.6534
G01 X39.1002 Y56.6502
G01 X39.1134 Y56.6490
G01 X39.1400 Y56.6480
G01 X39.8574 Y56.6481
G01 X39.8778 Y56.6488
G01 X39.8911 Y56.6498
G01 X39.9144 Y56.6529
G01 X39.9275 Y56.6552
G01 X39.9504 Y56.6606
G01 X39.9632 Y56.6642
G01 X39.9855 Y56.6717
G01 X39.9971 Y56.6763
G01 X40.0311 Y56.6642
G01 X40.0608 Y56.6566
G01 X40.0729 Y56.6542
G01 X40.1032 Y56.6498
G01 X40.1339 Y56.6482
G01 X40.1431 Y56.6481
G01 X40.1706 Y56.6494
G01 X40.1829 Y56.6506
G01 X40.2132 Y56.6552
G01 X40.2430 Y56.6625
G01 X40.2547 Y56.6661
G01 X40.2836 Y56.6766
G01 X40.3114 Y56.6896
G01 X40.3222 Y56.6953
G01 X40.3509 Y56.7130
G01 X40.3731 Y56.7294
G01 X40.3803 Y56.7351
G01 X40.4031 Y56.7557
G01 X40.4095 Y56.7623
G01 X40.4280 Y56.7828
G01 X40.4338 Y56.7900
G01 X40.4519 Y56.8147
G01 X40.4678 Y56.8410
G01 X40.4736 Y56.8518
G01 X40.4866 Y56.8796
G01 X40.4990 Y56.9142
G01 X40.5079 Y56.9500
G01 X40.5133 Y56.9864
G01 X40.5151 Y57.0231
G01 X40.5151 Y58.5976
G01 X40.5144 Y58.6181
G01 X40.5133 Y58.6313
G01 X40.5103 Y58.6547
G01 X40.5079 Y58.6678
G01 X40.5026 Y58.6907
G01 X40.4990 Y58.7035
G01 X40.4914 Y58.7258
G01 X40.4866 Y58.7381
G01 X40.4755 Y58.7623
G01 X40.3327 Y59.0480
G01 X40.3215 Y59.0686
G01 X40.3146 Y59.0801
G01 X40.3033 Y59.0971
G01 X40.2935 Y59.1103
G01 X40.2785 Y59.1284
G01 X40.2695 Y59.1382
G01 X40.2573 Y59.1505
G01 X40.2429 Y59.1637
G01 X40.2271 Y59.1766
G01 X40.2114 Y59.1881
G01 X40.1944 Y59.1994
G01 X40.1829 Y59.2062
G01 X40.1676 Y59.2144
G01 X39.8792 Y59.3587
G01 X39.8550 Y59.3697
G01 X39.8426 Y59.3746
G01 X39.8203 Y59.3821
G01 X39.8075 Y59.3857
G01 X39.7876 Y59.3904
G01 X39.7715 Y59.3934
G01 X39.7512 Y59.3961
G01 X39.7380 Y59.3973
G01 X39.7114 Y59.3983
G01 X39.1400 Y59.3983
G01 X39.1165 Y59.3975
G01 X39.1032 Y59.3965
G01 X39.0799 Y59.3934
G01 X39.0668 Y59.3911
G01 X39.0439 Y59.3857
G01 X39.0282 Y59.3812
G01 X39.0031 Y59.3724
G01 X38.9936 Y59.3685
G01 X38.9750 Y59.3600
G01 X38.6865 Y59.2158
G01 X38.6597 Y59.2009
G01 X38.6493 Y59.1944
G01 X38.6243 Y59.1766
G01 X38.6009 Y59.1568
G01 X38.5941 Y59.1505
G01 X38.5729 Y59.1284
G01 X38.5670 Y59.1213
G01 X38.5482 Y59.0971
G01 X38.5316 Y59.0713
G01 X38.5255 Y59.0607
G01 X38.5118 Y59.0332
G01 X38.5005 Y59.0047
G01 X38.4966 Y58.9930
G01 X38.4885 Y58.9635
G01 X38.4830 Y58.9333
G01 X38.4815 Y58.9211
G01 X38.4793 Y58.8905
G01 X38.4798 Y58.8598
G01 X38.4807 Y58.8476
G01 X38.4845 Y58.8171
G01 X38.4910 Y58.7872
G01 X38.4933 Y58.7783
G01 X38.5039 Y58.7462
G01 X38.5162 Y58.7181
G01 X38.5202 Y58.7098
G01 X38.5352 Y58.6831
G01 X38.5402 Y58.6753
G01 X38.5579 Y58.6503
G01 X38.5778 Y58.6269
G01 X38.5862 Y58.6180
G01 X38.6085 Y58.5969
G01 X38.6325 Y58.5778
G01 X38.6400 Y58.5724
G01 X38.6659 Y58.5559
G01 X38.6958 Y58.5404
G01 X38.7070 Y58.5354
G01 X38.7357 Y58.5244
G01 X38.7711 Y58.5145
G01 X38.8074 Y58.5081
G01 X38.8379 Y58.5056
G01 X38.8502 Y58.5053
G01 X38.8839 Y58.5064
G01 X38.9174 Y58.5105
G01 X38.9474 Y58.5170
G01 X38.9592 Y58.5202
G01 X38.9912 Y58.5311
G01 X39.0220 Y58.5448
G01 X39.2286 Y58.6480
G01 X39.6229 Y58.6480
G01 X39.7175 Y58.6007
G01 X39.7473 Y58.5411
G01 X39.1400 Y58.5411
G01 X39.1104 Y58.5399
G01 X39.1002 Y58.5390
G01 X39.0769 Y58.5358
G01 X39.0638 Y58.5333
G01 X39.0439 Y58.5286
G01 X39.0282 Y58.5240
G01 X39.0031 Y58.5152
G01 X38.9936 Y58.5114
G01 X38.9750 Y58.5029
G01 X38.6865 Y58.3587
G01 X38.6685 Y58.3490
G01 X38.6544 Y58.3406
G01 X38.6400 Y58.3310
G01 X38.6243 Y58.3195
G01 X38.6062 Y58.3045
G01 X38.5964 Y58.2955
G01 X38.5840 Y58.2833
G01 X38.5709 Y58.2689
G01 X38.5561 Y58.2507
G01 X38.5482 Y58.2400
G01 X38.5385 Y58.2256
G01 X38.5269 Y58.2062
G01 X38.5188 Y58.1909
G01 X38.3759 Y57.9052
G01 X38.3649 Y57.8810
G01 X38.3600 Y57.8686
G01 X38.3525 Y57.8463
G01 X38.3489 Y57.8335
G01 X38.3435 Y57.8106
G01 X38.3412 Y57.7975
G01 X38.3381 Y57.7742
G01 X38.3371 Y57.7610
G01 X38.3363 Y57.7374
G00 Z1.0000
G00 X39.1339 Y57.4456
G01 F60.00
G01 Z-0.1418
G01 F60.00
G01 X39.2286 Y57.3983
G01 X39.7649 Y57.3983
G01 X39.7649 Y57.7909
G01 X39.2286 Y57.7909
G01 X39.1339 Y57.7435
G01 X39.0866 Y57.6489
G01 X39.0866 Y57.5403
G01 X39.1339 Y57.4456
G00 Z1.0000
G00 X41.1934 Y59.0231
G01 F60.00
G01 Z-0.1418
G01 F60.00
G01 X41.1934 Y57.0231
G01 X41.1950 Y56.9894
G01 X41.1960 Y56.9803
G01 X41.2007 Y56.9500
G01 X41.2096 Y56.9142
G01 X41.2220 Y56.8796
G01 X41.2350 Y56.8518
G01 X41.2408 Y56.8410
G01 X41.2550 Y56.8173
G01 X41.2602 Y56.8097
G01 X41.2786 Y56.7852
G01 X41.2991 Y56.7623
G01 X41.3078 Y56.7537
G01 X41.3306 Y56.7332
G01 X41.3602 Y56.7112
G01 X41.3917 Y56.6923
G01 X41.4250 Y56.6766
G01 X41.4597 Y56.6642
G01 X41.4894 Y56.6566
G01 X41.5014 Y56.6542
G01 X41.5318 Y56.6498
G01 X41.5624 Y56.6482
G01 X41.5716 Y56.6481
G01 X41.5992 Y56.6494
G01 X41.6114 Y56.6506
G01 X41.6418 Y56.6552
G01 X41.6775 Y56.6642
G01 X41.7121 Y56.6766
G01 X41.7399 Y56.6896
G01 X41.7507 Y56.6953
G01 X41.7744 Y56.7096
G01 X41.7820 Y56.7148
G01 X41.8065 Y56.7332
G01 X41.8294 Y56.7537
G01 X41.8381 Y56.7623
G01 X41.8585 Y56.7852
G01 X41.8805 Y56.8147
G01 X41.8994 Y56.8463
G01 X41.9127 Y56.8740
G01 X41.9163 Y56.8824
G01 X41.9275 Y56.9142
G01 X41.9365 Y56.9500
G01 X41.9419 Y56.9864
G01 X41.9437 Y57.0201
G01 X41.9437 Y58.5770
G01 X42.0857 Y58.6480
G01 X42.3372 Y58.6480
G01 X42.4318 Y58.6007
G01 X42.4792 Y58.5060
G01 X42.4792 Y57.0231
G01 X42.4807 Y56.9894
G01 X42.4817 Y56.9803
G01 X42.4864 Y56.9500
G01 X42.4953 Y56.9142
G01 X42.5077 Y56.8796
G01 X42.5235 Y56.8463
G01 X42.5424 Y56.8147
G01 X42.5643 Y56.7852
G01 X42.5890 Y56.7579
G01 X42.6117 Y56.7372
G01 X42.6187 Y56.7313
G01 X42.6433 Y56.7130
G01 X42.6511 Y56.7080
G01 X42.6775 Y56.6923
G01 X42.7051 Y56.6791
G01 X42.7165 Y56.6744
G01 X42.7454 Y56.6642
G01 X42.7811 Y56.6552
G01 X42.8175 Y56.6498
G01 X42.8482 Y56.6482
G01 X42.8604 Y56.6482
G01 X42.8911 Y56.6498
G01 X42.9214 Y56.6542
G01 X42.9305 Y56.6559
G01 X42.9573 Y56.6625
G01 X42.9690 Y56.6661
G01 X42.9978 Y56.6766
G01 X43.0311 Y56.6923
G01 X43.0627 Y56.7112
G01 X43.0874 Y56.7294
G01 X43.0969 Y56.7372
G01 X43.1173 Y56.7557
G01 X43.1238 Y56.7623
G01 X43.1443 Y56.7852
G01 X43.1627 Y56.8097
G01 X43.1695 Y56.8199
G01 X43.1851 Y56.8463
G01 X43.1984 Y56.8740
G01 X43.2020 Y56.8824
G01 X43.2133 Y56.9142
G01 X43.2222 Y56.9500
G01 X43.2276 Y56.9864
G01 X43.2294 Y57.0201
G01 X43.2294 Y58.5060
G01 X43.2767 Y58.6007
G01 X43.3714 Y58.6480
G01 X43.6229 Y58.6480
G01 X43.7175 Y58.6007
G01 X43.7649 Y58.5060
G01 X43.7649 Y57.0201
G01 X43.7667 Y56.9864
G01 X43.7710 Y56.9560
G01 X43.7727 Y56.9470
G01 X43.7802 Y56.9172
G01 X43.7830 Y56.9084
G01 X43.7934 Y56.8796
G01 X43.8064 Y56.8518
G01 X43.8122 Y56.8410
G01 X43.8281 Y56.8147
G01 X43.8462 Y56.7900
G01 X43.8520 Y56.7828
G01 X43.8726 Y56.7601
G01 X43.8792 Y56.7537
G01 X43.9020 Y56.7332
G01 X43.9266 Y56.7148
G01 X43.9368 Y56.7080
G01 X43.9632 Y56.6923
G01 X43.9908 Y56.6791
G01 X44.0022 Y56.6744
G01 X44.0311 Y56.6642
G01 X44.0608 Y56.6566
G01 X44.0729 Y56.6542
G01 X44.1032 Y56.6498
G01 X44.1339 Y56.6482
G01 X44.1461 Y56.6482
G01 X44.1768 Y56.6498
G01 X44.2071 Y56.6542
G01 X44.2192 Y56.6566
G01 X44.2489 Y56.6642
G01 X44.2778 Y56.6744
G01 X44.2892 Y56.6791
G01 X44.3168 Y56.6923
G01 X44.3432 Y56.7080
G01 X44.3534 Y56.7148
G01 X44.3780 Y56.7332
G01 X44.4008 Y56.7537
G01 X44.4095 Y56.7623
G01 X44.4300 Y56.7852
G01 X44.4519 Y56.8147
G01 X44.4708 Y56.8463
G01 X44.4841 Y56.8740
G01 X44.4888 Y56.8853
G01 X44.4990 Y56.9142
G01 X44.5066 Y56.9440
G01 X44.5090 Y56.9560
G01 X44.5133 Y56.9864
G01 X44.5151 Y57.0201
G01 X44.5151 Y58.5946
G01 X44.5144 Y58.6181
G01 X44.5133 Y58.6313
G01 X44.5098 Y58.6577
G01 X44.5073 Y58.6708
G01 X44.5026 Y58.6907
G01 X44.4980 Y58.7064
G01 X44.4914 Y58.7258
G01 X44.4854 Y58.7409
G01 X44.4755 Y58.7623
G01 X44.3327 Y59.0480
G01 X44.3245 Y59.0634
G01 X44.3146 Y59.0801
G01 X44.3015 Y59.0996
G01 X44.2916 Y59.1127
G01 X44.2805 Y59.1261
G01 X44.2716 Y59.1360
G01 X44.2551 Y59.1527
G01 X44.2429 Y59.1637
G01 X44.2271 Y59.1766
G01 X44.2114 Y59.1881
G01 X44.1970 Y59.1977
G01 X44.1856 Y59.2046
G01 X44.1649 Y59.2158
G01 X43.8792 Y59.3587
G01 X43.8578 Y59.3685
G01 X43.8426 Y59.3746
G01 X43.8232 Y59.3812
G01 X43.8075 Y59.3857
G01 X43.7876 Y59.3904
G01 X43.7746 Y59.3929
G01 X43.7512 Y59.3961
G01 X43.7380 Y59.3973
G01 X43.7114 Y59.3983
G01 X43.2829 Y59.3983
G01 X43.2593 Y59.3975
G01 X43.2461 Y59.3965
G01 X43.2227 Y59.3934
G01 X43.2097 Y59.3911
G01 X43.1867 Y59.3857
G01 X43.1710 Y59.3812
G01 X43.1459 Y59.3724
G01 X43.1365 Y59.3685
G01 X43.1179 Y59.3600
G01 X42.8543 Y59.2283
G01 X42.5935 Y59.3587
G01 X42.5721 Y59.3685
G01 X42.5569 Y59.3746
G01 X42.5375 Y59.3812
G01 X42.5218 Y59.3857
G01 X42.4959 Y59.3916
G01 X42.4858 Y59.3934
G01 X42.4655 Y59.3961
G01 X42.4492 Y59.3975
G01 X42.4257 Y59.3983
G01 X41.9971 Y59.3983
G01 X41.9736 Y59.3975
G01 X41.9604 Y59.3965
G01 X41.9370 Y59.3934
G01 X41.9210 Y59.3904
G01 X41.8951 Y59.3841
G01 X41.8853 Y59.3812
G01 X41.8660 Y59.3746
G01 X41.8508 Y59.3685
G01 X41.8321 Y59.3600
G01 X41.7792 Y59.3336
G01 X41.7718 Y59.3383
G01 X41.7454 Y59.3540
G01 X41.7177 Y59.3672
G01 X41.7064 Y59.3719
G01 X41.6804 Y59.3812
G01 X41.6716 Y59.3838
G01 X41.6418 Y59.3911
G01 X41.6053 Y59.3965
G01 X41.5686 Y59.3983
G01 X41.5379 Y59.3969
G01 X41.5288 Y59.3961
G01 X41.5014 Y59.3921
G01 X41.4894 Y59.3897
G01 X41.4568 Y59.3812
G01 X41.4279 Y59.3709
G01 X41.4194 Y59.3672
G01 X41.3917 Y59.3540
G01 X41.3653 Y59.3383
G01 X41.3576 Y59.3333
G01 X41.3354 Y59.3169
G01 X41.3282 Y59.3111
G01 X41.3055 Y59.2905
G01 X41.2991 Y59.2840
G01 X41.2786 Y59.2611
G01 X41.2567 Y59.2316
G01 X41.2377 Y59.2000
G01 X41.2220 Y59.1667
G01 X41.2096 Y59.1320
G01 X41.2007 Y59.0963
G01 X41.1953 Y59.0599
G01 X41.1934 Y59.0231
G00 Z1.0000
G00 X45.0506 Y58.5946
G01 F60.00
G01 Z-0.1418
G01 F60.00
G01 X45.0506 Y57.4517
G01 X45.0518 Y57.4221
G01 X45.0527 Y57.4119
G01 X45.0559 Y57.3886
G01 X45.0584 Y57.3755
G01 X45.0631 Y57.3556
G01 X45.0667 Y57.3428
G01 X45.0743 Y57.3205
G01 X45.0804 Y57.3053
G01 X45.0902 Y57.2840
G01 X45.2345 Y56.9955
G01 X45.2427 Y56.9802
G01 X45.2511 Y56.9662
G01 X45.2625 Y56.9492
G01 X45.2722 Y56.9360
G01 X45.2852 Y56.9202
G01 X45.2962 Y56.9081
G01 X45.3106 Y56.8936
G01 X45.3228 Y56.8826
G01 X45.3386 Y56.8697
G01 X45.3517 Y56.8599
G01 X45.3687 Y56.8485
G01 X45.3855 Y56.8386
G01 X45.4008 Y56.8305
G01 X45.6865 Y56.6876
G01 X45.7079 Y56.6778
G01 X45.7231 Y56.6717
G01 X45.7425 Y56.6651
G01 X45.7523 Y56.6622
G01 X45.7781 Y56.6559
G01 X45.7942 Y56.6529
G01 X45.8175 Y56.6498
G01 X45.8308 Y56.6488
G01 X45.8543 Y56.6480
G01 X46.4288 Y56.6481
G01 X46.4492 Y56.6488
G01 X46.4625 Y56.6498
G01 X46.4858 Y56.6529
G01 X46.5019 Y56.6559
G01 X46.5277 Y56.6622
G01 X46.5375 Y56.6651
G01 X46.5569 Y56.6717
G01 X46.5721 Y56.6778
G01 X46.5907 Y56.6863
G01 X46.8792 Y56.8305
G01 X46.9060 Y56.8454
G01 X46.9138 Y56.8502
G01 X46.9365 Y56.8660
G01 X46.9462 Y56.8735
G01 X46.9694 Y56.8936
G01 X46.9948 Y56.9202
G01 X47.0175 Y56.9492
G01 X47.0373 Y56.9802
G01 X47.0540 Y57.0131
G01 X47.0652 Y57.0416
G01 X47.0691 Y57.0532
G01 X47.0772 Y57.0828
G01 X47.0827 Y57.1130
G01 X47.0840 Y57.1221
G01 X47.0861 Y57.1497
G01 X47.0864 Y57.1619
G01 X47.0856 Y57.1926
G01 X47.0812 Y57.2291
G01 X47.0732 Y57.2651
G01 X47.0638 Y57.2943
G01 X47.0594 Y57.3057
G01 X47.0483 Y57.3310
G01 X47.0441 Y57.3392
G01 X47.0289 Y57.3658
G01 X47.0114 Y57.3911
G01 X47.0039 Y57.4007
G01 X46.9838 Y57.4239
G01 X46.9572 Y57.4494
G01 X46.9282 Y57.4721
G01 X46.9025 Y57.4887
G01 X46.8918 Y57.4948
G01 X46.8644 Y57.5085
G01 X46.8358 Y57.5198
G01 X46.8242 Y57.5237
G01 X46.7946 Y57.5318
G01 X46.7583 Y57.5382
G01 X46.7278 Y57.5407
G01 X46.7155 Y57.5410
G01 X46.6818 Y57.5399
G01 X46.6483 Y57.5358
G01 X46.6183 Y57.5293
G01 X46.6065 Y57.5260
G01 X46.5745 Y57.5152
G01 X46.5437 Y57.5015
G01 X46.3372 Y57.3983
G01 X45.9428 Y57.3983
G01 X45.8482 Y57.4456
G01 X45.8008 Y57.5403
G01 X45.8008 Y57.7156
G01 X46.9279 Y57.9410
G01 X46.9603 Y57.9490
G01 X46.9694 Y57.9519
G01 X46.9979 Y57.9623
G01 X47.0256 Y57.9753
G01 X47.0368 Y57.9812
G01 X47.0602 Y57.9953
G01 X47.0680 Y58.0007
G01 X47.0925 Y58.0191
G01 X47.1198 Y58.0438
G01 X47.1443 Y58.0709
G01 X47.1645 Y58.0979
G01 X47.1697 Y58.1060
G01 X47.1853 Y58.1323
G01 X47.1984 Y58.1597
G01 X47.2032 Y58.1714
G01 X47.2133 Y58.2000
G01 X47.2209 Y58.2297
G01 X47.2233 Y58.2421
G01 X47.2276 Y58.2722
G01 X47.2294 Y58.3089
G01 X47.2294 Y58.5976
G01 X47.2286 Y58.6181
G01 X47.2276 Y58.6313
G01 X47.2245 Y58.6547
G01 X47.2222 Y58.6678
G01 X47.2169 Y58.6907
G01 X47.2123 Y58.7064
G01 X47.2035 Y58.7315
G01 X47.1996 Y58.7409
G01 X47.1911 Y58.7596
G01 X47.0455 Y59.0508
G01 X47.0374 Y59.0660
G01 X47.0289 Y59.0801
G01 X47.0175 Y59.0971
G01 X47.0078 Y59.1103
G01 X46.9948 Y59.1261
G01 X46.9838 Y59.1382
G01 X46.9694 Y59.1527
G01 X46.9572 Y59.1637
G01 X46.9414 Y59.1766
G01 X46.9282 Y59.1864
G01 X46.9113 Y59.1977
G01 X46.8945 Y59.2077
G01 X46.8792 Y59.2158
G01 X46.5935 Y59.3587
G01 X46.5693 Y59.3697
G01 X46.5569 Y59.3746
G01 X46.5375 Y59.3812
G01 X46.5218 Y59.3857
G01 X46.5019 Y59.3904
G01 X46.4889 Y59.3929
G01 X46.4594 Y59.3967
G01 X46.4492 Y59.3975
G01 X46.4257 Y59.3983
G01 X45.8512 Y59.3982
G01 X45.8246 Y59.3971
G01 X45.8145 Y59.3961
G01 X45.7942 Y59.3934
G01 X45.7781 Y59.3904
G01 X45.7582 Y59.3857
G01 X45.7454 Y59.3821
G01 X45.7231 Y59.3746
G01 X45.7136 Y59.3709
G01 X45.6865 Y59.3587
G01 X45.4008 Y59.2158
G01 X45.3828 Y59.2062
G01 X45.3687 Y59.1977
G01 X45.3517 Y59.1864
G01 X45.3386 Y59.1766
G01 X45.3251 Y59.1657
G01 X45.3084 Y59.1505
G01 X45.2962 Y59.1382
G01 X45.2852 Y59.1261
G01 X45.2722 Y59.1103
G01 X45.2607 Y59.0946
G01 X45.2495 Y59.0775
G01 X45.2427 Y59.0661
G01 X45.2345 Y59.0508
G01 X45.0902 Y58.7623
G01 X45.0804 Y58.7409
G01 X45.0743 Y58.7258
G01 X45.0667 Y58.7035
G01 X45.0631 Y58.6907
G01 X45.0578 Y58.6678
G01 X45.0555 Y58.6547
G01 X45.0524 Y58.6313
G01 X45.0514 Y58.6181
G01 X45.0506 Y58.5946
G00 Z1.0000
G00 X45.8008 Y58.4807
G01 F60.00
G01 Z-0.1418
G01 F60.00
G01 X46.4229 Y58.6051
G01 X46.3372 Y58.6480
G01 X45.9428 Y58.6480
G01 X45.8482 Y58.6007
G01 X45.8008 Y58.5060
G01 X45.8008 Y58.4807
G00 Z1.0000
G00 X47.7649 Y59.0231
G01 F60.00
G01 Z-0.1418
G01 F60.00
G01 X47.7650 Y57.0170
G01 X47.7667 Y56.9864
G01 X47.7721 Y56.9500
G01 X47.7810 Y56.9142
G01 X47.7912 Y56.8853
G01 X47.7959 Y56.8740
G01 X47.8078 Y56.8490
G01 X47.8122 Y56.8410
G01 X47.8281 Y56.8147
G01 X47.8500 Y56.7852
G01 X47.8705 Y56.7623
G01 X47.8792 Y56.7537
G01 X47.9020 Y56.7332
G01 X47.9266 Y56.7148
G01 X47.9368 Y56.7080
G01 X47.9632 Y56.6923
G01 X47.9964 Y56.6766
G01 X48.0311 Y56.6642
G01 X48.0608 Y56.6566
G01 X48.0729 Y56.6542
G01 X48.1032 Y56.6498
G01 X48.1339 Y56.6482
G01 X48.1461 Y56.6482
G01 X48.1768 Y56.6498
G01 X48.2071 Y56.6542
G01 X48.2192 Y56.6566
G01 X48.2489 Y56.6642
G01 X48.2778 Y56.6744
G01 X48.2892 Y56.6791
G01 X48.3168 Y56.6923
G01 X48.3484 Y56.7112
G01 X48.3780 Y56.7332
G01 X48.4008 Y56.7537
G01 X48.4095 Y56.7623
G01 X48.4300 Y56.7852
G01 X48.4484 Y56.8097
G01 X48.4536 Y56.8173
G01 X48.4694 Y56.8436
G01 X48.4736 Y56.8518
G01 X48.4866 Y56.8796
G01 X48.4970 Y56.9084
G01 X48.5006 Y56.9202
G01 X48.5079 Y56.9500
G01 X48.5126 Y56.9803
G01 X48.5136 Y56.9894
G01 X48.5151 Y57.0201
G01 X48.5151 Y58.5770
G01 X48.6571 Y58.6480
G01 X48.9086 Y58.6480
G01 X49.0033 Y58.6007
G01 X49.0506 Y58.5060
G01 X49.0506 Y57.0201
G01 X49.0524 Y56.9864
G01 X49.0578 Y56.9500
G01 X49.0667 Y56.9142
G01 X49.0780 Y56.8824
G01 X49.0816 Y56.8740
G01 X49.0949 Y56.8463
G01 X49.1105 Y56.8199
G01 X49.1173 Y56.8097
G01 X49.1357 Y56.7852
G01 X49.1562 Y56.7623
G01 X49.1627 Y56.7557
G01 X49.1831 Y56.7372
G01 X49.1926 Y56.7294
G01 X49.2173 Y56.7112
G01 X49.2489 Y56.6923
G01 X49.2822 Y56.6766
G01 X49.3110 Y56.6661
G01 X49.3227 Y56.6625
G01 X49.3495 Y56.6559
G01 X49.3586 Y56.6542
G01 X49.3889 Y56.6498
G01 X49.4196 Y56.6482
G01 X49.4318 Y56.6482
G01 X49.4625 Y56.6498
G01 X49.4989 Y56.6552
G01 X49.5346 Y56.6642
G01 X49.5635 Y56.6744
G01 X49.5749 Y56.6791
G01 X49.6025 Y56.6923
G01 X49.6289 Y56.7080
G01 X49.6391 Y56.7148
G01 X49.6637 Y56.7332
G01 X49.6910 Y56.7579
G01 X49.7157 Y56.7852
G01 X49.7376 Y56.8147
G01 X49.7565 Y56.8463
G01 X49.7723 Y56.8796
G01 X49.7847 Y56.9142
G01 X49.7936 Y56.9500
G01 X49.7983 Y56.9803
G01 X49.7993 Y56.9894
G01 X49.8008 Y57.0231
G01 X49.8008 Y58.5946
G01 X49.8001 Y58.6181
G01 X49.7987 Y58.6344
G01 X49.7955 Y58.6577
G01 X49.7930 Y58.6708
G01 X49.7875 Y58.6937
G01 X49.7838 Y58.7064
G01 X49.7761 Y58.7286
G01 X49.7711 Y58.7409
G01 X49.7626 Y58.7596
G01 X49.6170 Y59.0508
G01 X49.6088 Y59.0660
G01 X49.5987 Y59.0827
G01 X49.5890 Y59.0971
G01 X49.5811 Y59.1078
G01 X49.5682 Y59.1237
G01 X49.5552 Y59.1382
G01 X49.5408 Y59.1527
G01 X49.5286 Y59.1637
G01 X49.5153 Y59.1747
G01 X49.4997 Y59.1864
G01 X49.4853 Y59.1961
G01 X49.4659 Y59.2077
G01 X49.4506 Y59.2158
G01 X49.1621 Y59.3600
G01 X49.1435 Y59.3685
G01 X49.1341 Y59.3724
G01 X49.1090 Y59.3812
G01 X49.0933 Y59.3857
G01 X49.0703 Y59.3911
G01 X49.0573 Y59.3934
G01 X49.0339 Y59.3965
G01 X49.0207 Y59.3975
G01 X48.9971 Y59.3983
G01 X48.5686 Y59.3983
G01 X48.5420 Y59.3973
G01 X48.5288 Y59.3961
G01 X48.5085 Y59.3934
G01 X48.4954 Y59.3911
G01 X48.4725 Y59.3857
G01 X48.4568 Y59.3812
G01 X48.4374 Y59.3746
G01 X48.4222 Y59.3685
G01 X48.4008 Y59.3587
G01 X48.3506 Y59.3336
G01 X48.3432 Y59.3383
G01 X48.3168 Y59.3540
G01 X48.2892 Y59.3672
G01 X48.2778 Y59.3719
G01 X48.2518 Y59.3812
G01 X48.2430 Y59.3838
G01 X48.2132 Y59.3911
G01 X48.1768 Y59.3965
G01 X48.1400 Y59.3983
G01 X48.1093 Y59.3969
G01 X48.1002 Y59.3961
G01 X48.0729 Y59.3921
G01 X48.0608 Y59.3897
G01 X48.0282 Y59.3812
G01 X47.9993 Y59.3709
G01 X47.9908 Y59.3672
G01 X47.9632 Y59.3540
G01 X47.9368 Y59.3383
G01 X47.9291 Y59.3333
G01 X47.9069 Y59.3169
G01 X47.8997 Y59.3111
G01 X47.8769 Y59.2905
G01 X47.8705 Y59.2840
G01 X47.8500 Y59.2611
G01 X47.8281 Y59.2316
G01 X47.8092 Y59.2000
G01 X47.7934 Y59.1667
G01 X47.7810 Y59.1320
G01 X47.7721 Y59.0963
G01 X47.7667 Y59.0599
G01 X47.7649 Y59.0231
G00 Z1.0000
G00 X50.0531 Y58.9803
G01 F60.00
G01 Z-0.1418
G01 F60.00
G01 X50.0578 Y58.9500
G01 X50.0667 Y58.9142
G01 X50.0791 Y58.8796
G01 X50.0949 Y58.8463
G01 X50.1138 Y58.8147
G01 X50.1357 Y58.7852
G01 X50.1605 Y58.7579
G01 X50.1831 Y58.7372
G01 X50.1901 Y58.7313
G01 X50.2173 Y58.7112
G01 X50.2489 Y58.6923
G01 X50.2822 Y58.6766
G01 X50.3110 Y58.6661
G01 X50.3198 Y58.6633
G01 X50.3525 Y58.6552
G01 X50.3889 Y58.6498
G01 X50.4226 Y58.6481
G01 X50.4792 Y58.6480
G01 X50.4792 Y57.4517
G01 X50.4799 Y57.4282
G01 X50.4813 Y57.4119
G01 X50.4840 Y57.3916
G01 X50.4864 Y57.3785
G01 X50.4933 Y57.3497
G01 X50.4962 Y57.3399
G01 X50.5039 Y57.3176
G01 X50.5089 Y57.3053
G01 X50.5174 Y57.2867
G01 X50.6630 Y56.9955
G01 X50.6713 Y56.9802
G01 X50.6797 Y56.9662
G01 X50.6910 Y56.9492
G01 X50.7008 Y56.9360
G01 X50.7138 Y56.9202
G01 X50.7248 Y56.9081
G01 X50.7392 Y56.8936
G01 X50.7514 Y56.8826
G01 X50.7671 Y56.8697
G01 X50.7803 Y56.8599
G01 X50.7973 Y56.8485
G01 X50.8141 Y56.8386
G01 X50.8294 Y56.8305
G01 X51.1179 Y56.6863
G01 X51.1365 Y56.6778
G01 X51.1459 Y56.6739
G01 X51.1710 Y56.6651
G01 X51.1867 Y56.6606
G01 X51.2127 Y56.6547
G01 X51.2227 Y56.6529
G01 X51.2461 Y56.6498
G01 X51.2593 Y56.6488
G01 X51.2829 Y56.6480
G01 X51.5686 Y56.6480
G01 X51.5992 Y56.6494
G01 X51.6084 Y56.6502
G01 X51.6418 Y56.6552
G01 X51.6716 Y56.6625
G01 X51.6833 Y56.6661
G01 X51.7121 Y56.6766
G01 X51.7399 Y56.6896
G01 X51.7507 Y56.6953
G01 X51.7770 Y56.7112
G01 X51.8042 Y56.7313
G01 X51.8112 Y56.7372
G01 X51.8338 Y56.7579
G01 X51.8585 Y56.7852
G01 X51.8805 Y56.8147
G01 X51.8964 Y56.8410
G01 X51.9008 Y56.8490
G01 X51.9127 Y56.8740
G01 X51.9174 Y56.8853
G01 X51.9284 Y56.9172
G01 X51.9359 Y56.9470
G01 X51.9375 Y56.9560
G01 X51.9419 Y56.9864
G01 X51.9437 Y57.0231
G01 X51.9419 Y57.0599
G01 X51.9365 Y57.0963
G01 X51.9275 Y57.1320
G01 X51.9151 Y57.1667
G01 X51.8994 Y57.2000
G01 X51.8838 Y57.2264
G01 X51.8787 Y57.2341
G01 X51.8585 Y57.2611
G01 X51.8338 Y57.2884
G01 X51.8065 Y57.3131
G01 X51.7820 Y57.3315
G01 X51.7718 Y57.3383
G01 X51.7427 Y57.3554
G01 X51.7121 Y57.3697
G01 X51.6804 Y57.3812
G01 X51.6716 Y57.3838
G01 X51.6418 Y57.3911
G01 X51.6114 Y57.3957
G01 X51.5992 Y57.3969
G01 X51.5686 Y57.3983
G01 X51.3714 Y57.3983
G01 X51.2767 Y57.4456
G01 X51.2294 Y57.5403
G01 X51.2294 Y58.6480
G01 X51.5686 Y58.6480
G01 X51.5992 Y58.6494
G01 X51.6084 Y58.6502
G01 X51.6387 Y58.6547
G01 X51.6477 Y58.6566
G01 X51.6775 Y58.6642
G01 X51.7064 Y58.6744
G01 X51.7149 Y58.6778
G01 X51.7427 Y58.6909
G01 X51.7507 Y58.6953
G01 X51.7744 Y58.7096
G01 X51.8017 Y58.7294
G01 X51.8112 Y58.7372
G01 X51.8338 Y58.7579
G01 X51.8585 Y58.7852
G01 X51.8769 Y58.8097
G01 X51.8838 Y58.8199
G01 X51.8994 Y58.8463
G01 X51.9151 Y58.8796
G01 X51.9275 Y58.9142
G01 X51.9351 Y58.9440
G01 X51.9375 Y58.9560
G01 X51.9419 Y58.9864
G01 X51.9435 Y59.0170
G01 X51.9435 Y59.0293
G01 X51.9419 Y59.0599
G01 X51.9365 Y59.0963
G01 X51.9275 Y59.1320
G01 X51.9174 Y59.1610
G01 X51.9127 Y59.1723
G01 X51.8994 Y59.2000
G01 X51.8838 Y59.2264
G01 X51.8769 Y59.2366
G01 X51.8585 Y59.2611
G01 X51.8381 Y59.2840
G01 X51.8294 Y59.2926
G01 X51.8065 Y59.3131
G01 X51.7820 Y59.3315
G01 X51.7718 Y59.3383
G01 X51.7454 Y59.3540
G01 X51.7121 Y59.3697
G01 X51.6775 Y59.3821
G01 X51.6477 Y59.3897
G01 X51.6357 Y59.3921
G01 X51.6084 Y59.3961
G01 X51.5992 Y59.3969
G01 X51.5686 Y59.3983
G01 X51.2294 Y59.3983
G01 X51.2294 Y60.0231
G01 X51.2276 Y60.0599
G01 X51.2233 Y60.0903
G01 X51.2216 Y60.0993
G01 X51.2141 Y60.1291
G01 X51.2031 Y60.1610
G01 X51.1984 Y60.1723
G01 X51.1865 Y60.1973
G01 X51.1821 Y60.2053
G01 X51.1662 Y60.2316
G01 X51.1443 Y60.2611
G01 X51.1195 Y60.2884
G01 X51.0969 Y60.3091
G01 X51.0899 Y60.3150
G01 X51.0627 Y60.3350
G01 X51.0311 Y60.3540
G01 X50.9978 Y60.3697
G01 X50.9632 Y60.3821
G01 X50.9275 Y60.3911
G01 X50.8911 Y60.3965
G01 X50.8543 Y60.3983
G01 X50.8175 Y60.3965
G01 X50.7811 Y60.3911
G01 X50.7454 Y60.3821
G01 X50.7107 Y60.3697
G01 X50.6775 Y60.3540
G01 X50.6459 Y60.3350
G01 X50.6163 Y60.3131
G01 X50.5890 Y60.2884
G01 X50.5683 Y60.2658
G01 X50.5624 Y60.2587
G01 X50.5424 Y60.2316
G01 X50.5265 Y60.2053
G01 X50.5207 Y60.1945
G01 X50.5077 Y60.1667
G01 X50.4953 Y60.1320
G01 X50.4877 Y60.1023
G01 X50.4853 Y60.0903
G01 X50.4810 Y60.0599
G01 X50.4792 Y60.0231
G01 X50.4792 Y59.3983
G01 X50.4226 Y59.3982
G01 X50.3889 Y59.3965
G01 X50.3525 Y59.3911
G01 X50.3227 Y59.3838
G01 X50.3110 Y59.3802
G01 X50.2850 Y59.3709
G01 X50.2766 Y59.3672
G01 X50.2489 Y59.3540
G01 X50.2225 Y59.3383
G01 X50.2123 Y59.3315
G01 X50.1877 Y59.3131
G01 X50.1605 Y59.2884
G01 X50.1357 Y59.2611
G01 X50.1173 Y59.2366
G01 X50.1105 Y59.2264
G01 X50.0949 Y59.2000
G01 X50.0816 Y59.1723
G01 X50.0780 Y59.1638
G01 X50.0687 Y59.1379
G01 X50.0651 Y59.1261
G01 X50.0578 Y59.0963
G01 X50.0524 Y59.0599
G01 X50.0506 Y59.0231
G01 X50.0519 Y58.9925
G01 X50.0531 Y58.9803
G00 Z1.0000
G00 X52.0506 Y58.4517
G01 F60.00
G01 Z-0.1418
G01 F60.00
G01 X52.0506 Y57.5915
G01 X52.0518 Y57.5649
G01 X52.0527 Y57.5548
G01 X52.0555 Y57.5345
G01 X52.0584 Y57.5184
G01 X52.0648 Y57.4925
G01 X52.0677 Y57.4828
G01 X52.0754 Y57.4605
G01 X52.0804 Y57.4482
G01 X52.0902 Y57.4268
G01 X52.2330 Y57.1411
G01 X52.2392 Y57.1293
G01 X52.2495 Y57.1116
G01 X52.2584 Y57.0979
G01 X52.2704 Y57.0813
G01 X52.2786 Y57.0709
G01 X52.2962 Y57.0509
G01 X52.4462 Y56.9007
G01 X52.4557 Y56.8915
G01 X52.4758 Y56.8741
G01 X52.4839 Y56.8678
G01 X52.5005 Y56.8558
G01 X52.5116 Y56.8485
G01 X52.5319 Y56.8366
G01 X52.5437 Y56.8305
G01 X52.8321 Y56.6863
G01 X52.8508 Y56.6778
G01 X52.8602 Y56.6739
G01 X52.8853 Y56.6651
G01 X52.9010 Y56.6606
G01 X52.9240 Y56.6552
G01 X52.9370 Y56.6529
G01 X52.9604 Y56.6498
G01 X52.9736 Y56.6488
G01 X52.9971 Y56.6480
G01 X53.4257 Y56.6480
G01 X53.4523 Y56.6490
G01 X53.4655 Y56.6502
G01 X53.4858 Y56.6529
G01 X53.5019 Y56.6559
G01 X53.5218 Y56.6606
G01 X53.5375 Y56.6651
G01 X53.5626 Y56.6739
G01 X53.5721 Y56.6778
G01 X53.5907 Y56.6863
G01 X53.8792 Y56.8305
G01 X53.8909 Y56.8366
G01 X53.9087 Y56.8469
G01 X53.9198 Y56.8541
G01 X53.9438 Y56.8716
G01 X53.9518 Y56.8780
G01 X53.9694 Y56.8936
G01 X54.1195 Y57.0436
G01 X54.1287 Y57.0532
G01 X54.1462 Y57.0733
G01 X54.1525 Y57.0813
G01 X54.1645 Y57.0979
G01 X54.1717 Y57.1090
G01 X54.1836 Y57.1293
G01 X54.1898 Y57.1411
G01 X54.3340 Y57.4296
G01 X54.3425 Y57.4482
G01 X54.3464 Y57.4577
G01 X54.3552 Y57.4828
G01 X54.3597 Y57.4985
G01 X54.3644 Y57.5184
G01 X54.3674 Y57.5345
G01 X54.3701 Y57.5548
G01 X54.3713 Y57.5680
G01 X54.3723 Y57.5946
G01 X54.3723 Y58.4517
G01 X54.3715 Y58.4752
G01 X54.3701 Y58.4915
G01 X54.3674 Y58.5118
G01 X54.3656 Y58.5219
G01 X54.3597 Y58.5478
G01 X54.3552 Y58.5635
G01 X54.3486 Y58.5829
G01 X54.3425 Y58.5981
G01 X54.3327 Y58.6195
G01 X54.1898 Y58.9052
G01 X54.1836 Y58.9170
G01 X54.1734 Y58.9347
G01 X54.1679 Y58.9433
G01 X54.1506 Y58.9674
G01 X54.1423 Y58.9778
G01 X54.1267 Y58.9954
G01 X53.9767 Y59.1455
G01 X53.9671 Y59.1547
G01 X53.9518 Y59.1683
G01 X53.9438 Y59.1747
G01 X53.9224 Y59.1905
G01 X53.9113 Y59.1977
G01 X53.8909 Y59.2096
G01 X53.8792 Y59.2158
G01 X53.5907 Y59.3600
G01 X53.5721 Y59.3685
G01 X53.5626 Y59.3724
G01 X53.5375 Y59.3812
G01 X53.5218 Y59.3857
G01 X53.5019 Y59.3904
G01 X53.4889 Y59.3929
G01 X53.4594 Y59.3967
G01 X53.4492 Y59.3975
G01 X53.4257 Y59.3983
G01 X52.9971 Y59.3983
G01 X52.9736 Y59.3975
G01 X52.9573 Y59.3961
G01 X52.9370 Y59.3934
G01 X52.9210 Y59.3904
G01 X52.9010 Y59.3857
G01 X52.8883 Y59.3821
G01 X52.8660 Y59.3746
G01 X52.8536 Y59.3697
G01 X52.8294 Y59.3587
G01 X52.5437 Y59.2158
G01 X52.5319 Y59.2096
G01 X52.5142 Y59.1994
G01 X52.5030 Y59.1922
G01 X52.4790 Y59.1747
G01 X52.4711 Y59.1683
G01 X52.4535 Y59.1527
G01 X52.3033 Y59.0027
G01 X52.2941 Y58.9931
G01 X52.2806 Y58.9778
G01 X52.2704 Y58.9650
G01 X52.2567 Y58.9458
G01 X52.2495 Y58.9347
G01 X52.2377 Y58.9143
G01 X52.0902 Y58.6195
G01 X52.0804 Y58.5981
G01 X52.0743 Y58.5829
G01 X52.0667 Y58.5606
G01 X52.0631 Y58.5478
G01 X52.0578 Y58.5249
G01 X52.0555 Y58.5118
G01 X52.0524 Y58.4885
G01 X52.0514 Y58.4752
G01 X52.0506 Y58.4517
G00 Z1.0000
G00 X52.8769 Y57.5311
G01 F60.00
G01 Z-0.1418
G01 F60.00
G01 X52.9336 Y57.4743
G01 X53.0857 Y57.3983
G01 X53.3372 Y57.3983
G01 X53.4892 Y57.4743
G01 X53.5460 Y57.5311
G01 X53.6220 Y57.6831
G01 X53.6220 Y58.3632
G01 X53.5460 Y58.5152
G01 X53.4892 Y58.5720
G01 X53.3372 Y58.6480
G01 X53.0857 Y58.6480
G01 X52.9336 Y58.5720
G01 X52.8769 Y58.5152
G01 X52.8008 Y58.3632
G01 X52.8008 Y57.6831
G01 X52.8769 Y57.5311
G00 Z1.0000
G00 X48.4792 Y53.6217
G01 F60.00
G01 Z-0.1418
G01 F60.00
G01 X48.4792 Y52.7615
G01 X48.4804 Y52.7349
G01 X48.4813 Y52.7248
G01 X48.4840 Y52.7045
G01 X48.4870 Y52.6884
G01 X48.4933 Y52.6625
G01 X48.4962 Y52.6528
G01 X48.5039 Y52.6305
G01 X48.5089 Y52.6182
G01 X48.5188 Y52.5968
G01 X48.6616 Y52.3111
G01 X48.6678 Y52.2993
G01 X48.6781 Y52.2816
G01 X48.6870 Y52.2679
G01 X48.6989 Y52.2513
G01 X48.7072 Y52.2409
G01 X48.7248 Y52.2209
G01 X48.8747 Y52.0707
G01 X48.8843 Y52.0615
G01 X48.9044 Y52.0441
G01 X48.9125 Y52.0378
G01 X48.9291 Y52.0258
G01 X48.9402 Y52.0185
G01 X48.9605 Y52.0066
G01 X48.9722 Y52.0005
G01 X49.2607 Y51.8563
G01 X49.2793 Y51.8478
G01 X49.2888 Y51.8439
G01 X49.3139 Y51.8351
G01 X49.3296 Y51.8306
G01 X49.3525 Y51.8252
G01 X49.3656 Y51.8229
G01 X49.3889 Y51.8198
G01 X49.4022 Y51.8188
G01 X49.4257 Y51.8180
G01 X49.8543 Y51.8180
G01 X49.8809 Y51.8190
G01 X49.8941 Y51.8202
G01 X49.9144 Y51.8229
G01 X49.9305 Y51.8259
G01 X49.9504 Y51.8306
G01 X49.9661 Y51.8351
G01 X49.9912 Y51.8439
G01 X50.0007 Y51.8478
G01 X50.0193 Y51.8563
G01 X50.3078 Y52.0005
G01 X50.3195 Y52.0066
G01 X50.3372 Y52.0169
G01 X50.3484 Y52.0241
G01 X50.3724 Y52.0416
G01 X50.3803 Y52.0480
G01 X50.3979 Y52.0636
G01 X50.5481 Y52.2136
G01 X50.5573 Y52.2232
G01 X50.5747 Y52.2433
G01 X50.5811 Y52.2513
G01 X50.5930 Y52.2679
G01 X50.6003 Y52.2790
G01 X50.6122 Y52.2993
G01 X50.6184 Y52.3111
G01 X50.7626 Y52.5996
G01 X50.7711 Y52.6182
G01 X50.7749 Y52.6277
G01 X50.7838 Y52.6528
G01 X50.7883 Y52.6685
G01 X50.7930 Y52.6884
G01 X50.7960 Y52.7045
G01 X50.7987 Y52.7248
G01 X50.7999 Y52.7380
G01 X50.8008 Y52.7646
G01 X50.8008 Y53.6217
G01 X50.8001 Y53.6452
G01 X50.7987 Y53.6615
G01 X50.7960 Y53.6818
G01 X50.7942 Y53.6919
G01 X50.7883 Y53.7178
G01 X50.7838 Y53.7335
G01 X50.7771 Y53.7529
G01 X50.7711 Y53.7681
G01 X50.7612 Y53.7895
G01 X50.6184 Y54.0752
G01 X50.6122 Y54.0870
G01 X50.6019 Y54.1047
G01 X50.5964 Y54.1133
G01 X50.5792 Y54.1374
G01 X50.5709 Y54.1478
G01 X50.5552 Y54.1654
G01 X50.4053 Y54.3155
G01 X50.3957 Y54.3247
G01 X50.3803 Y54.3383
G01 X50.3724 Y54.3447
G01 X50.3509 Y54.3605
G01 X50.3398 Y54.3677
G01 X50.3195 Y54.3796
G01 X50.3078 Y54.3858
G01 X50.0193 Y54.5300
G01 X50.0007 Y54.5385
G01 X49.9912 Y54.5424
G01 X49.9661 Y54.5512
G01 X49.9504 Y54.5557
G01 X49.9305 Y54.5604
G01 X49.9174 Y54.5629
G01 X49.8880 Y54.5667
G01 X49.8778 Y54.5675
G01 X49.8543 Y54.5683
G01 X49.4257 Y54.5683
G01 X49.4022 Y54.5675
G01 X49.3859 Y54.5661
G01 X49.3656 Y54.5634
G01 X49.3495 Y54.5604
G01 X49.3296 Y54.5557
G01 X49.3168 Y54.5521
G01 X49.2945 Y54.5446
G01 X49.2822 Y54.5397
G01 X49.2580 Y54.5287
G01 X48.9722 Y54.3858
G01 X48.9605 Y54.3796
G01 X48.9428 Y54.3694
G01 X48.9316 Y54.3622
G01 X48.9076 Y54.3447
G01 X48.8997 Y54.3383
G01 X48.8821 Y54.3227
G01 X48.7319 Y54.1727
G01 X48.7227 Y54.1631
G01 X48.7091 Y54.1478
G01 X48.6989 Y54.1350
G01 X48.6852 Y54.1158
G01 X48.6781 Y54.1047
G01 X48.6663 Y54.0843
G01 X48.5188 Y53.7895
G01 X48.5089 Y53.7681
G01 X48.5029 Y53.7529
G01 X48.4953 Y53.7306
G01 X48.4917 Y53.7178
G01 X48.4864 Y53.6949
G01 X48.4840 Y53.6818
G01 X48.4810 Y53.6585
G01 X48.4799 Y53.6452
G01 X48.4792 Y53.6217
G00 Z1.0000
G00 X49.3054 Y52.7011
G01 F60.00
G01 Z-0.1418
G01 F60.00
G01 X49.3622 Y52.6443
G01 X49.5143 Y52.5683
G01 X49.7657 Y52.5683
G01 X49.9178 Y52.6443
G01 X49.9746 Y52.7011
G01 X50.0506 Y52.8531
G01 X50.0506 Y53.5332
G01 X49.9746 Y53.6852
G01 X49.9178 Y53.7420
G01 X49.7657 Y53.8180
G01 X49.5143 Y53.8180
G01 X49.3622 Y53.7420
G01 X49.3054 Y53.6852
G01 X49.2294 Y53.5332
G01 X49.2294 Y52.8531
G01 X49.3054 Y52.7011
G00 Z1.0000
G00 X45.9077 Y54.1931
G01 F60.00
G01 Z-0.1418
G01 F60.00
G01 X45.9079 Y52.1870
G01 X45.9095 Y52.1564
G01 X45.9149 Y52.1200
G01 X45.9239 Y52.0842
G01 X45.9341 Y52.0553
G01 X45.9388 Y52.0440
G01 X45.9506 Y52.0190
G01 X45.9550 Y52.0110
G01 X45.9710 Y51.9847
G01 X45.9929 Y51.9552
G01 X46.0134 Y51.9323
G01 X46.0220 Y51.9237
G01 X46.0449 Y51.9032
G01 X46.0694 Y51.8848
G01 X46.0796 Y51.8780
G01 X46.1060 Y51.8623
G01 X46.1393 Y51.8466
G01 X46.1740 Y51.8342
G01 X46.2037 Y51.8266
G01 X46.2157 Y51.8242
G01 X46.2461 Y51.8198
G01 X46.2767 Y51.8182
G01 X46.2890 Y51.8182
G01 X46.3196 Y51.8198
G01 X46.3500 Y51.8242
G01 X46.3620 Y51.8266
G01 X46.3917 Y51.8342
G01 X46.4207 Y51.8444
G01 X46.4320 Y51.8491
G01 X46.4597 Y51.8623
G01 X46.4913 Y51.8812
G01 X46.5208 Y51.9032
G01 X46.5437 Y51.9237
G01 X46.5523 Y51.9323
G01 X46.5728 Y51.9552
G01 X46.5912 Y51.9797
G01 X46.5964 Y51.9873
G01 X46.6122 Y52.0136
G01 X46.6164 Y52.0218
G01 X46.6294 Y52.0496
G01 X46.6399 Y52.0784
G01 X46.6435 Y52.0902
G01 X46.6508 Y52.1200
G01 X46.6554 Y52.1503
G01 X46.6564 Y52.1594
G01 X46.6579 Y52.1901
G01 X46.6580 Y53.7470
G01 X46.8000 Y53.8180
G01 X47.0514 Y53.8180
G01 X47.1461 Y53.7707
G01 X47.1934 Y53.6760
G01 X47.1935 Y52.1901
G01 X47.1953 Y52.1564
G01 X47.2007 Y52.1200
G01 X47.2096 Y52.0842
G01 X47.2209 Y52.0524
G01 X47.2245 Y52.0440
G01 X47.2377 Y52.0163
G01 X47.2534 Y51.9899
G01 X47.2602 Y51.9797
G01 X47.2786 Y51.9552
G01 X47.2991 Y51.9323
G01 X47.3055 Y51.9257
G01 X47.3259 Y51.9072
G01 X47.3354 Y51.8994
G01 X47.3602 Y51.8812
G01 X47.3917 Y51.8623
G01 X47.4250 Y51.8466
G01 X47.4539 Y51.8361
G01 X47.4656 Y51.8325
G01 X47.4924 Y51.8259
G01 X47.5014 Y51.8242
G01 X47.5318 Y51.8198
G01 X47.5624 Y51.8182
G01 X47.5747 Y51.8182
G01 X47.6053 Y51.8198
G01 X47.6418 Y51.8252
G01 X47.6775 Y51.8342
G01 X47.7064 Y51.8444
G01 X47.7177 Y51.8491
G01 X47.7454 Y51.8623
G01 X47.7718 Y51.8780
G01 X47.7820 Y51.8848
G01 X47.8065 Y51.9032
G01 X47.8338 Y51.9279
G01 X47.8585 Y51.9552
G01 X47.8805 Y51.9847
G01 X47.8994 Y52.0163
G01 X47.9151 Y52.0496
G01 X47.9275 Y52.0842
G01 X47.9365 Y52.1200
G01 X47.9411 Y52.1503
G01 X47.9422 Y52.1594
G01 X47.9437 Y52.1931
G01 X47.9437 Y53.7646
G01 X47.9429 Y53.7881
G01 X47.9416 Y53.8044
G01 X47.9383 Y53.8277
G01 X47.9359 Y53.8408
G01 X47.9304 Y53.8637
G01 X47.9266 Y53.8764
G01 X47.9189 Y53.8986
G01 X47.9139 Y53.9109
G01 X47.9054 Y53.9296
G01 X47.7598 Y54.2208
G01 X47.7516 Y54.2360
G01 X47.7415 Y54.2527
G01 X47.7318 Y54.2671
G01 X47.7239 Y54.2778
G01 X47.7111 Y54.2937
G01 X47.6981 Y54.3082
G01 X47.6836 Y54.3227
G01 X47.6715 Y54.3337
G01 X47.6581 Y54.3447
G01 X47.6425 Y54.3564
G01 X47.6281 Y54.3661
G01 X47.6088 Y54.3777
G01 X47.5935 Y54.3858
G01 X47.3050 Y54.5300
G01 X47.2864 Y54.5385
G01 X47.2769 Y54.5424
G01 X47.2518 Y54.5512
G01 X47.2361 Y54.5557
G01 X47.2132 Y54.5611
G01 X47.2001 Y54.5634
G01 X47.1768 Y54.5665
G01 X47.1635 Y54.5675
G01 X47.1400 Y54.5683
G01 X46.7114 Y54.5683
G01 X46.6848 Y54.5673
G01 X46.6716 Y54.5661
G01 X46.6513 Y54.5634
G01 X46.6382 Y54.5611
G01 X46.6153 Y54.5557
G01 X46.5996 Y54.5512
G01 X46.5802 Y54.5446
G01 X46.5651 Y54.5385
G01 X46.5437 Y54.5287
G01 X46.4934 Y54.5036
G01 X46.4861 Y54.5083
G01 X46.4597 Y54.5240
G01 X46.4320 Y54.5372
G01 X46.4207 Y54.5419
G01 X46.3947 Y54.5512
G01 X46.3858 Y54.5538
G01 X46.3560 Y54.5611
G01 X46.3196 Y54.5665
G01 X46.2829 Y54.5683
G01 X46.2522 Y54.5669
G01 X46.2430 Y54.5661
G01 X46.2157 Y54.5621
G01 X46.2037 Y54.5597
G01 X46.1710 Y54.5512
G01 X46.1422 Y54.5409
G01 X46.1337 Y54.5372
G01 X46.1060 Y54.5240
G01 X46.0796 Y54.5083
G01 X46.0719 Y54.5033
G01 X46.0497 Y54.4869
G01 X46.0425 Y54.4811
G01 X46.0198 Y54.4605
G01 X46.0134 Y54.4540
G01 X45.9929 Y54.4311
G01 X45.9710 Y54.4016
G01 X45.9520 Y54.3700
G01 X45.9363 Y54.3367
G01 X45.9239 Y54.3020
G01 X45.9149 Y54.2663
G01 X45.9095 Y54.2299
G01 X45.9077 Y54.1931
G00 Z1.0000
G00 X44.4792 Y54.1931
G01 F60.00
G01 Z-0.1418
G01 F60.00
G01 X44.4792 Y52.1931
G01 X44.4810 Y52.1564
G01 X44.4864 Y52.1200
G01 X44.4953 Y52.0842
G01 X44.5077 Y52.0496
G01 X44.5235 Y52.0163
G01 X44.5424 Y51.9847
G01 X44.5643 Y51.9552
G01 X44.5890 Y51.9279
G01 X44.6163 Y51.9032
G01 X44.6459 Y51.8812
G01 X44.6775 Y51.8623
G01 X44.7107 Y51.8466
G01 X44.7454 Y51.8342
G01 X44.7811 Y51.8252
G01 X44.8175 Y51.8198
G01 X44.8543 Y51.8180
G01 X44.8911 Y51.8198
G01 X44.9275 Y51.8252
G01 X44.9632 Y51.8342
G01 X44.9978 Y51.8466
G01 X45.0311 Y51.8623
G01 X45.0575 Y51.8780
G01 X45.0677 Y51.8848
