(G-CODE GENERATED BY FLATCAM v8.994 - www.flatcam.org - Version Date: 2020/11/7)

(Name: Barramento_EITduino-PTH.drl_mill_cnc)
(Type: G-code from Geometry)
(Units: MM)

(Created on sexta, 21 julho 2023 at 19:02)

(This preprocessor is the default preprocessor used by FlatCAM.)
(It is made to work with MACH3 compatible motion controllers.)

(TOOL DIAMETER: 0.8 mm)
(Feedrate_XY: 120.0 mm/min)
(Feedrate_Z: 60.0 mm/min)
(Feedrate rapids 1500.0 mm/min)

(Z_Cut: -2.6 mm)
(Z_Move: 1.0 mm)
(Z Start: None mm)
(Z End: 5.0 mm)
(X,Y End: None mm)
(Steps per circle: 64)
(Preprocessor Geometry: default)

(X range:    0.9999 ...   81.0100  mm)
(Y range:    1.4999 ...   91.6700  mm)

(Spindle Speed: 1000.0 RPM)
G21
G90
G94

G01 F120.00

M5
G00 Z1.0000
G00 X0.0000 Y0.0000
T1)
(M6 )   
(MSG, Change to Tool Dia = 0.80000)
(M0)
G00 Z1.0000

M03 S1000.0
G01 F120.00
G00 X1.0000 Y1.5000
G01 F60.00
G01 Z-2.6000
G01 F120.00
G01 X1.0000 Y1.4999
G01 X0.9999 Y1.5000
G01 X1.0000 Y1.5000
G01 X1.0000 Y1.5000
G00 Z1.0000
G00 X1.0000 Y4.0400
G01 F60.00
G01 Z-2.6000
G01 F120.00
G01 X1.0000 Y4.0399
G01 X0.9999 Y4.0400
G01 X1.0000 Y4.0400
G01 X1.0000 Y4.0400
G00 Z1.0000
G00 X1.0000 Y6.5800
G01 F60.00
G01 Z-2.6000
G01 F120.00
G01 X1.0000 Y6.5799
G01 X0.9999 Y6.5800
G01 X1.0000 Y6.5800
G01 X1.0000 Y6.5800
G00 Z1.0000
G00 X1.0000 Y9.1200
G01 F60.00
G01 Z-2.6000
G01 F120.00
G01 X1.0000 Y9.1199
G01 X0.9999 Y9.1200
G01 X1.0000 Y9.1200
G01 X1.0000 Y9.1200
G00 Z1.0000
G00 X1.0000 Y11.6600
G01 F60.00
G01 Z-2.6000
G01 F120.00
G01 X1.0000 Y11.6599
G01 X0.9999 Y11.6600
G01 X1.0000 Y11.6600
G01 X1.0000 Y11.6600
G00 Z1.0000
G00 X1.0000 Y14.2000
G01 F60.00
G01 Z-2.6000
G01 F120.00
G01 X1.0000 Y14.1999
G01 X0.9999 Y14.2000
G01 X1.0000 Y14.2000
G01 X1.0000 Y14.2000
G00 Z1.0000
G00 X1.0000 Y16.7400
G01 F60.00
G01 Z-2.6000
G01 F120.00
G01 X1.0000 Y16.7399
G01 X0.9999 Y16.7400
G01 X1.0000 Y16.7400
G01 X1.0000 Y16.7400
G00 Z1.0000
G00 X1.0000 Y19.2800
G01 F60.00
G01 Z-2.6000
G01 F120.00
G01 X1.0000 Y19.2799
G01 X0.9999 Y19.2800
G01 X1.0000 Y19.2800
G01 X1.0000 Y19.2800
G00 Z1.0000
G00 X1.0000 Y21.8200
G01 F60.00
G01 Z-2.6000
G01 F120.00
G01 X1.0000 Y21.8199
G01 X0.9999 Y21.8200
G01 X1.0000 Y21.8200
G01 X1.0000 Y21.8200
G00 Z1.0000
G00 X1.0000 Y24.3600
G01 F60.00
G01 Z-2.6000
G01 F120.00
G01 X1.0000 Y24.3599
G01 X0.9999 Y24.3600
G01 X1.0000 Y24.3600
G01 X1.0000 Y24.3600
G00 Z1.0000
G00 X1.0000 Y26.9000
G01 F60.00
G01 Z-2.6000
G01 F120.00
G01 X1.0000 Y26.8999
G01 X0.9999 Y26.9000
G01 X1.0000 Y26.9000
G01 X1.0000 Y26.9000
G00 Z1.0000
G00 X1.0000 Y29.4400
G01 F60.00
G01 Z-2.6000
G01 F120.00
G01 X1.0000 Y29.4399
G01 X0.9999 Y29.4400
G01 X1.0000 Y29.4400
G01 X1.0000 Y29.4400
G00 Z1.0000
G00 X1.0000 Y31.9800
G01 F60.00
G01 Z-2.6000
G01 F120.00
G01 X1.0000 Y31.9799
G01 X0.9999 Y31.9800
G01 X1.0000 Y31.9800
G01 X1.0000 Y31.9800
G00 Z1.0000
G00 X1.0000 Y34.5200
G01 F60.00
G01 Z-2.6000
G01 F120.00
G01 X1.0000 Y34.5199
G01 X0.9999 Y34.5200
G01 X1.0000 Y34.5200
G01 X1.0000 Y34.5200
G00 Z1.0000
G00 X1.0000 Y37.0600
G01 F60.00
G01 Z-2.6000
G01 F120.00
G01 X1.0000 Y37.0599
G01 X0.9999 Y37.0600
G01 X1.0000 Y37.0600
G01 X1.0000 Y37.0600
G00 Z1.0000
G00 X1.0000 Y39.6000
G01 F60.00
G01 Z-2.6000
G01 F120.00
G01 X1.0000 Y39.5999
G01 X0.9999 Y39.6000
G01 X1.0000 Y39.6000
G01 X1.0000 Y39.6000
G00 Z1.0000
G00 X1.0000 Y42.1400
G01 F60.00
G01 Z-2.6000
G01 F120.00
G01 X1.0000 Y42.1399
G01 X0.9999 Y42.1400
G01 X1.0000 Y42.1400
G01 X1.0000 Y42.1400
G00 Z1.0000
G00 X1.0000 Y44.6800
G01 F60.00
G01 Z-2.6000
G01 F120.00
G01 X1.0000 Y44.6799
G01 X0.9999 Y44.6800
G01 X1.0000 Y44.6800
G01 X1.0000 Y44.6800
G00 Z1.0000
G00 X1.0000 Y47.2200
G01 F60.00
G01 Z-2.6000
G01 F120.00
G01 X1.0000 Y47.2199
G01 X0.9999 Y47.2200
G01 X1.0000 Y47.2200
G01 X1.0000 Y47.2200
G00 Z1.0000
G00 X1.0000 Y49.7600
G01 F60.00
G01 Z-2.6000
G01 F120.00
G01 X1.0000 Y49.7599
G01 X0.9999 Y49.7600
G01 X1.0000 Y49.7600
G01 X1.0000 Y49.7600
G00 Z1.0000
G00 X1.0000 Y52.3000
G01 F60.00
G01 Z-2.6000
G01 F120.00
G01 X1.0000 Y52.2999
G01 X0.9999 Y52.3000
G01 X1.0000 Y52.3000
G01 X1.0000 Y52.3000
G00 Z1.0000
G00 X1.0000 Y54.8400
G01 F60.00
G01 Z-2.6000
G01 F120.00
G01 X1.0000 Y54.8399
G01 X0.9999 Y54.8400
G01 X1.0000 Y54.8400
G01 X1.0000 Y54.8400
G00 Z1.0000
G00 X1.0000 Y57.3800
G01 F60.00
G01 Z-2.6000
G01 F120.00
G01 X1.0000 Y57.3799
G01 X0.9999 Y57.3800
G01 X1.0000 Y57.3800
G01 X1.0000 Y57.3800
G00 Z1.0000
G00 X1.0000 Y59.9200
G01 F60.00
G01 Z-2.6000
G01 F120.00
G01 X1.0000 Y59.9199
G01 X0.9999 Y59.9200
G01 X1.0000 Y59.9200
G01 X1.0000 Y59.9200
G00 Z1.0000
G00 X1.0000 Y62.4600
G01 F60.00
G01 Z-2.6000
G01 F120.00
G01 X1.0000 Y62.4599
G01 X0.9999 Y62.4600
G01 X1.0000 Y62.4600
G01 X1.0000 Y62.4600
G00 Z1.0000
G00 X1.0000 Y65.0000
G01 F60.00
G01 Z-2.6000
G01 F120.00
G01 X1.0000 Y64.9999
G01 X0.9999 Y65.0000
G01 X1.0000 Y65.0000
G01 X1.0000 Y65.0000
G00 Z1.0000
G00 X1.0000 Y67.5400
G01 F60.00
G01 Z-2.6000
G01 F120.00
G01 X1.0000 Y67.5399
G01 X0.9999 Y67.5400
G01 X1.0000 Y67.5400
G01 X1.0000 Y67.5400
G00 Z1.0000
G00 X1.0000 Y73.8900
G01 F60.00
G01 Z-2.6000
G01 F120.00
G01 X1.0000 Y73.8899
G01 X0.9999 Y73.8900
G01 X1.0000 Y73.8900
G01 X1.0000 Y73.8900
G00 Z1.0000
G00 X1.0000 Y76.4300
G01 F60.00
G01 Z-2.6000
G01 F120.00
G01 X1.0000 Y76.4299
G01 X0.9999 Y76.4300
G01 X1.0000 Y76.4300
G01 X1.0000 Y76.4300
G00 Z1.0000
G00 X1.0000 Y78.9700
G01 F60.00
G01 Z-2.6000
G01 F120.00
G01 X1.0000 Y78.9699
G01 X0.9999 Y78.9700
G01 X1.0000 Y78.9700
G01 X1.0000 Y78.9700
G00 Z1.0000
G00 X1.0000 Y81.5100
G01 F60.00
G01 Z-2.6000
G01 F120.00
G01 X1.0000 Y81.5099
G01 X0.9999 Y81.5100
G01 X1.0000 Y81.5100
G01 X1.0000 Y81.5100
G00 Z1.0000
G00 X1.0000 Y84.0500
G01 F60.00
G01 Z-2.6000
G01 F120.00
G01 X1.0000 Y84.0499
G01 X0.9999 Y84.0500
G01 X1.0000 Y84.0500
G01 X1.0000 Y84.0500
G00 Z1.0000
G00 X1.0000 Y86.5900
G01 F60.00
G01 Z-2.6000
G01 F120.00
G01 X1.0000 Y86.5899
G01 X0.9999 Y86.5900
G01 X1.0000 Y86.5900
G01 X1.0000 Y86.5900
G00 Z1.0000
G00 X1.0000 Y89.1300
G01 F60.00
G01 Z-2.6000
G01 F120.00
G01 X1.0000 Y89.1299
G01 X0.9999 Y89.1300
G01 X1.0000 Y89.1300
G01 X1.0000 Y89.1300
G00 Z1.0000
G00 X1.0000 Y91.6700
G01 F60.00
G01 Z-2.6000
G01 F120.00
G01 X1.0000 Y91.6699
G01 X0.9999 Y91.6700
G01 X1.0000 Y91.6700
G01 X1.0000 Y91.6700
G00 Z1.0000
G00 X81.0100 Y91.6700
G01 F60.00
G01 Z-2.6000
G01 F120.00
G01 X81.0100 Y91.6699
G01 X81.0099 Y91.6700
G01 X81.0100 Y91.6700
G01 X81.0100 Y91.6700
G00 Z1.0000
G00 X81.0100 Y89.1300
G01 F60.00
G01 Z-2.6000
G01 F120.00
G01 X81.0100 Y89.1299
G01 X81.0099 Y89.1300
G01 X81.0100 Y89.1300
G01 X81.0100 Y89.1300
G00 Z1.0000
G00 X81.0100 Y86.5900
G01 F60.00
G01 Z-2.6000
G01 F120.00
G01 X81.0100 Y86.5899
G01 X81.0099 Y86.5900
G01 X81.0100 Y86.5900
G01 X81.0100 Y86.5900
G00 Z1.0000
G00 X81.0100 Y84.0500
G01 F60.00
G01 Z-2.6000
G01 F120.00
G01 X81.0100 Y84.0499
G01 X81.0099 Y84.0500
G01 X81.0100 Y84.0500
G01 X81.0100 Y84.0500
G00 Z1.0000
G00 X81.0100 Y81.5100
G01 F60.00
G01 Z-2.6000
G01 F120.00
G01 X81.0100 Y81.5099
G01 X81.0099 Y81.5100
G01 X81.0100 Y81.5100
G01 X81.0100 Y81.5100
G00 Z1.0000
G00 X81.0100 Y78.9700
G01 F60.00
G01 Z-2.6000
G01 F120.00
G01 X81.0100 Y78.9699
G01 X81.0099 Y78.9700
G01 X81.0100 Y78.9700
G01 X81.0100 Y78.9700
G00 Z1.0000
G00 X81.0100 Y76.4300
G01 F60.00
G01 Z-2.6000
G01 F120.00
G01 X81.0100 Y76.4299
G01 X81.0099 Y76.4300
G01 X81.0100 Y76.4300
G01 X81.0100 Y76.4300
G00 Z1.0000
G00 X81.0100 Y73.8900
G01 F60.00
G01 Z-2.6000
G01 F120.00
G01 X81.0100 Y73.8899
G01 X81.0099 Y73.8900
G01 X81.0100 Y73.8900
G01 X81.0100 Y73.8900
G00 Z1.0000
G00 X81.0100 Y71.3500
G01 F60.00
G01 Z-2.6000
G01 F120.00
G01 X81.0100 Y71.3499
G01 X81.0099 Y71.3500
G01 X81.0100 Y71.3500
G01 X81.0100 Y71.3500
G00 Z1.0000
G00 X81.0100 Y68.8100
G01 F60.00
G01 Z-2.6000
G01 F120.00
G01 X81.0100 Y68.8099
G01 X81.0099 Y68.8100
G01 X81.0100 Y68.8100
G01 X81.0100 Y68.8100
G00 Z1.0000
G00 X81.0100 Y66.2700
G01 F60.00
G01 Z-2.6000
G01 F120.00
G01 X81.0100 Y66.2699
G01 X81.0099 Y66.2700
G01 X81.0100 Y66.2700
G01 X81.0100 Y66.2700
G00 Z1.0000
G00 X81.0100 Y63.7300
G01 F60.00
G01 Z-2.6000
G01 F120.00
G01 X81.0100 Y63.7299
G01 X81.0099 Y63.7300
G01 X81.0100 Y63.7300
G01 X81.0100 Y63.7300
G00 Z1.0000
G00 X81.0100 Y61.1900
G01 F60.00
G01 Z-2.6000
G01 F120.00
G01 X81.0100 Y61.1899
G01 X81.0099 Y61.1900
G01 X81.0100 Y61.1900
G01 X81.0100 Y61.1900
G00 Z1.0000
G00 X81.0100 Y58.6500
G01 F60.00
G01 Z-2.6000
G01 F120.00
G01 X81.0100 Y58.6499
G01 X81.0099 Y58.6500
G01 X81.0100 Y58.6500
G01 X81.0100 Y58.6500
G00 Z1.0000
G00 X81.0100 Y56.1100
G01 F60.00
G01 Z-2.6000
G01 F120.00
G01 X81.0100 Y56.1099
G01 X81.0099 Y56.1100
G01 X81.0100 Y56.1100
G01 X81.0100 Y56.1100
G00 Z1.0000
G00 X81.0100 Y53.5700
G01 F60.00
G01 Z-2.6000
G01 F120.00
G01 X81.0100 Y53.5699
G01 X81.0099 Y53.5700
G01 X81.0100 Y53.5700
G01 X81.0100 Y53.5700
G00 Z1.0000
G00 X81.0100 Y51.0300
G01 F60.00
G01 Z-2.6000
G01 F120.00
G01 X81.0100 Y51.0299
G01 X81.0099 Y51.0300
G01 X81.0100 Y51.0300
G01 X81.0100 Y51.0300
G00 Z1.0000
G00 X81.0100 Y48.4900
G01 F60.00
G01 Z-2.6000
G01 F120.00
G01 X81.0100 Y48.4899
G01 X81.0099 Y48.4900
G01 X81.0100 Y48.4900
G01 X81.0100 Y48.4900
G00 Z1.0000
G00 X81.0100 Y45.9500
G01 F60.00
G01 Z-2.6000
G01 F120.00
G01 X81.0100 Y45.9499
G01 X81.0099 Y45.9500
G01 X81.0100 Y45.9500
G01 X81.0100 Y45.9500
G00 Z1.0000
G00 X81.0100 Y43.4100
G01 F60.00
G01 Z-2.6000
G01 F120.00
G01 X81.0100 Y43.4099
G01 X81.0099 Y43.4100
G01 X81.0100 Y43.4100
G01 X81.0100 Y43.4100
G00 Z1.0000
G00 X81.0100 Y40.8700
G01 F60.00
G01 Z-2.6000
G01 F120.00
G01 X81.0100 Y40.8699
G01 X81.0099 Y40.8700
G01 X81.0100 Y40.8700
G01 X81.0100 Y40.8700
G00 Z1.0000
G00 X81.0100 Y38.3300
G01 F60.00
G01 Z-2.6000
G01 F120.00
G01 X81.0100 Y38.3299
G01 X81.0099 Y38.3300
G01 X81.0100 Y38.3300
G01 X81.0100 Y38.3300
G00 Z1.0000
G00 X81.0100 Y35.7900
G01 F60.00
G01 Z-2.6000
G01 F120.00
G01 X81.0100 Y35.7899
G01 X81.0099 Y35.7900
G01 X81.0100 Y35.7900
G01 X81.0100 Y35.7900
G00 Z1.0000
G00 X81.0100 Y33.2500
G01 F60.00
G01 Z-2.6000
G01 F120.00
G01 X81.0100 Y33.2499
G01 X81.0099 Y33.2500
G01 X81.0100 Y33.2500
G01 X81.0100 Y33.2500
G00 Z1.0000
G00 X81.0100 Y30.7100
G01 F60.00
G01 Z-2.6000
G01 F120.00
G01 X81.0100 Y30.7099
G01 X81.0099 Y30.7100
G01 X81.0100 Y30.7100
G01 X81.0100 Y30.7100
G00 Z1.0000
G00 X81.0100 Y28.1700
G01 F60.00
G01 Z-2.6000
G01 F120.00
G01 X81.0100 Y28.1699
G01 X81.0099 Y28.1700
G01 X81.0100 Y28.1700
G01 X81.0100 Y28.1700
G00 Z1.0000
G00 X81.0100 Y25.6300
G01 F60.00
G01 Z-2.6000
G01 F120.00
G01 X81.0100 Y25.6299
G01 X81.0099 Y25.6300
G01 X81.0100 Y25.6300
G01 X81.0100 Y25.6300
G00 Z1.0000
G00 X81.0100 Y23.0900
G01 F60.00
G01 Z-2.6000
G01 F120.00
G01 X81.0100 Y23.0899
G01 X81.0099 Y23.0900
G01 X81.0100 Y23.0900
G01 X81.0100 Y23.0900
G00 Z1.0000
G00 X81.0100 Y20.5500
G01 F60.00
G01 Z-2.6000
G01 F120.00
G01 X81.0100 Y20.5499
G01 X81.0099 Y20.5500
G01 X81.0100 Y20.5500
G01 X81.0100 Y20.5500
G00 Z1.0000
G00 X81.0100 Y18.0100
G01 F60.00
G01 Z-2.6000
G01 F120.00
G01 X81.0100 Y18.0099
G01 X81.0099 Y18.0100
G01 X81.0100 Y18.0100
G01 X81.0100 Y18.0100
G00 Z1.0000
G00 X81.0100 Y15.4700
G01 F60.00
G01 Z-2.6000
G01 F120.00
G01 X81.0100 Y15.4699
G01 X81.0099 Y15.4700
G01 X81.0100 Y15.4700
G01 X81.0100 Y15.4700
G00 Z1.0000
G00 X81.0100 Y12.9300
G01 F60.00
G01 Z-2.6000
G01 F120.00
G01 X81.0100 Y12.9299
G01 X81.0099 Y12.9300
G01 X81.0100 Y12.9300
G01 X81.0100 Y12.9300
G00 Z1.0000
G00 X81.0100 Y10.3900
G01 F60.00
G01 Z-2.6000
G01 F120.00
G01 X81.0100 Y10.3899
G01 X81.0099 Y10.3900
G01 X81.0100 Y10.3900
G01 X81.0100 Y10.3900
G00 Z1.0000
G00 X81.0100 Y7.8500
G01 F60.00
G01 Z-2.6000
G01 F120.00
G01 X81.0100 Y7.8499
G01 X81.0099 Y7.8500
G01 X81.0100 Y7.8500
G01 X81.0100 Y7.8500
G00 Z1.0000
G00 X81.0100 Y5.3100
G01 F60.00
G01 Z-2.6000
G01 F120.00
G01 X81.0100 Y5.3099
G01 X81.0099 Y5.3100
G01 X81.0100 Y5.3100
G01 X81.0100 Y5.3100
G00 Z1.0000
M05
G00 Z1.0000
G00 Z5.00


