(G-CODE GENERATED BY FLATCAM v8.994 - www.flatcam.org - Version Date: 2020/11/7)

(Name: Barramento_EITduino-B_Cu.gbr_iso_combined_cnc)
(Type: G-code from Geometry)
(Units: MM)

(Created on sexta, 21 julho 2023 at 19:00)

(This preprocessor is the default preprocessor used by FlatCAM.)
(It is made to work with MACH3 compatible motion controllers.)

(TOOL DIAMETER: 0.25 mm)
(Feedrate_XY: 60.0 mm/min)
(Feedrate_Z: 60.0 mm/min)
(Feedrate rapids 1500.0 mm/min)

(Z_Cut: -0.14178 mm)
(Z_Move: 1.0 mm)
(Z Start: None mm)
(Z End: 5.0 mm)
(X,Y End: None mm)
(Steps per circle: 64)
(Preprocessor Geometry: default)

(X range:   -0.1500 ...   82.1600  mm)
(Y range:   -0.1500 ...   92.3200  mm)

(Spindle Speed: 1000.0 RPM)
G21
G90
G94

G01 F60.00

M5
G00 Z1.0000
G00 X0.0000 Y0.0000
(T1)
(M6  )  
(MSG, Change to Tool Dia = 0.25000)
(M0)
G00 Z1.0000

M03 S1000.0
G01 F60.00
G00 X-0.1188 Y0.8836
G01 F60.00
G01 Z-0.1418
G01 F60.00
G01 X-0.1034 Y0.7805
G01 X-0.0766 Y0.6734
G01 X-0.0394 Y0.5695
G01 X0.0078 Y0.4697
G01 X0.0646 Y0.3750
G01 X0.1304 Y0.2863
G01 X0.2045 Y0.2045
G01 X0.2863 Y0.1304
G01 X0.3750 Y0.0646
G01 X0.4697 Y0.0078
G01 X0.5695 Y-0.0394
G01 X0.6734 Y-0.0766
G01 X0.7805 Y-0.1034
G01 X0.8897 Y-0.1196
G01 X1.0000 Y-0.1250
G01 X1.1103 Y-0.1196
G01 X1.2195 Y-0.1034
G01 X1.3266 Y-0.0766
G01 X1.4305 Y-0.0394
G01 X1.5303 Y0.0078
G01 X1.6250 Y0.0646
G01 X1.7137 Y0.1304
G01 X1.7955 Y0.2045
G01 X1.8696 Y0.2863
G01 X1.9354 Y0.3750
G01 X1.9922 Y0.4697
G01 X2.0394 Y0.5695
G01 X2.0766 Y0.6734
G01 X2.1034 Y0.7805
G01 X2.1196 Y0.8897
G01 X2.1250 Y1.0000
G01 X2.1196 Y1.1103
G01 X2.1034 Y1.2195
G01 X2.0766 Y1.3266
G01 X2.0394 Y1.4305
G01 X1.9922 Y1.5303
G01 X1.9354 Y1.6250
G01 X1.8696 Y1.7137
G01 X1.7955 Y1.7955
G01 X1.7137 Y1.8696
G01 X1.6250 Y1.9354
G01 X1.5303 Y1.9922
G01 X1.4305 Y2.0394
G01 X1.3266 Y2.0766
G01 X1.2195 Y2.1034
G01 X1.1103 Y2.1196
G01 X1.0000 Y2.1250
G01 X0.8897 Y2.1196
G01 X0.7805 Y2.1034
G01 X0.6734 Y2.0766
G01 X0.5695 Y2.0394
G01 X0.4697 Y1.9922
G01 X0.3750 Y1.9354
G01 X0.2863 Y1.8696
G01 X0.2045 Y1.7955
G01 X0.1304 Y1.7137
G01 X0.0646 Y1.6250
G01 X0.0078 Y1.5303
G01 X-0.0394 Y1.4305
G01 X-0.0766 Y1.3266
G01 X-0.1034 Y1.2195
G01 X-0.1196 Y1.1103
G01 X-0.1250 Y1.0000
G01 X-0.1200 Y0.8958
G01 X-0.1188 Y0.8836
G00 Z1.0000
G00 X-0.1436 Y0.8800
G01 F60.00
G01 Z-0.1418
G01 F60.00
G01 X-0.1279 Y0.7756
G01 X-0.1005 Y0.6662
G01 X-0.0625 Y0.5599
G01 X-0.0142 Y0.4579
G01 X0.0438 Y0.3611
G01 X0.1110 Y0.2704
G01 X0.1868 Y0.1868
G01 X0.2704 Y0.1110
G01 X0.3611 Y0.0438
G01 X0.4579 Y-0.0142
G01 X0.5599 Y-0.0625
G01 X0.6662 Y-0.1005
G01 X0.7756 Y-0.1279
G01 X0.8873 Y-0.1445
G01 X1.0000 Y-0.1500
G01 X1.1127 Y-0.1445
G01 X1.2244 Y-0.1279
G01 X1.3338 Y-0.1005
G01 X1.4401 Y-0.0625
G01 X1.5421 Y-0.0142
G01 X1.6389 Y0.0438
G01 X1.7296 Y0.1110
G01 X1.8132 Y0.1868
G01 X1.8890 Y0.2704
G01 X1.9562 Y0.3611
G01 X2.0142 Y0.4579
G01 X2.0625 Y0.5599
G01 X2.1005 Y0.6662
G01 X2.1279 Y0.7756
G01 X2.1445 Y0.8873
G01 X2.1500 Y1.0000
G01 X2.1445 Y1.1127
G01 X2.1279 Y1.2244
G01 X2.1005 Y1.3338
G01 X2.0625 Y1.4401
G01 X2.0142 Y1.5421
G01 X1.9562 Y1.6389
G01 X1.8890 Y1.7296
G01 X1.8132 Y1.8132
G01 X1.7296 Y1.8890
G01 X1.6389 Y1.9562
G01 X1.5421 Y2.0142
G01 X1.4401 Y2.0625
G01 X1.3338 Y2.1005
G01 X1.2244 Y2.1279
G01 X1.1127 Y2.1445
G01 X1.0000 Y2.1500
G01 X0.8873 Y2.1445
G01 X0.7756 Y2.1279
G01 X0.6662 Y2.1005
G01 X0.5599 Y2.0625
G01 X0.4579 Y2.0142
G01 X0.3611 Y1.9562
G01 X0.2704 Y1.8890
G01 X0.1868 Y1.8132
G01 X0.1110 Y1.7296
G01 X0.0438 Y1.6389
G01 X-0.0142 Y1.5421
G01 X-0.0625 Y1.4401
G01 X-0.1005 Y1.3338
G01 X-0.1279 Y1.2244
G01 X-0.1445 Y1.1127
G01 X-0.1500 Y1.0000
G01 X-0.1450 Y0.8946
G01 X-0.1436 Y0.8800
G00 Z1.0000
G00 X-0.1436 Y3.4200
G01 F60.00
G01 Z-0.1418
G01 F60.00
G01 X-0.1279 Y3.3156
G01 X-0.1005 Y3.2062
G01 X-0.0625 Y3.0999
G01 X-0.0142 Y2.9979
G01 X0.0438 Y2.9011
G01 X0.1110 Y2.8104
G01 X0.1868 Y2.7268
G01 X0.2704 Y2.6510
G01 X0.3611 Y2.5838
G01 X0.4579 Y2.5258
G01 X0.5599 Y2.4775
G01 X0.6662 Y2.4395
G01 X0.7756 Y2.4121
G01 X0.8873 Y2.3955
G01 X1.0000 Y2.3900
G01 X1.1127 Y2.3955
G01 X1.2244 Y2.4121
G01 X1.3338 Y2.4395
G01 X1.4401 Y2.4775
G01 X1.5421 Y2.5258
G01 X1.6389 Y2.5838
G01 X1.7296 Y2.6510
G01 X1.8132 Y2.7268
G01 X1.8890 Y2.8104
G01 X1.9562 Y2.9011
G01 X2.0142 Y2.9979
G01 X2.0625 Y3.0999
G01 X2.1005 Y3.2062
G01 X2.1279 Y3.3156
G01 X2.1445 Y3.4273
G01 X2.1500 Y3.5400
G01 X2.1445 Y3.6527
G01 X2.1279 Y3.7644
G01 X2.1005 Y3.8738
G01 X2.0625 Y3.9801
G01 X2.0142 Y4.0821
G01 X1.9562 Y4.1789
G01 X1.8890 Y4.2696
G01 X1.8132 Y4.3532
G01 X1.7296 Y4.4290
G01 X1.6389 Y4.4962
G01 X1.5421 Y4.5542
G01 X1.4401 Y4.6025
G01 X1.3338 Y4.6405
G01 X1.2244 Y4.6679
G01 X1.1127 Y4.6845
G01 X1.0000 Y4.6900
G01 X0.8873 Y4.6845
G01 X0.7756 Y4.6679
G01 X0.6662 Y4.6405
G01 X0.5599 Y4.6025
G01 X0.4579 Y4.5542
G01 X0.3611 Y4.4962
G01 X0.2704 Y4.4290
G01 X0.1868 Y4.3532
G01 X0.1110 Y4.2696
G01 X0.0438 Y4.1789
G01 X-0.0142 Y4.0821
G01 X-0.0625 Y3.9801
G01 X-0.1005 Y3.8738
G01 X-0.1279 Y3.7644
G01 X-0.1445 Y3.6527
G01 X-0.1500 Y3.5400
G01 X-0.1450 Y3.4346
G01 X-0.1436 Y3.4200
G00 Z1.0000
G00 X-0.1188 Y3.4236
G01 F60.00
G01 Z-0.1418
G01 F60.00
G01 X-0.1034 Y3.3205
G01 X-0.0766 Y3.2134
G01 X-0.0394 Y3.1095
G01 X0.0078 Y3.0097
G01 X0.0646 Y2.9150
G01 X0.1304 Y2.8263
G01 X0.2045 Y2.7445
G01 X0.2863 Y2.6704
G01 X0.3750 Y2.6046
G01 X0.4697 Y2.5478
G01 X0.5695 Y2.5006
G01 X0.6734 Y2.4634
G01 X0.7805 Y2.4366
G01 X0.8897 Y2.4204
G01 X1.0000 Y2.4150
G01 X1.1103 Y2.4204
G01 X1.2195 Y2.4366
G01 X1.3266 Y2.4634
G01 X1.4305 Y2.5006
G01 X1.5303 Y2.5478
G01 X1.6250 Y2.6046
G01 X1.7137 Y2.6704
G01 X1.7955 Y2.7445
G01 X1.8696 Y2.8263
G01 X1.9354 Y2.9150
G01 X1.9922 Y3.0097
G01 X2.0394 Y3.1095
G01 X2.0766 Y3.2134
G01 X2.1034 Y3.3205
G01 X2.1196 Y3.4297
G01 X2.1250 Y3.5400
G01 X2.1196 Y3.6503
G01 X2.1034 Y3.7595
G01 X2.0766 Y3.8666
G01 X2.0394 Y3.9705
G01 X1.9922 Y4.0703
G01 X1.9354 Y4.1650
G01 X1.8696 Y4.2537
G01 X1.7955 Y4.3355
G01 X1.7137 Y4.4096
G01 X1.6250 Y4.4754
G01 X1.5303 Y4.5322
G01 X1.4305 Y4.5794
G01 X1.3266 Y4.6166
G01 X1.2195 Y4.6434
G01 X1.1103 Y4.6596
G01 X1.0000 Y4.6650
G01 X0.8897 Y4.6596
G01 X0.7805 Y4.6434
G01 X0.6734 Y4.6166
G01 X0.5695 Y4.5794
G01 X0.4697 Y4.5322
G01 X0.3750 Y4.4754
G01 X0.2863 Y4.4096
G01 X0.2045 Y4.3355
G01 X0.1304 Y4.2537
G01 X0.0646 Y4.1650
G01 X0.0078 Y4.0703
G01 X-0.0394 Y3.9705
G01 X-0.0766 Y3.8666
G01 X-0.1034 Y3.7595
G01 X-0.1196 Y3.6503
G01 X-0.1250 Y3.5400
G01 X-0.1200 Y3.4358
G01 X-0.1188 Y3.4236
G00 Z1.0000
G00 X-0.1436 Y5.9600
G01 F60.00
G01 Z-0.1418
G01 F60.00
G01 X-0.1279 Y5.8556
G01 X-0.1005 Y5.7462
G01 X-0.0625 Y5.6399
G01 X-0.0142 Y5.5379
G01 X0.0438 Y5.4411
G01 X0.1110 Y5.3504
G01 X0.1868 Y5.2668
G01 X0.2704 Y5.1910
G01 X0.3611 Y5.1238
G01 X0.4579 Y5.0658
G01 X0.5599 Y5.0175
G01 X0.6662 Y4.9795
G01 X0.7756 Y4.9521
G01 X0.8873 Y4.9355
G01 X1.0000 Y4.9300
G01 X1.1127 Y4.9355
G01 X1.2244 Y4.9521
G01 X1.3338 Y4.9795
G01 X1.4401 Y5.0175
G01 X1.5421 Y5.0658
G01 X1.6389 Y5.1238
G01 X1.7296 Y5.1910
G01 X1.8132 Y5.2668
G01 X1.8890 Y5.3504
G01 X1.9562 Y5.4411
G01 X2.0142 Y5.5379
G01 X2.0625 Y5.6399
G01 X2.1005 Y5.7462
G01 X2.1279 Y5.8556
G01 X2.1445 Y5.9673
G01 X2.1500 Y6.0800
G01 X2.1445 Y6.1927
G01 X2.1279 Y6.3044
G01 X2.1005 Y6.4138
G01 X2.0625 Y6.5201
G01 X2.0142 Y6.6221
G01 X1.9562 Y6.7189
G01 X1.8890 Y6.8096
G01 X1.8132 Y6.8932
G01 X1.7296 Y6.9690
G01 X1.6389 Y7.0362
G01 X1.5421 Y7.0942
G01 X1.4401 Y7.1425
G01 X1.3338 Y7.1805
G01 X1.2244 Y7.2079
G01 X1.1127 Y7.2245
G01 X1.0000 Y7.2300
G01 X0.8873 Y7.2245
G01 X0.7756 Y7.2079
G01 X0.6662 Y7.1805
G01 X0.5599 Y7.1425
G01 X0.4579 Y7.0942
G01 X0.3611 Y7.0362
G01 X0.2704 Y6.9690
G01 X0.1868 Y6.8932
G01 X0.1110 Y6.8096
G01 X0.0438 Y6.7189
G01 X-0.0142 Y6.6221
G01 X-0.0625 Y6.5201
G01 X-0.1005 Y6.4138
G01 X-0.1279 Y6.3044
G01 X-0.1445 Y6.1927
G01 X-0.1500 Y6.0800
G01 X-0.1450 Y5.9746
G01 X-0.1436 Y5.9600
G00 Z1.0000
G00 X-0.1188 Y5.9636
G01 F60.00
G01 Z-0.1418
G01 F60.00
G01 X-0.1034 Y5.8605
G01 X-0.0766 Y5.7534
G01 X-0.0394 Y5.6495
G01 X0.0078 Y5.5497
G01 X0.0646 Y5.4550
G01 X0.1304 Y5.3663
G01 X0.2045 Y5.2845
G01 X0.2863 Y5.2104
G01 X0.3750 Y5.1446
G01 X0.4697 Y5.0878
G01 X0.5695 Y5.0406
G01 X0.6734 Y5.0034
G01 X0.7805 Y4.9766
G01 X0.8897 Y4.9604
G01 X1.0000 Y4.9550
G01 X1.1103 Y4.9604
G01 X1.2195 Y4.9766
G01 X1.3266 Y5.0034
G01 X1.4305 Y5.0406
G01 X1.5303 Y5.0878
G01 X1.6250 Y5.1446
G01 X1.7137 Y5.2104
G01 X1.7955 Y5.2845
G01 X1.8696 Y5.3663
G01 X1.9354 Y5.4550
G01 X1.9922 Y5.5497
G01 X2.0394 Y5.6495
G01 X2.0766 Y5.7534
G01 X2.1034 Y5.8605
G01 X2.1196 Y5.9697
G01 X2.1250 Y6.0800
G01 X2.1196 Y6.1903
G01 X2.1034 Y6.2995
G01 X2.0766 Y6.4066
G01 X2.0394 Y6.5105
G01 X1.9922 Y6.6103
G01 X1.9354 Y6.7050
G01 X1.8696 Y6.7937
G01 X1.7955 Y6.8755
G01 X1.7137 Y6.9496
G01 X1.6250 Y7.0154
G01 X1.5303 Y7.0722
G01 X1.4305 Y7.1194
G01 X1.3266 Y7.1566
G01 X1.2195 Y7.1834
G01 X1.1103 Y7.1996
G01 X1.0000 Y7.2050
G01 X0.8897 Y7.1996
G01 X0.7805 Y7.1834
G01 X0.6734 Y7.1566
G01 X0.5695 Y7.1194
G01 X0.4697 Y7.0722
G01 X0.3750 Y7.0154
G01 X0.2863 Y6.9496
G01 X0.2045 Y6.8755
G01 X0.1304 Y6.7937
G01 X0.0646 Y6.7050
G01 X0.0078 Y6.6103
G01 X-0.0394 Y6.5105
G01 X-0.0766 Y6.4066
G01 X-0.1034 Y6.2995
G01 X-0.1196 Y6.1903
G01 X-0.1250 Y6.0800
G01 X-0.1200 Y5.9758
G01 X-0.1188 Y5.9636
G00 Z1.0000
G00 X-0.1436 Y8.5000
G01 F60.00
G01 Z-0.1418
G01 F60.00
G01 X-0.1279 Y8.3956
G01 X-0.1005 Y8.2862
G01 X-0.0625 Y8.1799
G01 X-0.0142 Y8.0779
G01 X0.0438 Y7.9811
G01 X0.1110 Y7.8904
G01 X0.1868 Y7.8068
G01 X0.2704 Y7.7310
G01 X0.3611 Y7.6638
G01 X0.4579 Y7.6058
G01 X0.5599 Y7.5575
G01 X0.6662 Y7.5195
G01 X0.7756 Y7.4921
G01 X0.8873 Y7.4755
G01 X1.0000 Y7.4700
G01 X1.1127 Y7.4755
G01 X1.2244 Y7.4921
G01 X1.3338 Y7.5195
G01 X1.4401 Y7.5575
G01 X1.5421 Y7.6058
G01 X1.6389 Y7.6638
G01 X1.7296 Y7.7310
G01 X1.8132 Y7.8068
G01 X1.8890 Y7.8904
G01 X1.9562 Y7.9811
G01 X2.0142 Y8.0779
G01 X2.0625 Y8.1799
G01 X2.1005 Y8.2862
G01 X2.1279 Y8.3956
G01 X2.1445 Y8.5073
G01 X2.1500 Y8.6200
G01 X2.1445 Y8.7327
G01 X2.1279 Y8.8444
G01 X2.1005 Y8.9538
G01 X2.0625 Y9.0601
G01 X2.0142 Y9.1621
G01 X1.9562 Y9.2589
G01 X1.8890 Y9.3496
G01 X1.8132 Y9.4332
G01 X1.7296 Y9.5090
G01 X1.6389 Y9.5762
G01 X1.5421 Y9.6342
G01 X1.4401 Y9.6825
G01 X1.3338 Y9.7205
G01 X1.2244 Y9.7479
G01 X1.1127 Y9.7645
G01 X1.0000 Y9.7700
G01 X0.8873 Y9.7645
G01 X0.7756 Y9.7479
G01 X0.6662 Y9.7205
G01 X0.5599 Y9.6825
G01 X0.4579 Y9.6342
G01 X0.3611 Y9.5762
G01 X0.2704 Y9.5090
G01 X0.1868 Y9.4332
G01 X0.1110 Y9.3496
G01 X0.0438 Y9.2589
G01 X-0.0142 Y9.1621
G01 X-0.0625 Y9.0601
G01 X-0.1005 Y8.9538
G01 X-0.1279 Y8.8444
G01 X-0.1445 Y8.7327
G01 X-0.1500 Y8.6200
G01 X-0.1450 Y8.5146
G01 X-0.1436 Y8.5000
G00 Z1.0000
G00 X-0.1188 Y8.5036
G01 F60.00
G01 Z-0.1418
G01 F60.00
G01 X-0.1034 Y8.4005
G01 X-0.0766 Y8.2934
G01 X-0.0394 Y8.1895
G01 X0.0078 Y8.0897
G01 X0.0646 Y7.9950
G01 X0.1304 Y7.9063
G01 X0.2045 Y7.8245
G01 X0.2863 Y7.7504
G01 X0.3750 Y7.6846
G01 X0.4697 Y7.6278
G01 X0.5695 Y7.5806
G01 X0.6734 Y7.5434
G01 X0.7805 Y7.5166
G01 X0.8897 Y7.5004
G01 X1.0000 Y7.4950
G01 X1.1103 Y7.5004
G01 X1.2195 Y7.5166
G01 X1.3266 Y7.5434
G01 X1.4305 Y7.5806
G01 X1.5303 Y7.6278
G01 X1.6250 Y7.6846
G01 X1.7137 Y7.7504
G01 X1.7955 Y7.8245
G01 X1.8696 Y7.9063
G01 X1.9354 Y7.9950
G01 X1.9922 Y8.0897
G01 X2.0394 Y8.1895
G01 X2.0766 Y8.2934
G01 X2.1034 Y8.4005
G01 X2.1196 Y8.5097
G01 X2.1250 Y8.6200
G01 X2.1196 Y8.7303
G01 X2.1034 Y8.8395
G01 X2.0766 Y8.9466
G01 X2.0394 Y9.0505
G01 X1.9922 Y9.1503
G01 X1.9354 Y9.2450
G01 X1.8696 Y9.3337
G01 X1.7955 Y9.4155
G01 X1.7137 Y9.4896
G01 X1.6250 Y9.5554
G01 X1.5303 Y9.6122
G01 X1.4305 Y9.6594
G01 X1.3266 Y9.6966
G01 X1.2195 Y9.7234
G01 X1.1103 Y9.7396
G01 X1.0000 Y9.7450
G01 X0.8897 Y9.7396
G01 X0.7805 Y9.7234
G01 X0.6734 Y9.6966
G01 X0.5695 Y9.6594
G01 X0.4697 Y9.6122
G01 X0.3750 Y9.5554
G01 X0.2863 Y9.4896
G01 X0.2045 Y9.4155
G01 X0.1304 Y9.3337
G01 X0.0646 Y9.2450
G01 X0.0078 Y9.1503
G01 X-0.0394 Y9.0505
G01 X-0.0766 Y8.9466
G01 X-0.1034 Y8.8395
G01 X-0.1196 Y8.7303
G01 X-0.1250 Y8.6200
G01 X-0.1200 Y8.5158
G01 X-0.1188 Y8.5036
G00 Z1.0000
G00 X-0.1436 Y11.0400
G01 F60.00
G01 Z-0.1418
G01 F60.00
G01 X-0.1279 Y10.9356
G01 X-0.1005 Y10.8262
G01 X-0.0625 Y10.7199
G01 X-0.0142 Y10.6179
G01 X0.0438 Y10.5211
G01 X0.1110 Y10.4304
G01 X0.1868 Y10.3468
G01 X0.2704 Y10.2710
G01 X0.3611 Y10.2038
G01 X0.4579 Y10.1458
G01 X0.5599 Y10.0975
G01 X0.6662 Y10.0595
G01 X0.7756 Y10.0321
G01 X0.8873 Y10.0155
G01 X1.0000 Y10.0100
G01 X1.1127 Y10.0155
G01 X1.2244 Y10.0321
G01 X1.3338 Y10.0595
G01 X1.4401 Y10.0975
G01 X1.5421 Y10.1458
G01 X1.6389 Y10.2038
G01 X1.7296 Y10.2710
G01 X1.8132 Y10.3468
G01 X1.8890 Y10.4304
G01 X1.9562 Y10.5211
G01 X2.0142 Y10.6179
G01 X2.0625 Y10.7199
G01 X2.1005 Y10.8262
G01 X2.1279 Y10.9356
G01 X2.1445 Y11.0473
G01 X2.1500 Y11.1600
G01 X2.1445 Y11.2727
G01 X2.1279 Y11.3844
G01 X2.1005 Y11.4938
G01 X2.0625 Y11.6001
G01 X2.0142 Y11.7021
G01 X1.9562 Y11.7989
G01 X1.8890 Y11.8896
G01 X1.8132 Y11.9732
G01 X1.7296 Y12.0490
G01 X1.6389 Y12.1162
G01 X1.5421 Y12.1742
G01 X1.4401 Y12.2225
G01 X1.3338 Y12.2605
G01 X1.2244 Y12.2879
G01 X1.1127 Y12.3045
G01 X1.0000 Y12.3100
G01 X0.8873 Y12.3045
G01 X0.7756 Y12.2879
G01 X0.6662 Y12.2605
G01 X0.5599 Y12.2225
G01 X0.4579 Y12.1742
G01 X0.3611 Y12.1162
G01 X0.2704 Y12.0490
G01 X0.1868 Y11.9732
G01 X0.1110 Y11.8896
G01 X0.0438 Y11.7989
G01 X-0.0142 Y11.7021
G01 X-0.0625 Y11.6001
G01 X-0.1005 Y11.4938
G01 X-0.1279 Y11.3844
G01 X-0.1445 Y11.2727
G01 X-0.1500 Y11.1600
G01 X-0.1450 Y11.0546
G01 X-0.1436 Y11.0400
G00 Z1.0000
G00 X-0.1188 Y11.0436
G01 F60.00
G01 Z-0.1418
G01 F60.00
G01 X-0.1034 Y10.9405
G01 X-0.0766 Y10.8334
G01 X-0.0394 Y10.7295
G01 X0.0078 Y10.6297
G01 X0.0646 Y10.5350
G01 X0.1304 Y10.4463
G01 X0.2045 Y10.3645
G01 X0.2863 Y10.2904
G01 X0.3750 Y10.2246
G01 X0.4697 Y10.1678
G01 X0.5695 Y10.1206
G01 X0.6734 Y10.0834
G01 X0.7805 Y10.0566
G01 X0.8897 Y10.0404
G01 X1.0000 Y10.0350
G01 X1.1103 Y10.0404
G01 X1.2195 Y10.0566
G01 X1.3266 Y10.0834
G01 X1.4305 Y10.1206
G01 X1.5303 Y10.1678
G01 X1.6250 Y10.2246
G01 X1.7137 Y10.2904
G01 X1.7955 Y10.3645
G01 X1.8696 Y10.4463
G01 X1.9354 Y10.5350
G01 X1.9922 Y10.6297
G01 X2.0394 Y10.7295
G01 X2.0766 Y10.8334
G01 X2.1034 Y10.9405
G01 X2.1196 Y11.0497
G01 X2.1250 Y11.1600
G01 X2.1196 Y11.2703
G01 X2.1034 Y11.3795
G01 X2.0766 Y11.4866
G01 X2.0394 Y11.5905
G01 X1.9922 Y11.6903
G01 X1.9354 Y11.7850
G01 X1.8696 Y11.8737
G01 X1.7955 Y11.9555
G01 X1.7137 Y12.0296
G01 X1.6250 Y12.0954
G01 X1.5303 Y12.1522
G01 X1.4305 Y12.1994
G01 X1.3266 Y12.2366
G01 X1.2195 Y12.2634
G01 X1.1103 Y12.2796
G01 X1.0000 Y12.2850
G01 X0.8897 Y12.2796
G01 X0.7805 Y12.2634
G01 X0.6734 Y12.2366
G01 X0.5695 Y12.1994
G01 X0.4697 Y12.1522
G01 X0.3750 Y12.0954
G01 X0.2863 Y12.0296
G01 X0.2045 Y11.9555
G01 X0.1304 Y11.8737
G01 X0.0646 Y11.7850
G01 X0.0078 Y11.6903
G01 X-0.0394 Y11.5905
G01 X-0.0766 Y11.4866
G01 X-0.1034 Y11.3795
G01 X-0.1196 Y11.2703
G01 X-0.1250 Y11.1600
G01 X-0.1200 Y11.0558
G01 X-0.1188 Y11.0436
G00 Z1.0000
G00 X-0.1436 Y13.5800
G01 F60.00
G01 Z-0.1418
G01 F60.00
G01 X-0.1279 Y13.4756
G01 X-0.1005 Y13.3662
G01 X-0.0625 Y13.2599
G01 X-0.0142 Y13.1579
G01 X0.0438 Y13.0611
G01 X0.1110 Y12.9704
G01 X0.1868 Y12.8868
G01 X0.2704 Y12.8110
G01 X0.3611 Y12.7438
G01 X0.4579 Y12.6858
G01 X0.5599 Y12.6375
G01 X0.6662 Y12.5995
G01 X0.7756 Y12.5721
G01 X0.8873 Y12.5555
G01 X1.0000 Y12.5500
G01 X1.1127 Y12.5555
G01 X1.2244 Y12.5721
G01 X1.3338 Y12.5995
G01 X1.4401 Y12.6375
G01 X1.5421 Y12.6858
G01 X1.6389 Y12.7438
G01 X1.7296 Y12.8110
G01 X1.8132 Y12.8868
G01 X1.8890 Y12.9704
G01 X1.9562 Y13.0611
G01 X2.0142 Y13.1579
G01 X2.0625 Y13.2599
G01 X2.1005 Y13.3662
G01 X2.1279 Y13.4756
G01 X2.1445 Y13.5873
G01 X2.1500 Y13.7000
G01 X2.1445 Y13.8127
G01 X2.1279 Y13.9244
G01 X2.1005 Y14.0338
G01 X2.0625 Y14.1401
G01 X2.0142 Y14.2421
G01 X1.9562 Y14.3389
G01 X1.8890 Y14.4296
G01 X1.8132 Y14.5132
G01 X1.7296 Y14.5890
G01 X1.6389 Y14.6562
G01 X1.5421 Y14.7142
G01 X1.4401 Y14.7625
G01 X1.3338 Y14.8005
G01 X1.2244 Y14.8279
G01 X1.1127 Y14.8445
G01 X1.0000 Y14.8500
G01 X0.8873 Y14.8445
G01 X0.7756 Y14.8279
G01 X0.6662 Y14.8005
G01 X0.5599 Y14.7625
G01 X0.4579 Y14.7142
G01 X0.3611 Y14.6562
G01 X0.2704 Y14.5890
G01 X0.1868 Y14.5132
G01 X0.1110 Y14.4296
G01 X0.0438 Y14.3389
G01 X-0.0142 Y14.2421
G01 X-0.0625 Y14.1401
G01 X-0.1005 Y14.0338
G01 X-0.1279 Y13.9244
G01 X-0.1445 Y13.8127
G01 X-0.1500 Y13.7000
G01 X-0.1450 Y13.5946
G01 X-0.1436 Y13.5800
G00 Z1.0000
G00 X-0.1188 Y13.5836
G01 F60.00
G01 Z-0.1418
G01 F60.00
G01 X-0.1034 Y13.4805
G01 X-0.0766 Y13.3734
G01 X-0.0394 Y13.2695
G01 X0.0078 Y13.1697
G01 X0.0646 Y13.0750
G01 X0.1304 Y12.9863
G01 X0.2045 Y12.9045
G01 X0.2863 Y12.8304
G01 X0.3750 Y12.7646
G01 X0.4697 Y12.7078
G01 X0.5695 Y12.6606
G01 X0.6734 Y12.6234
G01 X0.7805 Y12.5966
G01 X0.8897 Y12.5804
G01 X1.0000 Y12.5750
G01 X1.1103 Y12.5804
G01 X1.2195 Y12.5966
G01 X1.3266 Y12.6234
G01 X1.4305 Y12.6606
G01 X1.5303 Y12.7078
G01 X1.6250 Y12.7646
G01 X1.7137 Y12.8304
G01 X1.7955 Y12.9045
G01 X1.8696 Y12.9863
G01 X1.9354 Y13.0750
G01 X1.9922 Y13.1697
G01 X2.0394 Y13.2695
G01 X2.0766 Y13.3734
G01 X2.1034 Y13.4805
G01 X2.1196 Y13.5897
G01 X2.1250 Y13.7000
G01 X2.1196 Y13.8103
G01 X2.1034 Y13.9195
G01 X2.0766 Y14.0266
G01 X2.0394 Y14.1305
G01 X1.9922 Y14.2303
G01 X1.9354 Y14.3250
G01 X1.8696 Y14.4137
G01 X1.7955 Y14.4955
G01 X1.7137 Y14.5696
G01 X1.6250 Y14.6354
G01 X1.5303 Y14.6922
G01 X1.4305 Y14.7394
G01 X1.3266 Y14.7766
G01 X1.2195 Y14.8034
G01 X1.1103 Y14.8196
G01 X1.0000 Y14.8250
G01 X0.8897 Y14.8196
G01 X0.7805 Y14.8034
G01 X0.6734 Y14.7766
G01 X0.5695 Y14.7394
G01 X0.4697 Y14.6922
G01 X0.3750 Y14.6354
G01 X0.2863 Y14.5696
G01 X0.2045 Y14.4955
G01 X0.1304 Y14.4137
G01 X0.0646 Y14.3250
G01 X0.0078 Y14.2303
G01 X-0.0394 Y14.1305
G01 X-0.0766 Y14.0266
G01 X-0.1034 Y13.9195
G01 X-0.1196 Y13.8103
G01 X-0.1250 Y13.7000
G01 X-0.1200 Y13.5958
G01 X-0.1188 Y13.5836
G00 Z1.0000
G00 X-0.1436 Y16.1200
G01 F60.00
G01 Z-0.1418
G01 F60.00
G01 X-0.1279 Y16.0156
G01 X-0.1005 Y15.9062
G01 X-0.0625 Y15.7999
G01 X-0.0142 Y15.6979
G01 X0.0438 Y15.6011
G01 X0.1110 Y15.5104
G01 X0.1868 Y15.4268
G01 X0.2704 Y15.3510
G01 X0.3611 Y15.2838
G01 X0.4579 Y15.2258
G01 X0.5599 Y15.1775
G01 X0.6662 Y15.1395
G01 X0.7756 Y15.1121
G01 X0.8873 Y15.0955
G01 X1.0000 Y15.0900
G01 X1.1127 Y15.0955
G01 X1.2244 Y15.1121
G01 X1.3338 Y15.1395
G01 X1.4401 Y15.1775
G01 X1.5421 Y15.2258
G01 X1.6389 Y15.2838
G01 X1.7296 Y15.3510
G01 X1.8132 Y15.4268
G01 X1.8890 Y15.5104
G01 X1.9562 Y15.6011
G01 X2.0142 Y15.6979
G01 X2.0625 Y15.7999
G01 X2.1005 Y15.9062
G01 X2.1279 Y16.0156
G01 X2.1445 Y16.1273
G01 X2.1500 Y16.2400
G01 X2.1445 Y16.3527
G01 X2.1279 Y16.4644
G01 X2.1005 Y16.5738
G01 X2.0625 Y16.6801
G01 X2.0142 Y16.7821
G01 X1.9562 Y16.8789
G01 X1.8890 Y16.9696
G01 X1.8132 Y17.0532
G01 X1.7296 Y17.1290
G01 X1.6389 Y17.1962
G01 X1.5421 Y17.2542
G01 X1.4401 Y17.3025
G01 X1.3338 Y17.3405
G01 X1.2244 Y17.3679
G01 X1.1127 Y17.3845
G01 X1.0000 Y17.3900
G01 X0.8873 Y17.3845
G01 X0.7756 Y17.3679
G01 X0.6662 Y17.3405
G01 X0.5599 Y17.3025
G01 X0.4579 Y17.2542
G01 X0.3611 Y17.1962
G01 X0.2704 Y17.1290
G01 X0.1868 Y17.0532
G01 X0.1110 Y16.9696
G01 X0.0438 Y16.8789
G01 X-0.0142 Y16.7821
G01 X-0.0625 Y16.6801
G01 X-0.1005 Y16.5738
G01 X-0.1279 Y16.4644
G01 X-0.1445 Y16.3527
G01 X-0.1500 Y16.2400
G01 X-0.1450 Y16.1346
G01 X-0.1436 Y16.1200
G00 Z1.0000
G00 X-0.1188 Y16.1236
G01 F60.00
G01 Z-0.1418
G01 F60.00
G01 X-0.1034 Y16.0205
G01 X-0.0766 Y15.9134
G01 X-0.0394 Y15.8095
G01 X0.0078 Y15.7097
G01 X0.0646 Y15.6150
G01 X0.1304 Y15.5263
G01 X0.2045 Y15.4445
G01 X0.2863 Y15.3704
G01 X0.3750 Y15.3046
G01 X0.4697 Y15.2478
G01 X0.5695 Y15.2006
G01 X0.6734 Y15.1634
G01 X0.7805 Y15.1366
G01 X0.8897 Y15.1204
G01 X1.0000 Y15.1150
G01 X1.1103 Y15.1204
G01 X1.2195 Y15.1366
G01 X1.3266 Y15.1634
G01 X1.4305 Y15.2006
G01 X1.5303 Y15.2478
G01 X1.6250 Y15.3046
G01 X1.7137 Y15.3704
G01 X1.7955 Y15.4445
G01 X1.8696 Y15.5263
G01 X1.9354 Y15.6150
G01 X1.9922 Y15.7097
G01 X2.0394 Y15.8095
G01 X2.0766 Y15.9134
G01 X2.1034 Y16.0205
G01 X2.1196 Y16.1297
G01 X2.1250 Y16.2400
G01 X2.1196 Y16.3503
G01 X2.1034 Y16.4595
G01 X2.0766 Y16.5666
G01 X2.0394 Y16.6705
G01 X1.9922 Y16.7703
G01 X1.9354 Y16.8650
G01 X1.8696 Y16.9537
G01 X1.7955 Y17.0355
G01 X1.7137 Y17.1096
G01 X1.6250 Y17.1754
G01 X1.5303 Y17.2322
G01 X1.4305 Y17.2794
G01 X1.3266 Y17.3166
G01 X1.2195 Y17.3434
G01 X1.1103 Y17.3596
G01 X1.0000 Y17.3650
G01 X0.8897 Y17.3596
G01 X0.7805 Y17.3434
G01 X0.6734 Y17.3166
G01 X0.5695 Y17.2794
G01 X0.4697 Y17.2322
G01 X0.3750 Y17.1754
G01 X0.2863 Y17.1096
G01 X0.2045 Y17.0355
G01 X0.1304 Y16.9537
G01 X0.0646 Y16.8650
G01 X0.0078 Y16.7703
G01 X-0.0394 Y16.6705
G01 X-0.0766 Y16.5666
G01 X-0.1034 Y16.4595
G01 X-0.1196 Y16.3503
G01 X-0.1250 Y16.2400
G01 X-0.1200 Y16.1358
G01 X-0.1188 Y16.1236
G00 Z1.0000
G00 X-0.1436 Y18.6600
G01 F60.00
G01 Z-0.1418
G01 F60.00
G01 X-0.1279 Y18.5556
G01 X-0.1005 Y18.4462
G01 X-0.0625 Y18.3399
G01 X-0.0142 Y18.2379
G01 X0.0438 Y18.1411
G01 X0.1110 Y18.0504
G01 X0.1868 Y17.9668
G01 X0.2704 Y17.8910
G01 X0.3611 Y17.8238
G01 X0.4579 Y17.7658
G01 X0.5599 Y17.7175
G01 X0.6662 Y17.6795
G01 X0.7756 Y17.6521
G01 X0.8873 Y17.6355
G01 X1.0000 Y17.6300
G01 X1.1127 Y17.6355
G01 X1.2244 Y17.6521
G01 X1.3338 Y17.6795
G01 X1.4401 Y17.7175
G01 X1.5421 Y17.7658
G01 X1.6389 Y17.8238
G01 X1.7296 Y17.8910
G01 X1.8132 Y17.9668
G01 X1.8890 Y18.0504
G01 X1.9562 Y18.1411
G01 X2.0142 Y18.2379
G01 X2.0625 Y18.3399
G01 X2.1005 Y18.4462
G01 X2.1279 Y18.5556
G01 X2.1445 Y18.6673
G01 X2.1500 Y18.7800
G01 X2.1445 Y18.8927
G01 X2.1279 Y19.0044
G01 X2.1005 Y19.1138
G01 X2.0625 Y19.2201
G01 X2.0142 Y19.3221
G01 X1.9562 Y19.4189
G01 X1.8890 Y19.5096
G01 X1.8132 Y19.5932
G01 X1.7296 Y19.6690
G01 X1.6389 Y19.7362
G01 X1.5421 Y19.7942
G01 X1.4401 Y19.8425
G01 X1.3338 Y19.8805
G01 X1.2244 Y19.9079
G01 X1.1127 Y19.9245
G01 X1.0000 Y19.9300
G01 X0.8873 Y19.9245
G01 X0.7756 Y19.9079
G01 X0.6662 Y19.8805
G01 X0.5599 Y19.8425
G01 X0.4579 Y19.7942
G01 X0.3611 Y19.7362
G01 X0.2704 Y19.6690
G01 X0.1868 Y19.5932
G01 X0.1110 Y19.5096
G01 X0.0438 Y19.4189
G01 X-0.0142 Y19.3221
G01 X-0.0625 Y19.2201
G01 X-0.1005 Y19.1138
G01 X-0.1279 Y19.0044
G01 X-0.1445 Y18.8927
G01 X-0.1500 Y18.7800
G01 X-0.1450 Y18.6746
G01 X-0.1436 Y18.6600
G00 Z1.0000
G00 X-0.1188 Y18.6636
G01 F60.00
G01 Z-0.1418
G01 F60.00
G01 X-0.1034 Y18.5605
G01 X-0.0766 Y18.4534
G01 X-0.0394 Y18.3495
G01 X0.0078 Y18.2497
G01 X0.0646 Y18.1550
G01 X0.1304 Y18.0663
G01 X0.2045 Y17.9845
G01 X0.2863 Y17.9104
G01 X0.3750 Y17.8446
G01 X0.4697 Y17.7878
G01 X0.5695 Y17.7406
G01 X0.6734 Y17.7034
G01 X0.7805 Y17.6766
G01 X0.8897 Y17.6604
G01 X1.0000 Y17.6550
G01 X1.1103 Y17.6604
G01 X1.2195 Y17.6766
G01 X1.3266 Y17.7034
G01 X1.4305 Y17.7406
G01 X1.5303 Y17.7878
G01 X1.6250 Y17.8446
G01 X1.7137 Y17.9104
G01 X1.7955 Y17.9845
G01 X1.8696 Y18.0663
G01 X1.9354 Y18.1550
G01 X1.9922 Y18.2497
G01 X2.0394 Y18.3495
G01 X2.0766 Y18.4534
G01 X2.1034 Y18.5605
G01 X2.1196 Y18.6697
G01 X2.1250 Y18.7800
G01 X2.1196 Y18.8903
G01 X2.1034 Y18.9995
G01 X2.0766 Y19.1066
G01 X2.0394 Y19.2105
G01 X1.9922 Y19.3103
G01 X1.9354 Y19.4050
G01 X1.8696 Y19.4937
G01 X1.7955 Y19.5755
G01 X1.7137 Y19.6496
G01 X1.6250 Y19.7154
G01 X1.5303 Y19.7722
G01 X1.4305 Y19.8194
G01 X1.3266 Y19.8566
G01 X1.2195 Y19.8834
G01 X1.1103 Y19.8996
G01 X1.0000 Y19.9050
G01 X0.8897 Y19.8996
G01 X0.7805 Y19.8834
G01 X0.6734 Y19.8566
G01 X0.5695 Y19.8194
G01 X0.4697 Y19.7722
G01 X0.3750 Y19.7154
G01 X0.2863 Y19.6496
G01 X0.2045 Y19.5755
G01 X0.1304 Y19.4937
G01 X0.0646 Y19.4050
G01 X0.0078 Y19.3103
G01 X-0.0394 Y19.2105
G01 X-0.0766 Y19.1066
G01 X-0.1034 Y18.9995
G01 X-0.1196 Y18.8903
G01 X-0.1250 Y18.7800
G01 X-0.1200 Y18.6758
G01 X-0.1188 Y18.6636
G00 Z1.0000
G00 X-0.1436 Y21.2000
G01 F60.00
G01 Z-0.1418
G01 F60.00
G01 X-0.1279 Y21.0956
G01 X-0.1005 Y20.9862
G01 X-0.0625 Y20.8799
G01 X-0.0142 Y20.7779
G01 X0.0438 Y20.6811
G01 X0.1110 Y20.5904
G01 X0.1868 Y20.5068
G01 X0.2704 Y20.4310
G01 X0.3611 Y20.3638
G01 X0.4579 Y20.3058
G01 X0.5599 Y20.2575
G01 X0.6662 Y20.2195
G01 X0.7756 Y20.1921
G01 X0.8873 Y20.1755
G01 X1.0000 Y20.1700
G01 X1.1127 Y20.1755
G01 X1.2244 Y20.1921
G01 X1.3338 Y20.2195
G01 X1.4401 Y20.2575
G01 X1.5421 Y20.3058
G01 X1.6389 Y20.3638
G01 X1.7296 Y20.4310
G01 X1.8132 Y20.5068
G01 X1.8890 Y20.5904
G01 X1.9562 Y20.6811
G01 X2.0142 Y20.7779
G01 X2.0625 Y20.8799
G01 X2.1005 Y20.9862
G01 X2.1279 Y21.0956
G01 X2.1445 Y21.2073
G01 X2.1500 Y21.3200
G01 X2.1445 Y21.4327
G01 X2.1279 Y21.5444
G01 X2.1005 Y21.6538
G01 X2.0625 Y21.7601
G01 X2.0142 Y21.8621
G01 X1.9562 Y21.9589
G01 X1.8890 Y22.0496
G01 X1.8132 Y22.1332
G01 X1.7296 Y22.2090
G01 X1.6389 Y22.2762
G01 X1.5421 Y22.3342
G01 X1.4401 Y22.3825
G01 X1.3338 Y22.4205
G01 X1.2244 Y22.4479
G01 X1.1127 Y22.4645
G01 X1.0000 Y22.4700
G01 X0.8873 Y22.4645
G01 X0.7756 Y22.4479
G01 X0.6662 Y22.4205
G01 X0.5599 Y22.3825
G01 X0.4579 Y22.3342
G01 X0.3611 Y22.2762
G01 X0.2704 Y22.2090
G01 X0.1868 Y22.1332
G01 X0.1110 Y22.0496
G01 X0.0438 Y21.9589
G01 X-0.0142 Y21.8621
G01 X-0.0625 Y21.7601
G01 X-0.1005 Y21.6538
G01 X-0.1279 Y21.5444
G01 X-0.1445 Y21.4327
G01 X-0.1500 Y21.3200
G01 X-0.1450 Y21.2146
G01 X-0.1436 Y21.2000
G00 Z1.0000
G00 X-0.1188 Y21.2036
G01 F60.00
G01 Z-0.1418
G01 F60.00
G01 X-0.1034 Y21.1005
G01 X-0.0766 Y20.9934
G01 X-0.0394 Y20.8895
G01 X0.0078 Y20.7897
G01 X0.0646 Y20.6950
G01 X0.1304 Y20.6063
G01 X0.2045 Y20.5245
G01 X0.2863 Y20.4504
G01 X0.3750 Y20.3846
G01 X0.4697 Y20.3278
G01 X0.5695 Y20.2806
G01 X0.6734 Y20.2434
G01 X0.7805 Y20.2166
G01 X0.8897 Y20.2004
G01 X1.0000 Y20.1950
G01 X1.1103 Y20.2004
G01 X1.2195 Y20.2166
G01 X1.3266 Y20.2434
G01 X1.4305 Y20.2806
G01 X1.5303 Y20.3278
G01 X1.6250 Y20.3846
G01 X1.7137 Y20.4504
G01 X1.7955 Y20.5245
G01 X1.8696 Y20.6063
G01 X1.9354 Y20.6950
G01 X1.9922 Y20.7897
G01 X2.0394 Y20.8895
G01 X2.0766 Y20.9934
G01 X2.1034 Y21.1005
G01 X2.1196 Y21.2097
G01 X2.1250 Y21.3200
G01 X2.1196 Y21.4303
G01 X2.1034 Y21.5395
G01 X2.0766 Y21.6466
G01 X2.0394 Y21.7505
G01 X1.9922 Y21.8503
G01 X1.9354 Y21.9450
G01 X1.8696 Y22.0337
G01 X1.7955 Y22.1155
G01 X1.7137 Y22.1896
G01 X1.6250 Y22.2554
G01 X1.5303 Y22.3122
G01 X1.4305 Y22.3594
G01 X1.3266 Y22.3966
G01 X1.2195 Y22.4234
G01 X1.1103 Y22.4396
G01 X1.0000 Y22.4450
G01 X0.8897 Y22.4396
G01 X0.7805 Y22.4234
G01 X0.6734 Y22.3966
G01 X0.5695 Y22.3594
G01 X0.4697 Y22.3122
G01 X0.3750 Y22.2554
G01 X0.2863 Y22.1896
G01 X0.2045 Y22.1155
G01 X0.1304 Y22.0337
G01 X0.0646 Y21.9450
G01 X0.0078 Y21.8503
G01 X-0.0394 Y21.7505
G01 X-0.0766 Y21.6466
G01 X-0.1034 Y21.5395
G01 X-0.1196 Y21.4303
G01 X-0.1250 Y21.3200
G01 X-0.1200 Y21.2158
G01 X-0.1188 Y21.2036
G00 Z1.0000
G00 X-0.1436 Y23.7400
G01 F60.00
G01 Z-0.1418
G01 F60.00
G01 X-0.1279 Y23.6356
G01 X-0.1005 Y23.5262
G01 X-0.0625 Y23.4199
G01 X-0.0142 Y23.3179
G01 X0.0438 Y23.2211
G01 X0.1110 Y23.1304
G01 X0.1868 Y23.0468
G01 X0.2704 Y22.9710
G01 X0.3611 Y22.9038
G01 X0.4579 Y22.8458
G01 X0.5599 Y22.7975
G01 X0.6662 Y22.7595
G01 X0.7756 Y22.7321
G01 X0.8873 Y22.7155
G01 X1.0000 Y22.7100
G01 X1.1127 Y22.7155
G01 X1.2244 Y22.7321
G01 X1.3338 Y22.7595
G01 X1.4401 Y22.7975
G01 X1.5421 Y22.8458
G01 X1.6389 Y22.9038
G01 X1.7296 Y22.9710
G01 X1.8132 Y23.0468
G01 X1.8890 Y23.1304
G01 X1.9562 Y23.2211
G01 X2.0142 Y23.3179
G01 X2.0625 Y23.4199
G01 X2.1005 Y23.5262
G01 X2.1279 Y23.6356
G01 X2.1445 Y23.7473
G01 X2.1500 Y23.8600
G01 X2.1445 Y23.9727
G01 X2.1279 Y24.0844
G01 X2.1005 Y24.1938
G01 X2.0625 Y24.3001
G01 X2.0142 Y24.4021
G01 X1.9562 Y24.4989
G01 X1.8890 Y24.5896
G01 X1.8132 Y24.6732
G01 X1.7296 Y24.7490
G01 X1.6389 Y24.8162
G01 X1.5421 Y24.8742
G01 X1.4401 Y24.9225
G01 X1.3338 Y24.9605
G01 X1.2244 Y24.9879
G01 X1.1127 Y25.0045
G01 X1.0000 Y25.0100
G01 X0.8873 Y25.0045
G01 X0.7756 Y24.9879
G01 X0.6662 Y24.9605
G01 X0.5599 Y24.9225
G01 X0.4579 Y24.8742
G01 X0.3611 Y24.8162
G01 X0.2704 Y24.7490
G01 X0.1868 Y24.6732
G01 X0.1110 Y24.5896
G01 X0.0438 Y24.4989
G01 X-0.0142 Y24.4021
G01 X-0.0625 Y24.3001
G01 X-0.1005 Y24.1938
G01 X-0.1279 Y24.0844
G01 X-0.1445 Y23.9727
G01 X-0.1500 Y23.8600
G01 X-0.1450 Y23.7546
G01 X-0.1436 Y23.7400
G00 Z1.0000
G00 X-0.1188 Y23.7436
G01 F60.00
G01 Z-0.1418
G01 F60.00
G01 X-0.1034 Y23.6405
G01 X-0.0766 Y23.5334
G01 X-0.0394 Y23.4295
G01 X0.0078 Y23.3297
G01 X0.0646 Y23.2350
G01 X0.1304 Y23.1463
G01 X0.2045 Y23.0645
G01 X0.2863 Y22.9904
G01 X0.3750 Y22.9246
G01 X0.4697 Y22.8678
G01 X0.5695 Y22.8206
G01 X0.6734 Y22.7834
G01 X0.7805 Y22.7566
G01 X0.8897 Y22.7404
G01 X1.0000 Y22.7350
G01 X1.1103 Y22.7404
G01 X1.2195 Y22.7566
G01 X1.3266 Y22.7834
G01 X1.4305 Y22.8206
G01 X1.5303 Y22.8678
G01 X1.6250 Y22.9246
G01 X1.7137 Y22.9904
G01 X1.7955 Y23.0645
G01 X1.8696 Y23.1463
G01 X1.9354 Y23.2350
G01 X1.9922 Y23.3297
G01 X2.0394 Y23.4295
G01 X2.0766 Y23.5334
G01 X2.1034 Y23.6405
G01 X2.1196 Y23.7497
G01 X2.1250 Y23.8600
G01 X2.1196 Y23.9703
G01 X2.1034 Y24.0795
G01 X2.0766 Y24.1866
G01 X2.0394 Y24.2905
G01 X1.9922 Y24.3903
G01 X1.9354 Y24.4850
G01 X1.8696 Y24.5737
G01 X1.7955 Y24.6555
G01 X1.7137 Y24.7296
G01 X1.6250 Y24.7954
G01 X1.5303 Y24.8522
G01 X1.4305 Y24.8994
G01 X1.3266 Y24.9366
G01 X1.2195 Y24.9634
G01 X1.1103 Y24.9796
G01 X1.0000 Y24.9850
G01 X0.8897 Y24.9796
G01 X0.7805 Y24.9634
G01 X0.6734 Y24.9366
G01 X0.5695 Y24.8994
G01 X0.4697 Y24.8522
G01 X0.3750 Y24.7954
G01 X0.2863 Y24.7296
G01 X0.2045 Y24.6555
G01 X0.1304 Y24.5737
G01 X0.0646 Y24.4850
G01 X0.0078 Y24.3903
G01 X-0.0394 Y24.2905
G01 X-0.0766 Y24.1866
G01 X-0.1034 Y24.0795
G01 X-0.1196 Y23.9703
G01 X-0.1250 Y23.8600
G01 X-0.1200 Y23.7558
G01 X-0.1188 Y23.7436
G00 Z1.0000
G00 X-0.1436 Y26.2800
G01 F60.00
G01 Z-0.1418
G01 F60.00
G01 X-0.1279 Y26.1756
G01 X-0.1005 Y26.0662
G01 X-0.0625 Y25.9599
G01 X-0.0142 Y25.8579
G01 X0.0438 Y25.7611
G01 X0.1110 Y25.6704
G01 X0.1868 Y25.5868
G01 X0.2704 Y25.5110
G01 X0.3611 Y25.4438
G01 X0.4579 Y25.3858
G01 X0.5599 Y25.3375
G01 X0.6662 Y25.2995
G01 X0.7756 Y25.2721
G01 X0.8873 Y25.2555
G01 X1.0000 Y25.2500
G01 X1.1127 Y25.2555
G01 X1.2244 Y25.2721
G01 X1.3338 Y25.2995
G01 X1.4401 Y25.3375
G01 X1.5421 Y25.3858
G01 X1.6389 Y25.4438
G01 X1.7296 Y25.5110
G01 X1.8132 Y25.5868
G01 X1.8890 Y25.6704
G01 X1.9562 Y25.7611
G01 X2.0142 Y25.8579
G01 X2.0625 Y25.9599
G01 X2.1005 Y26.0662
G01 X2.1279 Y26.1756
G01 X2.1445 Y26.2873
G01 X2.1500 Y26.4000
G01 X2.1445 Y26.5127
G01 X2.1279 Y26.6244
G01 X2.1005 Y26.7338
G01 X2.0625 Y26.8401
G01 X2.0142 Y26.9421
G01 X1.9562 Y27.0389
G01 X1.8890 Y27.1296
G01 X1.8132 Y27.2132
G01 X1.7296 Y27.2890
G01 X1.6389 Y27.3562
G01 X1.5421 Y27.4142
G01 X1.4401 Y27.4625
G01 X1.3338 Y27.5005
G01 X1.2244 Y27.5279
G01 X1.1127 Y27.5445
G01 X1.0000 Y27.5500
G01 X0.8873 Y27.5445
G01 X0.7756 Y27.5279
G01 X0.6662 Y27.5005
G01 X0.5599 Y27.4625
G01 X0.4579 Y27.4142
G01 X0.3611 Y27.3562
G01 X0.2704 Y27.2890
G01 X0.1868 Y27.2132
G01 X0.1110 Y27.1296
G01 X0.0438 Y27.0389
G01 X-0.0142 Y26.9421
G01 X-0.0625 Y26.8401
G01 X-0.1005 Y26.7338
G01 X-0.1279 Y26.6244
G01 X-0.1445 Y26.5127
G01 X-0.1500 Y26.4000
G01 X-0.1450 Y26.2946
G01 X-0.1436 Y26.2800
G00 Z1.0000
G00 X-0.1188 Y26.2836
G01 F60.00
G01 Z-0.1418
G01 F60.00
G01 X-0.1034 Y26.1805
G01 X-0.0766 Y26.0734
G01 X-0.0394 Y25.9695
G01 X0.0078 Y25.8697
G01 X0.0646 Y25.7750
G01 X0.1304 Y25.6863
G01 X0.2045 Y25.6045
G01 X0.2863 Y25.5304
G01 X0.3750 Y25.4646
G01 X0.4697 Y25.4078
G01 X0.5695 Y25.3606
G01 X0.6734 Y25.3234
G01 X0.7805 Y25.2966
G01 X0.8897 Y25.2804
G01 X1.0000 Y25.2750
G01 X1.1103 Y25.2804
G01 X1.2195 Y25.2966
G01 X1.3266 Y25.3234
G01 X1.4305 Y25.3606
G01 X1.5303 Y25.4078
G01 X1.6250 Y25.4646
G01 X1.7137 Y25.5304
G01 X1.7955 Y25.6045
G01 X1.8696 Y25.6863
G01 X1.9354 Y25.7750
G01 X1.9922 Y25.8697
G01 X2.0394 Y25.9695
G01 X2.0766 Y26.0734
G01 X2.1034 Y26.1805
G01 X2.1196 Y26.2897
G01 X2.1250 Y26.4000
G01 X2.1196 Y26.5103
G01 X2.1034 Y26.6195
G01 X2.0766 Y26.7266
G01 X2.0394 Y26.8305
G01 X1.9922 Y26.9303
G01 X1.9354 Y27.0250
G01 X1.8696 Y27.1137
G01 X1.7955 Y27.1955
G01 X1.7137 Y27.2696
G01 X1.6250 Y27.3354
G01 X1.5303 Y27.3922
G01 X1.4305 Y27.4394
G01 X1.3266 Y27.4766
G01 X1.2195 Y27.5034
G01 X1.1103 Y27.5196
G01 X1.0000 Y27.5250
G01 X0.8897 Y27.5196
G01 X0.7805 Y27.5034
G01 X0.6734 Y27.4766
G01 X0.5695 Y27.4394
G01 X0.4697 Y27.3922
G01 X0.3750 Y27.3354
G01 X0.2863 Y27.2696
G01 X0.2045 Y27.1955
G01 X0.1304 Y27.1137
G01 X0.0646 Y27.0250
G01 X0.0078 Y26.9303
G01 X-0.0394 Y26.8305
G01 X-0.0766 Y26.7266
G01 X-0.1034 Y26.6195
G01 X-0.1196 Y26.5103
G01 X-0.1250 Y26.4000
G01 X-0.1200 Y26.2958
G01 X-0.1188 Y26.2836
G00 Z1.0000
G00 X-0.1436 Y28.8200
G01 F60.00
G01 Z-0.1418
G01 F60.00
G01 X-0.1279 Y28.7156
G01 X-0.1005 Y28.6062
G01 X-0.0625 Y28.4999
G01 X-0.0142 Y28.3979
G01 X0.0438 Y28.3011
G01 X0.1110 Y28.2104
G01 X0.1868 Y28.1268
G01 X0.2704 Y28.0510
G01 X0.3611 Y27.9838
G01 X0.4579 Y27.9258
G01 X0.5599 Y27.8775
G01 X0.6662 Y27.8395
G01 X0.7756 Y27.8121
G01 X0.8873 Y27.7955
G01 X1.0000 Y27.7900
G01 X1.1127 Y27.7955
G01 X1.2244 Y27.8121
G01 X1.3338 Y27.8395
G01 X1.4401 Y27.8775
G01 X1.5421 Y27.9258
G01 X1.6389 Y27.9838
G01 X1.7296 Y28.0510
G01 X1.8132 Y28.1268
G01 X1.8890 Y28.2104
G01 X1.9562 Y28.3011
G01 X2.0142 Y28.3979
G01 X2.0625 Y28.4999
G01 X2.1005 Y28.6062
G01 X2.1279 Y28.7156
G01 X2.1445 Y28.8273
G01 X2.1500 Y28.9400
G01 X2.1445 Y29.0527
G01 X2.1279 Y29.1644
G01 X2.1005 Y29.2738
G01 X2.0625 Y29.3801
G01 X2.0142 Y29.4821
G01 X1.9562 Y29.5789
G01 X1.8890 Y29.6696
G01 X1.8132 Y29.7532
G01 X1.7296 Y29.8290
G01 X1.6389 Y29.8962
G01 X1.5421 Y29.9542
G01 X1.4401 Y30.0025
G01 X1.3338 Y30.0405
G01 X1.2244 Y30.0679
G01 X1.1127 Y30.0845
G01 X1.0000 Y30.0900
G01 X0.8873 Y30.0845
G01 X0.7756 Y30.0679
G01 X0.6662 Y30.0405
G01 X0.5599 Y30.0025
G01 X0.4579 Y29.9542
G01 X0.3611 Y29.8962
G01 X0.2704 Y29.8290
G01 X0.1868 Y29.7532
G01 X0.1110 Y29.6696
G01 X0.0438 Y29.5789
G01 X-0.0142 Y29.4821
G01 X-0.0625 Y29.3801
G01 X-0.1005 Y29.2738
G01 X-0.1279 Y29.1644
G01 X-0.1445 Y29.0527
G01 X-0.1500 Y28.9400
G01 X-0.1450 Y28.8346
G01 X-0.1436 Y28.8200
G00 Z1.0000
G00 X-0.1188 Y28.8236
G01 F60.00
G01 Z-0.1418
G01 F60.00
G01 X-0.1034 Y28.7205
G01 X-0.0766 Y28.6134
G01 X-0.0394 Y28.5095
G01 X0.0078 Y28.4097
G01 X0.0646 Y28.3150
G01 X0.1304 Y28.2263
G01 X0.2045 Y28.1445
G01 X0.2863 Y28.0704
G01 X0.3750 Y28.0046
G01 X0.4697 Y27.9478
G01 X0.5695 Y27.9006
G01 X0.6734 Y27.8634
G01 X0.7805 Y27.8366
G01 X0.8897 Y27.8204
G01 X1.0000 Y27.8150
G01 X1.1103 Y27.8204
G01 X1.2195 Y27.8366
G01 X1.3266 Y27.8634
G01 X1.4305 Y27.9006
G01 X1.5303 Y27.9478
G01 X1.6250 Y28.0046
G01 X1.7137 Y28.0704
G01 X1.7955 Y28.1445
G01 X1.8696 Y28.2263
G01 X1.9354 Y28.3150
G01 X1.9922 Y28.4097
G01 X2.0394 Y28.5095
G01 X2.0766 Y28.6134
G01 X2.1034 Y28.7205
G01 X2.1196 Y28.8297
G01 X2.1250 Y28.9400
G01 X2.1196 Y29.0503
G01 X2.1034 Y29.1595
G01 X2.0766 Y29.2666
G01 X2.0394 Y29.3705
G01 X1.9922 Y29.4703
G01 X1.9354 Y29.5650
G01 X1.8696 Y29.6537
G01 X1.7955 Y29.7355
G01 X1.7137 Y29.8096
G01 X1.6250 Y29.8754
G01 X1.5303 Y29.9322
G01 X1.4305 Y29.9794
G01 X1.3266 Y30.0166
G01 X1.2195 Y30.0434
G01 X1.1103 Y30.0596
G01 X1.0000 Y30.0650
G01 X0.8897 Y30.0596
G01 X0.7805 Y30.0434
G01 X0.6734 Y30.0166
G01 X0.5695 Y29.9794
G01 X0.4697 Y29.9322
G01 X0.3750 Y29.8754
G01 X0.2863 Y29.8096
G01 X0.2045 Y29.7355
G01 X0.1304 Y29.6537
G01 X0.0646 Y29.5650
G01 X0.0078 Y29.4703
G01 X-0.0394 Y29.3705
G01 X-0.0766 Y29.2666
G01 X-0.1034 Y29.1595
G01 X-0.1196 Y29.0503
G01 X-0.1250 Y28.9400
G01 X-0.1200 Y28.8358
G01 X-0.1188 Y28.8236
G00 Z1.0000
G00 X-0.1436 Y31.3600
G01 F60.00
G01 Z-0.1418
G01 F60.00
G01 X-0.1279 Y31.2556
G01 X-0.1005 Y31.1462
G01 X-0.0625 Y31.0399
G01 X-0.0142 Y30.9379
G01 X0.0438 Y30.8411
G01 X0.1110 Y30.7504
G01 X0.1868 Y30.6668
G01 X0.2704 Y30.5910
G01 X0.3611 Y30.5238
G01 X0.4579 Y30.4658
G01 X0.5599 Y30.4175
G01 X0.6662 Y30.3795
G01 X0.7756 Y30.3521
G01 X0.8873 Y30.3355
G01 X1.0000 Y30.3300
G01 X1.1127 Y30.3355
G01 X1.2244 Y30.3521
G01 X1.3338 Y30.3795
G01 X1.4401 Y30.4175
G01 X1.5421 Y30.4658
G01 X1.6389 Y30.5238
G01 X1.7296 Y30.5910
G01 X1.8132 Y30.6668
G01 X1.8890 Y30.7504
G01 X1.9562 Y30.8411
G01 X2.0142 Y30.9379
G01 X2.0625 Y31.0399
G01 X2.1005 Y31.1462
G01 X2.1279 Y31.2556
G01 X2.1445 Y31.3673
G01 X2.1500 Y31.4800
G01 X2.1445 Y31.5927
G01 X2.1279 Y31.7044
G01 X2.1005 Y31.8138
G01 X2.0625 Y31.9201
G01 X2.0142 Y32.0221
G01 X1.9562 Y32.1189
G01 X1.8890 Y32.2096
G01 X1.8132 Y32.2932
G01 X1.7296 Y32.3690
G01 X1.6389 Y32.4362
G01 X1.5421 Y32.4942
G01 X1.4401 Y32.5425
G01 X1.3338 Y32.5805
G01 X1.2244 Y32.6079
G01 X1.1127 Y32.6245
G01 X1.0000 Y32.6300
G01 X0.8873 Y32.6245
G01 X0.7756 Y32.6079
G01 X0.6662 Y32.5805
G01 X0.5599 Y32.5425
G01 X0.4579 Y32.4942
G01 X0.3611 Y32.4362
G01 X0.2704 Y32.3690
G01 X0.1868 Y32.2932
G01 X0.1110 Y32.2096
G01 X0.0438 Y32.1189
G01 X-0.0142 Y32.0221
G01 X-0.0625 Y31.9201
G01 X-0.1005 Y31.8138
G01 X-0.1279 Y31.7044
G01 X-0.1445 Y31.5927
G01 X-0.1500 Y31.4800
G01 X-0.1450 Y31.3746
G01 X-0.1436 Y31.3600
G00 Z1.0000
G00 X-0.1188 Y31.3636
G01 F60.00
G01 Z-0.1418
G01 F60.00
G01 X-0.1034 Y31.2605
G01 X-0.0766 Y31.1534
G01 X-0.0394 Y31.0495
G01 X0.0078 Y30.9497
G01 X0.0646 Y30.8550
G01 X0.1304 Y30.7663
G01 X0.2045 Y30.6845
G01 X0.2863 Y30.6104
G01 X0.3750 Y30.5446
G01 X0.4697 Y30.4878
G01 X0.5695 Y30.4406
G01 X0.6734 Y30.4034
G01 X0.7805 Y30.3766
G01 X0.8897 Y30.3604
G01 X1.0000 Y30.3550
G01 X1.1103 Y30.3604
G01 X1.2195 Y30.3766
G01 X1.3266 Y30.4034
G01 X1.4305 Y30.4406
G01 X1.5303 Y30.4878
G01 X1.6250 Y30.5446
G01 X1.7137 Y30.6104
G01 X1.7955 Y30.6845
G01 X1.8696 Y30.7663
G01 X1.9354 Y30.8550
G01 X1.9922 Y30.9497
G01 X2.0394 Y31.0495
G01 X2.0766 Y31.1534
G01 X2.1034 Y31.2605
G01 X2.1196 Y31.3697
G01 X2.1250 Y31.4800
G01 X2.1196 Y31.5903
G01 X2.1034 Y31.6995
G01 X2.0766 Y31.8066
G01 X2.0394 Y31.9105
G01 X1.9922 Y32.0103
G01 X1.9354 Y32.1050
G01 X1.8696 Y32.1937
G01 X1.7955 Y32.2755
G01 X1.7137 Y32.3496
G01 X1.6250 Y32.4154
G01 X1.5303 Y32.4722
G01 X1.4305 Y32.5194
G01 X1.3266 Y32.5566
G01 X1.2195 Y32.5834
G01 X1.1103 Y32.5996
G01 X1.0000 Y32.6050
G01 X0.8897 Y32.5996
G01 X0.7805 Y32.5834
G01 X0.6734 Y32.5566
G01 X0.5695 Y32.5194
G01 X0.4697 Y32.4722
G01 X0.3750 Y32.4154
G01 X0.2863 Y32.3496
G01 X0.2045 Y32.2755
G01 X0.1304 Y32.1937
G01 X0.0646 Y32.1050
G01 X0.0078 Y32.0103
G01 X-0.0394 Y31.9105
G01 X-0.0766 Y31.8066
G01 X-0.1034 Y31.6995
G01 X-0.1196 Y31.5903
G01 X-0.1250 Y31.4800
G01 X-0.1200 Y31.3758
G01 X-0.1188 Y31.3636
G00 Z1.0000
G00 X-0.1436 Y33.9000
G01 F60.00
G01 Z-0.1418
G01 F60.00
G01 X-0.1279 Y33.7956
G01 X-0.1005 Y33.6862
G01 X-0.0625 Y33.5799
G01 X-0.0142 Y33.4779
G01 X0.0438 Y33.3811
G01 X0.1110 Y33.2904
G01 X0.1868 Y33.2068
G01 X0.2704 Y33.1310
G01 X0.3611 Y33.0638
G01 X0.4579 Y33.0058
G01 X0.5599 Y32.9575
G01 X0.6662 Y32.9195
G01 X0.7756 Y32.8921
G01 X0.8873 Y32.8755
G01 X1.0000 Y32.8700
G01 X1.1127 Y32.8755
G01 X1.2244 Y32.8921
G01 X1.3338 Y32.9195
G01 X1.4401 Y32.9575
G01 X1.5421 Y33.0058
G01 X1.6389 Y33.0638
G01 X1.7296 Y33.1310
G01 X1.8132 Y33.2068
G01 X1.8890 Y33.2904
G01 X1.9562 Y33.3811
G01 X2.0142 Y33.4779
G01 X2.0625 Y33.5799
G01 X2.1005 Y33.6862
G01 X2.1279 Y33.7956
G01 X2.1445 Y33.9073
G01 X2.1500 Y34.0200
G01 X2.1445 Y34.1327
G01 X2.1279 Y34.2444
G01 X2.1005 Y34.3538
G01 X2.0625 Y34.4601
G01 X2.0142 Y34.5621
G01 X1.9562 Y34.6589
G01 X1.8890 Y34.7496
G01 X1.8132 Y34.8332
G01 X1.7296 Y34.9090
G01 X1.6389 Y34.9762
G01 X1.5421 Y35.0342
G01 X1.4401 Y35.0825
G01 X1.3338 Y35.1205
G01 X1.2244 Y35.1479
G01 X1.1127 Y35.1645
G01 X1.0000 Y35.1700
G01 X0.8873 Y35.1645
G01 X0.7756 Y35.1479
G01 X0.6662 Y35.1205
G01 X0.5599 Y35.0825
G01 X0.4579 Y35.0342
G01 X0.3611 Y34.9762
G01 X0.2704 Y34.9090
G01 X0.1868 Y34.8332
G01 X0.1110 Y34.7496
G01 X0.0438 Y34.6589
G01 X-0.0142 Y34.5621
G01 X-0.0625 Y34.4601
G01 X-0.1005 Y34.3538
G01 X-0.1279 Y34.2444
G01 X-0.1445 Y34.1327
G01 X-0.1500 Y34.0200
G01 X-0.1450 Y33.9146
G01 X-0.1436 Y33.9000
G00 Z1.0000
G00 X-0.1188 Y33.9036
G01 F60.00
G01 Z-0.1418
G01 F60.00
G01 X-0.1034 Y33.8005
G01 X-0.0766 Y33.6934
G01 X-0.0394 Y33.5895
G01 X0.0078 Y33.4897
G01 X0.0646 Y33.3950
G01 X0.1304 Y33.3063
G01 X0.2045 Y33.2245
G01 X0.2863 Y33.1504
G01 X0.3750 Y33.0846
G01 X0.4697 Y33.0278
G01 X0.5695 Y32.9806
G01 X0.6734 Y32.9434
G01 X0.7805 Y32.9166
G01 X0.8897 Y32.9004
G01 X1.0000 Y32.8950
G01 X1.1103 Y32.9004
G01 X1.2195 Y32.9166
G01 X1.3266 Y32.9434
G01 X1.4305 Y32.9806
G01 X1.5303 Y33.0278
G01 X1.6250 Y33.0846
G01 X1.7137 Y33.1504
G01 X1.7955 Y33.2245
G01 X1.8696 Y33.3063
G01 X1.9354 Y33.3950
G01 X1.9922 Y33.4897
G01 X2.0394 Y33.5895
G01 X2.0766 Y33.6934
G01 X2.1034 Y33.8005
G01 X2.1196 Y33.9097
G01 X2.1250 Y34.0200
G01 X2.1196 Y34.1303
G01 X2.1034 Y34.2395
G01 X2.0766 Y34.3466
G01 X2.0394 Y34.4505
G01 X1.9922 Y34.5503
G01 X1.9354 Y34.6450
G01 X1.8696 Y34.7337
G01 X1.7955 Y34.8155
G01 X1.7137 Y34.8896
G01 X1.6250 Y34.9554
G01 X1.5303 Y35.0122
G01 X1.4305 Y35.0594
G01 X1.3266 Y35.0966
G01 X1.2195 Y35.1234
G01 X1.1103 Y35.1396
G01 X1.0000 Y35.1450
G01 X0.8897 Y35.1396
G01 X0.7805 Y35.1234
G01 X0.6734 Y35.0966
G01 X0.5695 Y35.0594
G01 X0.4697 Y35.0122
G01 X0.3750 Y34.9554
G01 X0.2863 Y34.8896
G01 X0.2045 Y34.8155
G01 X0.1304 Y34.7337
G01 X0.0646 Y34.6450
G01 X0.0078 Y34.5503
G01 X-0.0394 Y34.4505
G01 X-0.0766 Y34.3466
G01 X-0.1034 Y34.2395
G01 X-0.1196 Y34.1303
G01 X-0.1250 Y34.0200
G01 X-0.1200 Y33.9158
G01 X-0.1188 Y33.9036
G00 Z1.0000
G00 X-0.1436 Y36.4400
G01 F60.00
G01 Z-0.1418
G01 F60.00
G01 X-0.1279 Y36.3356
G01 X-0.1005 Y36.2262
G01 X-0.0625 Y36.1199
G01 X-0.0142 Y36.0179
G01 X0.0438 Y35.9211
G01 X0.1110 Y35.8304
G01 X0.1868 Y35.7468
G01 X0.2704 Y35.6710
G01 X0.3611 Y35.6038
G01 X0.4579 Y35.5458
G01 X0.5599 Y35.4975
G01 X0.6662 Y35.4595
G01 X0.7756 Y35.4321
G01 X0.8873 Y35.4155
G01 X1.0000 Y35.4100
G01 X1.1127 Y35.4155
G01 X1.2244 Y35.4321
G01 X1.3338 Y35.4595
G01 X1.4401 Y35.4975
G01 X1.5421 Y35.5458
G01 X1.6389 Y35.6038
G01 X1.7296 Y35.6710
G01 X1.8132 Y35.7468
G01 X1.8890 Y35.8304
G01 X1.9562 Y35.9211
G01 X2.0142 Y36.0179
G01 X2.0625 Y36.1199
G01 X2.1005 Y36.2262
G01 X2.1279 Y36.3356
G01 X2.1445 Y36.4473
G01 X2.1500 Y36.5600
G01 X2.1445 Y36.6727
G01 X2.1279 Y36.7844
G01 X2.1005 Y36.8938
G01 X2.0625 Y37.0001
G01 X2.0142 Y37.1021
G01 X1.9562 Y37.1989
G01 X1.8890 Y37.2896
G01 X1.8132 Y37.3732
G01 X1.7296 Y37.4490
G01 X1.6389 Y37.5162
G01 X1.5421 Y37.5742
G01 X1.4401 Y37.6225
G01 X1.3338 Y37.6605
G01 X1.2244 Y37.6879
G01 X1.1127 Y37.7045
G01 X1.0000 Y37.7100
G01 X0.8873 Y37.7045
G01 X0.7756 Y37.6879
G01 X0.6662 Y37.6605
G01 X0.5599 Y37.6225
G01 X0.4579 Y37.5742
G01 X0.3611 Y37.5162
G01 X0.2704 Y37.4490
G01 X0.1868 Y37.3732
G01 X0.1110 Y37.2896
G01 X0.0438 Y37.1989
G01 X-0.0142 Y37.1021
G01 X-0.0625 Y37.0001
G01 X-0.1005 Y36.8938
G01 X-0.1279 Y36.7844
G01 X-0.1445 Y36.6727
G01 X-0.1500 Y36.5600
G01 X-0.1450 Y36.4546
G01 X-0.1436 Y36.4400
G00 Z1.0000
G00 X-0.1188 Y36.4436
G01 F60.00
G01 Z-0.1418
G01 F60.00
G01 X-0.1034 Y36.3405
G01 X-0.0766 Y36.2334
G01 X-0.0394 Y36.1295
G01 X0.0078 Y36.0297
G01 X0.0646 Y35.9350
G01 X0.1304 Y35.8463
G01 X0.2045 Y35.7645
G01 X0.2863 Y35.6904
G01 X0.3750 Y35.6246
G01 X0.4697 Y35.5678
G01 X0.5695 Y35.5206
G01 X0.6734 Y35.4834
G01 X0.7805 Y35.4566
G01 X0.8897 Y35.4404
G01 X1.0000 Y35.4350
G01 X1.1103 Y35.4404
G01 X1.2195 Y35.4566
G01 X1.3266 Y35.4834
G01 X1.4305 Y35.5206
G01 X1.5303 Y35.5678
G01 X1.6250 Y35.6246
G01 X1.7137 Y35.6904
G01 X1.7955 Y35.7645
G01 X1.8696 Y35.8463
G01 X1.9354 Y35.9350
G01 X1.9922 Y36.0297
G01 X2.0394 Y36.1295
G01 X2.0766 Y36.2334
G01 X2.1034 Y36.3405
G01 X2.1196 Y36.4497
G01 X2.1250 Y36.5600
G01 X2.1196 Y36.6703
G01 X2.1034 Y36.7795
G01 X2.0766 Y36.8866
G01 X2.0394 Y36.9905
G01 X1.9922 Y37.0903
G01 X1.9354 Y37.1850
G01 X1.8696 Y37.2737
G01 X1.7955 Y37.3555
G01 X1.7137 Y37.4296
G01 X1.6250 Y37.4954
G01 X1.5303 Y37.5522
G01 X1.4305 Y37.5994
G01 X1.3266 Y37.6366
G01 X1.2195 Y37.6634
G01 X1.1103 Y37.6796
G01 X1.0000 Y37.6850
G01 X0.8897 Y37.6796
G01 X0.7805 Y37.6634
G01 X0.6734 Y37.6366
G01 X0.5695 Y37.5994
G01 X0.4697 Y37.5522
G01 X0.3750 Y37.4954
G01 X0.2863 Y37.4296
G01 X0.2045 Y37.3555
G01 X0.1304 Y37.2737
G01 X0.0646 Y37.1850
G01 X0.0078 Y37.0903
G01 X-0.0394 Y36.9905
G01 X-0.0766 Y36.8866
G01 X-0.1034 Y36.7795
G01 X-0.1196 Y36.6703
G01 X-0.1250 Y36.5600
G01 X-0.1200 Y36.4558
G01 X-0.1188 Y36.4436
G00 Z1.0000
G00 X-0.1436 Y38.9800
G01 F60.00
G01 Z-0.1418
G01 F60.00
G01 X-0.1279 Y38.8756
G01 X-0.1005 Y38.7662
G01 X-0.0625 Y38.6599
G01 X-0.0142 Y38.5579
G01 X0.0438 Y38.4611
G01 X0.1110 Y38.3704
G01 X0.1868 Y38.2868
G01 X0.2704 Y38.2110
G01 X0.3611 Y38.1438
G01 X0.4579 Y38.0858
G01 X0.5599 Y38.0375
G01 X0.6662 Y37.9995
G01 X0.7756 Y37.9721
G01 X0.8873 Y37.9555
G01 X1.0000 Y37.9500
G01 X1.1127 Y37.9555
G01 X1.2244 Y37.9721
G01 X1.3338 Y37.9995
G01 X1.4401 Y38.0375
G01 X1.5421 Y38.0858
G01 X1.6389 Y38.1438
G01 X1.7296 Y38.2110
G01 X1.8132 Y38.2868
G01 X1.8890 Y38.3704
G01 X1.9562 Y38.4611
G01 X2.0142 Y38.5579
G01 X2.0625 Y38.6599
G01 X2.1005 Y38.7662
G01 X2.1279 Y38.8756
G01 X2.1445 Y38.9873
G01 X2.1500 Y39.1000
G01 X2.1445 Y39.2127
G01 X2.1279 Y39.3244
G01 X2.1005 Y39.4338
G01 X2.0625 Y39.5401
G01 X2.0142 Y39.6421
G01 X1.9562 Y39.7389
G01 X1.8890 Y39.8296
G01 X1.8132 Y39.9132
G01 X1.7296 Y39.9890
G01 X1.6389 Y40.0562
G01 X1.5421 Y40.1142
G01 X1.4401 Y40.1625
G01 X1.3338 Y40.2005
G01 X1.2244 Y40.2279
G01 X1.1127 Y40.2445
G01 X1.0000 Y40.2500
G01 X0.8873 Y40.2445
G01 X0.7756 Y40.2279
G01 X0.6662 Y40.2005
G01 X0.5599 Y40.1625
G01 X0.4579 Y40.1142
G01 X0.3611 Y40.0562
G01 X0.2704 Y39.9890
G01 X0.1868 Y39.9132
G01 X0.1110 Y39.8296
G01 X0.0438 Y39.7389
G01 X-0.0142 Y39.6421
G01 X-0.0625 Y39.5401
G01 X-0.1005 Y39.4338
G01 X-0.1279 Y39.3244
G01 X-0.1445 Y39.2127
G01 X-0.1500 Y39.1000
G01 X-0.1450 Y38.9946
G01 X-0.1436 Y38.9800
G00 Z1.0000
G00 X-0.1188 Y38.9836
G01 F60.00
G01 Z-0.1418
G01 F60.00
G01 X-0.1034 Y38.8805
G01 X-0.0766 Y38.7734
G01 X-0.0394 Y38.6695
G01 X0.0078 Y38.5697
G01 X0.0646 Y38.4750
G01 X0.1304 Y38.3863
G01 X0.2045 Y38.3045
G01 X0.2863 Y38.2304
G01 X0.3750 Y38.1646
G01 X0.4697 Y38.1078
G01 X0.5695 Y38.0606
G01 X0.6734 Y38.0234
G01 X0.7805 Y37.9966
G01 X0.8897 Y37.9804
G01 X1.0000 Y37.9750
G01 X1.1103 Y37.9804
G01 X1.2195 Y37.9966
G01 X1.3266 Y38.0234
G01 X1.4305 Y38.0606
G01 X1.5303 Y38.1078
G01 X1.6250 Y38.1646
G01 X1.7137 Y38.2304
G01 X1.7955 Y38.3045
G01 X1.8696 Y38.3863
G01 X1.9354 Y38.4750
G01 X1.9922 Y38.5697
G01 X2.0394 Y38.6695
G01 X2.0766 Y38.7734
G01 X2.1034 Y38.8805
G01 X2.1196 Y38.9897
G01 X2.1250 Y39.1000
G01 X2.1196 Y39.2103
G01 X2.1034 Y39.3195
G01 X2.0766 Y39.4266
G01 X2.0394 Y39.5305
G01 X1.9922 Y39.6303
G01 X1.9354 Y39.7250
G01 X1.8696 Y39.8137
G01 X1.7955 Y39.8955
G01 X1.7137 Y39.9696
G01 X1.6250 Y40.0354
G01 X1.5303 Y40.0922
G01 X1.4305 Y40.1394
G01 X1.3266 Y40.1766
G01 X1.2195 Y40.2034
G01 X1.1103 Y40.2196
G01 X1.0000 Y40.2250
G01 X0.8897 Y40.2196
G01 X0.7805 Y40.2034
G01 X0.6734 Y40.1766
G01 X0.5695 Y40.1394
G01 X0.4697 Y40.0922
G01 X0.3750 Y40.0354
G01 X0.2863 Y39.9696
G01 X0.2045 Y39.8955
G01 X0.1304 Y39.8137
G01 X0.0646 Y39.7250
G01 X0.0078 Y39.6303
G01 X-0.0394 Y39.5305
G01 X-0.0766 Y39.4266
G01 X-0.1034 Y39.3195
G01 X-0.1196 Y39.2103
G01 X-0.1250 Y39.1000
G01 X-0.1200 Y38.9958
G01 X-0.1188 Y38.9836
G00 Z1.0000
G00 X-0.1436 Y41.5200
G01 F60.00
G01 Z-0.1418
G01 F60.00
G01 X-0.1279 Y41.4156
G01 X-0.1005 Y41.3062
G01 X-0.0625 Y41.1999
G01 X-0.0142 Y41.0979
G01 X0.0438 Y41.0011
G01 X0.1110 Y40.9104
G01 X0.1868 Y40.8268
G01 X0.2704 Y40.7510
G01 X0.3611 Y40.6838
G01 X0.4579 Y40.6258
G01 X0.5599 Y40.5775
G01 X0.6662 Y40.5395
G01 X0.7756 Y40.5121
G01 X0.8873 Y40.4955
G01 X1.0000 Y40.4900
G01 X1.1127 Y40.4955
G01 X1.2244 Y40.5121
G01 X1.3338 Y40.5395
G01 X1.4401 Y40.5775
G01 X1.5421 Y40.6258
G01 X1.6389 Y40.6838
G01 X1.7296 Y40.7510
G01 X1.8132 Y40.8268
G01 X1.8890 Y40.9104
G01 X1.9562 Y41.0011
G01 X2.0142 Y41.0979
G01 X2.0625 Y41.1999
G01 X2.1005 Y41.3062
G01 X2.1279 Y41.4156
G01 X2.1445 Y41.5273
G01 X2.1500 Y41.6400
G01 X2.1445 Y41.7527
G01 X2.1279 Y41.8644
G01 X2.1005 Y41.9738
G01 X2.0625 Y42.0801
G01 X2.0142 Y42.1821
G01 X1.9562 Y42.2789
G01 X1.8890 Y42.3696
G01 X1.8132 Y42.4532
G01 X1.7296 Y42.5290
G01 X1.6389 Y42.5962
G01 X1.5421 Y42.6542
G01 X1.4401 Y42.7025
G01 X1.3338 Y42.7405
G01 X1.2244 Y42.7679
G01 X1.1127 Y42.7845
G01 X1.0000 Y42.7900
G01 X0.8873 Y42.7845
G01 X0.7756 Y42.7679
G01 X0.6662 Y42.7405
G01 X0.5599 Y42.7025
G01 X0.4579 Y42.6542
G01 X0.3611 Y42.5962
G01 X0.2704 Y42.5290
G01 X0.1868 Y42.4532
G01 X0.1110 Y42.3696
G01 X0.0438 Y42.2789
G01 X-0.0142 Y42.1821
G01 X-0.0625 Y42.0801
G01 X-0.1005 Y41.9738
G01 X-0.1279 Y41.8644
G01 X-0.1445 Y41.7527
G01 X-0.1500 Y41.6400
G01 X-0.1450 Y41.5346
G01 X-0.1436 Y41.5200
G00 Z1.0000
G00 X-0.1188 Y41.5236
G01 F60.00
G01 Z-0.1418
G01 F60.00
G01 X-0.1034 Y41.4205
G01 X-0.0766 Y41.3134
G01 X-0.0394 Y41.2095
G01 X0.0078 Y41.1097
G01 X0.0646 Y41.0150
G01 X0.1304 Y40.9263
G01 X0.2045 Y40.8445
G01 X0.2863 Y40.7704
G01 X0.3750 Y40.7046
G01 X0.4697 Y40.6478
G01 X0.5695 Y40.6006
G01 X0.6734 Y40.5634
G01 X0.7805 Y40.5366
G01 X0.8897 Y40.5204
G01 X1.0000 Y40.5150
G01 X1.1103 Y40.5204
G01 X1.2195 Y40.5366
G01 X1.3266 Y40.5634
G01 X1.4305 Y40.6006
G01 X1.5303 Y40.6478
G01 X1.6250 Y40.7046
G01 X1.7137 Y40.7704
G01 X1.7955 Y40.8445
G01 X1.8696 Y40.9263
G01 X1.9354 Y41.0150
G01 X1.9922 Y41.1097
G01 X2.0394 Y41.2095
G01 X2.0766 Y41.3134
G01 X2.1034 Y41.4205
G01 X2.1196 Y41.5297
G01 X2.1250 Y41.6400
G01 X2.1196 Y41.7503
G01 X2.1034 Y41.8595
G01 X2.0766 Y41.9666
G01 X2.0394 Y42.0705
G01 X1.9922 Y42.1703
G01 X1.9354 Y42.2650
G01 X1.8696 Y42.3537
G01 X1.7955 Y42.4355
G01 X1.7137 Y42.5096
G01 X1.6250 Y42.5754
G01 X1.5303 Y42.6322
G01 X1.4305 Y42.6794
G01 X1.3266 Y42.7166
G01 X1.2195 Y42.7434
G01 X1.1103 Y42.7596
G01 X1.0000 Y42.7650
G01 X0.8897 Y42.7596
G01 X0.7805 Y42.7434
G01 X0.6734 Y42.7166
G01 X0.5695 Y42.6794
G01 X0.4697 Y42.6322
G01 X0.3750 Y42.5754
G01 X0.2863 Y42.5096
G01 X0.2045 Y42.4355
G01 X0.1304 Y42.3537
G01 X0.0646 Y42.2650
G01 X0.0078 Y42.1703
G01 X-0.0394 Y42.0705
G01 X-0.0766 Y41.9666
G01 X-0.1034 Y41.8595
G01 X-0.1196 Y41.7503
G01 X-0.1250 Y41.6400
G01 X-0.1200 Y41.5358
G01 X-0.1188 Y41.5236
G00 Z1.0000
G00 X-0.1436 Y44.0600
G01 F60.00
G01 Z-0.1418
G01 F60.00
G01 X-0.1279 Y43.9556
G01 X-0.1005 Y43.8462
G01 X-0.0625 Y43.7399
G01 X-0.0142 Y43.6379
G01 X0.0438 Y43.5411
G01 X0.1110 Y43.4504
G01 X0.1868 Y43.3668
G01 X0.2704 Y43.2910
G01 X0.3611 Y43.2238
G01 X0.4579 Y43.1658
G01 X0.5599 Y43.1175
G01 X0.6662 Y43.0795
G01 X0.7756 Y43.0521
G01 X0.8873 Y43.0355
G01 X1.0000 Y43.0300
G01 X1.1127 Y43.0355
G01 X1.2244 Y43.0521
G01 X1.3338 Y43.0795
G01 X1.4401 Y43.1175
G01 X1.5421 Y43.1658
G01 X1.6389 Y43.2238
G01 X1.7296 Y43.2910
G01 X1.8132 Y43.3668
G01 X1.8890 Y43.4504
G01 X1.9562 Y43.5411
G01 X2.0142 Y43.6379
G01 X2.0625 Y43.7399
G01 X2.1005 Y43.8462
G01 X2.1279 Y43.9556
G01 X2.1445 Y44.0673
G01 X2.1500 Y44.1800
G01 X2.1445 Y44.2927
G01 X2.1279 Y44.4044
G01 X2.1005 Y44.5138
G01 X2.0625 Y44.6201
G01 X2.0142 Y44.7221
G01 X1.9562 Y44.8189
G01 X1.8890 Y44.9096
G01 X1.8132 Y44.9932
G01 X1.7296 Y45.0690
G01 X1.6389 Y45.1362
G01 X1.5421 Y45.1942
G01 X1.4401 Y45.2425
G01 X1.3338 Y45.2805
G01 X1.2244 Y45.3079
G01 X1.1127 Y45.3245
G01 X1.0000 Y45.3300
G01 X0.8873 Y45.3245
G01 X0.7756 Y45.3079
G01 X0.6662 Y45.2805
G01 X0.5599 Y45.2425
G01 X0.4579 Y45.1942
G01 X0.3611 Y45.1362
G01 X0.2704 Y45.0690
G01 X0.1868 Y44.9932
G01 X0.1110 Y44.9096
G01 X0.0438 Y44.8189
G01 X-0.0142 Y44.7221
G01 X-0.0625 Y44.6201
G01 X-0.1005 Y44.5138
G01 X-0.1279 Y44.4044
G01 X-0.1445 Y44.2927
G01 X-0.1500 Y44.1800
G01 X-0.1450 Y44.0746
G01 X-0.1436 Y44.0600
G00 Z1.0000
G00 X-0.1188 Y44.0636
G01 F60.00
G01 Z-0.1418
G01 F60.00
G01 X-0.1034 Y43.9605
G01 X-0.0766 Y43.8534
G01 X-0.0394 Y43.7495
G01 X0.0078 Y43.6497
G01 X0.0646 Y43.5550
G01 X0.1304 Y43.4663
G01 X0.2045 Y43.3845
G01 X0.2863 Y43.3104
G01 X0.3750 Y43.2446
G01 X0.4697 Y43.1878
G01 X0.5695 Y43.1406
G01 X0.6734 Y43.1034
G01 X0.7805 Y43.0766
G01 X0.8897 Y43.0604
G01 X1.0000 Y43.0550
G01 X1.1103 Y43.0604
G01 X1.2195 Y43.0766
G01 X1.3266 Y43.1034
G01 X1.4305 Y43.1406
G01 X1.5303 Y43.1878
G01 X1.6250 Y43.2446
G01 X1.7137 Y43.3104
G01 X1.7955 Y43.3845
G01 X1.8696 Y43.4663
G01 X1.9354 Y43.5550
G01 X1.9922 Y43.6497
G01 X2.0394 Y43.7495
G01 X2.0766 Y43.8534
G01 X2.1034 Y43.9605
G01 X2.1196 Y44.0697
G01 X2.1250 Y44.1800
G01 X2.1196 Y44.2903
G01 X2.1034 Y44.3995
G01 X2.0766 Y44.5066
G01 X2.0394 Y44.6105
G01 X1.9922 Y44.7103
G01 X1.9354 Y44.8050
G01 X1.8696 Y44.8937
G01 X1.7955 Y44.9755
G01 X1.7137 Y45.0496
G01 X1.6250 Y45.1154
G01 X1.5303 Y45.1722
G01 X1.4305 Y45.2194
G01 X1.3266 Y45.2566
G01 X1.2195 Y45.2834
G01 X1.1103 Y45.2996
G01 X1.0000 Y45.3050
G01 X0.8897 Y45.2996
G01 X0.7805 Y45.2834
G01 X0.6734 Y45.2566
G01 X0.5695 Y45.2194
G01 X0.4697 Y45.1722
G01 X0.3750 Y45.1154
G01 X0.2863 Y45.0496
G01 X0.2045 Y44.9755
G01 X0.1304 Y44.8937
G01 X0.0646 Y44.8050
G01 X0.0078 Y44.7103
G01 X-0.0394 Y44.6105
G01 X-0.0766 Y44.5066
G01 X-0.1034 Y44.3995
G01 X-0.1196 Y44.2903
G01 X-0.1250 Y44.1800
G01 X-0.1200 Y44.0758
G01 X-0.1188 Y44.0636
G00 Z1.0000
G00 X-0.1436 Y46.6000
G01 F60.00
G01 Z-0.1418
G01 F60.00
G01 X-0.1279 Y46.4956
G01 X-0.1005 Y46.3862
G01 X-0.0625 Y46.2799
G01 X-0.0142 Y46.1779
G01 X0.0438 Y46.0811
G01 X0.1110 Y45.9904
G01 X0.1868 Y45.9068
G01 X0.2704 Y45.8310
G01 X0.3611 Y45.7638
G01 X0.4579 Y45.7058
G01 X0.5599 Y45.6575
G01 X0.6662 Y45.6195
G01 X0.7756 Y45.5921
G01 X0.8873 Y45.5755
G01 X1.0000 Y45.5700
G01 X1.1127 Y45.5755
G01 X1.2244 Y45.5921
G01 X1.3338 Y45.6195
G01 X1.4401 Y45.6575
G01 X1.5421 Y45.7058
G01 X1.6389 Y45.7638
G01 X1.7296 Y45.8310
G01 X1.8132 Y45.9068
G01 X1.8890 Y45.9904
G01 X1.9562 Y46.0811
G01 X2.0142 Y46.1779
G01 X2.0625 Y46.2799
G01 X2.1005 Y46.3862
G01 X2.1279 Y46.4956
G01 X2.1445 Y46.6073
G01 X2.1500 Y46.7200
G01 X2.1445 Y46.8327
G01 X2.1279 Y46.9444
G01 X2.1005 Y47.0538
G01 X2.0625 Y47.1601
G01 X2.0142 Y47.2621
G01 X1.9562 Y47.3589
G01 X1.8890 Y47.4496
G01 X1.8132 Y47.5332
G01 X1.7296 Y47.6090
G01 X1.6389 Y47.6762
G01 X1.5421 Y47.7342
G01 X1.4401 Y47.7825
G01 X1.3338 Y47.8205
G01 X1.2244 Y47.8479
G01 X1.1127 Y47.8645
G01 X1.0000 Y47.8700
G01 X0.8873 Y47.8645
G01 X0.7756 Y47.8479
G01 X0.6662 Y47.8205
G01 X0.5599 Y47.7825
G01 X0.4579 Y47.7342
G01 X0.3611 Y47.6762
G01 X0.2704 Y47.6090
G01 X0.1868 Y47.5332
G01 X0.1110 Y47.4496
G01 X0.0438 Y47.3589
G01 X-0.0142 Y47.2621
G01 X-0.0625 Y47.1601
G01 X-0.1005 Y47.0538
G01 X-0.1279 Y46.9444
G01 X-0.1445 Y46.8327
G01 X-0.1500 Y46.7200
G01 X-0.1450 Y46.6146
G01 X-0.1436 Y46.6000
G00 Z1.0000
G00 X-0.1188 Y46.6036
G01 F60.00
G01 Z-0.1418
G01 F60.00
G01 X-0.1034 Y46.5005
G01 X-0.0766 Y46.3934
G01 X-0.0394 Y46.2895
G01 X0.0078 Y46.1897
G01 X0.0646 Y46.0950
G01 X0.1304 Y46.0063
G01 X0.2045 Y45.9245
G01 X0.2863 Y45.8504
G01 X0.3750 Y45.7846
G01 X0.4697 Y45.7278
G01 X0.5695 Y45.6806
G01 X0.6734 Y45.6434
G01 X0.7805 Y45.6166
G01 X0.8897 Y45.6004
G01 X1.0000 Y45.5950
G01 X1.1103 Y45.6004
G01 X1.2195 Y45.6166
G01 X1.3266 Y45.6434
G01 X1.4305 Y45.6806
G01 X1.5303 Y45.7278
G01 X1.6250 Y45.7846
G01 X1.7137 Y45.8504
G01 X1.7955 Y45.9245
G01 X1.8696 Y46.0063
G01 X1.9354 Y46.0950
G01 X1.9922 Y46.1897
G01 X2.0394 Y46.2895
G01 X2.0766 Y46.3934
G01 X2.1034 Y46.5005
G01 X2.1196 Y46.6097
G01 X2.1250 Y46.7200
G01 X2.1196 Y46.8303
G01 X2.1034 Y46.9395
G01 X2.0766 Y47.0466
G01 X2.0394 Y47.1505
G01 X1.9922 Y47.2503
G01 X1.9354 Y47.3450
G01 X1.8696 Y47.4337
G01 X1.7955 Y47.5155
G01 X1.7137 Y47.5896
G01 X1.6250 Y47.6554
G01 X1.5303 Y47.7122
G01 X1.4305 Y47.7594
G01 X1.3266 Y47.7966
G01 X1.2195 Y47.8234
G01 X1.1103 Y47.8396
G01 X1.0000 Y47.8450
G01 X0.8897 Y47.8396
G01 X0.7805 Y47.8234
G01 X0.6734 Y47.7966
G01 X0.5695 Y47.7594
G01 X0.4697 Y47.7122
G01 X0.3750 Y47.6554
G01 X0.2863 Y47.5896
G01 X0.2045 Y47.5155
G01 X0.1304 Y47.4337
G01 X0.0646 Y47.3450
G01 X0.0078 Y47.2503
G01 X-0.0394 Y47.1505
G01 X-0.0766 Y47.0466
G01 X-0.1034 Y46.9395
G01 X-0.1196 Y46.8303
G01 X-0.1250 Y46.7200
G01 X-0.1200 Y46.6158
G01 X-0.1188 Y46.6036
G00 Z1.0000
G00 X-0.1436 Y49.1400
G01 F60.00
G01 Z-0.1418
G01 F60.00
G01 X-0.1279 Y49.0356
G01 X-0.1005 Y48.9262
G01 X-0.0625 Y48.8199
G01 X-0.0142 Y48.7179
G01 X0.0438 Y48.6211
G01 X0.1110 Y48.5304
G01 X0.1868 Y48.4468
G01 X0.2704 Y48.3710
G01 X0.3611 Y48.3038
G01 X0.4579 Y48.2458
G01 X0.5599 Y48.1975
G01 X0.6662 Y48.1595
G01 X0.7756 Y48.1321
G01 X0.8873 Y48.1155
G01 X1.0000 Y48.1100
G01 X1.1127 Y48.1155
G01 X1.2244 Y48.1321
G01 X1.3338 Y48.1595
G01 X1.4401 Y48.1975
G01 X1.5421 Y48.2458
G01 X1.6389 Y48.3038
G01 X1.7296 Y48.3710
G01 X1.8132 Y48.4468
G01 X1.8890 Y48.5304
G01 X1.9562 Y48.6211
G01 X2.0142 Y48.7179
G01 X2.0625 Y48.8199
G01 X2.1005 Y48.9262
G01 X2.1279 Y49.0356
G01 X2.1445 Y49.1473
G01 X2.1500 Y49.2600
G01 X2.1445 Y49.3727
G01 X2.1279 Y49.4844
G01 X2.1005 Y49.5938
G01 X2.0625 Y49.7001
G01 X2.0142 Y49.8021
G01 X1.9562 Y49.8989
G01 X1.8890 Y49.9896
G01 X1.8132 Y50.0732
G01 X1.7296 Y50.1490
G01 X1.6389 Y50.2162
G01 X1.5421 Y50.2742
G01 X1.4401 Y50.3225
G01 X1.3338 Y50.3605
G01 X1.2244 Y50.3879
G01 X1.1127 Y50.4045
G01 X1.0000 Y50.4100
G01 X0.8873 Y50.4045
G01 X0.7756 Y50.3879
G01 X0.6662 Y50.3605
G01 X0.5599 Y50.3225
G01 X0.4579 Y50.2742
G01 X0.3611 Y50.2162
G01 X0.2704 Y50.1490
G01 X0.1868 Y50.0732
G01 X0.1110 Y49.9896
G01 X0.0438 Y49.8989
G01 X-0.0142 Y49.8021
G01 X-0.0625 Y49.7001
G01 X-0.1005 Y49.5938
G01 X-0.1279 Y49.4844
G01 X-0.1445 Y49.3727
G01 X-0.1500 Y49.2600
G01 X-0.1450 Y49.1546
G01 X-0.1436 Y49.1400
G00 Z1.0000
G00 X-0.1188 Y49.1436
G01 F60.00
G01 Z-0.1418
G01 F60.00
G01 X-0.1034 Y49.0405
G01 X-0.0766 Y48.9334
G01 X-0.0394 Y48.8295
G01 X0.0078 Y48.7297
G01 X0.0646 Y48.6350
G01 X0.1304 Y48.5463
G01 X0.2045 Y48.4645
G01 X0.2863 Y48.3904
G01 X0.3750 Y48.3246
G01 X0.4697 Y48.2678
G01 X0.5695 Y48.2206
G01 X0.6734 Y48.1834
G01 X0.7805 Y48.1566
G01 X0.8897 Y48.1404
G01 X1.0000 Y48.1350
G01 X1.1103 Y48.1404
G01 X1.2195 Y48.1566
G01 X1.3266 Y48.1834
G01 X1.4305 Y48.2206
G01 X1.5303 Y48.2678
G01 X1.6250 Y48.3246
G01 X1.7137 Y48.3904
G01 X1.7955 Y48.4645
G01 X1.8696 Y48.5463
G01 X1.9354 Y48.6350
G01 X1.9922 Y48.7297
G01 X2.0394 Y48.8295
G01 X2.0766 Y48.9334
G01 X2.1034 Y49.0405
G01 X2.1196 Y49.1497
G01 X2.1250 Y49.2600
G01 X2.1196 Y49.3703
G01 X2.1034 Y49.4795
G01 X2.0766 Y49.5866
G01 X2.0394 Y49.6905
G01 X1.9922 Y49.7903
G01 X1.9354 Y49.8850
G01 X1.8696 Y49.9737
G01 X1.7955 Y50.0555
G01 X1.7137 Y50.1296
G01 X1.6250 Y50.1954
G01 X1.5303 Y50.2522
G01 X1.4305 Y50.2994
G01 X1.3266 Y50.3366
G01 X1.2195 Y50.3634
G01 X1.1103 Y50.3796
G01 X1.0000 Y50.3850
G01 X0.8897 Y50.3796
G01 X0.7805 Y50.3634
G01 X0.6734 Y50.3366
G01 X0.5695 Y50.2994
G01 X0.4697 Y50.2522
G01 X0.3750 Y50.1954
G01 X0.2863 Y50.1296
G01 X0.2045 Y50.0555
G01 X0.1304 Y49.9737
G01 X0.0646 Y49.8850
G01 X0.0078 Y49.7903
G01 X-0.0394 Y49.6905
G01 X-0.0766 Y49.5866
G01 X-0.1034 Y49.4795
G01 X-0.1196 Y49.3703
G01 X-0.1250 Y49.2600
G01 X-0.1200 Y49.1558
G01 X-0.1188 Y49.1436
G00 Z1.0000
G00 X-0.1436 Y51.6800
G01 F60.00
G01 Z-0.1418
G01 F60.00
G01 X-0.1279 Y51.5756
G01 X-0.1005 Y51.4662
G01 X-0.0625 Y51.3599
G01 X-0.0142 Y51.2579
G01 X0.0438 Y51.1611
G01 X0.1110 Y51.0704
G01 X0.1868 Y50.9868
G01 X0.2704 Y50.9110
G01 X0.3611 Y50.8438
G01 X0.4579 Y50.7858
G01 X0.5599 Y50.7375
G01 X0.6662 Y50.6995
G01 X0.7756 Y50.6721
G01 X0.8873 Y50.6555
G01 X1.0000 Y50.6500
G01 X1.1127 Y50.6555
G01 X1.2244 Y50.6721
G01 X1.3338 Y50.6995
G01 X1.4401 Y50.7375
G01 X1.5421 Y50.7858
G01 X1.6389 Y50.8438
G01 X1.7296 Y50.9110
G01 X1.8132 Y50.9868
G01 X1.8890 Y51.0704
G01 X1.9562 Y51.1611
G01 X2.0142 Y51.2579
G01 X2.0625 Y51.3599
G01 X2.1005 Y51.4662
G01 X2.1279 Y51.5756
G01 X2.1445 Y51.6873
G01 X2.1500 Y51.8000
G01 X2.1445 Y51.9127
G01 X2.1279 Y52.0244
G01 X2.1005 Y52.1338
G01 X2.0625 Y52.2401
G01 X2.0142 Y52.3421
G01 X1.9562 Y52.4389
G01 X1.8890 Y52.5296
G01 X1.8132 Y52.6132
G01 X1.7296 Y52.6890
G01 X1.6389 Y52.7562
G01 X1.5421 Y52.8142
G01 X1.4401 Y52.8625
G01 X1.3338 Y52.9005
G01 X1.2244 Y52.9279
G01 X1.1127 Y52.9445
G01 X1.0000 Y52.9500
G01 X0.8873 Y52.9445
G01 X0.7756 Y52.9279
G01 X0.6662 Y52.9005
G01 X0.5599 Y52.8625
G01 X0.4579 Y52.8142
G01 X0.3611 Y52.7562
G01 X0.2704 Y52.6890
G01 X0.1868 Y52.6132
G01 X0.1110 Y52.5296
G01 X0.0438 Y52.4389
G01 X-0.0142 Y52.3421
G01 X-0.0625 Y52.2401
G01 X-0.1005 Y52.1338
G01 X-0.1279 Y52.0244
G01 X-0.1445 Y51.9127
G01 X-0.1500 Y51.8000
G01 X-0.1450 Y51.6946
G01 X-0.1436 Y51.6800
G00 Z1.0000
G00 X-0.1188 Y51.6836
G01 F60.00
G01 Z-0.1418
G01 F60.00
G01 X-0.1034 Y51.5805
G01 X-0.0766 Y51.4734
G01 X-0.0394 Y51.3695
G01 X0.0078 Y51.2697
G01 X0.0646 Y51.1750
G01 X0.1304 Y51.0863
G01 X0.2045 Y51.0045
G01 X0.2863 Y50.9304
G01 X0.3750 Y50.8646
G01 X0.4697 Y50.8078
G01 X0.5695 Y50.7606
G01 X0.6734 Y50.7234
G01 X0.7805 Y50.6966
G01 X0.8897 Y50.6804
G01 X1.0000 Y50.6750
G01 X1.1103 Y50.6804
G01 X1.2195 Y50.6966
G01 X1.3266 Y50.7234
G01 X1.4305 Y50.7606
G01 X1.5303 Y50.8078
G01 X1.6250 Y50.8646
G01 X1.7137 Y50.9304
G01 X1.7955 Y51.0045
G01 X1.8696 Y51.0863
G01 X1.9354 Y51.1750
G01 X1.9922 Y51.2697
G01 X2.0394 Y51.3695
G01 X2.0766 Y51.4734
G01 X2.1034 Y51.5805
G01 X2.1196 Y51.6897
G01 X2.1250 Y51.8000
G01 X2.1196 Y51.9103
G01 X2.1034 Y52.0195
G01 X2.0766 Y52.1266
G01 X2.0394 Y52.2305
G01 X1.9922 Y52.3303
G01 X1.9354 Y52.4250
G01 X1.8696 Y52.5137
G01 X1.7955 Y52.5955
G01 X1.7137 Y52.6696
G01 X1.6250 Y52.7354
G01 X1.5303 Y52.7922
G01 X1.4305 Y52.8394
G01 X1.3266 Y52.8766
G01 X1.2195 Y52.9034
G01 X1.1103 Y52.9196
G01 X1.0000 Y52.9250
G01 X0.8897 Y52.9196
G01 X0.7805 Y52.9034
G01 X0.6734 Y52.8766
G01 X0.5695 Y52.8394
G01 X0.4697 Y52.7922
G01 X0.3750 Y52.7354
G01 X0.2863 Y52.6696
G01 X0.2045 Y52.5955
G01 X0.1304 Y52.5137
G01 X0.0646 Y52.4250
G01 X0.0078 Y52.3303
G01 X-0.0394 Y52.2305
G01 X-0.0766 Y52.1266
G01 X-0.1034 Y52.0195
G01 X-0.1196 Y51.9103
G01 X-0.1250 Y51.8000
G01 X-0.1200 Y51.6958
G01 X-0.1188 Y51.6836
G00 Z1.0000
G00 X-0.1436 Y54.2200
G01 F60.00
G01 Z-0.1418
G01 F60.00
G01 X-0.1279 Y54.1156
G01 X-0.1005 Y54.0062
G01 X-0.0625 Y53.8999
G01 X-0.0142 Y53.7979
G01 X0.0438 Y53.7011
G01 X0.1110 Y53.6104
G01 X0.1868 Y53.5268
G01 X0.2704 Y53.4510
G01 X0.3611 Y53.3838
G01 X0.4579 Y53.3258
G01 X0.5599 Y53.2775
G01 X0.6662 Y53.2395
G01 X0.7756 Y53.2121
G01 X0.8873 Y53.1955
G01 X1.0000 Y53.1900
G01 X1.1127 Y53.1955
G01 X1.2244 Y53.2121
G01 X1.3338 Y53.2395
G01 X1.4401 Y53.2775
G01 X1.5421 Y53.3258
G01 X1.6389 Y53.3838
G01 X1.7296 Y53.4510
G01 X1.8132 Y53.5268
G01 X1.8890 Y53.6104
G01 X1.9562 Y53.7011
G01 X2.0142 Y53.7979
G01 X2.0625 Y53.8999
G01 X2.1005 Y54.0062
G01 X2.1279 Y54.1156
G01 X2.1445 Y54.2273
G01 X2.1500 Y54.3400
G01 X2.1445 Y54.4527
G01 X2.1279 Y54.5644
G01 X2.1005 Y54.6738
G01 X2.0625 Y54.7801
G01 X2.0142 Y54.8821
G01 X1.9562 Y54.9789
G01 X1.8890 Y55.0696
G01 X1.8132 Y55.1532
G01 X1.7296 Y55.2290
G01 X1.6389 Y55.2962
G01 X1.5421 Y55.3542
G01 X1.4401 Y55.4025
G01 X1.3338 Y55.4405
G01 X1.2244 Y55.4679
G01 X1.1127 Y55.4845
G01 X1.0000 Y55.4900
G01 X0.8873 Y55.4845
G01 X0.7756 Y55.4679
G01 X0.6662 Y55.4405
G01 X0.5599 Y55.4025
G01 X0.4579 Y55.3542
G01 X0.3611 Y55.2962
G01 X0.2704 Y55.2290
G01 X0.1868 Y55.1532
G01 X0.1110 Y55.0696
G01 X0.0438 Y54.9789
G01 X-0.0142 Y54.8821
G01 X-0.0625 Y54.7801
G01 X-0.1005 Y54.6738
G01 X-0.1279 Y54.5644
G01 X-0.1445 Y54.4527
G01 X-0.1500 Y54.3400
G01 X-0.1450 Y54.2346
G01 X-0.1436 Y54.2200
G00 Z1.0000
G00 X-0.1188 Y54.2236
G01 F60.00
G01 Z-0.1418
G01 F60.00
G01 X-0.1034 Y54.1205
G01 X-0.0766 Y54.0134
G01 X-0.0394 Y53.9095
G01 X0.0078 Y53.8097
G01 X0.0646 Y53.7150
G01 X0.1304 Y53.6263
G01 X0.2045 Y53.5445
G01 X0.2863 Y53.4704
G01 X0.3750 Y53.4046
G01 X0.4697 Y53.3478
G01 X0.5695 Y53.3006
G01 X0.6734 Y53.2634
G01 X0.7805 Y53.2366
G01 X0.8897 Y53.2204
G01 X1.0000 Y53.2150
G01 X1.1103 Y53.2204
G01 X1.2195 Y53.2366
G01 X1.3266 Y53.2634
G01 X1.4305 Y53.3006
G01 X1.5303 Y53.3478
G01 X1.6250 Y53.4046
G01 X1.7137 Y53.4704
G01 X1.7955 Y53.5445
G01 X1.8696 Y53.6263
G01 X1.9354 Y53.7150
G01 X1.9922 Y53.8097
G01 X2.0394 Y53.9095
G01 X2.0766 Y54.0134
G01 X2.1034 Y54.1205
G01 X2.1196 Y54.2297
G01 X2.1250 Y54.3400
G01 X2.1196 Y54.4503
G01 X2.1034 Y54.5595
G01 X2.0766 Y54.6666
G01 X2.0394 Y54.7705
G01 X1.9922 Y54.8703
G01 X1.9354 Y54.9650
G01 X1.8696 Y55.0537
G01 X1.7955 Y55.1355
G01 X1.7137 Y55.2096
G01 X1.6250 Y55.2754
G01 X1.5303 Y55.3322
G01 X1.4305 Y55.3794
G01 X1.3266 Y55.4166
G01 X1.2195 Y55.4434
G01 X1.1103 Y55.4596
G01 X1.0000 Y55.4650
G01 X0.8897 Y55.4596
G01 X0.7805 Y55.4434
G01 X0.6734 Y55.4166
G01 X0.5695 Y55.3794
G01 X0.4697 Y55.3322
G01 X0.3750 Y55.2754
G01 X0.2863 Y55.2096
G01 X0.2045 Y55.1355
G01 X0.1304 Y55.0537
G01 X0.0646 Y54.9650
G01 X0.0078 Y54.8703
G01 X-0.0394 Y54.7705
G01 X-0.0766 Y54.6666
G01 X-0.1034 Y54.5595
G01 X-0.1196 Y54.4503
G01 X-0.1250 Y54.3400
G01 X-0.1200 Y54.2358
G01 X-0.1188 Y54.2236
G00 Z1.0000
G00 X-0.1436 Y56.7600
G01 F60.00
G01 Z-0.1418
G01 F60.00
G01 X-0.1279 Y56.6556
G01 X-0.1005 Y56.5462
G01 X-0.0625 Y56.4399
G01 X-0.0142 Y56.3379
G01 X0.0438 Y56.2411
G01 X0.1110 Y56.1504
G01 X0.1868 Y56.0668
G01 X0.2704 Y55.9910
G01 X0.3611 Y55.9238
G01 X0.4579 Y55.8658
G01 X0.5599 Y55.8175
G01 X0.6662 Y55.7795
G01 X0.7756 Y55.7521
G01 X0.8873 Y55.7355
G01 X1.0000 Y55.7300
G01 X1.1127 Y55.7355
G01 X1.2244 Y55.7521
G01 X1.3338 Y55.7795
G01 X1.4401 Y55.8175
G01 X1.5421 Y55.8658
G01 X1.6389 Y55.9238
G01 X1.7296 Y55.9910
G01 X1.8132 Y56.0668
G01 X1.8890 Y56.1504
G01 X1.9562 Y56.2411
G01 X2.0142 Y56.3379
G01 X2.0625 Y56.4399
G01 X2.1005 Y56.5462
G01 X2.1279 Y56.6556
G01 X2.1445 Y56.7673
G01 X2.1500 Y56.8800
G01 X2.1445 Y56.9927
G01 X2.1279 Y57.1044
G01 X2.1005 Y57.2138
G01 X2.0625 Y57.3201
G01 X2.0142 Y57.4221
G01 X1.9562 Y57.5189
G01 X1.8890 Y57.6096
G01 X1.8132 Y57.6932
G01 X1.7296 Y57.7690
G01 X1.6389 Y57.8362
G01 X1.5421 Y57.8942
G01 X1.4401 Y57.9425
G01 X1.3338 Y57.9805
G01 X1.2244 Y58.0079
G01 X1.1127 Y58.0245
G01 X1.0000 Y58.0300
G01 X0.8873 Y58.0245
G01 X0.7756 Y58.0079
G01 X0.6662 Y57.9805
G01 X0.5599 Y57.9425
G01 X0.4579 Y57.8942
G01 X0.3611 Y57.8362
G01 X0.2704 Y57.7690
G01 X0.1868 Y57.6932
G01 X0.1110 Y57.6096
G01 X0.0438 Y57.5189
G01 X-0.0142 Y57.4221
G01 X-0.0625 Y57.3201
G01 X-0.1005 Y57.2138
G01 X-0.1279 Y57.1044
G01 X-0.1445 Y56.9927
G01 X-0.1500 Y56.8800
G01 X-0.1450 Y56.7746
G01 X-0.1436 Y56.7600
G00 Z1.0000
G00 X-0.1188 Y56.7636
G01 F60.00
G01 Z-0.1418
G01 F60.00
G01 X-0.1034 Y56.6605
G01 X-0.0766 Y56.5534
G01 X-0.0394 Y56.4495
G01 X0.0078 Y56.3497
G01 X0.0646 Y56.2550
G01 X0.1304 Y56.1663
G01 X0.2045 Y56.0845
G01 X0.2863 Y56.0104
G01 X0.3750 Y55.9446
G01 X0.4697 Y55.8878
G01 X0.5695 Y55.8406
G01 X0.6734 Y55.8034
G01 X0.7805 Y55.7766
G01 X0.8897 Y55.7604
G01 X1.0000 Y55.7550
G01 X1.1103 Y55.7604
G01 X1.2195 Y55.7766
G01 X1.3266 Y55.8034
G01 X1.4305 Y55.8406
G01 X1.5303 Y55.8878
G01 X1.6250 Y55.9446
G01 X1.7137 Y56.0104
G01 X1.7955 Y56.0845
G01 X1.8696 Y56.1663
G01 X1.9354 Y56.2550
G01 X1.9922 Y56.3497
G01 X2.0394 Y56.4495
G01 X2.0766 Y56.5534
G01 X2.1034 Y56.6605
G01 X2.1196 Y56.7697
G01 X2.1250 Y56.8800
G01 X2.1196 Y56.9903
G01 X2.1034 Y57.0995
G01 X2.0766 Y57.2066
G01 X2.0394 Y57.3105
G01 X1.9922 Y57.4103
G01 X1.9354 Y57.5050
G01 X1.8696 Y57.5937
G01 X1.7955 Y57.6755
G01 X1.7137 Y57.7496
G01 X1.6250 Y57.8154
G01 X1.5303 Y57.8722
G01 X1.4305 Y57.9194
G01 X1.3266 Y57.9566
G01 X1.2195 Y57.9834
G01 X1.1103 Y57.9996
G01 X1.0000 Y58.0050
G01 X0.8897 Y57.9996
G01 X0.7805 Y57.9834
G01 X0.6734 Y57.9566
G01 X0.5695 Y57.9194
G01 X0.4697 Y57.8722
G01 X0.3750 Y57.8154
G01 X0.2863 Y57.7496
G01 X0.2045 Y57.6755
G01 X0.1304 Y57.5937
G01 X0.0646 Y57.5050
G01 X0.0078 Y57.4103
G01 X-0.0394 Y57.3105
G01 X-0.0766 Y57.2066
G01 X-0.1034 Y57.0995
G01 X-0.1196 Y56.9903
G01 X-0.1250 Y56.8800
G01 X-0.1200 Y56.7758
G01 X-0.1188 Y56.7636
G00 Z1.0000
G00 X-0.1436 Y59.3000
G01 F60.00
G01 Z-0.1418
G01 F60.00
G01 X-0.1279 Y59.1956
G01 X-0.1005 Y59.0862
G01 X-0.0625 Y58.9799
G01 X-0.0142 Y58.8779
G01 X0.0438 Y58.7811
G01 X0.1110 Y58.6904
G01 X0.1868 Y58.6068
G01 X0.2704 Y58.5310
G01 X0.3611 Y58.4638
G01 X0.4579 Y58.4058
G01 X0.5599 Y58.3575
G01 X0.6662 Y58.3195
G01 X0.7756 Y58.2921
G01 X0.8873 Y58.2755
G01 X1.0000 Y58.2700
G01 X1.1127 Y58.2755
G01 X1.2244 Y58.2921
G01 X1.3338 Y58.3195
G01 X1.4401 Y58.3575
G01 X1.5421 Y58.4058
G01 X1.6389 Y58.4638
G01 X1.7296 Y58.5310
G01 X1.8132 Y58.6068
G01 X1.8890 Y58.6904
G01 X1.9562 Y58.7811
G01 X2.0142 Y58.8779
G01 X2.0625 Y58.9799
G01 X2.1005 Y59.0862
G01 X2.1279 Y59.1956
G01 X2.1445 Y59.3073
G01 X2.1500 Y59.4200
G01 X2.1445 Y59.5327
G01 X2.1279 Y59.6444
G01 X2.1005 Y59.7538
G01 X2.0625 Y59.8601
G01 X2.0142 Y59.9621
G01 X1.9562 Y60.0589
G01 X1.8890 Y60.1496
G01 X1.8132 Y60.2332
G01 X1.7296 Y60.3090
G01 X1.6389 Y60.3762
G01 X1.5421 Y60.4342
G01 X1.4401 Y60.4825
G01 X1.3338 Y60.5205
G01 X1.2244 Y60.5479
G01 X1.1127 Y60.5645
G01 X1.0000 Y60.5700
G01 X0.8873 Y60.5645
G01 X0.7756 Y60.5479
G01 X0.6662 Y60.5205
G01 X0.5599 Y60.4825
G01 X0.4579 Y60.4342
G01 X0.3611 Y60.3762
G01 X0.2704 Y60.3090
G01 X0.1868 Y60.2332
G01 X0.1110 Y60.1496
G01 X0.0438 Y60.0589
G01 X-0.0142 Y59.9621
G01 X-0.0625 Y59.8601
G01 X-0.1005 Y59.7538
G01 X-0.1279 Y59.6444
G01 X-0.1445 Y59.5327
G01 X-0.1500 Y59.4200
G01 X-0.1450 Y59.3146
G01 X-0.1436 Y59.3000
G00 Z1.0000
G00 X-0.1188 Y59.3036
G01 F60.00
G01 Z-0.1418
G01 F60.00
G01 X-0.1034 Y59.2005
G01 X-0.0766 Y59.0934
G01 X-0.0394 Y58.9895
G01 X0.0078 Y58.8897
G01 X0.0646 Y58.7950
G01 X0.1304 Y58.7063
G01 X0.2045 Y58.6245
G01 X0.2863 Y58.5504
G01 X0.3750 Y58.4846
G01 X0.4697 Y58.4278
G01 X0.5695 Y58.3806
G01 X0.6734 Y58.3434
G01 X0.7805 Y58.3166
G01 X0.8897 Y58.3004
G01 X1.0000 Y58.2950
G01 X1.1103 Y58.3004
G01 X1.2195 Y58.3166
G01 X1.3266 Y58.3434
G01 X1.4305 Y58.3806
G01 X1.5303 Y58.4278
G01 X1.6250 Y58.4846
G01 X1.7137 Y58.5504
G01 X1.7955 Y58.6245
G01 X1.8696 Y58.7063
G01 X1.9354 Y58.7950
G01 X1.9922 Y58.8897
G01 X2.0394 Y58.9895
G01 X2.0766 Y59.0934
G01 X2.1034 Y59.2005
G01 X2.1196 Y59.3097
G01 X2.1250 Y59.4200
G01 X2.1196 Y59.5303
G01 X2.1034 Y59.6395
G01 X2.0766 Y59.7466
G01 X2.0394 Y59.8505
G01 X1.9922 Y59.9503
G01 X1.9354 Y60.0450
G01 X1.8696 Y60.1337
G01 X1.7955 Y60.2155
G01 X1.7137 Y60.2896
G01 X1.6250 Y60.3554
G01 X1.5303 Y60.4122
G01 X1.4305 Y60.4594
G01 X1.3266 Y60.4966
G01 X1.2195 Y60.5234
G01 X1.1103 Y60.5396
G01 X1.0000 Y60.5450
G01 X0.8897 Y60.5396
G01 X0.7805 Y60.5234
G01 X0.6734 Y60.4966
G01 X0.5695 Y60.4594
G01 X0.4697 Y60.4122
G01 X0.3750 Y60.3554
G01 X0.2863 Y60.2896
G01 X0.2045 Y60.2155
G01 X0.1304 Y60.1337
G01 X0.0646 Y60.0450
G01 X0.0078 Y59.9503
G01 X-0.0394 Y59.8505
G01 X-0.0766 Y59.7466
G01 X-0.1034 Y59.6395
G01 X-0.1196 Y59.5303
G01 X-0.1250 Y59.4200
G01 X-0.1200 Y59.3158
G01 X-0.1188 Y59.3036
G00 Z1.0000
G00 X-0.1436 Y61.8400
G01 F60.00
G01 Z-0.1418
G01 F60.00
G01 X-0.1279 Y61.7356
G01 X-0.1005 Y61.6262
G01 X-0.0625 Y61.5199
G01 X-0.0142 Y61.4179
G01 X0.0438 Y61.3211
G01 X0.1110 Y61.2304
G01 X0.1868 Y61.1468
G01 X0.2704 Y61.0710
G01 X0.3611 Y61.0038
G01 X0.4579 Y60.9458
G01 X0.5599 Y60.8975
G01 X0.6662 Y60.8595
G01 X0.7756 Y60.8321
G01 X0.8873 Y60.8155
G01 X1.0000 Y60.8100
G01 X1.1127 Y60.8155
G01 X1.2244 Y60.8321
G01 X1.3338 Y60.8595
G01 X1.4401 Y60.8975
G01 X1.5421 Y60.9458
G01 X1.6389 Y61.0038
G01 X1.7296 Y61.0710
G01 X1.8132 Y61.1468
G01 X1.8890 Y61.2304
G01 X1.9562 Y61.3211
G01 X2.0142 Y61.4179
G01 X2.0625 Y61.5199
G01 X2.1005 Y61.6262
G01 X2.1279 Y61.7356
G01 X2.1445 Y61.8473
G01 X2.1500 Y61.9600
G01 X2.1445 Y62.0727
G01 X2.1279 Y62.1844
G01 X2.1005 Y62.2938
G01 X2.0625 Y62.4001
G01 X2.0142 Y62.5021
G01 X1.9562 Y62.5989
G01 X1.8890 Y62.6896
G01 X1.8132 Y62.7732
G01 X1.7296 Y62.8490
G01 X1.6389 Y62.9162
G01 X1.5421 Y62.9742
G01 X1.4401 Y63.0225
G01 X1.3338 Y63.0605
G01 X1.2244 Y63.0879
G01 X1.1127 Y63.1045
G01 X1.0000 Y63.1100
G01 X0.8873 Y63.1045
G01 X0.7756 Y63.0879
G01 X0.6662 Y63.0605
G01 X0.5599 Y63.0225
G01 X0.4579 Y62.9742
G01 X0.3611 Y62.9162
G01 X0.2704 Y62.8490
G01 X0.1868 Y62.7732
G01 X0.1110 Y62.6896
G01 X0.0438 Y62.5989
G01 X-0.0142 Y62.5021
G01 X-0.0625 Y62.4001
G01 X-0.1005 Y62.2938
G01 X-0.1279 Y62.1844
G01 X-0.1445 Y62.0727
G01 X-0.1500 Y61.9600
G01 X-0.1450 Y61.8546
G01 X-0.1436 Y61.8400
G00 Z1.0000
G00 X-0.1188 Y61.8436
G01 F60.00
G01 Z-0.1418
G01 F60.00
G01 X-0.1034 Y61.7405
G01 X-0.0766 Y61.6334
G01 X-0.0394 Y61.5295
G01 X0.0078 Y61.4297
G01 X0.0646 Y61.3350
G01 X0.1304 Y61.2463
G01 X0.2045 Y61.1645
G01 X0.2863 Y61.0904
G01 X0.3750 Y61.0246
G01 X0.4697 Y60.9678
G01 X0.5695 Y60.9206
G01 X0.6734 Y60.8834
G01 X0.7805 Y60.8566
G01 X0.8897 Y60.8404
G01 X1.0000 Y60.8350
G01 X1.1103 Y60.8404
G01 X1.2195 Y60.8566
G01 X1.3266 Y60.8834
G01 X1.4305 Y60.9206
G01 X1.5303 Y60.9678
G01 X1.6250 Y61.0246
G01 X1.7137 Y61.0904
G01 X1.7955 Y61.1645
G01 X1.8696 Y61.2463
G01 X1.9354 Y61.3350
G01 X1.9922 Y61.4297
G01 X2.0394 Y61.5295
G01 X2.0766 Y61.6334
G01 X2.1034 Y61.7405
G01 X2.1196 Y61.8497
G01 X2.1250 Y61.9600
G01 X2.1196 Y62.0703
G01 X2.1034 Y62.1795
G01 X2.0766 Y62.2866
G01 X2.0394 Y62.3905
G01 X1.9922 Y62.4903
G01 X1.9354 Y62.5850
G01 X1.8696 Y62.6737
G01 X1.7955 Y62.7555
G01 X1.7137 Y62.8296
G01 X1.6250 Y62.8954
G01 X1.5303 Y62.9522
G01 X1.4305 Y62.9994
G01 X1.3266 Y63.0366
G01 X1.2195 Y63.0634
G01 X1.1103 Y63.0796
G01 X1.0000 Y63.0850
G01 X0.8897 Y63.0796
G01 X0.7805 Y63.0634
G01 X0.6734 Y63.0366
G01 X0.5695 Y62.9994
G01 X0.4697 Y62.9522
G01 X0.3750 Y62.8954
G01 X0.2863 Y62.8296
G01 X0.2045 Y62.7555
G01 X0.1304 Y62.6737
G01 X0.0646 Y62.5850
G01 X0.0078 Y62.4903
G01 X-0.0394 Y62.3905
G01 X-0.0766 Y62.2866
G01 X-0.1034 Y62.1795
G01 X-0.1196 Y62.0703
G01 X-0.1250 Y61.9600
G01 X-0.1200 Y61.8558
G01 X-0.1188 Y61.8436
G00 Z1.0000
G00 X-0.1436 Y64.3800
G01 F60.00
G01 Z-0.1418
G01 F60.00
G01 X-0.1279 Y64.2756
G01 X-0.1005 Y64.1662
G01 X-0.0625 Y64.0599
G01 X-0.0142 Y63.9579
G01 X0.0438 Y63.8611
G01 X0.1110 Y63.7704
G01 X0.1868 Y63.6868
G01 X0.2704 Y63.6110
G01 X0.3611 Y63.5438
G01 X0.4579 Y63.4858
G01 X0.5599 Y63.4375
G01 X0.6662 Y63.3995
G01 X0.7756 Y63.3721
G01 X0.8873 Y63.3555
G01 X1.0000 Y63.3500
G01 X1.1127 Y63.3555
G01 X1.2244 Y63.3721
G01 X1.3338 Y63.3995
G01 X1.4401 Y63.4375
G01 X1.5421 Y63.4858
G01 X1.6389 Y63.5438
G01 X1.7296 Y63.6110
G01 X1.8132 Y63.6868
G01 X1.8890 Y63.7704
G01 X1.9562 Y63.8611
G01 X2.0142 Y63.9579
G01 X2.0625 Y64.0599
G01 X2.1005 Y64.1662
G01 X2.1279 Y64.2756
G01 X2.1445 Y64.3873
G01 X2.1500 Y64.5000
G01 X2.1445 Y64.6127
G01 X2.1279 Y64.7244
G01 X2.1005 Y64.8338
G01 X2.0625 Y64.9401
G01 X2.0142 Y65.0421
G01 X1.9562 Y65.1389
G01 X1.8890 Y65.2296
G01 X1.8132 Y65.3132
G01 X1.7296 Y65.3890
G01 X1.6389 Y65.4562
G01 X1.5421 Y65.5142
G01 X1.4401 Y65.5625
G01 X1.3338 Y65.6005
G01 X1.2244 Y65.6279
G01 X1.1127 Y65.6445
G01 X1.0000 Y65.6500
G01 X0.8873 Y65.6445
G01 X0.7756 Y65.6279
G01 X0.6662 Y65.6005
G01 X0.5599 Y65.5625
G01 X0.4579 Y65.5142
G01 X0.3611 Y65.4562
G01 X0.2704 Y65.3890
G01 X0.1868 Y65.3132
G01 X0.1110 Y65.2296
G01 X0.0438 Y65.1389
G01 X-0.0142 Y65.0421
G01 X-0.0625 Y64.9401
G01 X-0.1005 Y64.8338
G01 X-0.1279 Y64.7244
G01 X-0.1445 Y64.6127
G01 X-0.1500 Y64.5000
G01 X-0.1450 Y64.3946
G01 X-0.1436 Y64.3800
G00 Z1.0000
G00 X-0.1188 Y64.3836
G01 F60.00
G01 Z-0.1418
G01 F60.00
G01 X-0.1034 Y64.2805
G01 X-0.0766 Y64.1734
G01 X-0.0394 Y64.0695
G01 X0.0078 Y63.9697
G01 X0.0646 Y63.8750
G01 X0.1304 Y63.7863
G01 X0.2045 Y63.7045
G01 X0.2863 Y63.6304
G01 X0.3750 Y63.5646
G01 X0.4697 Y63.5078
G01 X0.5695 Y63.4606
G01 X0.6734 Y63.4234
G01 X0.7805 Y63.3966
G01 X0.8897 Y63.3804
G01 X1.0000 Y63.3750
G01 X1.1103 Y63.3804
G01 X1.2195 Y63.3966
G01 X1.3266 Y63.4234
G01 X1.4305 Y63.4606
G01 X1.5303 Y63.5078
G01 X1.6250 Y63.5646
G01 X1.7137 Y63.6304
G01 X1.7955 Y63.7045
G01 X1.8696 Y63.7863
G01 X1.9354 Y63.8750
G01 X1.9922 Y63.9697
G01 X2.0394 Y64.0695
G01 X2.0766 Y64.1734
G01 X2.1034 Y64.2805
G01 X2.1196 Y64.3897
G01 X2.1250 Y64.5000
G01 X2.1196 Y64.6103
G01 X2.1034 Y64.7195
G01 X2.0766 Y64.8266
G01 X2.0394 Y64.9305
G01 X1.9922 Y65.0303
G01 X1.9354 Y65.1250
G01 X1.8696 Y65.2137
G01 X1.7955 Y65.2955
G01 X1.7137 Y65.3696
G01 X1.6250 Y65.4354
G01 X1.5303 Y65.4922
G01 X1.4305 Y65.5394
G01 X1.3266 Y65.5766
G01 X1.2195 Y65.6034
G01 X1.1103 Y65.6196
G01 X1.0000 Y65.6250
G01 X0.8897 Y65.6196
G01 X0.7805 Y65.6034
G01 X0.6734 Y65.5766
G01 X0.5695 Y65.5394
G01 X0.4697 Y65.4922
G01 X0.3750 Y65.4354
G01 X0.2863 Y65.3696
G01 X0.2045 Y65.2955
G01 X0.1304 Y65.2137
G01 X0.0646 Y65.1250
G01 X0.0078 Y65.0303
G01 X-0.0394 Y64.9305
G01 X-0.0766 Y64.8266
G01 X-0.1034 Y64.7195
G01 X-0.1196 Y64.6103
G01 X-0.1250 Y64.5000
G01 X-0.1200 Y64.3958
G01 X-0.1188 Y64.3836
G00 Z1.0000
G00 X-0.1436 Y66.9200
G01 F60.00
G01 Z-0.1418
G01 F60.00
G01 X-0.1279 Y66.8156
G01 X-0.1005 Y66.7062
G01 X-0.0625 Y66.5999
G01 X-0.0142 Y66.4979
G01 X0.0438 Y66.4011
G01 X0.1110 Y66.3104
G01 X0.1868 Y66.2268
G01 X0.2704 Y66.1510
G01 X0.3611 Y66.0838
G01 X0.4579 Y66.0258
G01 X0.5599 Y65.9775
G01 X0.6662 Y65.9395
G01 X0.7756 Y65.9121
G01 X0.8873 Y65.8955
G01 X1.0000 Y65.8900
G01 X1.1127 Y65.8955
G01 X1.2244 Y65.9121
G01 X1.3338 Y65.9395
G01 X1.4401 Y65.9775
G01 X1.5421 Y66.0258
G01 X1.6389 Y66.0838
G01 X1.7296 Y66.1510
G01 X1.8132 Y66.2268
G01 X1.8890 Y66.3104
G01 X1.9562 Y66.4011
G01 X2.0142 Y66.4979
G01 X2.0625 Y66.5999
G01 X2.1005 Y66.7062
G01 X2.1279 Y66.8156
G01 X2.1445 Y66.9273
G01 X2.1500 Y67.0400
G01 X2.1445 Y67.1527
G01 X2.1279 Y67.2644
G01 X2.1005 Y67.3738
G01 X2.0625 Y67.4801
G01 X2.0142 Y67.5821
G01 X1.9562 Y67.6789
G01 X1.8890 Y67.7696
G01 X1.8132 Y67.8532
G01 X1.7296 Y67.9290
G01 X1.6389 Y67.9962
G01 X1.5421 Y68.0542
G01 X1.4401 Y68.1025
G01 X1.3338 Y68.1405
G01 X1.2244 Y68.1679
G01 X1.1127 Y68.1845
G01 X1.0000 Y68.1900
G01 X0.8873 Y68.1845
G01 X0.7756 Y68.1679
G01 X0.6662 Y68.1405
G01 X0.5599 Y68.1025
G01 X0.4579 Y68.0542
G01 X0.3611 Y67.9962
G01 X0.2704 Y67.9290
G01 X0.1868 Y67.8532
G01 X0.1110 Y67.7696
G01 X0.0438 Y67.6789
G01 X-0.0142 Y67.5821
G01 X-0.0625 Y67.4801
G01 X-0.1005 Y67.3738
G01 X-0.1279 Y67.2644
G01 X-0.1445 Y67.1527
G01 X-0.1500 Y67.0400
G01 X-0.1450 Y66.9346
G01 X-0.1436 Y66.9200
G00 Z1.0000
G00 X-0.1188 Y66.9236
G01 F60.00
G01 Z-0.1418
G01 F60.00
G01 X-0.1034 Y66.8205
G01 X-0.0766 Y66.7134
G01 X-0.0394 Y66.6095
G01 X0.0078 Y66.5097
G01 X0.0646 Y66.4150
G01 X0.1304 Y66.3263
G01 X0.2045 Y66.2445
G01 X0.2863 Y66.1704
G01 X0.3750 Y66.1046
G01 X0.4697 Y66.0478
G01 X0.5695 Y66.0006
G01 X0.6734 Y65.9634
G01 X0.7805 Y65.9366
G01 X0.8897 Y65.9204
G01 X1.0000 Y65.9150
G01 X1.1103 Y65.9204
G01 X1.2195 Y65.9366
G01 X1.3266 Y65.9634
G01 X1.4305 Y66.0006
G01 X1.5303 Y66.0478
G01 X1.6250 Y66.1046
G01 X1.7137 Y66.1704
G01 X1.7955 Y66.2445
G01 X1.8696 Y66.3263
G01 X1.9354 Y66.4150
G01 X1.9922 Y66.5097
G01 X2.0394 Y66.6095
G01 X2.0766 Y66.7134
G01 X2.1034 Y66.8205
G01 X2.1196 Y66.9297
G01 X2.1250 Y67.0400
G01 X2.1196 Y67.1503
G01 X2.1034 Y67.2595
G01 X2.0766 Y67.3666
G01 X2.0394 Y67.4705
G01 X1.9922 Y67.5703
G01 X1.9354 Y67.6650
G01 X1.8696 Y67.7537
G01 X1.7955 Y67.8355
G01 X1.7137 Y67.9096
G01 X1.6250 Y67.9754
G01 X1.5303 Y68.0322
G01 X1.4305 Y68.0794
G01 X1.3266 Y68.1166
G01 X1.2195 Y68.1434
G01 X1.1103 Y68.1596
G01 X1.0000 Y68.1650
G01 X0.8897 Y68.1596
G01 X0.7805 Y68.1434
G01 X0.6734 Y68.1166
G01 X0.5695 Y68.0794
G01 X0.4697 Y68.0322
G01 X0.3750 Y67.9754
G01 X0.2863 Y67.9096
G01 X0.2045 Y67.8355
G01 X0.1304 Y67.7537
G01 X0.0646 Y67.6650
G01 X0.0078 Y67.5703
G01 X-0.0394 Y67.4705
G01 X-0.0766 Y67.3666
G01 X-0.1034 Y67.2595
G01 X-0.1196 Y67.1503
G01 X-0.1250 Y67.0400
G01 X-0.1200 Y66.9358
G01 X-0.1188 Y66.9236
G00 Z1.0000
G00 X-0.1436 Y73.2700
G01 F60.00
G01 Z-0.1418
G01 F60.00
G01 X-0.1279 Y73.1656
G01 X-0.1005 Y73.0562
G01 X-0.0625 Y72.9499
G01 X-0.0142 Y72.8479
G01 X0.0438 Y72.7511
G01 X0.1110 Y72.6604
G01 X0.1868 Y72.5768
G01 X0.2704 Y72.5010
G01 X0.3611 Y72.4338
G01 X0.4579 Y72.3758
G01 X0.5599 Y72.3275
G01 X0.6662 Y72.2895
G01 X0.7756 Y72.2621
G01 X0.8873 Y72.2455
G01 X1.0000 Y72.2400
G01 X1.1127 Y72.2455
G01 X1.2244 Y72.2621
G01 X1.3338 Y72.2895
G01 X1.4401 Y72.3275
G01 X1.5421 Y72.3758
G01 X1.6389 Y72.4338
G01 X1.7296 Y72.5010
G01 X1.8132 Y72.5768
G01 X1.8890 Y72.6604
G01 X1.9562 Y72.7511
G01 X2.0142 Y72.8479
G01 X2.0625 Y72.9499
G01 X2.1005 Y73.0562
G01 X2.1279 Y73.1656
G01 X2.1445 Y73.2773
G01 X2.1500 Y73.3900
G01 X2.1445 Y73.5027
G01 X2.1279 Y73.6144
G01 X2.1005 Y73.7238
G01 X2.0625 Y73.8301
G01 X2.0142 Y73.9321
G01 X1.9562 Y74.0289
G01 X1.8890 Y74.1196
G01 X1.8132 Y74.2032
G01 X1.7296 Y74.2790
G01 X1.6389 Y74.3462
G01 X1.5421 Y74.4042
G01 X1.4401 Y74.4525
G01 X1.3338 Y74.4905
G01 X1.2244 Y74.5179
G01 X1.1127 Y74.5345
G01 X1.0000 Y74.5400
G01 X0.8873 Y74.5345
G01 X0.7756 Y74.5179
G01 X0.6662 Y74.4905
G01 X0.5599 Y74.4525
G01 X0.4579 Y74.4042
G01 X0.3611 Y74.3462
G01 X0.2704 Y74.2790
G01 X0.1868 Y74.2032
G01 X0.1110 Y74.1196
G01 X0.0438 Y74.0289
G01 X-0.0142 Y73.9321
G01 X-0.0625 Y73.8301
G01 X-0.1005 Y73.7238
G01 X-0.1279 Y73.6144
G01 X-0.1445 Y73.5027
G01 X-0.1500 Y73.3900
G01 X-0.1450 Y73.2846
G01 X-0.1436 Y73.2700
G00 Z1.0000
G00 X-0.1188 Y73.2736
G01 F60.00
G01 Z-0.1418
G01 F60.00
G01 X-0.1034 Y73.1705
G01 X-0.0766 Y73.0634
G01 X-0.0394 Y72.9595
G01 X0.0078 Y72.8597
G01 X0.0646 Y72.7650
G01 X0.1304 Y72.6763
G01 X0.2045 Y72.5945
G01 X0.2863 Y72.5204
G01 X0.3750 Y72.4546
G01 X0.4697 Y72.3978
G01 X0.5695 Y72.3506
G01 X0.6734 Y72.3134
G01 X0.7805 Y72.2866
G01 X0.8897 Y72.2704
G01 X1.0000 Y72.2650
G01 X1.1103 Y72.2704
G01 X1.2195 Y72.2866
G01 X1.3266 Y72.3134
G01 X1.4305 Y72.3506
G01 X1.5303 Y72.3978
G01 X1.6250 Y72.4546
G01 X1.7137 Y72.5204
G01 X1.7955 Y72.5945
G01 X1.8696 Y72.6763
G01 X1.9354 Y72.7650
G01 X1.9922 Y72.8597
G01 X2.0394 Y72.9595
G01 X2.0766 Y73.0634
G01 X2.1034 Y73.1705
G01 X2.1196 Y73.2797
G01 X2.1250 Y73.3900
G01 X2.1196 Y73.5003
G01 X2.1034 Y73.6095
G01 X2.0766 Y73.7166
G01 X2.0394 Y73.8205
G01 X1.9922 Y73.9203
G01 X1.9354 Y74.0150
G01 X1.8696 Y74.1037
G01 X1.7955 Y74.1855
G01 X1.7137 Y74.2596
G01 X1.6250 Y74.3254
G01 X1.5303 Y74.3822
G01 X1.4305 Y74.4294
G01 X1.3266 Y74.4666
G01 X1.2195 Y74.4934
G01 X1.1103 Y74.5096
G01 X1.0000 Y74.5150
G01 X0.8897 Y74.5096
G01 X0.7805 Y74.4934
G01 X0.6734 Y74.4666
G01 X0.5695 Y74.4294
G01 X0.4697 Y74.3822
G01 X0.3750 Y74.3254
G01 X0.2863 Y74.2596
G01 X0.2045 Y74.1855
G01 X0.1304 Y74.1037
G01 X0.0646 Y74.0150
G01 X0.0078 Y73.9203
G01 X-0.0394 Y73.8205
G01 X-0.0766 Y73.7166
G01 X-0.1034 Y73.6095
G01 X-0.1196 Y73.5003
G01 X-0.1250 Y73.3900
G01 X-0.1200 Y73.2858
G01 X-0.1188 Y73.2736
G00 Z1.0000
G00 X-0.1436 Y75.8100
G01 F60.00
G01 Z-0.1418
G01 F60.00
G01 X-0.1279 Y75.7056
G01 X-0.1005 Y75.5962
G01 X-0.0625 Y75.4899
G01 X-0.0142 Y75.3879
G01 X0.0438 Y75.2911
G01 X0.1110 Y75.2004
G01 X0.1868 Y75.1168
G01 X0.2704 Y75.0410
G01 X0.3611 Y74.9738
G01 X0.4579 Y74.9158
G01 X0.5599 Y74.8675
G01 X0.6662 Y74.8295
G01 X0.7756 Y74.8021
G01 X0.8873 Y74.7855
G01 X1.0000 Y74.7800
G01 X1.1127 Y74.7855
G01 X1.2244 Y74.8021
G01 X1.3338 Y74.8295
G01 X1.4401 Y74.8675
G01 X1.5421 Y74.9158
G01 X1.6389 Y74.9738
G01 X1.7296 Y75.0410
G01 X1.8132 Y75.1168
G01 X1.8890 Y75.2004
G01 X1.9562 Y75.2911
G01 X2.0142 Y75.3879
G01 X2.0625 Y75.4899
G01 X2.1005 Y75.5962
G01 X2.1279 Y75.7056
G01 X2.1445 Y75.8173
G01 X2.1500 Y75.9300
G01 X2.1445 Y76.0427
G01 X2.1279 Y76.1544
G01 X2.1005 Y76.2638
G01 X2.0625 Y76.3701
G01 X2.0142 Y76.4721
G01 X1.9562 Y76.5689
G01 X1.8890 Y76.6596
G01 X1.8132 Y76.7432
G01 X1.7296 Y76.8190
G01 X1.6389 Y76.8862
G01 X1.5421 Y76.9442
G01 X1.4401 Y76.9925
G01 X1.3338 Y77.0305
G01 X1.2244 Y77.0579
G01 X1.1127 Y77.0745
G01 X1.0000 Y77.0800
G01 X0.8873 Y77.0745
G01 X0.7756 Y77.0579
G01 X0.6662 Y77.0305
G01 X0.5599 Y76.9925
G01 X0.4579 Y76.9442
G01 X0.3611 Y76.8862
G01 X0.2704 Y76.8190
G01 X0.1868 Y76.7432
G01 X0.1110 Y76.6596
G01 X0.0438 Y76.5689
G01 X-0.0142 Y76.4721
G01 X-0.0625 Y76.3701
G01 X-0.1005 Y76.2638
G01 X-0.1279 Y76.1544
G01 X-0.1445 Y76.0427
G01 X-0.1500 Y75.9300
G01 X-0.1450 Y75.8246
G01 X-0.1436 Y75.8100
G00 Z1.0000
G00 X-0.1188 Y75.8136
G01 F60.00
G01 Z-0.1418
G01 F60.00
G01 X-0.1034 Y75.7105
G01 X-0.0766 Y75.6034
G01 X-0.0394 Y75.4995
G01 X0.0078 Y75.3997
G01 X0.0646 Y75.3050
G01 X0.1304 Y75.2163
G01 X0.2045 Y75.1345
G01 X0.2863 Y75.0604
G01 X0.3750 Y74.9946
G01 X0.4697 Y74.9378
G01 X0.5695 Y74.8906
G01 X0.6734 Y74.8534
G01 X0.7805 Y74.8266
G01 X0.8897 Y74.8104
G01 X1.0000 Y74.8050
G01 X1.1103 Y74.8104
G01 X1.2195 Y74.8266
G01 X1.3266 Y74.8534
G01 X1.4305 Y74.8906
G01 X1.5303 Y74.9378
G01 X1.6250 Y74.9946
G01 X1.7137 Y75.0604
G01 X1.7955 Y75.1345
G01 X1.8696 Y75.2163
G01 X1.9354 Y75.3050
G01 X1.9922 Y75.3997
G01 X2.0394 Y75.4995
G01 X2.0766 Y75.6034
G01 X2.1034 Y75.7105
G01 X2.1196 Y75.8197
G01 X2.1250 Y75.9300
G01 X2.1196 Y76.0403
G01 X2.1034 Y76.1495
G01 X2.0766 Y76.2566
G01 X2.0394 Y76.3605
G01 X1.9922 Y76.4603
G01 X1.9354 Y76.5550
G01 X1.8696 Y76.6437
G01 X1.7955 Y76.7255
G01 X1.7137 Y76.7996
G01 X1.6250 Y76.8654
G01 X1.5303 Y76.9222
G01 X1.4305 Y76.9694
G01 X1.3266 Y77.0066
G01 X1.2195 Y77.0334
G01 X1.1103 Y77.0496
G01 X1.0000 Y77.0550
G01 X0.8897 Y77.0496
G01 X0.7805 Y77.0334
G01 X0.6734 Y77.0066
G01 X0.5695 Y76.9694
G01 X0.4697 Y76.9222
G01 X0.3750 Y76.8654
G01 X0.2863 Y76.7996
G01 X0.2045 Y76.7255
G01 X0.1304 Y76.6437
G01 X0.0646 Y76.5550
G01 X0.0078 Y76.4603
G01 X-0.0394 Y76.3605
G01 X-0.0766 Y76.2566
G01 X-0.1034 Y76.1495
G01 X-0.1196 Y76.0403
G01 X-0.1250 Y75.9300
G01 X-0.1200 Y75.8258
G01 X-0.1188 Y75.8136
G00 Z1.0000
G00 X-0.1436 Y78.3500
G01 F60.00
G01 Z-0.1418
G01 F60.00
G01 X-0.1279 Y78.2456
G01 X-0.1005 Y78.1362
G01 X-0.0625 Y78.0299
G01 X-0.0142 Y77.9279
G01 X0.0438 Y77.8311
G01 X0.1110 Y77.7404
G01 X0.1868 Y77.6568
G01 X0.2704 Y77.5810
G01 X0.3611 Y77.5138
G01 X0.4579 Y77.4558
G01 X0.5599 Y77.4075
G01 X0.6662 Y77.3695
G01 X0.7756 Y77.3421
G01 X0.8873 Y77.3255
G01 X1.0000 Y77.3200
G01 X1.1127 Y77.3255
G01 X1.2244 Y77.3421
G01 X1.3338 Y77.3695
G01 X1.4401 Y77.4075
G01 X1.5421 Y77.4558
G01 X1.6389 Y77.5138
G01 X1.7296 Y77.5810
G01 X1.8132 Y77.6568
G01 X1.8890 Y77.7404
G01 X1.9562 Y77.8311
G01 X2.0142 Y77.9279
G01 X2.0625 Y78.0299
G01 X2.1005 Y78.1362
G01 X2.1279 Y78.2456
G01 X2.1445 Y78.3573
G01 X2.1500 Y78.4700
G01 X2.1445 Y78.5827
G01 X2.1279 Y78.6944
G01 X2.1005 Y78.8038
G01 X2.0625 Y78.9101
G01 X2.0142 Y79.0121
G01 X1.9562 Y79.1089
G01 X1.8890 Y79.1996
G01 X1.8132 Y79.2832
G01 X1.7296 Y79.3590
G01 X1.6389 Y79.4262
G01 X1.5421 Y79.4842
G01 X1.4401 Y79.5325
G01 X1.3338 Y79.5705
G01 X1.2244 Y79.5979
G01 X1.1127 Y79.6145
G01 X1.0000 Y79.6200
G01 X0.8873 Y79.6145
G01 X0.7756 Y79.5979
G01 X0.6662 Y79.5705
G01 X0.5599 Y79.5325
G01 X0.4579 Y79.4842
G01 X0.3611 Y79.4262
G01 X0.2704 Y79.3590
G01 X0.1868 Y79.2832
G01 X0.1110 Y79.1996
G01 X0.0438 Y79.1089
G01 X-0.0142 Y79.0121
G01 X-0.0625 Y78.9101
G01 X-0.1005 Y78.8038
G01 X-0.1279 Y78.6944
G01 X-0.1445 Y78.5827
G01 X-0.1500 Y78.4700
G01 X-0.1450 Y78.3646
G01 X-0.1436 Y78.3500
G00 Z1.0000
G00 X-0.1188 Y78.3536
G01 F60.00
G01 Z-0.1418
G01 F60.00
G01 X-0.1034 Y78.2505
G01 X-0.0766 Y78.1434
G01 X-0.0394 Y78.0395
G01 X0.0078 Y77.9397
G01 X0.0646 Y77.8450
G01 X0.1304 Y77.7563
G01 X0.2045 Y77.6745
G01 X0.2863 Y77.6004
G01 X0.3750 Y77.5346
G01 X0.4697 Y77.4778
G01 X0.5695 Y77.4306
G01 X0.6734 Y77.3934
G01 X0.7805 Y77.3666
G01 X0.8897 Y77.3504
G01 X1.0000 Y77.3450
G01 X1.1103 Y77.3504
G01 X1.2195 Y77.3666
G01 X1.3266 Y77.3934
G01 X1.4305 Y77.4306
G01 X1.5303 Y77.4778
G01 X1.6250 Y77.5346
G01 X1.7137 Y77.6004
G01 X1.7955 Y77.6745
G01 X1.8696 Y77.7563
G01 X1.9354 Y77.8450
G01 X1.9922 Y77.9397
G01 X2.0394 Y78.0395
G01 X2.0766 Y78.1434
G01 X2.1034 Y78.2505
G01 X2.1196 Y78.3597
G01 X2.1250 Y78.4700
G01 X2.1196 Y78.5803
G01 X2.1034 Y78.6895
G01 X2.0766 Y78.7966
G01 X2.0394 Y78.9005
G01 X1.9922 Y79.0003
G01 X1.9354 Y79.0950
G01 X1.8696 Y79.1837
G01 X1.7955 Y79.2655
G01 X1.7137 Y79.3396
G01 X1.6250 Y79.4054
G01 X1.5303 Y79.4622
G01 X1.4305 Y79.5094
G01 X1.3266 Y79.5466
G01 X1.2195 Y79.5734
G01 X1.1103 Y79.5896
G01 X1.0000 Y79.5950
G01 X0.8897 Y79.5896
G01 X0.7805 Y79.5734
G01 X0.6734 Y79.5466
G01 X0.5695 Y79.5094
G01 X0.4697 Y79.4622
G01 X0.3750 Y79.4054
G01 X0.2863 Y79.3396
G01 X0.2045 Y79.2655
G01 X0.1304 Y79.1837
G01 X0.0646 Y79.0950
G01 X0.0078 Y79.0003
G01 X-0.0394 Y78.9005
G01 X-0.0766 Y78.7966
G01 X-0.1034 Y78.6895
G01 X-0.1196 Y78.5803
G01 X-0.1250 Y78.4700
G01 X-0.1200 Y78.3658
G01 X-0.1188 Y78.3536
G00 Z1.0000
G00 X-0.1436 Y80.8900
G01 F60.00
G01 Z-0.1418
G01 F60.00
G01 X-0.1279 Y80.7856
G01 X-0.1005 Y80.6762
G01 X-0.0625 Y80.5699
G01 X-0.0142 Y80.4679
G01 X0.0438 Y80.3711
G01 X0.1110 Y80.2804
G01 X0.1868 Y80.1968
G01 X0.2704 Y80.1210
G01 X0.3611 Y80.0538
G01 X0.4579 Y79.9958
G01 X0.5599 Y79.9475
G01 X0.6662 Y79.9095
G01 X0.7756 Y79.8821
G01 X0.8873 Y79.8655
G01 X1.0000 Y79.8600
G01 X1.1127 Y79.8655
G01 X1.2244 Y79.8821
G01 X1.3338 Y79.9095
G01 X1.4401 Y79.9475
G01 X1.5421 Y79.9958
G01 X1.6389 Y80.0538
G01 X1.7296 Y80.1210
G01 X1.8132 Y80.1968
G01 X1.8890 Y80.2804
G01 X1.9562 Y80.3711
G01 X2.0142 Y80.4679
G01 X2.0625 Y80.5699
G01 X2.1005 Y80.6762
G01 X2.1279 Y80.7856
G01 X2.1445 Y80.8973
G01 X2.1500 Y81.0100
G01 X2.1445 Y81.1227
G01 X2.1279 Y81.2344
G01 X2.1005 Y81.3438
G01 X2.0625 Y81.4501
G01 X2.0142 Y81.5521
G01 X1.9562 Y81.6489
G01 X1.8890 Y81.7396
G01 X1.8132 Y81.8232
G01 X1.7296 Y81.8990
G01 X1.6389 Y81.9662
G01 X1.5421 Y82.0242
G01 X1.4401 Y82.0725
G01 X1.3338 Y82.1105
G01 X1.2244 Y82.1379
G01 X1.1127 Y82.1545
G01 X1.0000 Y82.1600
G01 X0.8873 Y82.1545
G01 X0.7756 Y82.1379
G01 X0.6662 Y82.1105
G01 X0.5599 Y82.0725
G01 X0.4579 Y82.0242
G01 X0.3611 Y81.9662
G01 X0.2704 Y81.8990
G01 X0.1868 Y81.8232
G01 X0.1110 Y81.7396
G01 X0.0438 Y81.6489
G01 X-0.0142 Y81.5521
G01 X-0.0625 Y81.4501
G01 X-0.1005 Y81.3438
G01 X-0.1279 Y81.2344
G01 X-0.1445 Y81.1227
G01 X-0.1500 Y81.0100
G01 X-0.1450 Y80.9046
G01 X-0.1436 Y80.8900
G00 Z1.0000
G00 X-0.1188 Y80.8936
G01 F60.00
G01 Z-0.1418
G01 F60.00
G01 X-0.1034 Y80.7905
G01 X-0.0766 Y80.6834
G01 X-0.0394 Y80.5795
G01 X0.0078 Y80.4797
G01 X0.0646 Y80.3850
G01 X0.1304 Y80.2963
G01 X0.2045 Y80.2145
G01 X0.2863 Y80.1404
G01 X0.3750 Y80.0746
G01 X0.4697 Y80.0178
G01 X0.5695 Y79.9706
G01 X0.6734 Y79.9334
G01 X0.7805 Y79.9066
G01 X0.8897 Y79.8904
G01 X1.0000 Y79.8850
G01 X1.1103 Y79.8904
G01 X1.2195 Y79.9066
G01 X1.3266 Y79.9334
G01 X1.4305 Y79.9706
G01 X1.5303 Y80.0178
G01 X1.6250 Y80.0746
G01 X1.7137 Y80.1404
G01 X1.7955 Y80.2145
G01 X1.8696 Y80.2963
G01 X1.9354 Y80.3850
G01 X1.9922 Y80.4797
G01 X2.0394 Y80.5795
G01 X2.0766 Y80.6834
G01 X2.1034 Y80.7905
G01 X2.1196 Y80.8997
G01 X2.1250 Y81.0100
G01 X2.1196 Y81.1203
G01 X2.1034 Y81.2295
G01 X2.0766 Y81.3366
G01 X2.0394 Y81.4405
G01 X1.9922 Y81.5403
G01 X1.9354 Y81.6350
G01 X1.8696 Y81.7237
G01 X1.7955 Y81.8055
G01 X1.7137 Y81.8796
G01 X1.6250 Y81.9454
G01 X1.5303 Y82.0022
G01 X1.4305 Y82.0494
G01 X1.3266 Y82.0866
G01 X1.2195 Y82.1134
G01 X1.1103 Y82.1296
G01 X1.0000 Y82.1350
G01 X0.8897 Y82.1296
G01 X0.7805 Y82.1134
G01 X0.6734 Y82.0866
G01 X0.5695 Y82.0494
G01 X0.4697 Y82.0022
G01 X0.3750 Y81.9454
G01 X0.2863 Y81.8796
G01 X0.2045 Y81.8055
G01 X0.1304 Y81.7237
G01 X0.0646 Y81.6350
G01 X0.0078 Y81.5403
G01 X-0.0394 Y81.4405
G01 X-0.0766 Y81.3366
G01 X-0.1034 Y81.2295
G01 X-0.1196 Y81.1203
G01 X-0.1250 Y81.0100
G01 X-0.1200 Y80.9058
G01 X-0.1188 Y80.8936
G00 Z1.0000
G00 X-0.1436 Y83.4300
G01 F60.00
G01 Z-0.1418
G01 F60.00
G01 X-0.1279 Y83.3256
G01 X-0.1005 Y83.2162
G01 X-0.0625 Y83.1099
G01 X-0.0142 Y83.0079
G01 X0.0438 Y82.9111
G01 X0.1110 Y82.8204
G01 X0.1868 Y82.7368
G01 X0.2704 Y82.6610
G01 X0.3611 Y82.5938
G01 X0.4579 Y82.5358
G01 X0.5599 Y82.4875
G01 X0.6662 Y82.4495
G01 X0.7756 Y82.4221
G01 X0.8873 Y82.4055
G01 X1.0000 Y82.4000
G01 X1.1127 Y82.4055
G01 X1.2244 Y82.4221
G01 X1.3338 Y82.4495
G01 X1.4401 Y82.4875
G01 X1.5421 Y82.5358
G01 X1.6389 Y82.5938
G01 X1.7296 Y82.6610
G01 X1.8132 Y82.7368
G01 X1.8890 Y82.8204
G01 X1.9562 Y82.9111
G01 X2.0142 Y83.0079
G01 X2.0625 Y83.1099
G01 X2.1005 Y83.2162
G01 X2.1279 Y83.3256
G01 X2.1445 Y83.4373
G01 X2.1500 Y83.5500
G01 X2.1445 Y83.6627
G01 X2.1279 Y83.7744
G01 X2.1005 Y83.8838
G01 X2.0625 Y83.9901
G01 X2.0142 Y84.0921
G01 X1.9562 Y84.1889
G01 X1.8890 Y84.2796
G01 X1.8132 Y84.3632
G01 X1.7296 Y84.4390
G01 X1.6389 Y84.5062
G01 X1.5421 Y84.5642
G01 X1.4401 Y84.6125
G01 X1.3338 Y84.6505
G01 X1.2244 Y84.6779
G01 X1.1127 Y84.6945
G01 X1.0000 Y84.7000
G01 X0.8873 Y84.6945
G01 X0.7756 Y84.6779
G01 X0.6662 Y84.6505
G01 X0.5599 Y84.6125
G01 X0.4579 Y84.5642
G01 X0.3611 Y84.5062
G01 X0.2704 Y84.4390
G01 X0.1868 Y84.3632
G01 X0.1110 Y84.2796
G01 X0.0438 Y84.1889
G01 X-0.0142 Y84.0921
G01 X-0.0625 Y83.9901
G01 X-0.1005 Y83.8838
G01 X-0.1279 Y83.7744
G01 X-0.1445 Y83.6627
G01 X-0.1500 Y83.5500
G01 X-0.1450 Y83.4446
G01 X-0.1436 Y83.4300
G00 Z1.0000
G00 X-0.1188 Y83.4336
G01 F60.00
G01 Z-0.1418
G01 F60.00
G01 X-0.1034 Y83.3305
G01 X-0.0766 Y83.2234
G01 X-0.0394 Y83.1195
G01 X0.0078 Y83.0197
G01 X0.0646 Y82.9250
G01 X0.1304 Y82.8363
G01 X0.2045 Y82.7545
G01 X0.2863 Y82.6804
G01 X0.3750 Y82.6146
G01 X0.4697 Y82.5578
G01 X0.5695 Y82.5106
G01 X0.6734 Y82.4734
G01 X0.7805 Y82.4466
G01 X0.8897 Y82.4304
G01 X1.0000 Y82.4250
G01 X1.1103 Y82.4304
G01 X1.2195 Y82.4466
G01 X1.3266 Y82.4734
G01 X1.4305 Y82.5106
G01 X1.5303 Y82.5578
G01 X1.6250 Y82.6146
G01 X1.7137 Y82.6804
G01 X1.7955 Y82.7545
G01 X1.8696 Y82.8363
G01 X1.9354 Y82.9250
G01 X1.9922 Y83.0197
G01 X2.0394 Y83.1195
G01 X2.0766 Y83.2234
G01 X2.1034 Y83.3305
G01 X2.1196 Y83.4397
G01 X2.1250 Y83.5500
G01 X2.1196 Y83.6603
G01 X2.1034 Y83.7695
G01 X2.0766 Y83.8766
G01 X2.0394 Y83.9805
G01 X1.9922 Y84.0803
G01 X1.9354 Y84.1750
G01 X1.8696 Y84.2637
G01 X1.7955 Y84.3455
G01 X1.7137 Y84.4196
G01 X1.6250 Y84.4854
G01 X1.5303 Y84.5422
G01 X1.4305 Y84.5894
G01 X1.3266 Y84.6266
G01 X1.2195 Y84.6534
G01 X1.1103 Y84.6696
G01 X1.0000 Y84.6750
G01 X0.8897 Y84.6696
G01 X0.7805 Y84.6534
G01 X0.6734 Y84.6266
G01 X0.5695 Y84.5894
G01 X0.4697 Y84.5422
G01 X0.3750 Y84.4854
G01 X0.2863 Y84.4196
G01 X0.2045 Y84.3455
G01 X0.1304 Y84.2637
G01 X0.0646 Y84.1750
G01 X0.0078 Y84.0803
G01 X-0.0394 Y83.9805
G01 X-0.0766 Y83.8766
G01 X-0.1034 Y83.7695
G01 X-0.1196 Y83.6603
G01 X-0.1250 Y83.5500
G01 X-0.1200 Y83.4458
G01 X-0.1188 Y83.4336
G00 Z1.0000
G00 X-0.1436 Y85.9700
G01 F60.00
G01 Z-0.1418
G01 F60.00
G01 X-0.1279 Y85.8656
G01 X-0.1005 Y85.7562
G01 X-0.0625 Y85.6499
G01 X-0.0142 Y85.5479
G01 X0.0438 Y85.4511
G01 X0.1110 Y85.3604
G01 X0.1868 Y85.2768
G01 X0.2704 Y85.2010
G01 X0.3611 Y85.1338
G01 X0.4579 Y85.0758
G01 X0.5599 Y85.0275
G01 X0.6662 Y84.9895
G01 X0.7756 Y84.9621
G01 X0.8873 Y84.9455
G01 X1.0000 Y84.9400
G01 X1.1127 Y84.9455
G01 X1.2244 Y84.9621
G01 X1.3338 Y84.9895
G01 X1.4401 Y85.0275
G01 X1.5421 Y85.0758
G01 X1.6389 Y85.1338
G01 X1.7296 Y85.2010
G01 X1.8132 Y85.2768
G01 X1.8890 Y85.3604
G01 X1.9562 Y85.4511
G01 X2.0142 Y85.5479
G01 X2.0625 Y85.6499
G01 X2.1005 Y85.7562
G01 X2.1279 Y85.8656
G01 X2.1445 Y85.9773
G01 X2.1500 Y86.0900
G01 X2.1445 Y86.2027
G01 X2.1279 Y86.3144
G01 X2.1005 Y86.4238
G01 X2.0625 Y86.5301
G01 X2.0142 Y86.6321
G01 X1.9562 Y86.7289
G01 X1.8890 Y86.8196
G01 X1.8132 Y86.9032
G01 X1.7296 Y86.9790
G01 X1.6389 Y87.0462
G01 X1.5421 Y87.1042
G01 X1.4401 Y87.1525
G01 X1.3338 Y87.1905
G01 X1.2244 Y87.2179
G01 X1.1127 Y87.2345
G01 X1.0000 Y87.2400
G01 X0.8873 Y87.2345
G01 X0.7756 Y87.2179
G01 X0.6662 Y87.1905
G01 X0.5599 Y87.1525
G01 X0.4579 Y87.1042
G01 X0.3611 Y87.0462
G01 X0.2704 Y86.9790
G01 X0.1868 Y86.9032
G01 X0.1110 Y86.8196
G01 X0.0438 Y86.7289
G01 X-0.0142 Y86.6321
G01 X-0.0625 Y86.5301
G01 X-0.1005 Y86.4238
G01 X-0.1279 Y86.3144
G01 X-0.1445 Y86.2027
G01 X-0.1500 Y86.0900
G01 X-0.1450 Y85.9846
G01 X-0.1436 Y85.9700
G00 Z1.0000
G00 X-0.1188 Y85.9736
G01 F60.00
G01 Z-0.1418
G01 F60.00
G01 X-0.1034 Y85.8705
G01 X-0.0766 Y85.7634
G01 X-0.0394 Y85.6595
G01 X0.0078 Y85.5597
G01 X0.0646 Y85.4650
G01 X0.1304 Y85.3763
G01 X0.2045 Y85.2945
G01 X0.2863 Y85.2204
G01 X0.3750 Y85.1546
G01 X0.4697 Y85.0978
G01 X0.5695 Y85.0506
G01 X0.6734 Y85.0134
G01 X0.7805 Y84.9866
G01 X0.8897 Y84.9704
G01 X1.0000 Y84.9650
G01 X1.1103 Y84.9704
G01 X1.2195 Y84.9866
G01 X1.3266 Y85.0134
G01 X1.4305 Y85.0506
G01 X1.5303 Y85.0978
G01 X1.6250 Y85.1546
G01 X1.7137 Y85.2204
G01 X1.7955 Y85.2945
G01 X1.8696 Y85.3763
G01 X1.9354 Y85.4650
G01 X1.9922 Y85.5597
G01 X2.0394 Y85.6595
G01 X2.0766 Y85.7634
G01 X2.1034 Y85.8705
G01 X2.1196 Y85.9797
G01 X2.1250 Y86.0900
G01 X2.1196 Y86.2003
G01 X2.1034 Y86.3095
G01 X2.0766 Y86.4166
G01 X2.0394 Y86.5205
G01 X1.9922 Y86.6203
G01 X1.9354 Y86.7150
G01 X1.8696 Y86.8037
G01 X1.7955 Y86.8855
G01 X1.7137 Y86.9596
G01 X1.6250 Y87.0254
G01 X1.5303 Y87.0822
G01 X1.4305 Y87.1294
G01 X1.3266 Y87.1666
G01 X1.2195 Y87.1934
G01 X1.1103 Y87.2096
G01 X1.0000 Y87.2150
G01 X0.8897 Y87.2096
G01 X0.7805 Y87.1934
G01 X0.6734 Y87.1666
G01 X0.5695 Y87.1294
G01 X0.4697 Y87.0822
G01 X0.3750 Y87.0254
G01 X0.2863 Y86.9596
G01 X0.2045 Y86.8855
G01 X0.1304 Y86.8037
G01 X0.0646 Y86.7150
G01 X0.0078 Y86.6203
G01 X-0.0394 Y86.5205
G01 X-0.0766 Y86.4166
G01 X-0.1034 Y86.3095
G01 X-0.1196 Y86.2003
G01 X-0.1250 Y86.0900
G01 X-0.1200 Y85.9858
G01 X-0.1188 Y85.9736
G00 Z1.0000
G00 X-0.1436 Y88.5100
G01 F60.00
G01 Z-0.1418
G01 F60.00
G01 X-0.1279 Y88.4056
G01 X-0.1005 Y88.2962
G01 X-0.0625 Y88.1899
G01 X-0.0142 Y88.0879
G01 X0.0438 Y87.9911
G01 X0.1110 Y87.9004
G01 X0.1868 Y87.8168
G01 X0.2704 Y87.7410
G01 X0.3611 Y87.6738
G01 X0.4579 Y87.6158
G01 X0.5599 Y87.5675
G01 X0.6662 Y87.5295
G01 X0.7756 Y87.5021
G01 X0.8873 Y87.4855
G01 X1.0000 Y87.4800
G01 X1.1127 Y87.4855
G01 X1.2244 Y87.5021
G01 X1.3338 Y87.5295
G01 X1.4401 Y87.5675
G01 X1.5421 Y87.6158
G01 X1.6389 Y87.6738
G01 X1.7296 Y87.7410
G01 X1.8132 Y87.8168
G01 X1.8890 Y87.9004
G01 X1.9562 Y87.9911
G01 X2.0142 Y88.0879
G01 X2.0625 Y88.1899
G01 X2.1005 Y88.2962
G01 X2.1279 Y88.4056
G01 X2.1445 Y88.5173
G01 X2.1500 Y88.6300
G01 X2.1445 Y88.7427
G01 X2.1279 Y88.8544
G01 X2.1005 Y88.9638
G01 X2.0625 Y89.0701
G01 X2.0142 Y89.1721
G01 X1.9562 Y89.2689
G01 X1.8890 Y89.3596
G01 X1.8132 Y89.4432
G01 X1.7296 Y89.5190
G01 X1.6389 Y89.5862
G01 X1.5421 Y89.6442
G01 X1.4401 Y89.6925
G01 X1.3338 Y89.7305
G01 X1.2244 Y89.7579
G01 X1.1127 Y89.7745
G01 X1.0000 Y89.7800
G01 X0.8873 Y89.7745
G01 X0.7756 Y89.7579
G01 X0.6662 Y89.7305
G01 X0.5599 Y89.6925
G01 X0.4579 Y89.6442
G01 X0.3611 Y89.5862
G01 X0.2704 Y89.5190
G01 X0.1868 Y89.4432
G01 X0.1110 Y89.3596
G01 X0.0438 Y89.2689
G01 X-0.0142 Y89.1721
G01 X-0.0625 Y89.0701
G01 X-0.1005 Y88.9638
G01 X-0.1279 Y88.8544
G01 X-0.1445 Y88.7427
G01 X-0.1500 Y88.6300
G01 X-0.1450 Y88.5246
G01 X-0.1436 Y88.5100
G00 Z1.0000
G00 X-0.1188 Y88.5136
G01 F60.00
G01 Z-0.1418
G01 F60.00
G01 X-0.1034 Y88.4105
G01 X-0.0766 Y88.3034
G01 X-0.0394 Y88.1995
G01 X0.0078 Y88.0997
G01 X0.0646 Y88.0050
G01 X0.1304 Y87.9163
G01 X0.2045 Y87.8345
G01 X0.2863 Y87.7604
G01 X0.3750 Y87.6946
G01 X0.4697 Y87.6378
G01 X0.5695 Y87.5906
G01 X0.6734 Y87.5534
G01 X0.7805 Y87.5266
G01 X0.8897 Y87.5104
G01 X1.0000 Y87.5050
G01 X1.1103 Y87.5104
G01 X1.2195 Y87.5266
G01 X1.3266 Y87.5534
G01 X1.4305 Y87.5906
G01 X1.5303 Y87.6378
G01 X1.6250 Y87.6946
G01 X1.7137 Y87.7604
G01 X1.7955 Y87.8345
G01 X1.8696 Y87.9163
G01 X1.9354 Y88.0050
G01 X1.9922 Y88.0997
G01 X2.0394 Y88.1995
G01 X2.0766 Y88.3034
G01 X2.1034 Y88.4105
G01 X2.1196 Y88.5197
G01 X2.1250 Y88.6300
G01 X2.1196 Y88.7403
G01 X2.1034 Y88.8495
G01 X2.0766 Y88.9566
G01 X2.0394 Y89.0605
G01 X1.9922 Y89.1603
G01 X1.9354 Y89.2550
G01 X1.8696 Y89.3437
G01 X1.7955 Y89.4255
G01 X1.7137 Y89.4996
G01 X1.6250 Y89.5654
G01 X1.5303 Y89.6222
G01 X1.4305 Y89.6694
G01 X1.3266 Y89.7066
G01 X1.2195 Y89.7334
G01 X1.1103 Y89.7496
G01 X1.0000 Y89.7550
G01 X0.8897 Y89.7496
G01 X0.7805 Y89.7334
G01 X0.6734 Y89.7066
G01 X0.5695 Y89.6694
G01 X0.4697 Y89.6222
G01 X0.3750 Y89.5654
G01 X0.2863 Y89.4996
G01 X0.2045 Y89.4255
G01 X0.1304 Y89.3437
G01 X0.0646 Y89.2550
G01 X0.0078 Y89.1603
G01 X-0.0394 Y89.0605
G01 X-0.0766 Y88.9566
G01 X-0.1034 Y88.8495
G01 X-0.1196 Y88.7403
G01 X-0.1250 Y88.6300
G01 X-0.1200 Y88.5258
G01 X-0.1188 Y88.5136
G00 Z1.0000
G00 X0.0000 Y90.0200
G01 F60.00
G01 Z-0.1418
G01 F60.00
G01 X2.0037 Y90.0200
G01 X2.0184 Y90.0211
G01 X2.0329 Y90.0236
G01 X2.0471 Y90.0276
G01 X2.0608 Y90.0329
G01 X2.0739 Y90.0395
G01 X2.0864 Y90.0474
G01 X2.0980 Y90.0564
G01 X2.1086 Y90.0666
G01 X2.1183 Y90.0777
G01 X2.1267 Y90.0898
G01 X2.1323 Y90.0993
G01 X2.1386 Y90.1126
G01 X2.1435 Y90.1265
G01 X2.1471 Y90.1407
G01 X2.1493 Y90.1553
G01 X2.1500 Y90.1663
G01 X2.1500 Y92.1700
G01 X2.1493 Y92.1847
G01 X2.1471 Y92.1993
G01 X2.1435 Y92.2135
G01 X2.1386 Y92.2274
G01 X2.1323 Y92.2407
G01 X2.1247 Y92.2533
G01 X2.1160 Y92.2652
G01 X2.1111 Y92.2707
G01 X2.1034 Y92.2786
G01 X2.0923 Y92.2883
G01 X2.0802 Y92.2967
G01 X2.0674 Y92.3040
G01 X2.0574 Y92.3086
G01 X2.0435 Y92.3135
G01 X2.0293 Y92.3171
G01 X2.0184 Y92.3189
G01 X2.0037 Y92.3200
G01 X-0.0000 Y92.3200
G01 X-0.0110 Y92.3196
G01 X-0.0184 Y92.3189
G01 X-0.0329 Y92.3164
G01 X-0.0471 Y92.3124
G01 X-0.0608 Y92.3071
G01 X-0.0739 Y92.3005
G01 X-0.0864 Y92.2926
G01 X-0.0980 Y92.2836
G01 X-0.1086 Y92.2734
G01 X-0.1160 Y92.2652
G01 X-0.1247 Y92.2533
G01 X-0.1323 Y92.2407
G01 X-0.1386 Y92.2274
G01 X-0.1424 Y92.2171
G01 X-0.1464 Y92.2029
G01 X-0.1489 Y92.1884
G01 X-0.1500 Y92.1737
G01 X-0.1498 Y90.1626
G01 X-0.1484 Y90.1480
G01 X-0.1464 Y90.1371
G01 X-0.1424 Y90.1229
G01 X-0.1371 Y90.1092
G01 X-0.1305 Y90.0961
G01 X-0.1226 Y90.0836
G01 X-0.1136 Y90.0720
