(G-CODE GENERATED BY FLATCAM v8.994 - www.flatcam.org - Version Date: 2020/11/7)

(Name: Fonte_tensao_LM675-B_Cu.gbr_iso_combined_cnc)
(Type: G-code from Geometry)
(Units: MM)

(Created on quinta, 15 junho 2023 at 19:15)

(This preprocessor is the default preprocessor used by FlatCAM.)
(It is made to work with MACH3 compatible motion controllers.)

(TOOL DIAMETER: 0.25 mm)
(Feedrate_XY: 60.0 mm/min)
(Feedrate_Z: 60.0 mm/min)
(Feedrate rapids 1500.0 mm/min)

(Z_Cut: -0.1418 mm)
(Z_Move: 2.0 mm)
(Z Start: None mm)
(Z End: 15.0 mm)
(X,Y End: None mm)
(Steps per circle: 64)
(Preprocessor Geometry: default)

(X range:   -0.4073 ...   84.8400  mm)
(Y range:   -0.6293 ...   96.4453  mm)

(Spindle Speed: 1000.0 RPM)
G21
G90
G94

G01 F60.00

M5
G00 Z5.0000
G00 X0.0000 Y0.0000
(T1)
(M6  )  
(MSG, Change to Tool Dia = 0.2500)
(M0)
G00 Z5.0000

M03 S1000.0
G01 F60.00
G00 X1.8615 Y5.3736
G01 F60.00
G01 Z-0.1418
G01 F60.00
G01 X1.8627 Y5.3858
G01 X1.8677 Y5.4900
G01 X1.8623 Y5.6003
G01 X1.8461 Y5.7095
G01 X1.8192 Y5.8166
G01 X1.7820 Y5.9205
G01 X1.7348 Y6.0203
G01 X1.6781 Y6.1150
G01 X1.6123 Y6.2037
G01 X1.5382 Y6.2855
G01 X1.4564 Y6.3596
G01 X1.3677 Y6.4254
G01 X1.2730 Y6.4822
G01 X1.1732 Y6.5294
G01 X1.0693 Y6.5666
G01 X0.9622 Y6.5934
G01 X0.8530 Y6.6096
G01 X0.7427 Y6.6150
G01 X0.6324 Y6.6096
G01 X0.5232 Y6.5934
G01 X0.4161 Y6.5666
G01 X0.3122 Y6.5294
G01 X0.2124 Y6.4822
G01 X0.1177 Y6.4254
G01 X0.0290 Y6.3596
G01 X-0.0528 Y6.2855
G01 X-0.1270 Y6.2037
G01 X-0.1927 Y6.1150
G01 X-0.2495 Y6.0203
G01 X-0.2967 Y5.9205
G01 X-0.3339 Y5.8166
G01 X-0.3607 Y5.7095
G01 X-0.3769 Y5.6003
G01 X-0.3823 Y5.4900
G01 X-0.3769 Y5.3797
G01 X-0.3607 Y5.2705
G01 X-0.3339 Y5.1634
G01 X-0.2967 Y5.0595
G01 X-0.2495 Y4.9597
G01 X-0.1927 Y4.8650
G01 X-0.1270 Y4.7763
G01 X-0.0528 Y4.6945
G01 X0.0290 Y4.6204
G01 X0.1177 Y4.5546
G01 X0.2124 Y4.4978
G01 X0.3122 Y4.4506
G01 X0.4161 Y4.4134
G01 X0.5232 Y4.3866
G01 X0.6324 Y4.3704
G01 X0.7427 Y4.3650
G01 X0.8530 Y4.3704
G01 X0.9622 Y4.3866
G01 X1.0693 Y4.4134
G01 X1.1732 Y4.4506
G01 X1.2730 Y4.4978
G01 X1.3677 Y4.5546
G01 X1.4564 Y4.6204
G01 X1.5382 Y4.6945
G01 X1.6123 Y4.7763
G01 X1.6781 Y4.8650
G01 X1.7348 Y4.9597
G01 X1.7820 Y5.0595
G01 X1.8192 Y5.1634
G01 X1.8461 Y5.2705
G01 X1.8615 Y5.3736
G00 Z2.0000
G00 X1.8862 Y5.3700
G01 F60.00
G01 Z-0.1418
G01 F60.00
G01 X1.8877 Y5.3846
G01 X1.8927 Y5.4900
G01 X1.8871 Y5.6027
G01 X1.8706 Y5.7144
G01 X1.8432 Y5.8238
G01 X1.8051 Y5.9301
G01 X1.7569 Y6.0321
G01 X1.6989 Y6.1289
G01 X1.6316 Y6.2196
G01 X1.5559 Y6.3032
G01 X1.4722 Y6.3790
G01 X1.3816 Y6.4462
G01 X1.2848 Y6.5042
G01 X1.1828 Y6.5525
G01 X1.0765 Y6.5905
G01 X0.9670 Y6.6179
G01 X0.8554 Y6.6345
G01 X0.7427 Y6.6400
G01 X0.6300 Y6.6345
G01 X0.5183 Y6.6179
G01 X0.4089 Y6.5905
G01 X0.3026 Y6.5525
G01 X0.2006 Y6.5042
G01 X0.1038 Y6.4462
G01 X0.0131 Y6.3790
G01 X-0.0705 Y6.3032
G01 X-0.1463 Y6.2196
G01 X-0.2135 Y6.1289
G01 X-0.2715 Y6.0321
G01 X-0.3198 Y5.9301
G01 X-0.3578 Y5.8238
G01 X-0.3852 Y5.7144
G01 X-0.4018 Y5.6027
G01 X-0.4073 Y5.4900
G01 X-0.4018 Y5.3773
G01 X-0.3852 Y5.2656
G01 X-0.3578 Y5.1562
G01 X-0.3198 Y5.0499
G01 X-0.2715 Y4.9479
G01 X-0.2135 Y4.8511
G01 X-0.1463 Y4.7604
G01 X-0.0705 Y4.6768
G01 X0.0131 Y4.6010
G01 X0.1038 Y4.5338
G01 X0.2006 Y4.4758
G01 X0.3026 Y4.4275
G01 X0.4089 Y4.3895
G01 X0.5183 Y4.3621
G01 X0.6300 Y4.3455
G01 X0.7427 Y4.3400
G01 X0.8554 Y4.3455
G01 X0.9670 Y4.3621
G01 X1.0765 Y4.3895
G01 X1.1828 Y4.4275
G01 X1.2848 Y4.4758
G01 X1.3816 Y4.5338
G01 X1.4722 Y4.6010
G01 X1.5559 Y4.6768
G01 X1.6316 Y4.7604
G01 X1.6989 Y4.8511
G01 X1.7569 Y4.9479
G01 X1.8051 Y5.0499
G01 X1.8432 Y5.1562
G01 X1.8706 Y5.2656
G01 X1.8862 Y5.3700
G00 Z2.0000
G00 X1.8862 Y7.9100
G01 F60.00
G01 Z-0.1418
G01 F60.00
G01 X1.8877 Y7.9246
G01 X1.8927 Y8.0300
G01 X1.8871 Y8.1427
G01 X1.8706 Y8.2544
G01 X1.8432 Y8.3638
G01 X1.8051 Y8.4701
G01 X1.7569 Y8.5721
G01 X1.6989 Y8.6689
G01 X1.6316 Y8.7596
G01 X1.5559 Y8.8432
G01 X1.4722 Y8.9190
G01 X1.3816 Y8.9862
G01 X1.2848 Y9.0442
G01 X1.1828 Y9.0925
G01 X1.0765 Y9.1305
G01 X0.9670 Y9.1579
G01 X0.8554 Y9.1745
G01 X0.7427 Y9.1800
G01 X0.6300 Y9.1745
G01 X0.5183 Y9.1579
G01 X0.4089 Y9.1305
G01 X0.3026 Y9.0925
G01 X0.2006 Y9.0442
G01 X0.1038 Y8.9862
G01 X0.0131 Y8.9190
G01 X-0.0705 Y8.8432
G01 X-0.1463 Y8.7596
G01 X-0.2135 Y8.6689
G01 X-0.2715 Y8.5721
G01 X-0.3198 Y8.4701
G01 X-0.3578 Y8.3638
G01 X-0.3852 Y8.2544
G01 X-0.4018 Y8.1427
G01 X-0.4073 Y8.0300
G01 X-0.4018 Y7.9173
G01 X-0.3852 Y7.8056
G01 X-0.3578 Y7.6962
G01 X-0.3198 Y7.5899
G01 X-0.2715 Y7.4879
G01 X-0.2135 Y7.3911
G01 X-0.1463 Y7.3004
G01 X-0.0705 Y7.2168
G01 X0.0131 Y7.1410
G01 X0.1038 Y7.0738
G01 X0.2006 Y7.0158
G01 X0.3026 Y6.9675
G01 X0.4089 Y6.9295
G01 X0.5183 Y6.9021
G01 X0.6300 Y6.8855
G01 X0.7427 Y6.8800
G01 X0.8554 Y6.8855
G01 X0.9670 Y6.9021
G01 X1.0765 Y6.9295
G01 X1.1828 Y6.9675
G01 X1.2848 Y7.0158
G01 X1.3816 Y7.0738
G01 X1.4722 Y7.1410
G01 X1.5559 Y7.2168
G01 X1.6316 Y7.3004
G01 X1.6989 Y7.3911
G01 X1.7569 Y7.4879
G01 X1.8051 Y7.5899
G01 X1.8432 Y7.6962
G01 X1.8706 Y7.8056
G01 X1.8862 Y7.9100
G00 Z2.0000
G00 X1.8615 Y7.9136
G01 F60.00
G01 Z-0.1418
G01 F60.00
G01 X1.8627 Y7.9258
G01 X1.8677 Y8.0300
G01 X1.8623 Y8.1403
G01 X1.8461 Y8.2495
G01 X1.8192 Y8.3566
G01 X1.7820 Y8.4605
G01 X1.7348 Y8.5603
G01 X1.6781 Y8.6550
G01 X1.6123 Y8.7437
G01 X1.5382 Y8.8255
G01 X1.4564 Y8.8996
G01 X1.3677 Y8.9654
G01 X1.2730 Y9.0222
G01 X1.1732 Y9.0694
G01 X1.0693 Y9.1066
G01 X0.9622 Y9.1334
G01 X0.8530 Y9.1496
G01 X0.7427 Y9.1550
G01 X0.6324 Y9.1496
G01 X0.5232 Y9.1334
G01 X0.4161 Y9.1066
G01 X0.3122 Y9.0694
G01 X0.2124 Y9.0222
G01 X0.1177 Y8.9654
G01 X0.0290 Y8.8996
G01 X-0.0528 Y8.8255
G01 X-0.1270 Y8.7437
G01 X-0.1927 Y8.6550
G01 X-0.2495 Y8.5603
G01 X-0.2967 Y8.4605
G01 X-0.3339 Y8.3566
G01 X-0.3607 Y8.2495
G01 X-0.3769 Y8.1403
G01 X-0.3823 Y8.0300
G01 X-0.3769 Y7.9197
G01 X-0.3607 Y7.8105
G01 X-0.3339 Y7.7034
G01 X-0.2967 Y7.5995
G01 X-0.2495 Y7.4997
G01 X-0.1927 Y7.4050
G01 X-0.1270 Y7.3163
G01 X-0.0528 Y7.2345
G01 X0.0290 Y7.1604
G01 X0.1177 Y7.0946
G01 X0.2124 Y7.0378
G01 X0.3122 Y6.9906
G01 X0.4161 Y6.9534
G01 X0.5232 Y6.9266
G01 X0.6324 Y6.9104
G01 X0.7427 Y6.9050
G01 X0.8530 Y6.9104
G01 X0.9622 Y6.9266
G01 X1.0693 Y6.9534
G01 X1.1732 Y6.9906
G01 X1.2730 Y7.0378
G01 X1.3677 Y7.0946
G01 X1.4564 Y7.1604
G01 X1.5382 Y7.2345
G01 X1.6123 Y7.3163
G01 X1.6781 Y7.4050
G01 X1.7348 Y7.4997
G01 X1.7820 Y7.5995
G01 X1.8192 Y7.7034
G01 X1.8461 Y7.8105
G01 X1.8615 Y7.9136
G00 Z2.0000
G00 X1.8862 Y10.4500
G01 F60.00
G01 Z-0.1418
G01 F60.00
G01 X1.8877 Y10.4646
G01 X1.8927 Y10.5700
G01 X1.8871 Y10.6827
G01 X1.8706 Y10.7944
G01 X1.8432 Y10.9038
G01 X1.8051 Y11.0101
G01 X1.7569 Y11.1121
G01 X1.6989 Y11.2089
G01 X1.6316 Y11.2996
G01 X1.5559 Y11.3832
G01 X1.4722 Y11.4590
G01 X1.3816 Y11.5262
G01 X1.2848 Y11.5842
G01 X1.1828 Y11.6325
G01 X1.0765 Y11.6705
G01 X0.9670 Y11.6979
G01 X0.8554 Y11.7145
G01 X0.7427 Y11.7200
G01 X0.6300 Y11.7145
G01 X0.5183 Y11.6979
G01 X0.4089 Y11.6705
G01 X0.3026 Y11.6325
G01 X0.2006 Y11.5842
G01 X0.1038 Y11.5262
G01 X0.0131 Y11.4590
G01 X-0.0705 Y11.3832
G01 X-0.1463 Y11.2996
G01 X-0.2135 Y11.2089
G01 X-0.2715 Y11.1121
G01 X-0.3198 Y11.0101
G01 X-0.3578 Y10.9038
G01 X-0.3852 Y10.7944
G01 X-0.4018 Y10.6827
G01 X-0.4073 Y10.5700
G01 X-0.4018 Y10.4573
G01 X-0.3852 Y10.3456
G01 X-0.3578 Y10.2362
G01 X-0.3198 Y10.1299
G01 X-0.2715 Y10.0279
G01 X-0.2135 Y9.9311
G01 X-0.1463 Y9.8404
G01 X-0.0705 Y9.7568
G01 X0.0131 Y9.6810
G01 X0.1038 Y9.6138
G01 X0.2006 Y9.5558
G01 X0.3026 Y9.5075
G01 X0.4089 Y9.4695
G01 X0.5183 Y9.4421
G01 X0.6300 Y9.4255
G01 X0.7427 Y9.4200
G01 X0.8554 Y9.4255
G01 X0.9670 Y9.4421
G01 X1.0765 Y9.4695
G01 X1.1828 Y9.5075
G01 X1.2848 Y9.5558
G01 X1.3816 Y9.6138
G01 X1.4722 Y9.6810
G01 X1.5559 Y9.7568
G01 X1.6316 Y9.8404
G01 X1.6989 Y9.9311
G01 X1.7569 Y10.0279
G01 X1.8051 Y10.1299
G01 X1.8432 Y10.2362
G01 X1.8706 Y10.3456
G01 X1.8862 Y10.4500
G00 Z2.0000
G00 X1.8615 Y10.4536
G01 F60.00
G01 Z-0.1418
G01 F60.00
G01 X1.8627 Y10.4658
G01 X1.8677 Y10.5700
G01 X1.8623 Y10.6803
G01 X1.8461 Y10.7895
G01 X1.8192 Y10.8966
G01 X1.7820 Y11.0005
G01 X1.7348 Y11.1003
G01 X1.6781 Y11.1950
G01 X1.6123 Y11.2837
G01 X1.5382 Y11.3655
G01 X1.4564 Y11.4396
G01 X1.3677 Y11.5054
G01 X1.2730 Y11.5622
G01 X1.1732 Y11.6094
G01 X1.0693 Y11.6466
G01 X0.9622 Y11.6734
G01 X0.8530 Y11.6896
G01 X0.7427 Y11.6950
G01 X0.6324 Y11.6896
G01 X0.5232 Y11.6734
G01 X0.4161 Y11.6466
G01 X0.3122 Y11.6094
G01 X0.2124 Y11.5622
G01 X0.1177 Y11.5054
G01 X0.0290 Y11.4396
G01 X-0.0528 Y11.3655
G01 X-0.1270 Y11.2837
G01 X-0.1927 Y11.1950
G01 X-0.2495 Y11.1003
G01 X-0.2967 Y11.0005
G01 X-0.3339 Y10.8966
G01 X-0.3607 Y10.7895
G01 X-0.3769 Y10.6803
G01 X-0.3823 Y10.5700
G01 X-0.3769 Y10.4597
G01 X-0.3607 Y10.3505
G01 X-0.3339 Y10.2434
G01 X-0.2967 Y10.1395
G01 X-0.2495 Y10.0397
G01 X-0.1927 Y9.9450
G01 X-0.1270 Y9.8563
G01 X-0.0528 Y9.7745
G01 X0.0290 Y9.7004
G01 X0.1177 Y9.6346
G01 X0.2124 Y9.5778
G01 X0.3122 Y9.5306
G01 X0.4161 Y9.4934
G01 X0.5232 Y9.4666
G01 X0.6324 Y9.4504
G01 X0.7427 Y9.4450
G01 X0.8530 Y9.4504
G01 X0.9622 Y9.4666
G01 X1.0693 Y9.4934
G01 X1.1732 Y9.5306
G01 X1.2730 Y9.5778
G01 X1.3677 Y9.6346
G01 X1.4564 Y9.7004
G01 X1.5382 Y9.7745
G01 X1.6123 Y9.8563
G01 X1.6781 Y9.9450
G01 X1.7348 Y10.0397
G01 X1.7820 Y10.1395
G01 X1.8192 Y10.2434
G01 X1.8461 Y10.3505
G01 X1.8615 Y10.4536
G00 Z2.0000
G00 X1.8862 Y12.9900
G01 F60.00
G01 Z-0.1418
G01 F60.00
G01 X1.8877 Y13.0046
G01 X1.8927 Y13.1100
G01 X1.8871 Y13.2227
G01 X1.8706 Y13.3344
G01 X1.8432 Y13.4438
G01 X1.8051 Y13.5501
G01 X1.7569 Y13.6521
G01 X1.6989 Y13.7489
G01 X1.6316 Y13.8396
G01 X1.5559 Y13.9232
G01 X1.4722 Y13.9990
G01 X1.3816 Y14.0662
G01 X1.2848 Y14.1242
G01 X1.1828 Y14.1725
G01 X1.0765 Y14.2105
G01 X0.9670 Y14.2379
G01 X0.8554 Y14.2545
G01 X0.7427 Y14.2600
G01 X0.6300 Y14.2545
G01 X0.5183 Y14.2379
G01 X0.4089 Y14.2105
G01 X0.3026 Y14.1725
G01 X0.2006 Y14.1242
G01 X0.1038 Y14.0662
G01 X0.0131 Y13.9990
G01 X-0.0705 Y13.9232
G01 X-0.1463 Y13.8396
G01 X-0.2135 Y13.7489
G01 X-0.2715 Y13.6521
G01 X-0.3198 Y13.5501
G01 X-0.3578 Y13.4438
G01 X-0.3852 Y13.3344
G01 X-0.4018 Y13.2227
G01 X-0.4073 Y13.1100
G01 X-0.4018 Y12.9973
G01 X-0.3852 Y12.8856
G01 X-0.3578 Y12.7762
G01 X-0.3198 Y12.6699
G01 X-0.2715 Y12.5679
G01 X-0.2135 Y12.4711
G01 X-0.1463 Y12.3804
G01 X-0.0705 Y12.2968
G01 X0.0131 Y12.2210
G01 X0.1038 Y12.1538
G01 X0.2006 Y12.0958
G01 X0.3026 Y12.0475
G01 X0.4089 Y12.0095
G01 X0.5183 Y11.9821
G01 X0.6300 Y11.9655
G01 X0.7427 Y11.9600
G01 X0.8554 Y11.9655
G01 X0.9670 Y11.9821
G01 X1.0765 Y12.0095
G01 X1.1828 Y12.0475
G01 X1.2848 Y12.0958
G01 X1.3816 Y12.1538
G01 X1.4722 Y12.2210
G01 X1.5559 Y12.2968
G01 X1.6316 Y12.3804
G01 X1.6989 Y12.4711
G01 X1.7569 Y12.5679
G01 X1.8051 Y12.6699
G01 X1.8432 Y12.7762
G01 X1.8706 Y12.8856
G01 X1.8862 Y12.9900
G00 Z2.0000
G00 X1.8615 Y12.9936
G01 F60.00
G01 Z-0.1418
G01 F60.00
G01 X1.8627 Y13.0058
G01 X1.8677 Y13.1100
G01 X1.8623 Y13.2203
G01 X1.8461 Y13.3295
G01 X1.8192 Y13.4366
G01 X1.7820 Y13.5405
G01 X1.7348 Y13.6403
G01 X1.6781 Y13.7350
G01 X1.6123 Y13.8237
G01 X1.5382 Y13.9055
G01 X1.4564 Y13.9796
G01 X1.3677 Y14.0454
G01 X1.2730 Y14.1022
G01 X1.1732 Y14.1494
G01 X1.0693 Y14.1866
G01 X0.9622 Y14.2134
G01 X0.8530 Y14.2296
G01 X0.7427 Y14.2350
G01 X0.6324 Y14.2296
G01 X0.5232 Y14.2134
G01 X0.4161 Y14.1866
G01 X0.3122 Y14.1494
G01 X0.2124 Y14.1022
G01 X0.1177 Y14.0454
G01 X0.0290 Y13.9796
G01 X-0.0528 Y13.9055
G01 X-0.1270 Y13.8237
G01 X-0.1927 Y13.7350
G01 X-0.2495 Y13.6403
G01 X-0.2967 Y13.5405
G01 X-0.3339 Y13.4366
G01 X-0.3607 Y13.3295
G01 X-0.3769 Y13.2203
G01 X-0.3823 Y13.1100
G01 X-0.3769 Y12.9997
G01 X-0.3607 Y12.8905
G01 X-0.3339 Y12.7834
G01 X-0.2967 Y12.6795
G01 X-0.2495 Y12.5797
G01 X-0.1927 Y12.4850
G01 X-0.1270 Y12.3963
G01 X-0.0528 Y12.3145
G01 X0.0290 Y12.2404
G01 X0.1177 Y12.1746
G01 X0.2124 Y12.1178
G01 X0.3122 Y12.0706
G01 X0.4161 Y12.0334
G01 X0.5232 Y12.0066
G01 X0.6324 Y11.9904
G01 X0.7427 Y11.9850
G01 X0.8530 Y11.9904
G01 X0.9622 Y12.0066
G01 X1.0693 Y12.0334
G01 X1.1732 Y12.0706
G01 X1.2730 Y12.1178
G01 X1.3677 Y12.1746
G01 X1.4564 Y12.2404
G01 X1.5382 Y12.3145
G01 X1.6123 Y12.3963
G01 X1.6781 Y12.4850
G01 X1.7348 Y12.5797
G01 X1.7820 Y12.6795
G01 X1.8192 Y12.7834
G01 X1.8461 Y12.8905
G01 X1.8615 Y12.9936
G00 Z2.0000
G00 X1.8862 Y15.5300
G01 F60.00
G01 Z-0.1418
G01 F60.00
G01 X1.8877 Y15.5446
G01 X1.8927 Y15.6500
G01 X1.8871 Y15.7627
G01 X1.8706 Y15.8744
G01 X1.8432 Y15.9838
G01 X1.8051 Y16.0901
G01 X1.7569 Y16.1921
G01 X1.6989 Y16.2889
G01 X1.6316 Y16.3796
G01 X1.5559 Y16.4632
G01 X1.4722 Y16.5390
G01 X1.3816 Y16.6062
G01 X1.2848 Y16.6642
G01 X1.1828 Y16.7125
G01 X1.0765 Y16.7505
G01 X0.9670 Y16.7779
G01 X0.8554 Y16.7945
G01 X0.7427 Y16.8000
G01 X0.6300 Y16.7945
G01 X0.5183 Y16.7779
G01 X0.4089 Y16.7505
G01 X0.3026 Y16.7125
G01 X0.2006 Y16.6642
G01 X0.1038 Y16.6062
G01 X0.0131 Y16.5390
G01 X-0.0705 Y16.4632
G01 X-0.1463 Y16.3796
G01 X-0.2135 Y16.2889
G01 X-0.2715 Y16.1921
G01 X-0.3198 Y16.0901
G01 X-0.3578 Y15.9838
G01 X-0.3852 Y15.8744
G01 X-0.4018 Y15.7627
G01 X-0.4073 Y15.6500
G01 X-0.4018 Y15.5373
G01 X-0.3852 Y15.4256
G01 X-0.3578 Y15.3162
G01 X-0.3198 Y15.2099
G01 X-0.2715 Y15.1079
G01 X-0.2135 Y15.0111
G01 X-0.1463 Y14.9204
G01 X-0.0705 Y14.8368
G01 X0.0131 Y14.7610
G01 X0.1038 Y14.6938
G01 X0.2006 Y14.6358
G01 X0.3026 Y14.5875
G01 X0.4089 Y14.5495
G01 X0.5183 Y14.5221
G01 X0.6300 Y14.5055
G01 X0.7427 Y14.5000
G01 X0.8554 Y14.5055
G01 X0.9670 Y14.5221
G01 X1.0765 Y14.5495
G01 X1.1828 Y14.5875
G01 X1.2848 Y14.6358
G01 X1.3816 Y14.6938
G01 X1.4722 Y14.7610
G01 X1.5559 Y14.8368
G01 X1.6316 Y14.9204
G01 X1.6989 Y15.0111
G01 X1.7569 Y15.1079
G01 X1.8051 Y15.2099
G01 X1.8432 Y15.3162
G01 X1.8706 Y15.4256
G01 X1.8862 Y15.5300
G00 Z2.0000
G00 X1.8615 Y15.5336
G01 F60.00
G01 Z-0.1418
G01 F60.00
G01 X1.8627 Y15.5458
G01 X1.8677 Y15.6500
G01 X1.8623 Y15.7603
G01 X1.8461 Y15.8695
G01 X1.8192 Y15.9766
G01 X1.7820 Y16.0805
G01 X1.7348 Y16.1803
G01 X1.6781 Y16.2750
G01 X1.6123 Y16.3637
G01 X1.5382 Y16.4455
G01 X1.4564 Y16.5196
G01 X1.3677 Y16.5854
G01 X1.2730 Y16.6422
G01 X1.1732 Y16.6894
G01 X1.0693 Y16.7266
G01 X0.9622 Y16.7534
G01 X0.8530 Y16.7696
G01 X0.7427 Y16.7750
G01 X0.6324 Y16.7696
G01 X0.5232 Y16.7534
G01 X0.4161 Y16.7266
G01 X0.3122 Y16.6894
G01 X0.2124 Y16.6422
G01 X0.1177 Y16.5854
G01 X0.0290 Y16.5196
G01 X-0.0528 Y16.4455
G01 X-0.1270 Y16.3637
G01 X-0.1927 Y16.2750
G01 X-0.2495 Y16.1803
G01 X-0.2967 Y16.0805
G01 X-0.3339 Y15.9766
G01 X-0.3607 Y15.8695
G01 X-0.3769 Y15.7603
G01 X-0.3823 Y15.6500
G01 X-0.3769 Y15.5397
G01 X-0.3607 Y15.4305
G01 X-0.3339 Y15.3234
G01 X-0.2967 Y15.2195
G01 X-0.2495 Y15.1197
G01 X-0.1927 Y15.0250
G01 X-0.1270 Y14.9363
G01 X-0.0528 Y14.8545
G01 X0.0290 Y14.7804
G01 X0.1177 Y14.7146
G01 X0.2124 Y14.6578
G01 X0.3122 Y14.6106
G01 X0.4161 Y14.5734
G01 X0.5232 Y14.5466
G01 X0.6324 Y14.5304
G01 X0.7427 Y14.5250
G01 X0.8530 Y14.5304
G01 X0.9622 Y14.5466
G01 X1.0693 Y14.5734
G01 X1.1732 Y14.6106
G01 X1.2730 Y14.6578
G01 X1.3677 Y14.7146
G01 X1.4564 Y14.7804
G01 X1.5382 Y14.8545
G01 X1.6123 Y14.9363
G01 X1.6781 Y15.0250
G01 X1.7348 Y15.1197
G01 X1.7820 Y15.2195
G01 X1.8192 Y15.3234
G01 X1.8461 Y15.4305
G01 X1.8615 Y15.5336
G00 Z2.0000
G00 X1.8862 Y18.0700
G01 F60.00
G01 Z-0.1418
G01 F60.00
G01 X1.8877 Y18.0846
G01 X1.8927 Y18.1900
G01 X1.8871 Y18.3027
G01 X1.8706 Y18.4144
G01 X1.8432 Y18.5238
G01 X1.8051 Y18.6301
G01 X1.7569 Y18.7321
G01 X1.6989 Y18.8289
G01 X1.6316 Y18.9196
G01 X1.5559 Y19.0032
G01 X1.4722 Y19.0790
G01 X1.3816 Y19.1462
G01 X1.2848 Y19.2042
G01 X1.1828 Y19.2525
G01 X1.0765 Y19.2905
G01 X0.9670 Y19.3179
G01 X0.8554 Y19.3345
G01 X0.7427 Y19.3400
G01 X0.6300 Y19.3345
G01 X0.5183 Y19.3179
G01 X0.4089 Y19.2905
G01 X0.3026 Y19.2525
G01 X0.2006 Y19.2042
G01 X0.1038 Y19.1462
G01 X0.0131 Y19.0790
G01 X-0.0705 Y19.0032
G01 X-0.1463 Y18.9196
G01 X-0.2135 Y18.8289
G01 X-0.2715 Y18.7321
G01 X-0.3198 Y18.6301
G01 X-0.3578 Y18.5238
G01 X-0.3852 Y18.4144
G01 X-0.4018 Y18.3027
G01 X-0.4073 Y18.1900
G01 X-0.4018 Y18.0773
G01 X-0.3852 Y17.9656
G01 X-0.3578 Y17.8562
G01 X-0.3198 Y17.7499
G01 X-0.2715 Y17.6479
G01 X-0.2135 Y17.5511
G01 X-0.1463 Y17.4604
G01 X-0.0705 Y17.3768
G01 X0.0131 Y17.3010
G01 X0.1038 Y17.2338
G01 X0.2006 Y17.1758
G01 X0.3026 Y17.1275
G01 X0.4089 Y17.0895
G01 X0.5183 Y17.0621
G01 X0.6300 Y17.0455
G01 X0.7427 Y17.0400
G01 X0.8554 Y17.0455
G01 X0.9670 Y17.0621
G01 X1.0765 Y17.0895
G01 X1.1828 Y17.1275
G01 X1.2848 Y17.1758
G01 X1.3816 Y17.2338
G01 X1.4722 Y17.3010
G01 X1.5559 Y17.3768
G01 X1.6316 Y17.4604
G01 X1.6989 Y17.5511
G01 X1.7569 Y17.6479
G01 X1.8051 Y17.7499
G01 X1.8432 Y17.8562
G01 X1.8706 Y17.9656
G01 X1.8862 Y18.0700
G00 Z2.0000
G00 X1.8615 Y18.0736
G01 F60.00
G01 Z-0.1418
G01 F60.00
G01 X1.8627 Y18.0858
G01 X1.8677 Y18.1900
G01 X1.8623 Y18.3003
G01 X1.8461 Y18.4095
G01 X1.8192 Y18.5166
G01 X1.7820 Y18.6205
G01 X1.7348 Y18.7203
G01 X1.6781 Y18.8150
G01 X1.6123 Y18.9037
G01 X1.5382 Y18.9855
G01 X1.4564 Y19.0596
G01 X1.3677 Y19.1254
G01 X1.2730 Y19.1822
G01 X1.1732 Y19.2294
G01 X1.0693 Y19.2666
G01 X0.9622 Y19.2934
G01 X0.8530 Y19.3096
G01 X0.7427 Y19.3150
G01 X0.6324 Y19.3096
G01 X0.5232 Y19.2934
G01 X0.4161 Y19.2666
G01 X0.3122 Y19.2294
G01 X0.2124 Y19.1822
G01 X0.1177 Y19.1254
G01 X0.0290 Y19.0596
G01 X-0.0528 Y18.9855
G01 X-0.1270 Y18.9037
G01 X-0.1927 Y18.8150
G01 X-0.2495 Y18.7203
G01 X-0.2967 Y18.6205
G01 X-0.3339 Y18.5166
G01 X-0.3607 Y18.4095
G01 X-0.3769 Y18.3003
G01 X-0.3823 Y18.1900
G01 X-0.3769 Y18.0797
G01 X-0.3607 Y17.9705
G01 X-0.3339 Y17.8634
G01 X-0.2967 Y17.7595
G01 X-0.2495 Y17.6597
G01 X-0.1927 Y17.5650
G01 X-0.1270 Y17.4763
G01 X-0.0528 Y17.3945
G01 X0.0290 Y17.3204
G01 X0.1177 Y17.2546
G01 X0.2124 Y17.1978
G01 X0.3122 Y17.1506
G01 X0.4161 Y17.1134
G01 X0.5232 Y17.0866
G01 X0.6324 Y17.0704
G01 X0.7427 Y17.0650
G01 X0.8530 Y17.0704
G01 X0.9622 Y17.0866
G01 X1.0693 Y17.1134
G01 X1.1732 Y17.1506
G01 X1.2730 Y17.1978
G01 X1.3677 Y17.2546
G01 X1.4564 Y17.3204
G01 X1.5382 Y17.3945
G01 X1.6123 Y17.4763
G01 X1.6781 Y17.5650
G01 X1.7348 Y17.6597
G01 X1.7820 Y17.7595
G01 X1.8192 Y17.8634
G01 X1.8461 Y17.9705
G01 X1.8615 Y18.0736
G00 Z2.0000
G00 X1.8862 Y20.6100
G01 F60.00
G01 Z-0.1418
G01 F60.00
G01 X1.8877 Y20.6246
G01 X1.8927 Y20.7300
G01 X1.8871 Y20.8427
G01 X1.8706 Y20.9544
G01 X1.8432 Y21.0638
G01 X1.8051 Y21.1701
G01 X1.7569 Y21.2721
G01 X1.6989 Y21.3689
G01 X1.6316 Y21.4596
G01 X1.5559 Y21.5432
G01 X1.4722 Y21.6190
G01 X1.3816 Y21.6862
G01 X1.2848 Y21.7442
G01 X1.1828 Y21.7925
G01 X1.0765 Y21.8305
G01 X0.9670 Y21.8579
G01 X0.8554 Y21.8745
G01 X0.7427 Y21.8800
G01 X0.6300 Y21.8745
G01 X0.5183 Y21.8579
G01 X0.4089 Y21.8305
G01 X0.3026 Y21.7925
G01 X0.2006 Y21.7442
G01 X0.1038 Y21.6862
G01 X0.0131 Y21.6190
G01 X-0.0705 Y21.5432
G01 X-0.1463 Y21.4596
G01 X-0.2135 Y21.3689
G01 X-0.2715 Y21.2721
G01 X-0.3198 Y21.1701
G01 X-0.3578 Y21.0638
G01 X-0.3852 Y20.9544
G01 X-0.4018 Y20.8427
G01 X-0.4073 Y20.7300
G01 X-0.4018 Y20.6173
G01 X-0.3852 Y20.5056
G01 X-0.3578 Y20.3962
G01 X-0.3198 Y20.2899
G01 X-0.2715 Y20.1879
G01 X-0.2135 Y20.0911
G01 X-0.1463 Y20.0004
G01 X-0.0705 Y19.9168
G01 X0.0131 Y19.8410
G01 X0.1038 Y19.7738
G01 X0.2006 Y19.7158
G01 X0.3026 Y19.6675
G01 X0.4089 Y19.6295
G01 X0.5183 Y19.6021
G01 X0.6300 Y19.5855
G01 X0.7427 Y19.5800
G01 X0.8554 Y19.5855
G01 X0.9670 Y19.6021
G01 X1.0765 Y19.6295
G01 X1.1828 Y19.6675
G01 X1.2848 Y19.7158
G01 X1.3816 Y19.7738
G01 X1.4722 Y19.8410
G01 X1.5559 Y19.9168
G01 X1.6316 Y20.0004
G01 X1.6989 Y20.0911
G01 X1.7569 Y20.1879
G01 X1.8051 Y20.2899
G01 X1.8432 Y20.3962
G01 X1.8706 Y20.5056
G01 X1.8862 Y20.6100
G00 Z2.0000
G00 X1.8615 Y20.6136
G01 F60.00
G01 Z-0.1418
G01 F60.00
G01 X1.8627 Y20.6258
G01 X1.8677 Y20.7300
G01 X1.8623 Y20.8403
G01 X1.8461 Y20.9495
G01 X1.8192 Y21.0566
G01 X1.7820 Y21.1605
G01 X1.7348 Y21.2603
G01 X1.6781 Y21.3550
G01 X1.6123 Y21.4437
G01 X1.5382 Y21.5255
G01 X1.4564 Y21.5996
G01 X1.3677 Y21.6654
G01 X1.2730 Y21.7222
G01 X1.1732 Y21.7694
G01 X1.0693 Y21.8066
G01 X0.9622 Y21.8334
G01 X0.8530 Y21.8496
G01 X0.7427 Y21.8550
G01 X0.6324 Y21.8496
G01 X0.5232 Y21.8334
G01 X0.4161 Y21.8066
G01 X0.3122 Y21.7694
G01 X0.2124 Y21.7222
G01 X0.1177 Y21.6654
G01 X0.0290 Y21.5996
G01 X-0.0528 Y21.5255
G01 X-0.1270 Y21.4437
G01 X-0.1927 Y21.3550
G01 X-0.2495 Y21.2603
G01 X-0.2967 Y21.1605
G01 X-0.3339 Y21.0566
G01 X-0.3607 Y20.9495
G01 X-0.3769 Y20.8403
G01 X-0.3823 Y20.7300
G01 X-0.3769 Y20.6197
G01 X-0.3607 Y20.5105
G01 X-0.3339 Y20.4034
G01 X-0.2967 Y20.2995
G01 X-0.2495 Y20.1997
G01 X-0.1927 Y20.1050
G01 X-0.1270 Y20.0163
G01 X-0.0528 Y19.9345
G01 X0.0290 Y19.8604
G01 X0.1177 Y19.7946
G01 X0.2124 Y19.7378
G01 X0.3122 Y19.6906
G01 X0.4161 Y19.6534
G01 X0.5232 Y19.6266
G01 X0.6324 Y19.6104
G01 X0.7427 Y19.6050
G01 X0.8530 Y19.6104
G01 X0.9622 Y19.6266
G01 X1.0693 Y19.6534
G01 X1.1732 Y19.6906
G01 X1.2730 Y19.7378
G01 X1.3677 Y19.7946
G01 X1.4564 Y19.8604
G01 X1.5382 Y19.9345
G01 X1.6123 Y20.0163
G01 X1.6781 Y20.1050
G01 X1.7348 Y20.1997
G01 X1.7820 Y20.2995
G01 X1.8192 Y20.4034
G01 X1.8461 Y20.5105
G01 X1.8615 Y20.6136
G00 Z2.0000
G00 X1.8862 Y23.1500
G01 F60.00
G01 Z-0.1418
G01 F60.00
G01 X1.8877 Y23.1646
G01 X1.8927 Y23.2700
G01 X1.8871 Y23.3827
G01 X1.8706 Y23.4944
G01 X1.8432 Y23.6038
G01 X1.8051 Y23.7101
G01 X1.7569 Y23.8121
G01 X1.6989 Y23.9089
G01 X1.6316 Y23.9996
G01 X1.5559 Y24.0832
G01 X1.4722 Y24.1590
G01 X1.3816 Y24.2262
G01 X1.2848 Y24.2842
G01 X1.1828 Y24.3325
G01 X1.0765 Y24.3705
G01 X0.9670 Y24.3979
G01 X0.8554 Y24.4145
G01 X0.7427 Y24.4200
G01 X0.6300 Y24.4145
G01 X0.5183 Y24.3979
G01 X0.4089 Y24.3705
G01 X0.3026 Y24.3325
G01 X0.2006 Y24.2842
G01 X0.1038 Y24.2262
G01 X0.0131 Y24.1590
G01 X-0.0705 Y24.0832
G01 X-0.1463 Y23.9996
G01 X-0.2135 Y23.9089
G01 X-0.2715 Y23.8121
G01 X-0.3198 Y23.7101
G01 X-0.3578 Y23.6038
G01 X-0.3852 Y23.4944
G01 X-0.4018 Y23.3827
G01 X-0.4073 Y23.2700
G01 X-0.4018 Y23.1573
G01 X-0.3852 Y23.0456
G01 X-0.3578 Y22.9362
G01 X-0.3198 Y22.8299
G01 X-0.2715 Y22.7279
G01 X-0.2135 Y22.6311
G01 X-0.1463 Y22.5404
G01 X-0.0705 Y22.4568
G01 X0.0131 Y22.3810
G01 X0.1038 Y22.3138
G01 X0.2006 Y22.2558
G01 X0.3026 Y22.2075
G01 X0.4089 Y22.1695
G01 X0.5183 Y22.1421
G01 X0.6300 Y22.1255
G01 X0.7427 Y22.1200
G01 X0.8554 Y22.1255
G01 X0.9670 Y22.1421
G01 X1.0765 Y22.1695
G01 X1.1828 Y22.2075
G01 X1.2848 Y22.2558
G01 X1.3816 Y22.3138
G01 X1.4722 Y22.3810
G01 X1.5559 Y22.4568
G01 X1.6316 Y22.5404
G01 X1.6989 Y22.6311
G01 X1.7569 Y22.7279
G01 X1.8051 Y22.8299
G01 X1.8432 Y22.9362
G01 X1.8706 Y23.0456
G01 X1.8862 Y23.1500
G00 Z2.0000
G00 X1.8615 Y23.1536
G01 F60.00
G01 Z-0.1418
G01 F60.00
G01 X1.8627 Y23.1658
G01 X1.8677 Y23.2700
G01 X1.8623 Y23.3803
G01 X1.8461 Y23.4895
G01 X1.8192 Y23.5966
G01 X1.7820 Y23.7005
G01 X1.7348 Y23.8003
G01 X1.6781 Y23.8950
G01 X1.6123 Y23.9837
G01 X1.5382 Y24.0655
G01 X1.4564 Y24.1396
G01 X1.3677 Y24.2054
G01 X1.2730 Y24.2622
G01 X1.1732 Y24.3094
G01 X1.0693 Y24.3466
G01 X0.9622 Y24.3734
G01 X0.8530 Y24.3896
G01 X0.7427 Y24.3950
G01 X0.6324 Y24.3896
G01 X0.5232 Y24.3734
G01 X0.4161 Y24.3466
G01 X0.3122 Y24.3094
G01 X0.2124 Y24.2622
G01 X0.1177 Y24.2054
G01 X0.0290 Y24.1396
G01 X-0.0528 Y24.0655
G01 X-0.1270 Y23.9837
G01 X-0.1927 Y23.8950
G01 X-0.2495 Y23.8003
G01 X-0.2967 Y23.7005
G01 X-0.3339 Y23.5966
G01 X-0.3607 Y23.4895
G01 X-0.3769 Y23.3803
G01 X-0.3823 Y23.2700
G01 X-0.3769 Y23.1597
G01 X-0.3607 Y23.0505
G01 X-0.3339 Y22.9434
G01 X-0.2967 Y22.8395
G01 X-0.2495 Y22.7397
G01 X-0.1927 Y22.6450
G01 X-0.1270 Y22.5563
G01 X-0.0528 Y22.4745
G01 X0.0290 Y22.4004
G01 X0.1177 Y22.3346
G01 X0.2124 Y22.2778
G01 X0.3122 Y22.2306
G01 X0.4161 Y22.1934
G01 X0.5232 Y22.1666
G01 X0.6324 Y22.1504
G01 X0.7427 Y22.1450
G01 X0.8530 Y22.1504
G01 X0.9622 Y22.1666
G01 X1.0693 Y22.1934
G01 X1.1732 Y22.2306
G01 X1.2730 Y22.2778
G01 X1.3677 Y22.3346
G01 X1.4564 Y22.4004
G01 X1.5382 Y22.4745
G01 X1.6123 Y22.5563
G01 X1.6781 Y22.6450
G01 X1.7348 Y22.7397
G01 X1.7820 Y22.8395
G01 X1.8192 Y22.9434
G01 X1.8461 Y23.0505
G01 X1.8615 Y23.1536
G00 Z2.0000
G00 X1.8862 Y25.6900
G01 F60.00
G01 Z-0.1418
G01 F60.00
G01 X1.8877 Y25.7046
G01 X1.8927 Y25.8100
G01 X1.8871 Y25.9227
G01 X1.8706 Y26.0344
G01 X1.8432 Y26.1438
G01 X1.8051 Y26.2501
G01 X1.7569 Y26.3521
G01 X1.6989 Y26.4489
G01 X1.6316 Y26.5396
G01 X1.5559 Y26.6232
G01 X1.4722 Y26.6990
G01 X1.3816 Y26.7662
G01 X1.2848 Y26.8242
G01 X1.1828 Y26.8725
G01 X1.0765 Y26.9105
G01 X0.9670 Y26.9379
G01 X0.8554 Y26.9545
G01 X0.7427 Y26.9600
G01 X0.6300 Y26.9545
G01 X0.5183 Y26.9379
G01 X0.4089 Y26.9105
G01 X0.3026 Y26.8725
G01 X0.2006 Y26.8242
G01 X0.1038 Y26.7662
G01 X0.0131 Y26.6990
G01 X-0.0705 Y26.6232
G01 X-0.1463 Y26.5396
G01 X-0.2135 Y26.4489
G01 X-0.2715 Y26.3521
G01 X-0.3198 Y26.2501
G01 X-0.3578 Y26.1438
G01 X-0.3852 Y26.0344
G01 X-0.4018 Y25.9227
G01 X-0.4073 Y25.8100
G01 X-0.4018 Y25.6973
G01 X-0.3852 Y25.5856
G01 X-0.3578 Y25.4762
G01 X-0.3198 Y25.3699
G01 X-0.2715 Y25.2679
G01 X-0.2135 Y25.1711
G01 X-0.1463 Y25.0804
G01 X-0.0705 Y24.9968
G01 X0.0131 Y24.9210
G01 X0.1038 Y24.8538
G01 X0.2006 Y24.7958
G01 X0.3026 Y24.7475
G01 X0.4089 Y24.7095
G01 X0.5183 Y24.6821
G01 X0.6300 Y24.6655
G01 X0.7427 Y24.6600
G01 X0.8554 Y24.6655
G01 X0.9670 Y24.6821
G01 X1.0765 Y24.7095
G01 X1.1828 Y24.7475
G01 X1.2848 Y24.7958
G01 X1.3816 Y24.8538
G01 X1.4722 Y24.9210
G01 X1.5559 Y24.9968
G01 X1.6316 Y25.0804
G01 X1.6989 Y25.1711
G01 X1.7569 Y25.2679
G01 X1.8051 Y25.3699
G01 X1.8432 Y25.4762
G01 X1.8706 Y25.5856
G01 X1.8862 Y25.6900
G00 Z2.0000
G00 X1.8615 Y25.6936
G01 F60.00
G01 Z-0.1418
G01 F60.00
G01 X1.8627 Y25.7058
G01 X1.8677 Y25.8100
G01 X1.8623 Y25.9203
G01 X1.8461 Y26.0295
G01 X1.8192 Y26.1366
G01 X1.7820 Y26.2405
G01 X1.7348 Y26.3403
G01 X1.6781 Y26.4350
G01 X1.6123 Y26.5237
G01 X1.5382 Y26.6055
G01 X1.4564 Y26.6796
G01 X1.3677 Y26.7454
G01 X1.2730 Y26.8022
G01 X1.1732 Y26.8494
G01 X1.0693 Y26.8866
G01 X0.9622 Y26.9134
G01 X0.8530 Y26.9296
G01 X0.7427 Y26.9350
G01 X0.6324 Y26.9296
G01 X0.5232 Y26.9134
G01 X0.4161 Y26.8866
G01 X0.3122 Y26.8494
G01 X0.2124 Y26.8022
G01 X0.1177 Y26.7454
G01 X0.0290 Y26.6796
G01 X-0.0528 Y26.6055
G01 X-0.1270 Y26.5237
G01 X-0.1927 Y26.4350
G01 X-0.2495 Y26.3403
G01 X-0.2967 Y26.2405
G01 X-0.3339 Y26.1366
G01 X-0.3607 Y26.0295
G01 X-0.3769 Y25.9203
G01 X-0.3823 Y25.8100
G01 X-0.3769 Y25.6997
G01 X-0.3607 Y25.5905
G01 X-0.3339 Y25.4834
G01 X-0.2967 Y25.3795
G01 X-0.2495 Y25.2797
G01 X-0.1927 Y25.1850
G01 X-0.1270 Y25.0963
G01 X-0.0528 Y25.0145
G01 X0.0290 Y24.9404
G01 X0.1177 Y24.8746
G01 X0.2124 Y24.8178
G01 X0.3122 Y24.7706
G01 X0.4161 Y24.7334
G01 X0.5232 Y24.7066
G01 X0.6324 Y24.6904
G01 X0.7427 Y24.6850
G01 X0.8530 Y24.6904
G01 X0.9622 Y24.7066
G01 X1.0693 Y24.7334
G01 X1.1732 Y24.7706
G01 X1.2730 Y24.8178
G01 X1.3677 Y24.8746
G01 X1.4564 Y24.9404
G01 X1.5382 Y25.0145
G01 X1.6123 Y25.0963
G01 X1.6781 Y25.1850
G01 X1.7348 Y25.2797
G01 X1.7820 Y25.3795
G01 X1.8192 Y25.4834
G01 X1.8461 Y25.5905
G01 X1.8615 Y25.6936
G00 Z2.0000
G00 X1.8862 Y28.2300
G01 F60.00
G01 Z-0.1418
G01 F60.00
G01 X1.8877 Y28.2446
G01 X1.8927 Y28.3500
G01 X1.8871 Y28.4627
G01 X1.8706 Y28.5744
G01 X1.8432 Y28.6838
G01 X1.8051 Y28.7901
G01 X1.7569 Y28.8921
G01 X1.6989 Y28.9889
G01 X1.6316 Y29.0796
G01 X1.5559 Y29.1632
G01 X1.4722 Y29.2390
G01 X1.3816 Y29.3062
G01 X1.2848 Y29.3642
G01 X1.1828 Y29.4125
G01 X1.0765 Y29.4505
G01 X0.9670 Y29.4779
G01 X0.8554 Y29.4945
G01 X0.7427 Y29.5000
G01 X0.6300 Y29.4945
G01 X0.5183 Y29.4779
G01 X0.4089 Y29.4505
G01 X0.3026 Y29.4125
G01 X0.2006 Y29.3642
G01 X0.1038 Y29.3062
G01 X0.0131 Y29.2390
G01 X-0.0705 Y29.1632
G01 X-0.1463 Y29.0796
G01 X-0.2135 Y28.9889
G01 X-0.2715 Y28.8921
G01 X-0.3198 Y28.7901
G01 X-0.3578 Y28.6838
G01 X-0.3852 Y28.5744
G01 X-0.4018 Y28.4627
G01 X-0.4073 Y28.3500
G01 X-0.4018 Y28.2373
G01 X-0.3852 Y28.1256
G01 X-0.3578 Y28.0162
G01 X-0.3198 Y27.9099
G01 X-0.2715 Y27.8079
G01 X-0.2135 Y27.7111
G01 X-0.1463 Y27.6204
G01 X-0.0705 Y27.5368
G01 X0.0131 Y27.4610
G01 X0.1038 Y27.3938
G01 X0.2006 Y27.3358
G01 X0.3026 Y27.2875
G01 X0.4089 Y27.2495
G01 X0.5183 Y27.2221
G01 X0.6300 Y27.2055
G01 X0.7427 Y27.2000
G01 X0.8554 Y27.2055
G01 X0.9670 Y27.2221
G01 X1.0765 Y27.2495
G01 X1.1828 Y27.2875
G01 X1.2848 Y27.3358
G01 X1.3816 Y27.3938
G01 X1.4722 Y27.4610
G01 X1.5559 Y27.5368
G01 X1.6316 Y27.6204
G01 X1.6989 Y27.7111
G01 X1.7569 Y27.8079
G01 X1.8051 Y27.9099
G01 X1.8432 Y28.0162
G01 X1.8706 Y28.1256
G01 X1.8862 Y28.2300
G00 Z2.0000
G00 X1.8615 Y28.2336
G01 F60.00
G01 Z-0.1418
G01 F60.00
G01 X1.8627 Y28.2458
G01 X1.8677 Y28.3500
G01 X1.8623 Y28.4603
G01 X1.8461 Y28.5695
G01 X1.8192 Y28.6766
G01 X1.7820 Y28.7805
G01 X1.7348 Y28.8803
G01 X1.6781 Y28.9750
G01 X1.6123 Y29.0637
G01 X1.5382 Y29.1455
G01 X1.4564 Y29.2196
G01 X1.3677 Y29.2854
G01 X1.2730 Y29.3422
G01 X1.1732 Y29.3894
G01 X1.0693 Y29.4266
G01 X0.9622 Y29.4534
G01 X0.8530 Y29.4696
G01 X0.7427 Y29.4750
G01 X0.6324 Y29.4696
G01 X0.5232 Y29.4534
G01 X0.4161 Y29.4266
G01 X0.3122 Y29.3894
G01 X0.2124 Y29.3422
G01 X0.1177 Y29.2854
G01 X0.0290 Y29.2196
G01 X-0.0528 Y29.1455
G01 X-0.1270 Y29.0637
G01 X-0.1927 Y28.9750
G01 X-0.2495 Y28.8803
G01 X-0.2967 Y28.7805
G01 X-0.3339 Y28.6766
G01 X-0.3607 Y28.5695
G01 X-0.3769 Y28.4603
G01 X-0.3823 Y28.3500
G01 X-0.3769 Y28.2397
G01 X-0.3607 Y28.1305
G01 X-0.3339 Y28.0234
G01 X-0.2967 Y27.9195
G01 X-0.2495 Y27.8197
G01 X-0.1927 Y27.7250
G01 X-0.1270 Y27.6363
G01 X-0.0528 Y27.5545
G01 X0.0290 Y27.4804
G01 X0.1177 Y27.4146
G01 X0.2124 Y27.3578
G01 X0.3122 Y27.3106
G01 X0.4161 Y27.2734
G01 X0.5232 Y27.2466
G01 X0.6324 Y27.2304
G01 X0.7427 Y27.2250
G01 X0.8530 Y27.2304
G01 X0.9622 Y27.2466
G01 X1.0693 Y27.2734
G01 X1.1732 Y27.3106
G01 X1.2730 Y27.3578
G01 X1.3677 Y27.4146
G01 X1.4564 Y27.4804
G01 X1.5382 Y27.5545
G01 X1.6123 Y27.6363
G01 X1.6781 Y27.7250
G01 X1.7348 Y27.8197
G01 X1.7820 Y27.9195
G01 X1.8192 Y28.0234
G01 X1.8461 Y28.1305
G01 X1.8615 Y28.2336
G00 Z2.0000
G00 X1.8862 Y30.7700
G01 F60.00
G01 Z-0.1418
G01 F60.00
G01 X1.8877 Y30.7846
G01 X1.8927 Y30.8900
G01 X1.8871 Y31.0027
G01 X1.8706 Y31.1144
G01 X1.8432 Y31.2238
G01 X1.8051 Y31.3301
G01 X1.7569 Y31.4321
G01 X1.6989 Y31.5289
G01 X1.6316 Y31.6196
G01 X1.5559 Y31.7032
G01 X1.4722 Y31.7790
G01 X1.3816 Y31.8462
G01 X1.2848 Y31.9042
G01 X1.1828 Y31.9525
G01 X1.0765 Y31.9905
G01 X0.9670 Y32.0179
G01 X0.8554 Y32.0345
G01 X0.7427 Y32.0400
G01 X0.6300 Y32.0345
G01 X0.5183 Y32.0179
G01 X0.4089 Y31.9905
G01 X0.3026 Y31.9525
G01 X0.2006 Y31.9042
G01 X0.1038 Y31.8462
G01 X0.0131 Y31.7790
G01 X-0.0705 Y31.7032
G01 X-0.1463 Y31.6196
G01 X-0.2135 Y31.5289
G01 X-0.2715 Y31.4321
G01 X-0.3198 Y31.3301
G01 X-0.3578 Y31.2238
G01 X-0.3852 Y31.1144
G01 X-0.4018 Y31.0027
G01 X-0.4073 Y30.8900
G01 X-0.4018 Y30.7773
G01 X-0.3852 Y30.6656
G01 X-0.3578 Y30.5562
G01 X-0.3198 Y30.4499
G01 X-0.2715 Y30.3479
G01 X-0.2135 Y30.2511
G01 X-0.1463 Y30.1604
G01 X-0.0705 Y30.0768
G01 X0.0131 Y30.0010
G01 X0.1038 Y29.9338
G01 X0.2006 Y29.8758
G01 X0.3026 Y29.8275
G01 X0.4089 Y29.7895
G01 X0.5183 Y29.7621
G01 X0.6300 Y29.7455
G01 X0.7427 Y29.7400
G01 X0.8554 Y29.7455
G01 X0.9670 Y29.7621
G01 X1.0765 Y29.7895
G01 X1.1828 Y29.8275
G01 X1.2848 Y29.8758
G01 X1.3816 Y29.9338
G01 X1.4722 Y30.0010
G01 X1.5559 Y30.0768
G01 X1.6316 Y30.1604
G01 X1.6989 Y30.2511
G01 X1.7569 Y30.3479
G01 X1.8051 Y30.4499
G01 X1.8432 Y30.5562
G01 X1.8706 Y30.6656
G01 X1.8862 Y30.7700
G00 Z2.0000
G00 X1.8615 Y30.7736
G01 F60.00
G01 Z-0.1418
G01 F60.00
G01 X1.8627 Y30.7858
G01 X1.8677 Y30.8900
G01 X1.8623 Y31.0003
G01 X1.8461 Y31.1095
G01 X1.8192 Y31.2166
G01 X1.7820 Y31.3205
G01 X1.7348 Y31.4203
G01 X1.6781 Y31.5150
G01 X1.6123 Y31.6037
G01 X1.5382 Y31.6855
G01 X1.4564 Y31.7596
G01 X1.3677 Y31.8254
G01 X1.2730 Y31.8822
G01 X1.1732 Y31.9294
G01 X1.0693 Y31.9666
G01 X0.9622 Y31.9934
G01 X0.8530 Y32.0096
G01 X0.7427 Y32.0150
G01 X0.6324 Y32.0096
G01 X0.5232 Y31.9934
G01 X0.4161 Y31.9666
G01 X0.3122 Y31.9294
G01 X0.2124 Y31.8822
G01 X0.1177 Y31.8254
G01 X0.0290 Y31.7596
G01 X-0.0528 Y31.6855
G01 X-0.1270 Y31.6037
G01 X-0.1927 Y31.5150
G01 X-0.2495 Y31.4203
G01 X-0.2967 Y31.3205
G01 X-0.3339 Y31.2166
G01 X-0.3607 Y31.1095
G01 X-0.3769 Y31.0003
G01 X-0.3823 Y30.8900
G01 X-0.3769 Y30.7797
G01 X-0.3607 Y30.6705
G01 X-0.3339 Y30.5634
G01 X-0.2967 Y30.4595
G01 X-0.2495 Y30.3597
G01 X-0.1927 Y30.2650
G01 X-0.1270 Y30.1763
G01 X-0.0528 Y30.0945
G01 X0.0290 Y30.0204
G01 X0.1177 Y29.9546
G01 X0.2124 Y29.8978
G01 X0.3122 Y29.8506
G01 X0.4161 Y29.8134
G01 X0.5232 Y29.7866
G01 X0.6324 Y29.7704
G01 X0.7427 Y29.7650
G01 X0.8530 Y29.7704
G01 X0.9622 Y29.7866
G01 X1.0693 Y29.8134
G01 X1.1732 Y29.8506
G01 X1.2730 Y29.8978
G01 X1.3677 Y29.9546
G01 X1.4564 Y30.0204
G01 X1.5382 Y30.0945
G01 X1.6123 Y30.1763
G01 X1.6781 Y30.2650
G01 X1.7348 Y30.3597
G01 X1.7820 Y30.4595
G01 X1.8192 Y30.5634
G01 X1.8461 Y30.6705
G01 X1.8615 Y30.7736
G00 Z2.0000
G00 X1.8862 Y33.3100
G01 F60.00
G01 Z-0.1418
G01 F60.00
G01 X1.8877 Y33.3246
G01 X1.8927 Y33.4300
G01 X1.8871 Y33.5427
G01 X1.8706 Y33.6544
G01 X1.8432 Y33.7638
G01 X1.8051 Y33.8701
G01 X1.7569 Y33.9721
G01 X1.6989 Y34.0689
G01 X1.6316 Y34.1596
G01 X1.5559 Y34.2432
G01 X1.4722 Y34.3190
G01 X1.3816 Y34.3862
G01 X1.2848 Y34.4442
G01 X1.1828 Y34.4925
G01 X1.0765 Y34.5305
G01 X0.9670 Y34.5579
G01 X0.8554 Y34.5745
G01 X0.7427 Y34.5800
G01 X0.6300 Y34.5745
G01 X0.5183 Y34.5579
G01 X0.4089 Y34.5305
G01 X0.3026 Y34.4925
G01 X0.2006 Y34.4442
G01 X0.1038 Y34.3862
G01 X0.0131 Y34.3190
G01 X-0.0705 Y34.2432
G01 X-0.1463 Y34.1596
G01 X-0.2135 Y34.0689
G01 X-0.2715 Y33.9721
G01 X-0.3198 Y33.8701
G01 X-0.3578 Y33.7638
G01 X-0.3852 Y33.6544
G01 X-0.4018 Y33.5427
G01 X-0.4073 Y33.4300
G01 X-0.4018 Y33.3173
G01 X-0.3852 Y33.2056
G01 X-0.3578 Y33.0962
G01 X-0.3198 Y32.9899
G01 X-0.2715 Y32.8879
G01 X-0.2135 Y32.7911
G01 X-0.1463 Y32.7004
G01 X-0.0705 Y32.6168
G01 X0.0131 Y32.5410
G01 X0.1038 Y32.4738
G01 X0.2006 Y32.4158
G01 X0.3026 Y32.3675
G01 X0.4089 Y32.3295
G01 X0.5183 Y32.3021
G01 X0.6300 Y32.2855
G01 X0.7427 Y32.2800
G01 X0.8554 Y32.2855
G01 X0.9670 Y32.3021
G01 X1.0765 Y32.3295
G01 X1.1828 Y32.3675
G01 X1.2848 Y32.4158
G01 X1.3816 Y32.4738
G01 X1.4722 Y32.5410
G01 X1.5559 Y32.6168
G01 X1.6316 Y32.7004
G01 X1.6989 Y32.7911
G01 X1.7569 Y32.8879
G01 X1.8051 Y32.9899
G01 X1.8432 Y33.0962
G01 X1.8706 Y33.2056
G01 X1.8862 Y33.3100
G00 Z2.0000
G00 X1.8615 Y33.3136
G01 F60.00
G01 Z-0.1418
G01 F60.00
G01 X1.8627 Y33.3258
G01 X1.8677 Y33.4300
G01 X1.8623 Y33.5403
G01 X1.8461 Y33.6495
G01 X1.8192 Y33.7566
G01 X1.7820 Y33.8605
G01 X1.7348 Y33.9603
G01 X1.6781 Y34.0550
G01 X1.6123 Y34.1437
G01 X1.5382 Y34.2255
G01 X1.4564 Y34.2996
G01 X1.3677 Y34.3654
G01 X1.2730 Y34.4222
G01 X1.1732 Y34.4694
G01 X1.0693 Y34.5066
G01 X0.9622 Y34.5334
G01 X0.8530 Y34.5496
G01 X0.7427 Y34.5550
G01 X0.6324 Y34.5496
G01 X0.5232 Y34.5334
G01 X0.4161 Y34.5066
G01 X0.3122 Y34.4694
G01 X0.2124 Y34.4222
G01 X0.1177 Y34.3654
G01 X0.0290 Y34.2996
G01 X-0.0528 Y34.2255
G01 X-0.1270 Y34.1437
G01 X-0.1927 Y34.0550
G01 X-0.2495 Y33.9603
G01 X-0.2967 Y33.8605
G01 X-0.3339 Y33.7566
G01 X-0.3607 Y33.6495
G01 X-0.3769 Y33.5403
G01 X-0.3823 Y33.4300
G01 X-0.3769 Y33.3197
G01 X-0.3607 Y33.2105
G01 X-0.3339 Y33.1034
G01 X-0.2967 Y32.9995
G01 X-0.2495 Y32.8997
G01 X-0.1927 Y32.8050
G01 X-0.1270 Y32.7163
G01 X-0.0528 Y32.6345
G01 X0.0290 Y32.5604
G01 X0.1177 Y32.4946
G01 X0.2124 Y32.4378
G01 X0.3122 Y32.3906
G01 X0.4161 Y32.3534
G01 X0.5232 Y32.3266
G01 X0.6324 Y32.3104
G01 X0.7427 Y32.3050
G01 X0.8530 Y32.3104
G01 X0.9622 Y32.3266
G01 X1.0693 Y32.3534
G01 X1.1732 Y32.3906
G01 X1.2730 Y32.4378
G01 X1.3677 Y32.4946
G01 X1.4564 Y32.5604
G01 X1.5382 Y32.6345
G01 X1.6123 Y32.7163
G01 X1.6781 Y32.8050
G01 X1.7348 Y32.8997
G01 X1.7820 Y32.9995
G01 X1.8192 Y33.1034
G01 X1.8461 Y33.2105
G01 X1.8615 Y33.3136
G00 Z2.0000
G00 X1.8862 Y35.8500
G01 F60.00
G01 Z-0.1418
G01 F60.00
G01 X1.8877 Y35.8646
G01 X1.8927 Y35.9700
G01 X1.8871 Y36.0827
G01 X1.8706 Y36.1944
G01 X1.8432 Y36.3038
G01 X1.8051 Y36.4101
G01 X1.7569 Y36.5121
G01 X1.6989 Y36.6089
G01 X1.6316 Y36.6996
G01 X1.5559 Y36.7832
G01 X1.4722 Y36.8590
G01 X1.3816 Y36.9262
G01 X1.2848 Y36.9842
G01 X1.1828 Y37.0325
G01 X1.0765 Y37.0705
G01 X0.9670 Y37.0979
G01 X0.8554 Y37.1145
G01 X0.7427 Y37.1200
G01 X0.6300 Y37.1145
G01 X0.5183 Y37.0979
G01 X0.4089 Y37.0705
G01 X0.3026 Y37.0325
G01 X0.2006 Y36.9842
G01 X0.1038 Y36.9262
G01 X0.0131 Y36.8590
G01 X-0.0705 Y36.7832
G01 X-0.1463 Y36.6996
G01 X-0.2135 Y36.6089
G01 X-0.2715 Y36.5121
G01 X-0.3198 Y36.4101
G01 X-0.3578 Y36.3038
G01 X-0.3852 Y36.1944
G01 X-0.4018 Y36.0827
G01 X-0.4073 Y35.9700
G01 X-0.4018 Y35.8573
G01 X-0.3852 Y35.7456
G01 X-0.3578 Y35.6362
G01 X-0.3198 Y35.5299
G01 X-0.2715 Y35.4279
G01 X-0.2135 Y35.3311
G01 X-0.1463 Y35.2404
G01 X-0.0705 Y35.1568
G01 X0.0131 Y35.0810
G01 X0.1038 Y35.0138
G01 X0.2006 Y34.9558
G01 X0.3026 Y34.9075
G01 X0.4089 Y34.8695
G01 X0.5183 Y34.8421
G01 X0.6300 Y34.8255
G01 X0.7427 Y34.8200
G01 X0.8554 Y34.8255
G01 X0.9670 Y34.8421
G01 X1.0765 Y34.8695
G01 X1.1828 Y34.9075
G01 X1.2848 Y34.9558
G01 X1.3816 Y35.0138
G01 X1.4722 Y35.0810
G01 X1.5559 Y35.1568
G01 X1.6316 Y35.2404
G01 X1.6989 Y35.3311
G01 X1.7569 Y35.4279
G01 X1.8051 Y35.5299
G01 X1.8432 Y35.6362
G01 X1.8706 Y35.7456
G01 X1.8862 Y35.8500
G00 Z2.0000
G00 X1.8615 Y35.8536
G01 F60.00
G01 Z-0.1418
G01 F60.00
G01 X1.8627 Y35.8658
G01 X1.8677 Y35.9700
G01 X1.8623 Y36.0803
G01 X1.8461 Y36.1895
G01 X1.8192 Y36.2966
G01 X1.7820 Y36.4005
G01 X1.7348 Y36.5003
G01 X1.6781 Y36.5950
G01 X1.6123 Y36.6837
G01 X1.5382 Y36.7655
G01 X1.4564 Y36.8396
G01 X1.3677 Y36.9054
G01 X1.2730 Y36.9622
G01 X1.1732 Y37.0094
G01 X1.0693 Y37.0466
G01 X0.9622 Y37.0734
G01 X0.8530 Y37.0896
G01 X0.7427 Y37.0950
G01 X0.6324 Y37.0896
G01 X0.5232 Y37.0734
G01 X0.4161 Y37.0466
G01 X0.3122 Y37.0094
G01 X0.2124 Y36.9622
G01 X0.1177 Y36.9054
G01 X0.0290 Y36.8396
G01 X-0.0528 Y36.7655
G01 X-0.1270 Y36.6837
G01 X-0.1927 Y36.5950
G01 X-0.2495 Y36.5003
G01 X-0.2967 Y36.4005
G01 X-0.3339 Y36.2966
G01 X-0.3607 Y36.1895
G01 X-0.3769 Y36.0803
G01 X-0.3823 Y35.9700
G01 X-0.3769 Y35.8597
G01 X-0.3607 Y35.7505
G01 X-0.3339 Y35.6434
G01 X-0.2967 Y35.5395
G01 X-0.2495 Y35.4397
G01 X-0.1927 Y35.3450
G01 X-0.1270 Y35.2563
G01 X-0.0528 Y35.1745
G01 X0.0290 Y35.1004
G01 X0.1177 Y35.0346
G01 X0.2124 Y34.9778
G01 X0.3122 Y34.9306
G01 X0.4161 Y34.8934
G01 X0.5232 Y34.8666
G01 X0.6324 Y34.8504
G01 X0.7427 Y34.8450
G01 X0.8530 Y34.8504
G01 X0.9622 Y34.8666
G01 X1.0693 Y34.8934
G01 X1.1732 Y34.9306
G01 X1.2730 Y34.9778
G01 X1.3677 Y35.0346
G01 X1.4564 Y35.1004
G01 X1.5382 Y35.1745
G01 X1.6123 Y35.2563
G01 X1.6781 Y35.3450
G01 X1.7348 Y35.4397
G01 X1.7820 Y35.5395
G01 X1.8192 Y35.6434
G01 X1.8461 Y35.7505
G01 X1.8615 Y35.8536
G00 Z2.0000
G00 X1.8862 Y38.3900
G01 F60.00
G01 Z-0.1418
G01 F60.00
G01 X1.8877 Y38.4046
G01 X1.8927 Y38.5100
G01 X1.8871 Y38.6227
G01 X1.8706 Y38.7344
G01 X1.8432 Y38.8438
G01 X1.8051 Y38.9501
G01 X1.7569 Y39.0521
G01 X1.6989 Y39.1489
G01 X1.6316 Y39.2396
G01 X1.5559 Y39.3232
G01 X1.4722 Y39.3990
G01 X1.3816 Y39.4662
G01 X1.2848 Y39.5242
G01 X1.1828 Y39.5725
G01 X1.0765 Y39.6105
G01 X0.9670 Y39.6379
G01 X0.8554 Y39.6545
G01 X0.7427 Y39.6600
G01 X0.6300 Y39.6545
G01 X0.5183 Y39.6379
G01 X0.4089 Y39.6105
G01 X0.3026 Y39.5725
G01 X0.2006 Y39.5242
G01 X0.1038 Y39.4662
G01 X0.0131 Y39.3990
G01 X-0.0705 Y39.3232
G01 X-0.1463 Y39.2396
G01 X-0.2135 Y39.1489
G01 X-0.2715 Y39.0521
G01 X-0.3198 Y38.9501
G01 X-0.3578 Y38.8438
G01 X-0.3852 Y38.7344
G01 X-0.4018 Y38.6227
G01 X-0.4073 Y38.5100
G01 X-0.4018 Y38.3973
G01 X-0.3852 Y38.2856
G01 X-0.3578 Y38.1762
G01 X-0.3198 Y38.0699
G01 X-0.2715 Y37.9679
G01 X-0.2135 Y37.8711
G01 X-0.1463 Y37.7804
G01 X-0.0705 Y37.6968
G01 X0.0131 Y37.6210
G01 X0.1038 Y37.5538
G01 X0.2006 Y37.4958
G01 X0.3026 Y37.4475
G01 X0.4089 Y37.4095
G01 X0.5183 Y37.3821
G01 X0.6300 Y37.3655
G01 X0.7427 Y37.3600
G01 X0.8554 Y37.3655
G01 X0.9670 Y37.3821
G01 X1.0765 Y37.4095
G01 X1.1828 Y37.4475
G01 X1.2848 Y37.4958
G01 X1.3816 Y37.5538
G01 X1.4722 Y37.6210
G01 X1.5559 Y37.6968
G01 X1.6316 Y37.7804
G01 X1.6989 Y37.8711
G01 X1.7569 Y37.9679
G01 X1.8051 Y38.0699
G01 X1.8432 Y38.1762
G01 X1.8706 Y38.2856
G01 X1.8862 Y38.3900
G00 Z2.0000
G00 X1.8615 Y38.3936
G01 F60.00
G01 Z-0.1418
G01 F60.00
G01 X1.8627 Y38.4058
G01 X1.8677 Y38.5100
G01 X1.8623 Y38.6203
G01 X1.8461 Y38.7295
G01 X1.8192 Y38.8366
G01 X1.7820 Y38.9405
G01 X1.7348 Y39.0403
G01 X1.6781 Y39.1350
G01 X1.6123 Y39.2237
G01 X1.5382 Y39.3055
G01 X1.4564 Y39.3796
G01 X1.3677 Y39.4454
G01 X1.2730 Y39.5022
G01 X1.1732 Y39.5494
G01 X1.0693 Y39.5866
G01 X0.9622 Y39.6134
G01 X0.8530 Y39.6296
G01 X0.7427 Y39.6350
G01 X0.6324 Y39.6296
G01 X0.5232 Y39.6134
G01 X0.4161 Y39.5866
G01 X0.3122 Y39.5494
G01 X0.2124 Y39.5022
G01 X0.1177 Y39.4454
G01 X0.0290 Y39.3796
G01 X-0.0528 Y39.3055
G01 X-0.1270 Y39.2237
G01 X-0.1927 Y39.1350
G01 X-0.2495 Y39.0403
G01 X-0.2967 Y38.9405
G01 X-0.3339 Y38.8366
G01 X-0.3607 Y38.7295
G01 X-0.3769 Y38.6203
G01 X-0.3823 Y38.5100
G01 X-0.3769 Y38.3997
G01 X-0.3607 Y38.2905
G01 X-0.3339 Y38.1834
G01 X-0.2967 Y38.0795
G01 X-0.2495 Y37.9797
G01 X-0.1927 Y37.8850
G01 X-0.1270 Y37.7963
G01 X-0.0528 Y37.7145
G01 X0.0290 Y37.6404
G01 X0.1177 Y37.5746
G01 X0.2124 Y37.5178
G01 X0.3122 Y37.4706
G01 X0.4161 Y37.4334
G01 X0.5232 Y37.4066
G01 X0.6324 Y37.3904
G01 X0.7427 Y37.3850
G01 X0.8530 Y37.3904
G01 X0.9622 Y37.4066
G01 X1.0693 Y37.4334
G01 X1.1732 Y37.4706
G01 X1.2730 Y37.5178
G01 X1.3677 Y37.5746
G01 X1.4564 Y37.6404
G01 X1.5382 Y37.7145
G01 X1.6123 Y37.7963
G01 X1.6781 Y37.8850
G01 X1.7348 Y37.9797
G01 X1.7820 Y38.0795
G01 X1.8192 Y38.1834
G01 X1.8461 Y38.2905
G01 X1.8615 Y38.3936
G00 Z2.0000
G00 X1.8862 Y40.9300
G01 F60.00
G01 Z-0.1418
G01 F60.00
G01 X1.8877 Y40.9446
G01 X1.8927 Y41.0500
G01 X1.8871 Y41.1627
G01 X1.8706 Y41.2744
G01 X1.8432 Y41.3838
G01 X1.8051 Y41.4901
G01 X1.7569 Y41.5921
G01 X1.6989 Y41.6889
G01 X1.6316 Y41.7796
G01 X1.5559 Y41.8632
G01 X1.4722 Y41.9390
G01 X1.3816 Y42.0062
G01 X1.2848 Y42.0642
G01 X1.1828 Y42.1125
G01 X1.0765 Y42.1505
G01 X0.9670 Y42.1779
G01 X0.8554 Y42.1945
G01 X0.7427 Y42.2000
G01 X0.6300 Y42.1945
G01 X0.5183 Y42.1779
G01 X0.4089 Y42.1505
G01 X0.3026 Y42.1125
G01 X0.2006 Y42.0642
G01 X0.1038 Y42.0062
G01 X0.0131 Y41.9390
G01 X-0.0705 Y41.8632
G01 X-0.1463 Y41.7796
G01 X-0.2135 Y41.6889
G01 X-0.2715 Y41.5921
G01 X-0.3198 Y41.4901
G01 X-0.3578 Y41.3838
G01 X-0.3852 Y41.2744
G01 X-0.4018 Y41.1627
G01 X-0.4073 Y41.0500
G01 X-0.4018 Y40.9373
G01 X-0.3852 Y40.8256
G01 X-0.3578 Y40.7162
G01 X-0.3198 Y40.6099
G01 X-0.2715 Y40.5079
G01 X-0.2135 Y40.4111
G01 X-0.1463 Y40.3204
G01 X-0.0705 Y40.2368
G01 X0.0131 Y40.1610
G01 X0.1038 Y40.0938
G01 X0.2006 Y40.0358
G01 X0.3026 Y39.9875
G01 X0.4089 Y39.9495
G01 X0.5183 Y39.9221
G01 X0.6300 Y39.9055
G01 X0.7427 Y39.9000
G01 X0.8554 Y39.9055
G01 X0.9670 Y39.9221
G01 X1.0765 Y39.9495
G01 X1.1828 Y39.9875
G01 X1.2848 Y40.0358
G01 X1.3816 Y40.0938
G01 X1.4722 Y40.1610
G01 X1.5559 Y40.2368
G01 X1.6316 Y40.3204
G01 X1.6989 Y40.4111
G01 X1.7569 Y40.5079
G01 X1.8051 Y40.6099
G01 X1.8432 Y40.7162
G01 X1.8706 Y40.8256
G01 X1.8862 Y40.9300
G00 Z2.0000
G00 X1.8615 Y40.9336
G01 F60.00
G01 Z-0.1418
G01 F60.00
G01 X1.8627 Y40.9458
G01 X1.8677 Y41.0500
G01 X1.8623 Y41.1603
G01 X1.8461 Y41.2695
G01 X1.8192 Y41.3766
G01 X1.7820 Y41.4805
G01 X1.7348 Y41.5803
G01 X1.6781 Y41.6750
G01 X1.6123 Y41.7637
G01 X1.5382 Y41.8455
G01 X1.4564 Y41.9196
G01 X1.3677 Y41.9854
G01 X1.2730 Y42.0422
G01 X1.1732 Y42.0894
G01 X1.0693 Y42.1266
G01 X0.9622 Y42.1534
G01 X0.8530 Y42.1696
G01 X0.7427 Y42.1750
G01 X0.6324 Y42.1696
G01 X0.5232 Y42.1534
G01 X0.4161 Y42.1266
G01 X0.3122 Y42.0894
G01 X0.2124 Y42.0422
G01 X0.1177 Y41.9854
G01 X0.0290 Y41.9196
G01 X-0.0528 Y41.8455
G01 X-0.1270 Y41.7637
G01 X-0.1927 Y41.6750
G01 X-0.2495 Y41.5803
G01 X-0.2967 Y41.4805
G01 X-0.3339 Y41.3766
G01 X-0.3607 Y41.2695
G01 X-0.3769 Y41.1603
G01 X-0.3823 Y41.0500
G01 X-0.3769 Y40.9397
G01 X-0.3607 Y40.8305
G01 X-0.3339 Y40.7234
G01 X-0.2967 Y40.6195
G01 X-0.2495 Y40.5197
G01 X-0.1927 Y40.4250
G01 X-0.1270 Y40.3363
G01 X-0.0528 Y40.2545
G01 X0.0290 Y40.1804
G01 X0.1177 Y40.1146
G01 X0.2124 Y40.0578
G01 X0.3122 Y40.0106
G01 X0.4161 Y39.9734
G01 X0.5232 Y39.9466
G01 X0.6324 Y39.9304
G01 X0.7427 Y39.9250
G01 X0.8530 Y39.9304
G01 X0.9622 Y39.9466
G01 X1.0693 Y39.9734
G01 X1.1732 Y40.0106
G01 X1.2730 Y40.0578
G01 X1.3677 Y40.1146
G01 X1.4564 Y40.1804
G01 X1.5382 Y40.2545
G01 X1.6123 Y40.3363
G01 X1.6781 Y40.4250
G01 X1.7348 Y40.5197
G01 X1.7820 Y40.6195
G01 X1.8192 Y40.7234
G01 X1.8461 Y40.8305
G01 X1.8615 Y40.9336
G00 Z2.0000
G00 X1.8862 Y43.4700
G01 F60.00
G01 Z-0.1418
G01 F60.00
G01 X1.8877 Y43.4846
G01 X1.8927 Y43.5900
G01 X1.8871 Y43.7027
G01 X1.8706 Y43.8144
G01 X1.8432 Y43.9238
G01 X1.8051 Y44.0301
G01 X1.7569 Y44.1321
G01 X1.6989 Y44.2289
G01 X1.6316 Y44.3196
G01 X1.5559 Y44.4032
G01 X1.4722 Y44.4790
G01 X1.3816 Y44.5462
G01 X1.2848 Y44.6042
G01 X1.1828 Y44.6525
G01 X1.0765 Y44.6905
G01 X0.9670 Y44.7179
G01 X0.8554 Y44.7345
G01 X0.7427 Y44.7400
G01 X0.6300 Y44.7345
G01 X0.5183 Y44.7179
G01 X0.4089 Y44.6905
G01 X0.3026 Y44.6525
G01 X0.2006 Y44.6042
G01 X0.1038 Y44.5462
G01 X0.0131 Y44.4790
G01 X-0.0705 Y44.4032
G01 X-0.1463 Y44.3196
G01 X-0.2135 Y44.2289
G01 X-0.2715 Y44.1321
G01 X-0.3198 Y44.0301
G01 X-0.3578 Y43.9238
G01 X-0.3852 Y43.8144
G01 X-0.4018 Y43.7027
G01 X-0.4073 Y43.5900
G01 X-0.4018 Y43.4773
G01 X-0.3852 Y43.3656
G01 X-0.3578 Y43.2562
G01 X-0.3198 Y43.1499
G01 X-0.2715 Y43.0479
G01 X-0.2135 Y42.9511
G01 X-0.1463 Y42.8604
G01 X-0.0705 Y42.7768
G01 X0.0131 Y42.7010
G01 X0.1038 Y42.6338
G01 X0.2006 Y42.5758
G01 X0.3026 Y42.5275
G01 X0.4089 Y42.4895
G01 X0.5183 Y42.4621
G01 X0.6300 Y42.4455
G01 X0.7427 Y42.4400
G01 X0.8554 Y42.4455
G01 X0.9670 Y42.4621
G01 X1.0765 Y42.4895
G01 X1.1828 Y42.5275
G01 X1.2848 Y42.5758
G01 X1.3816 Y42.6338
G01 X1.4722 Y42.7010
G01 X1.5559 Y42.7768
G01 X1.6316 Y42.8604
G01 X1.6989 Y42.9511
G01 X1.7569 Y43.0479
G01 X1.8051 Y43.1499
G01 X1.8432 Y43.2562
G01 X1.8706 Y43.3656
G01 X1.8862 Y43.4700
G00 Z2.0000
G00 X1.8615 Y43.4736
G01 F60.00
G01 Z-0.1418
G01 F60.00
G01 X1.8627 Y43.4858
G01 X1.8677 Y43.5900
G01 X1.8623 Y43.7003
G01 X1.8461 Y43.8095
G01 X1.8192 Y43.9166
G01 X1.7820 Y44.0205
G01 X1.7348 Y44.1203
G01 X1.6781 Y44.2150
G01 X1.6123 Y44.3037
G01 X1.5382 Y44.3855
G01 X1.4564 Y44.4596
G01 X1.3677 Y44.5254
G01 X1.2730 Y44.5822
G01 X1.1732 Y44.6294
G01 X1.0693 Y44.6666
G01 X0.9622 Y44.6934
G01 X0.8530 Y44.7096
G01 X0.7427 Y44.7150
G01 X0.6324 Y44.7096
G01 X0.5232 Y44.6934
G01 X0.4161 Y44.6666
G01 X0.3122 Y44.6294
G01 X0.2124 Y44.5822
G01 X0.1177 Y44.5254
G01 X0.0290 Y44.4596
G01 X-0.0528 Y44.3855
G01 X-0.1270 Y44.3037
G01 X-0.1927 Y44.2150
G01 X-0.2495 Y44.1203
G01 X-0.2967 Y44.0205
G01 X-0.3339 Y43.9166
G01 X-0.3607 Y43.8095
G01 X-0.3769 Y43.7003
G01 X-0.3823 Y43.5900
G01 X-0.3769 Y43.4797
G01 X-0.3607 Y43.3705
G01 X-0.3339 Y43.2634
G01 X-0.2967 Y43.1595
G01 X-0.2495 Y43.0597
G01 X-0.1927 Y42.9650
G01 X-0.1270 Y42.8763
G01 X-0.0528 Y42.7945
G01 X0.0290 Y42.7204
G01 X0.1177 Y42.6546
G01 X0.2124 Y42.5978
G01 X0.3122 Y42.5506
G01 X0.4161 Y42.5134
G01 X0.5232 Y42.4866
G01 X0.6324 Y42.4704
G01 X0.7427 Y42.4650
G01 X0.8530 Y42.4704
G01 X0.9622 Y42.4866
G01 X1.0693 Y42.5134
G01 X1.1732 Y42.5506
G01 X1.2730 Y42.5978
G01 X1.3677 Y42.6546
G01 X1.4564 Y42.7204
G01 X1.5382 Y42.7945
G01 X1.6123 Y42.8763
G01 X1.6781 Y42.9650
G01 X1.7348 Y43.0597
G01 X1.7820 Y43.1595
G01 X1.8192 Y43.2634
G01 X1.8461 Y43.3705
G01 X1.8615 Y43.4736
G00 Z2.0000
G00 X1.8862 Y46.0100
G01 F60.00
G01 Z-0.1418
G01 F60.00
G01 X1.8877 Y46.0246
G01 X1.8927 Y46.1300
G01 X1.8871 Y46.2427
G01 X1.8706 Y46.3544
G01 X1.8432 Y46.4638
G01 X1.8051 Y46.5701
G01 X1.7569 Y46.6721
G01 X1.6989 Y46.7689
G01 X1.6316 Y46.8596
G01 X1.5559 Y46.9432
G01 X1.4722 Y47.0190
G01 X1.3816 Y47.0862
G01 X1.2848 Y47.1442
G01 X1.1828 Y47.1925
G01 X1.0765 Y47.2305
G01 X0.9670 Y47.2579
G01 X0.8554 Y47.2745
G01 X0.7427 Y47.2800
G01 X0.6300 Y47.2745
G01 X0.5183 Y47.2579
G01 X0.4089 Y47.2305
G01 X0.3026 Y47.1925
G01 X0.2006 Y47.1442
G01 X0.1038 Y47.0862
G01 X0.0131 Y47.0190
G01 X-0.0705 Y46.9432
G01 X-0.1463 Y46.8596
G01 X-0.2135 Y46.7689
G01 X-0.2715 Y46.6721
G01 X-0.3198 Y46.5701
G01 X-0.3578 Y46.4638
G01 X-0.3852 Y46.3544
G01 X-0.4018 Y46.2427
G01 X-0.4073 Y46.1300
G01 X-0.4018 Y46.0173
G01 X-0.3852 Y45.9056
G01 X-0.3578 Y45.7962
G01 X-0.3198 Y45.6899
G01 X-0.2715 Y45.5879
G01 X-0.2135 Y45.4911
G01 X-0.1463 Y45.4004
G01 X-0.0705 Y45.3168
G01 X0.0131 Y45.2410
G01 X0.1038 Y45.1738
G01 X0.2006 Y45.1158
G01 X0.3026 Y45.0675
G01 X0.4089 Y45.0295
G01 X0.5183 Y45.0021
G01 X0.6300 Y44.9855
G01 X0.7427 Y44.9800
G01 X0.8554 Y44.9855
G01 X0.9670 Y45.0021
G01 X1.0765 Y45.0295
G01 X1.1828 Y45.0675
G01 X1.2848 Y45.1158
G01 X1.3816 Y45.1738
G01 X1.4722 Y45.2410
G01 X1.5559 Y45.3168
G01 X1.6316 Y45.4004
G01 X1.6989 Y45.4911
G01 X1.7569 Y45.5879
G01 X1.8051 Y45.6899
G01 X1.8432 Y45.7962
G01 X1.8706 Y45.9056
G01 X1.8862 Y46.0100
G00 Z2.0000
G00 X1.8615 Y46.0136
G01 F60.00
G01 Z-0.1418
G01 F60.00
G01 X1.8627 Y46.0258
G01 X1.8677 Y46.1300
G01 X1.8623 Y46.2403
G01 X1.8461 Y46.3495
G01 X1.8192 Y46.4566
G01 X1.7820 Y46.5605
G01 X1.7348 Y46.6603
G01 X1.6781 Y46.7550
G01 X1.6123 Y46.8437
G01 X1.5382 Y46.9255
G01 X1.4564 Y46.9996
G01 X1.3677 Y47.0654
G01 X1.2730 Y47.1222
G01 X1.1732 Y47.1694
G01 X1.0693 Y47.2066
G01 X0.9622 Y47.2334
G01 X0.8530 Y47.2496
G01 X0.7427 Y47.2550
G01 X0.6324 Y47.2496
G01 X0.5232 Y47.2334
G01 X0.4161 Y47.2066
G01 X0.3122 Y47.1694
G01 X0.2124 Y47.1222
G01 X0.1177 Y47.0654
G01 X0.0290 Y46.9996
G01 X-0.0528 Y46.9255
G01 X-0.1270 Y46.8437
G01 X-0.1927 Y46.7550
G01 X-0.2495 Y46.6603
G01 X-0.2967 Y46.5605
G01 X-0.3339 Y46.4566
G01 X-0.3607 Y46.3495
G01 X-0.3769 Y46.2403
G01 X-0.3823 Y46.1300
G01 X-0.3769 Y46.0197
G01 X-0.3607 Y45.9105
G01 X-0.3339 Y45.8034
G01 X-0.2967 Y45.6995
G01 X-0.2495 Y45.5997
G01 X-0.1927 Y45.5050
G01 X-0.1270 Y45.4163
G01 X-0.0528 Y45.3345
G01 X0.0290 Y45.2604
G01 X0.1177 Y45.1946
G01 X0.2124 Y45.1378
G01 X0.3122 Y45.0906
G01 X0.4161 Y45.0534
G01 X0.5232 Y45.0266
G01 X0.6324 Y45.0104
G01 X0.7427 Y45.0050
G01 X0.8530 Y45.0104
G01 X0.9622 Y45.0266
G01 X1.0693 Y45.0534
G01 X1.1732 Y45.0906
G01 X1.2730 Y45.1378
G01 X1.3677 Y45.1946
G01 X1.4564 Y45.2604
G01 X1.5382 Y45.3345
G01 X1.6123 Y45.4163
G01 X1.6781 Y45.5050
G01 X1.7348 Y45.5997
G01 X1.7820 Y45.6995
G01 X1.8192 Y45.8034
G01 X1.8461 Y45.9105
G01 X1.8615 Y46.0136
G00 Z2.0000
G00 X1.8862 Y48.5500
G01 F60.00
G01 Z-0.1418
G01 F60.00
G01 X1.8877 Y48.5646
G01 X1.8927 Y48.6700
G01 X1.8871 Y48.7827
G01 X1.8706 Y48.8944
G01 X1.8432 Y49.0038
G01 X1.8051 Y49.1101
G01 X1.7569 Y49.2121
G01 X1.6989 Y49.3089
G01 X1.6316 Y49.3996
G01 X1.5559 Y49.4832
G01 X1.4722 Y49.5590
G01 X1.3816 Y49.6262
G01 X1.2848 Y49.6842
G01 X1.1828 Y49.7325
G01 X1.0765 Y49.7705
G01 X0.9670 Y49.7979
G01 X0.8554 Y49.8145
G01 X0.7427 Y49.8200
G01 X0.6300 Y49.8145
G01 X0.5183 Y49.7979
G01 X0.4089 Y49.7705
G01 X0.3026 Y49.7325
G01 X0.2006 Y49.6842
G01 X0.1038 Y49.6262
G01 X0.0131 Y49.5590
G01 X-0.0705 Y49.4832
G01 X-0.1463 Y49.3996
G01 X-0.2135 Y49.3089
G01 X-0.2715 Y49.2121
G01 X-0.3198 Y49.1101
G01 X-0.3578 Y49.0038
G01 X-0.3852 Y48.8944
G01 X-0.4018 Y48.7827
G01 X-0.4073 Y48.6700
G01 X-0.4018 Y48.5573
G01 X-0.3852 Y48.4456
G01 X-0.3578 Y48.3362
G01 X-0.3198 Y48.2299
G01 X-0.2715 Y48.1279
G01 X-0.2135 Y48.0311
G01 X-0.1463 Y47.9404
G01 X-0.0705 Y47.8568
G01 X0.0131 Y47.7810
G01 X0.1038 Y47.7138
G01 X0.2006 Y47.6558
G01 X0.3026 Y47.6075
G01 X0.4089 Y47.5695
G01 X0.5183 Y47.5421
G01 X0.6300 Y47.5255
G01 X0.7427 Y47.5200
G01 X0.8554 Y47.5255
G01 X0.9670 Y47.5421
G01 X1.0765 Y47.5695
G01 X1.1828 Y47.6075
G01 X1.2848 Y47.6558
G01 X1.3816 Y47.7138
G01 X1.4722 Y47.7810
G01 X1.5559 Y47.8568
G01 X1.6316 Y47.9404
G01 X1.6989 Y48.0311
G01 X1.7569 Y48.1279
G01 X1.8051 Y48.2299
G01 X1.8432 Y48.3362
G01 X1.8706 Y48.4456
G01 X1.8862 Y48.5500
G00 Z2.0000
G00 X1.8615 Y48.5536
G01 F60.00
G01 Z-0.1418
G01 F60.00
G01 X1.8627 Y48.5658
G01 X1.8677 Y48.6700
G01 X1.8623 Y48.7803
G01 X1.8461 Y48.8895
G01 X1.8192 Y48.9966
G01 X1.7820 Y49.1005
G01 X1.7348 Y49.2003
G01 X1.6781 Y49.2950
G01 X1.6123 Y49.3837
G01 X1.5382 Y49.4655
G01 X1.4564 Y49.5396
G01 X1.3677 Y49.6054
G01 X1.2730 Y49.6622
G01 X1.1732 Y49.7094
G01 X1.0693 Y49.7466
G01 X0.9622 Y49.7734
G01 X0.8530 Y49.7896
G01 X0.7427 Y49.7950
G01 X0.6324 Y49.7896
G01 X0.5232 Y49.7734
G01 X0.4161 Y49.7466
G01 X0.3122 Y49.7094
G01 X0.2124 Y49.6622
G01 X0.1177 Y49.6054
G01 X0.0290 Y49.5396
G01 X-0.0528 Y49.4655
G01 X-0.1270 Y49.3837
G01 X-0.1927 Y49.2950
G01 X-0.2495 Y49.2003
G01 X-0.2967 Y49.1005
G01 X-0.3339 Y48.9966
G01 X-0.3607 Y48.8895
G01 X-0.3769 Y48.7803
G01 X-0.3823 Y48.6700
G01 X-0.3769 Y48.5597
G01 X-0.3607 Y48.4505
G01 X-0.3339 Y48.3434
G01 X-0.2967 Y48.2395
G01 X-0.2495 Y48.1397
G01 X-0.1927 Y48.0450
G01 X-0.1270 Y47.9563
G01 X-0.0528 Y47.8745
G01 X0.0290 Y47.8004
G01 X0.1177 Y47.7346
G01 X0.2124 Y47.6778
G01 X0.3122 Y47.6306
G01 X0.4161 Y47.5934
G01 X0.5232 Y47.5666
G01 X0.6324 Y47.5504
G01 X0.7427 Y47.5450
G01 X0.8530 Y47.5504
G01 X0.9622 Y47.5666
G01 X1.0693 Y47.5934
G01 X1.1732 Y47.6306
G01 X1.2730 Y47.6778
G01 X1.3677 Y47.7346
G01 X1.4564 Y47.8004
G01 X1.5382 Y47.8745
G01 X1.6123 Y47.9563
G01 X1.6781 Y48.0450
G01 X1.7348 Y48.1397
G01 X1.7820 Y48.2395
G01 X1.8192 Y48.3434
G01 X1.8461 Y48.4505
G01 X1.8615 Y48.5536
G00 Z2.0000
G00 X1.8862 Y51.0900
G01 F60.00
G01 Z-0.1418
G01 F60.00
G01 X1.8877 Y51.1046
G01 X1.8927 Y51.2100
G01 X1.8871 Y51.3227
G01 X1.8706 Y51.4344
G01 X1.8432 Y51.5438
G01 X1.8051 Y51.6501
G01 X1.7569 Y51.7521
G01 X1.6989 Y51.8489
G01 X1.6316 Y51.9396
G01 X1.5559 Y52.0232
G01 X1.4722 Y52.0990
G01 X1.3816 Y52.1662
G01 X1.2848 Y52.2242
G01 X1.1828 Y52.2725
G01 X1.0765 Y52.3105
G01 X0.9670 Y52.3379
G01 X0.8554 Y52.3545
G01 X0.7427 Y52.3600
G01 X0.6300 Y52.3545
G01 X0.5183 Y52.3379
G01 X0.4089 Y52.3105
G01 X0.3026 Y52.2725
G01 X0.2006 Y52.2242
G01 X0.1038 Y52.1662
G01 X0.0131 Y52.0990
G01 X-0.0705 Y52.0232
G01 X-0.1463 Y51.9396
G01 X-0.2135 Y51.8489
G01 X-0.2715 Y51.7521
G01 X-0.3198 Y51.6501
G01 X-0.3578 Y51.5438
G01 X-0.3852 Y51.4344
G01 X-0.4018 Y51.3227
G01 X-0.4073 Y51.2100
G01 X-0.4018 Y51.0973
G01 X-0.3852 Y50.9856
G01 X-0.3578 Y50.8762
G01 X-0.3198 Y50.7699
G01 X-0.2715 Y50.6679
G01 X-0.2135 Y50.5711
G01 X-0.1463 Y50.4804
G01 X-0.0705 Y50.3968
G01 X0.0131 Y50.3210
G01 X0.1038 Y50.2538
G01 X0.2006 Y50.1958
G01 X0.3026 Y50.1475
G01 X0.4089 Y50.1095
G01 X0.5183 Y50.0821
G01 X0.6300 Y50.0655
G01 X0.7427 Y50.0600
G01 X0.8554 Y50.0655
G01 X0.9670 Y50.0821
G01 X1.0765 Y50.1095
G01 X1.1828 Y50.1475
G01 X1.2848 Y50.1958
G01 X1.3816 Y50.2538
G01 X1.4722 Y50.3210
G01 X1.5559 Y50.3968
G01 X1.6316 Y50.4804
G01 X1.6989 Y50.5711
G01 X1.7569 Y50.6679
G01 X1.8051 Y50.7699
G01 X1.8432 Y50.8762
G01 X1.8706 Y50.9856
G01 X1.8862 Y51.0900
G00 Z2.0000
G00 X1.8615 Y51.0936
G01 F60.00
G01 Z-0.1418
G01 F60.00
G01 X1.8627 Y51.1058
G01 X1.8677 Y51.2100
G01 X1.8623 Y51.3203
G01 X1.8461 Y51.4295
G01 X1.8192 Y51.5366
G01 X1.7820 Y51.6405
G01 X1.7348 Y51.7403
G01 X1.6781 Y51.8350
G01 X1.6123 Y51.9237
G01 X1.5382 Y52.0055
G01 X1.4564 Y52.0796
G01 X1.3677 Y52.1454
G01 X1.2730 Y52.2022
G01 X1.1732 Y52.2494
G01 X1.0693 Y52.2866
G01 X0.9622 Y52.3134
G01 X0.8530 Y52.3296
G01 X0.7427 Y52.3350
G01 X0.6324 Y52.3296
G01 X0.5232 Y52.3134
G01 X0.4161 Y52.2866
G01 X0.3122 Y52.2494
G01 X0.2124 Y52.2022
G01 X0.1177 Y52.1454
G01 X0.0290 Y52.0796
G01 X-0.0528 Y52.0055
G01 X-0.1270 Y51.9237
G01 X-0.1927 Y51.8350
G01 X-0.2495 Y51.7403
G01 X-0.2967 Y51.6405
G01 X-0.3339 Y51.5366
G01 X-0.3607 Y51.4295
G01 X-0.3769 Y51.3203
G01 X-0.3823 Y51.2100
G01 X-0.3769 Y51.0997
G01 X-0.3607 Y50.9905
G01 X-0.3339 Y50.8834
G01 X-0.2967 Y50.7795
G01 X-0.2495 Y50.6797
G01 X-0.1927 Y50.5850
G01 X-0.1270 Y50.4963
G01 X-0.0528 Y50.4145
G01 X0.0290 Y50.3404
G01 X0.1177 Y50.2746
G01 X0.2124 Y50.2178
G01 X0.3122 Y50.1706
G01 X0.4161 Y50.1334
G01 X0.5232 Y50.1066
G01 X0.6324 Y50.0904
G01 X0.7427 Y50.0850
G01 X0.8530 Y50.0904
G01 X0.9622 Y50.1066
G01 X1.0693 Y50.1334
G01 X1.1732 Y50.1706
G01 X1.2730 Y50.2178
G01 X1.3677 Y50.2746
G01 X1.4564 Y50.3404
G01 X1.5382 Y50.4145
G01 X1.6123 Y50.4963
G01 X1.6781 Y50.5850
G01 X1.7348 Y50.6797
G01 X1.7820 Y50.7795
G01 X1.8192 Y50.8834
G01 X1.8461 Y50.9905
G01 X1.8615 Y51.0936
G00 Z2.0000
G00 X1.8862 Y53.6300
G01 F60.00
G01 Z-0.1418
G01 F60.00
G01 X1.8877 Y53.6446
G01 X1.8927 Y53.7500
G01 X1.8871 Y53.8627
G01 X1.8706 Y53.9744
G01 X1.8432 Y54.0838
G01 X1.8051 Y54.1901
G01 X1.7569 Y54.2921
G01 X1.6989 Y54.3889
G01 X1.6316 Y54.4796
G01 X1.5559 Y54.5632
G01 X1.4722 Y54.6390
G01 X1.3816 Y54.7062
G01 X1.2848 Y54.7642
G01 X1.1828 Y54.8125
G01 X1.0765 Y54.8505
G01 X0.9670 Y54.8779
G01 X0.8554 Y54.8945
G01 X0.7427 Y54.9000
G01 X0.6300 Y54.8945
G01 X0.5183 Y54.8779
G01 X0.4089 Y54.8505
G01 X0.3026 Y54.8125
G01 X0.2006 Y54.7642
G01 X0.1038 Y54.7062
G01 X0.0131 Y54.6390
G01 X-0.0705 Y54.5632
G01 X-0.1463 Y54.4796
G01 X-0.2135 Y54.3889
G01 X-0.2715 Y54.2921
G01 X-0.3198 Y54.1901
G01 X-0.3578 Y54.0838
G01 X-0.3852 Y53.9744
G01 X-0.4018 Y53.8627
G01 X-0.4073 Y53.7500
G01 X-0.4018 Y53.6373
G01 X-0.3852 Y53.5256
G01 X-0.3578 Y53.4162
G01 X-0.3198 Y53.3099
G01 X-0.2715 Y53.2079
G01 X-0.2135 Y53.1111
G01 X-0.1463 Y53.0204
G01 X-0.0705 Y52.9368
G01 X0.0131 Y52.8610
G01 X0.1038 Y52.7938
G01 X0.2006 Y52.7358
G01 X0.3026 Y52.6875
G01 X0.4089 Y52.6495
G01 X0.5183 Y52.6221
G01 X0.6300 Y52.6055
G01 X0.7427 Y52.6000
G01 X0.8554 Y52.6055
G01 X0.9670 Y52.6221
G01 X1.0765 Y52.6495
G01 X1.1828 Y52.6875
G01 X1.2848 Y52.7358
G01 X1.3816 Y52.7938
G01 X1.4722 Y52.8610
G01 X1.5559 Y52.9368
G01 X1.6316 Y53.0204
G01 X1.6989 Y53.1111
G01 X1.7569 Y53.2079
G01 X1.8051 Y53.3099
G01 X1.8432 Y53.4162
G01 X1.8706 Y53.5256
G01 X1.8862 Y53.6300
G00 Z2.0000
G00 X1.8615 Y53.6336
G01 F60.00
G01 Z-0.1418
G01 F60.00
G01 X1.8627 Y53.6458
G01 X1.8677 Y53.7500
G01 X1.8623 Y53.8603
G01 X1.8461 Y53.9695
G01 X1.8192 Y54.0766
G01 X1.7820 Y54.1805
G01 X1.7348 Y54.2803
G01 X1.6781 Y54.3750
G01 X1.6123 Y54.4637
G01 X1.5382 Y54.5455
G01 X1.4564 Y54.6196
G01 X1.3677 Y54.6854
G01 X1.2730 Y54.7422
G01 X1.1732 Y54.7894
G01 X1.0693 Y54.8266
G01 X0.9622 Y54.8534
G01 X0.8530 Y54.8696
G01 X0.7427 Y54.8750
G01 X0.6324 Y54.8696
G01 X0.5232 Y54.8534
G01 X0.4161 Y54.8266
G01 X0.3122 Y54.7894
G01 X0.2124 Y54.7422
G01 X0.1177 Y54.6854
G01 X0.0290 Y54.6196
G01 X-0.0528 Y54.5455
G01 X-0.1270 Y54.4637
G01 X-0.1927 Y54.3750
G01 X-0.2495 Y54.2803
G01 X-0.2967 Y54.1805
G01 X-0.3339 Y54.0766
G01 X-0.3607 Y53.9695
G01 X-0.3769 Y53.8603
G01 X-0.3823 Y53.7500
G01 X-0.3769 Y53.6397
G01 X-0.3607 Y53.5305
G01 X-0.3339 Y53.4234
G01 X-0.2967 Y53.3195
G01 X-0.2495 Y53.2197
G01 X-0.1927 Y53.1250
G01 X-0.1270 Y53.0363
G01 X-0.0528 Y52.9545
G01 X0.0290 Y52.8804
G01 X0.1177 Y52.8146
G01 X0.2124 Y52.7578
G01 X0.3122 Y52.7106
G01 X0.4161 Y52.6734
G01 X0.5232 Y52.6466
G01 X0.6324 Y52.6304
G01 X0.7427 Y52.6250
G01 X0.8530 Y52.6304
G01 X0.9622 Y52.6466
G01 X1.0693 Y52.6734
G01 X1.1732 Y52.7106
G01 X1.2730 Y52.7578
G01 X1.3677 Y52.8146
G01 X1.4564 Y52.8804
G01 X1.5382 Y52.9545
G01 X1.6123 Y53.0363
G01 X1.6781 Y53.1250
G01 X1.7348 Y53.2197
G01 X1.7820 Y53.3195
G01 X1.8192 Y53.4234
G01 X1.8461 Y53.5305
G01 X1.8615 Y53.6336
G00 Z2.0000
G00 X1.8862 Y56.1700
G01 F60.00
G01 Z-0.1418
G01 F60.00
G01 X1.8877 Y56.1846
G01 X1.8927 Y56.2900
G01 X1.8871 Y56.4027
G01 X1.8706 Y56.5144
G01 X1.8432 Y56.6238
G01 X1.8051 Y56.7301
G01 X1.7569 Y56.8321
G01 X1.6989 Y56.9289
G01 X1.6316 Y57.0196
G01 X1.5559 Y57.1032
G01 X1.4722 Y57.1790
G01 X1.3816 Y57.2462
G01 X1.2848 Y57.3042
G01 X1.1828 Y57.3525
G01 X1.0765 Y57.3905
G01 X0.9670 Y57.4179
G01 X0.8554 Y57.4345
G01 X0.7427 Y57.4400
G01 X0.6300 Y57.4345
G01 X0.5183 Y57.4179
G01 X0.4089 Y57.3905
G01 X0.3026 Y57.3525
G01 X0.2006 Y57.3042
G01 X0.1038 Y57.2462
G01 X0.0131 Y57.1790
G01 X-0.0705 Y57.1032
G01 X-0.1463 Y57.0196
G01 X-0.2135 Y56.9289
G01 X-0.2715 Y56.8321
G01 X-0.3198 Y56.7301
G01 X-0.3578 Y56.6238
G01 X-0.3852 Y56.5144
G01 X-0.4018 Y56.4027
G01 X-0.4073 Y56.2900
G01 X-0.4018 Y56.1773
G01 X-0.3852 Y56.0656
G01 X-0.3578 Y55.9562
G01 X-0.3198 Y55.8499
G01 X-0.2715 Y55.7479
G01 X-0.2135 Y55.6511
G01 X-0.1463 Y55.5604
G01 X-0.0705 Y55.4768
G01 X0.0131 Y55.4010
G01 X0.1038 Y55.3338
G01 X0.2006 Y55.2758
G01 X0.3026 Y55.2275
G01 X0.4089 Y55.1895
G01 X0.5183 Y55.1621
G01 X0.6300 Y55.1455
G01 X0.7427 Y55.1400
G01 X0.8554 Y55.1455
G01 X0.9670 Y55.1621
G01 X1.0765 Y55.1895
G01 X1.1828 Y55.2275
G01 X1.2848 Y55.2758
G01 X1.3816 Y55.3338
G01 X1.4722 Y55.4010
G01 X1.5559 Y55.4768
G01 X1.6316 Y55.5604
G01 X1.6989 Y55.6511
G01 X1.7569 Y55.7479
G01 X1.8051 Y55.8499
G01 X1.8432 Y55.9562
G01 X1.8706 Y56.0656
G01 X1.8862 Y56.1700
G00 Z2.0000
G00 X1.8615 Y56.1736
G01 F60.00
G01 Z-0.1418
G01 F60.00
G01 X1.8627 Y56.1858
G01 X1.8677 Y56.2900
G01 X1.8623 Y56.4003
G01 X1.8461 Y56.5095
G01 X1.8192 Y56.6166
G01 X1.7820 Y56.7205
G01 X1.7348 Y56.8203
G01 X1.6781 Y56.9150
G01 X1.6123 Y57.0037
G01 X1.5382 Y57.0855
G01 X1.4564 Y57.1596
G01 X1.3677 Y57.2254
G01 X1.2730 Y57.2822
G01 X1.1732 Y57.3294
G01 X1.0693 Y57.3666
G01 X0.9622 Y57.3934
G01 X0.8530 Y57.4096
G01 X0.7427 Y57.4150
G01 X0.6324 Y57.4096
G01 X0.5232 Y57.3934
G01 X0.4161 Y57.3666
G01 X0.3122 Y57.3294
G01 X0.2124 Y57.2822
G01 X0.1177 Y57.2254
G01 X0.0290 Y57.1596
G01 X-0.0528 Y57.0855
G01 X-0.1270 Y57.0037
G01 X-0.1927 Y56.9150
G01 X-0.2495 Y56.8203
G01 X-0.2967 Y56.7205
G01 X-0.3339 Y56.6166
G01 X-0.3607 Y56.5095
G01 X-0.3769 Y56.4003
G01 X-0.3823 Y56.2900
G01 X-0.3769 Y56.1797
G01 X-0.3607 Y56.0705
G01 X-0.3339 Y55.9634
G01 X-0.2967 Y55.8595
G01 X-0.2495 Y55.7597
G01 X-0.1927 Y55.6650
G01 X-0.1270 Y55.5763
G01 X-0.0528 Y55.4945
G01 X0.0290 Y55.4204
G01 X0.1177 Y55.3546
G01 X0.2124 Y55.2978
G01 X0.3122 Y55.2506
G01 X0.4161 Y55.2134
G01 X0.5232 Y55.1866
G01 X0.6324 Y55.1704
G01 X0.7427 Y55.1650
G01 X0.8530 Y55.1704
G01 X0.9622 Y55.1866
G01 X1.0693 Y55.2134
G01 X1.1732 Y55.2506
G01 X1.2730 Y55.2978
G01 X1.3677 Y55.3546
G01 X1.4564 Y55.4204
G01 X1.5382 Y55.4945
G01 X1.6123 Y55.5763
G01 X1.6781 Y55.6650
G01 X1.7348 Y55.7597
G01 X1.7820 Y55.8595
G01 X1.8192 Y55.9634
G01 X1.8461 Y56.0705
G01 X1.8615 Y56.1736
G00 Z2.0000
G00 X1.8862 Y58.7100
G01 F60.00
G01 Z-0.1418
G01 F60.00
G01 X1.8877 Y58.7246
G01 X1.8927 Y58.8300
G01 X1.8871 Y58.9427
G01 X1.8706 Y59.0544
G01 X1.8432 Y59.1638
G01 X1.8051 Y59.2701
G01 X1.7569 Y59.3721
G01 X1.6989 Y59.4689
G01 X1.6316 Y59.5596
G01 X1.5559 Y59.6432
G01 X1.4722 Y59.7190
G01 X1.3816 Y59.7862
G01 X1.2848 Y59.8442
G01 X1.1828 Y59.8925
G01 X1.0765 Y59.9305
G01 X0.9670 Y59.9579
G01 X0.8554 Y59.9745
G01 X0.7427 Y59.9800
G01 X0.6300 Y59.9745
G01 X0.5183 Y59.9579
G01 X0.4089 Y59.9305
G01 X0.3026 Y59.8925
G01 X0.2006 Y59.8442
G01 X0.1038 Y59.7862
G01 X0.0131 Y59.7190
G01 X-0.0705 Y59.6432
G01 X-0.1463 Y59.5596
G01 X-0.2135 Y59.4689
G01 X-0.2715 Y59.3721
G01 X-0.3198 Y59.2701
G01 X-0.3578 Y59.1638
G01 X-0.3852 Y59.0544
G01 X-0.4018 Y58.9427
G01 X-0.4073 Y58.8300
G01 X-0.4018 Y58.7173
G01 X-0.3852 Y58.6056
G01 X-0.3578 Y58.4962
G01 X-0.3198 Y58.3899
G01 X-0.2715 Y58.2879
G01 X-0.2135 Y58.1911
G01 X-0.1463 Y58.1004
G01 X-0.0705 Y58.0168
G01 X0.0131 Y57.9410
G01 X0.1038 Y57.8738
G01 X0.2006 Y57.8158
G01 X0.3026 Y57.7675
G01 X0.4089 Y57.7295
G01 X0.5183 Y57.7021
G01 X0.6300 Y57.6855
G01 X0.7427 Y57.6800
G01 X0.8554 Y57.6855
G01 X0.9670 Y57.7021
G01 X1.0765 Y57.7295
G01 X1.1828 Y57.7675
G01 X1.2848 Y57.8158
G01 X1.3816 Y57.8738
G01 X1.4722 Y57.9410
G01 X1.5559 Y58.0168
G01 X1.6316 Y58.1004
G01 X1.6989 Y58.1911
G01 X1.7569 Y58.2879
G01 X1.8051 Y58.3899
G01 X1.8432 Y58.4962
G01 X1.8706 Y58.6056
G01 X1.8862 Y58.7100
G00 Z2.0000
G00 X1.8615 Y58.7136
G01 F60.00
G01 Z-0.1418
G01 F60.00
G01 X1.8627 Y58.7258
G01 X1.8677 Y58.8300
G01 X1.8623 Y58.9403
G01 X1.8461 Y59.0495
G01 X1.8192 Y59.1566
G01 X1.7820 Y59.2605
G01 X1.7348 Y59.3603
G01 X1.6781 Y59.4550
G01 X1.6123 Y59.5437
G01 X1.5382 Y59.6255
G01 X1.4564 Y59.6996
G01 X1.3677 Y59.7654
G01 X1.2730 Y59.8222
G01 X1.1732 Y59.8694
G01 X1.0693 Y59.9066
G01 X0.9622 Y59.9334
G01 X0.8530 Y59.9496
G01 X0.7427 Y59.9550
G01 X0.6324 Y59.9496
G01 X0.5232 Y59.9334
G01 X0.4161 Y59.9066
G01 X0.3122 Y59.8694
G01 X0.2124 Y59.8222
G01 X0.1177 Y59.7654
G01 X0.0290 Y59.6996
G01 X-0.0528 Y59.6255
G01 X-0.1270 Y59.5437
G01 X-0.1927 Y59.4550
G01 X-0.2495 Y59.3603
G01 X-0.2967 Y59.2605
G01 X-0.3339 Y59.1566
G01 X-0.3607 Y59.0495
G01 X-0.3769 Y58.9403
G01 X-0.3823 Y58.8300
G01 X-0.3769 Y58.7197
G01 X-0.3607 Y58.6105
G01 X-0.3339 Y58.5034
G01 X-0.2967 Y58.3995
G01 X-0.2495 Y58.2997
G01 X-0.1927 Y58.2050
G01 X-0.1270 Y58.1163
G01 X-0.0528 Y58.0345
G01 X0.0290 Y57.9604
G01 X0.1177 Y57.8946
G01 X0.2124 Y57.8378
G01 X0.3122 Y57.7906
G01 X0.4161 Y57.7534
G01 X0.5232 Y57.7266
G01 X0.6324 Y57.7104
G01 X0.7427 Y57.7050
G01 X0.8530 Y57.7104
G01 X0.9622 Y57.7266
G01 X1.0693 Y57.7534
G01 X1.1732 Y57.7906
G01 X1.2730 Y57.8378
G01 X1.3677 Y57.8946
G01 X1.4564 Y57.9604
G01 X1.5382 Y58.0345
G01 X1.6123 Y58.1163
G01 X1.6781 Y58.2050
G01 X1.7348 Y58.2997
G01 X1.7820 Y58.3995
G01 X1.8192 Y58.5034
G01 X1.8461 Y58.6105
G01 X1.8615 Y58.7136
G00 Z2.0000
G00 X1.8862 Y61.2500
G01 F60.00
G01 Z-0.1418
G01 F60.00
G01 X1.8877 Y61.2646
G01 X1.8927 Y61.3700
G01 X1.8871 Y61.4827
G01 X1.8706 Y61.5944
G01 X1.8432 Y61.7038
G01 X1.8051 Y61.8101
G01 X1.7569 Y61.9121
G01 X1.6989 Y62.0089
G01 X1.6316 Y62.0996
G01 X1.5559 Y62.1832
G01 X1.4722 Y62.2590
G01 X1.3816 Y62.3262
G01 X1.2848 Y62.3842
G01 X1.1828 Y62.4325
G01 X1.0765 Y62.4705
G01 X0.9670 Y62.4979
G01 X0.8554 Y62.5145
G01 X0.7427 Y62.5200
G01 X0.6300 Y62.5145
G01 X0.5183 Y62.4979
G01 X0.4089 Y62.4705
G01 X0.3026 Y62.4325
G01 X0.2006 Y62.3842
G01 X0.1038 Y62.3262
G01 X0.0131 Y62.2590
G01 X-0.0705 Y62.1832
G01 X-0.1463 Y62.0996
G01 X-0.2135 Y62.0089
G01 X-0.2715 Y61.9121
G01 X-0.3198 Y61.8101
G01 X-0.3578 Y61.7038
G01 X-0.3852 Y61.5944
G01 X-0.4018 Y61.4827
G01 X-0.4073 Y61.3700
G01 X-0.4018 Y61.2573
G01 X-0.3852 Y61.1456
G01 X-0.3578 Y61.0362
G01 X-0.3198 Y60.9299
G01 X-0.2715 Y60.8279
G01 X-0.2135 Y60.7311
G01 X-0.1463 Y60.6404
G01 X-0.0705 Y60.5568
G01 X0.0131 Y60.4810
G01 X0.1038 Y60.4138
G01 X0.2006 Y60.3558
G01 X0.3026 Y60.3075
G01 X0.4089 Y60.2695
G01 X0.5183 Y60.2421
G01 X0.6300 Y60.2255
G01 X0.7427 Y60.2200
G01 X0.8554 Y60.2255
G01 X0.9670 Y60.2421
G01 X1.0765 Y60.2695
G01 X1.1828 Y60.3075
G01 X1.2848 Y60.3558
G01 X1.3816 Y60.4138
G01 X1.4722 Y60.4810
G01 X1.5559 Y60.5568
G01 X1.6316 Y60.6404
G01 X1.6989 Y60.7311
G01 X1.7569 Y60.8279
G01 X1.8051 Y60.9299
G01 X1.8432 Y61.0362
G01 X1.8706 Y61.1456
G01 X1.8862 Y61.2500
G00 Z2.0000
G00 X1.8615 Y61.2536
G01 F60.00
G01 Z-0.1418
G01 F60.00
G01 X1.8627 Y61.2658
G01 X1.8677 Y61.3700
G01 X1.8623 Y61.4803
G01 X1.8461 Y61.5895
G01 X1.8192 Y61.6966
G01 X1.7820 Y61.8005
G01 X1.7348 Y61.9003
G01 X1.6781 Y61.9950
G01 X1.6123 Y62.0837
G01 X1.5382 Y62.1655
G01 X1.4564 Y62.2396
G01 X1.3677 Y62.3054
G01 X1.2730 Y62.3622
G01 X1.1732 Y62.4094
G01 X1.0693 Y62.4466
G01 X0.9622 Y62.4734
G01 X0.8530 Y62.4896
G01 X0.7427 Y62.4950
G01 X0.6324 Y62.4896
G01 X0.5232 Y62.4734
G01 X0.4161 Y62.4466
G01 X0.3122 Y62.4094
G01 X0.2124 Y62.3622
G01 X0.1177 Y62.3054
G01 X0.0290 Y62.2396
G01 X-0.0528 Y62.1655
G01 X-0.1270 Y62.0837
G01 X-0.1927 Y61.9950
G01 X-0.2495 Y61.9003
G01 X-0.2967 Y61.8005
G01 X-0.3339 Y61.6966
G01 X-0.3607 Y61.5895
G01 X-0.3769 Y61.4803
G01 X-0.3823 Y61.3700
G01 X-0.3769 Y61.2597
G01 X-0.3607 Y61.1505
G01 X-0.3339 Y61.0434
G01 X-0.2967 Y60.9395
G01 X-0.2495 Y60.8397
G01 X-0.1927 Y60.7450
G01 X-0.1270 Y60.6563
G01 X-0.0528 Y60.5745
G01 X0.0290 Y60.5004
G01 X0.1177 Y60.4346
G01 X0.2124 Y60.3778
G01 X0.3122 Y60.3306
G01 X0.4161 Y60.2934
G01 X0.5232 Y60.2666
G01 X0.6324 Y60.2504
G01 X0.7427 Y60.2450
G01 X0.8530 Y60.2504
G01 X0.9622 Y60.2666
G01 X1.0693 Y60.2934
G01 X1.1732 Y60.3306
G01 X1.2730 Y60.3778
G01 X1.3677 Y60.4346
G01 X1.4564 Y60.5004
G01 X1.5382 Y60.5745
G01 X1.6123 Y60.6563
G01 X1.6781 Y60.7450
G01 X1.7348 Y60.8397
G01 X1.7820 Y60.9395
G01 X1.8192 Y61.0434
G01 X1.8461 Y61.1505
G01 X1.8615 Y61.2536
G00 Z2.0000
G00 X1.8862 Y63.7900
G01 F60.00
G01 Z-0.1418
G01 F60.00
G01 X1.8877 Y63.8046
G01 X1.8927 Y63.9100
G01 X1.8871 Y64.0227
G01 X1.8706 Y64.1344
G01 X1.8432 Y64.2438
G01 X1.8051 Y64.3501
G01 X1.7569 Y64.4521
G01 X1.6989 Y64.5489
G01 X1.6316 Y64.6396
G01 X1.5559 Y64.7232
G01 X1.4722 Y64.7990
G01 X1.3816 Y64.8662
G01 X1.2848 Y64.9242
G01 X1.1828 Y64.9725
G01 X1.0765 Y65.0105
G01 X0.9670 Y65.0379
G01 X0.8554 Y65.0545
G01 X0.7427 Y65.0600
G01 X0.6300 Y65.0545
G01 X0.5183 Y65.0379
G01 X0.4089 Y65.0105
G01 X0.3026 Y64.9725
G01 X0.2006 Y64.9242
G01 X0.1038 Y64.8662
G01 X0.0131 Y64.7990
G01 X-0.0705 Y64.7232
G01 X-0.1463 Y64.6396
G01 X-0.2135 Y64.5489
G01 X-0.2715 Y64.4521
G01 X-0.3198 Y64.3501
G01 X-0.3578 Y64.2438
G01 X-0.3852 Y64.1344
G01 X-0.4018 Y64.0227
G01 X-0.4073 Y63.9100
G01 X-0.4018 Y63.7973
G01 X-0.3852 Y63.6856
G01 X-0.3578 Y63.5762
G01 X-0.3198 Y63.4699
G01 X-0.2715 Y63.3679
G01 X-0.2135 Y63.2711
G01 X-0.1463 Y63.1804
G01 X-0.0705 Y63.0968
G01 X0.0131 Y63.0210
G01 X0.1038 Y62.9538
G01 X0.2006 Y62.8958
G01 X0.3026 Y62.8475
G01 X0.4089 Y62.8095
G01 X0.5183 Y62.7821
G01 X0.6300 Y62.7655
G01 X0.7427 Y62.7600
G01 X0.8554 Y62.7655
G01 X0.9670 Y62.7821
G01 X1.0765 Y62.8095
G01 X1.1828 Y62.8475
G01 X1.2848 Y62.8958
G01 X1.3816 Y62.9538
G01 X1.4722 Y63.0210
G01 X1.5559 Y63.0968
G01 X1.6316 Y63.1804
G01 X1.6989 Y63.2711
G01 X1.7569 Y63.3679
G01 X1.8051 Y63.4699
G01 X1.8432 Y63.5762
G01 X1.8706 Y63.6856
G01 X1.8862 Y63.7900
G00 Z2.0000
G00 X1.8615 Y63.7936
G01 F60.00
G01 Z-0.1418
G01 F60.00
G01 X1.8627 Y63.8058
G01 X1.8677 Y63.9100
G01 X1.8623 Y64.0203
G01 X1.8461 Y64.1295
G01 X1.8192 Y64.2366
G01 X1.7820 Y64.3405
G01 X1.7348 Y64.4403
G01 X1.6781 Y64.5350
G01 X1.6123 Y64.6237
G01 X1.5382 Y64.7055
G01 X1.4564 Y64.7796
G01 X1.3677 Y64.8454
G01 X1.2730 Y64.9022
G01 X1.1732 Y64.9494
G01 X1.0693 Y64.9866
G01 X0.9622 Y65.0134
G01 X0.8530 Y65.0296
G01 X0.7427 Y65.0350
G01 X0.6324 Y65.0296
G01 X0.5232 Y65.0134
G01 X0.4161 Y64.9866
G01 X0.3122 Y64.9494
G01 X0.2124 Y64.9022
G01 X0.1177 Y64.8454
G01 X0.0290 Y64.7796
G01 X-0.0528 Y64.7055
G01 X-0.1270 Y64.6237
G01 X-0.1927 Y64.5350
G01 X-0.2495 Y64.4403
G01 X-0.2967 Y64.3405
G01 X-0.3339 Y64.2366
G01 X-0.3607 Y64.1295
G01 X-0.3769 Y64.0203
G01 X-0.3823 Y63.9100
G01 X-0.3769 Y63.7997
G01 X-0.3607 Y63.6905
G01 X-0.3339 Y63.5834
G01 X-0.2967 Y63.4795
G01 X-0.2495 Y63.3797
G01 X-0.1927 Y63.2850
G01 X-0.1270 Y63.1963
G01 X-0.0528 Y63.1145
G01 X0.0290 Y63.0404
G01 X0.1177 Y62.9746
G01 X0.2124 Y62.9178
G01 X0.3122 Y62.8706
G01 X0.4161 Y62.8334
G01 X0.5232 Y62.8066
G01 X0.6324 Y62.7904
G01 X0.7427 Y62.7850
G01 X0.8530 Y62.7904
G01 X0.9622 Y62.8066
G01 X1.0693 Y62.8334
G01 X1.1732 Y62.8706
G01 X1.2730 Y62.9178
G01 X1.3677 Y62.9746
G01 X1.4564 Y63.0404
G01 X1.5382 Y63.1145
G01 X1.6123 Y63.1963
G01 X1.6781 Y63.2850
G01 X1.7348 Y63.3797
G01 X1.7820 Y63.4795
G01 X1.8192 Y63.5834
G01 X1.8461 Y63.6905
G01 X1.8615 Y63.7936
G00 Z2.0000
G00 X1.8862 Y66.3300
G01 F60.00
G01 Z-0.1418
G01 F60.00
G01 X1.8877 Y66.3446
G01 X1.8927 Y66.4500
G01 X1.8871 Y66.5627
G01 X1.8706 Y66.6744
G01 X1.8432 Y66.7838
G01 X1.8051 Y66.8901
G01 X1.7569 Y66.9921
G01 X1.6989 Y67.0889
G01 X1.6316 Y67.1796
G01 X1.5559 Y67.2632
G01 X1.4722 Y67.3390
G01 X1.3816 Y67.4062
G01 X1.2848 Y67.4642
G01 X1.1828 Y67.5125
G01 X1.0765 Y67.5505
G01 X0.9670 Y67.5779
G01 X0.8554 Y67.5945
G01 X0.7427 Y67.6000
G01 X0.6300 Y67.5945
G01 X0.5183 Y67.5779
G01 X0.4089 Y67.5505
G01 X0.3026 Y67.5125
G01 X0.2006 Y67.4642
G01 X0.1038 Y67.4062
G01 X0.0131 Y67.3390
G01 X-0.0705 Y67.2632
G01 X-0.1463 Y67.1796
G01 X-0.2135 Y67.0889
G01 X-0.2715 Y66.9921
G01 X-0.3198 Y66.8901
G01 X-0.3578 Y66.7838
G01 X-0.3852 Y66.6744
G01 X-0.4018 Y66.5627
G01 X-0.4073 Y66.4500
G01 X-0.4018 Y66.3373
G01 X-0.3852 Y66.2256
G01 X-0.3578 Y66.1162
G01 X-0.3198 Y66.0099
G01 X-0.2715 Y65.9079
G01 X-0.2135 Y65.8111
G01 X-0.1463 Y65.7204
G01 X-0.0705 Y65.6368
G01 X0.0131 Y65.5610
G01 X0.1038 Y65.4938
G01 X0.2006 Y65.4358
G01 X0.3026 Y65.3875
G01 X0.4089 Y65.3495
G01 X0.5183 Y65.3221
G01 X0.6300 Y65.3055
G01 X0.7427 Y65.3000
G01 X0.8554 Y65.3055
G01 X0.9670 Y65.3221
G01 X1.0765 Y65.3495
G01 X1.1828 Y65.3875
G01 X1.2848 Y65.4358
G01 X1.3816 Y65.4938
G01 X1.4722 Y65.5610
G01 X1.5559 Y65.6368
G01 X1.6316 Y65.7204
G01 X1.6989 Y65.8111
G01 X1.7569 Y65.9079
G01 X1.8051 Y66.0099
G01 X1.8432 Y66.1162
G01 X1.8706 Y66.2256
G01 X1.8862 Y66.3300
G00 Z2.0000
G00 X1.8615 Y66.3336
G01 F60.00
G01 Z-0.1418
G01 F60.00
G01 X1.8627 Y66.3458
G01 X1.8677 Y66.4500
G01 X1.8623 Y66.5603
G01 X1.8461 Y66.6695
G01 X1.8192 Y66.7766
G01 X1.7820 Y66.8805
G01 X1.7348 Y66.9803
G01 X1.6781 Y67.0750
G01 X1.6123 Y67.1637
G01 X1.5382 Y67.2455
G01 X1.4564 Y67.3196
G01 X1.3677 Y67.3854
G01 X1.2730 Y67.4422
G01 X1.1732 Y67.4894
G01 X1.0693 Y67.5266
G01 X0.9622 Y67.5534
G01 X0.8530 Y67.5696
G01 X0.7427 Y67.5750
G01 X0.6324 Y67.5696
G01 X0.5232 Y67.5534
G01 X0.4161 Y67.5266
G01 X0.3122 Y67.4894
G01 X0.2124 Y67.4422
G01 X0.1177 Y67.3854
G01 X0.0290 Y67.3196
G01 X-0.0528 Y67.2455
G01 X-0.1270 Y67.1637
G01 X-0.1927 Y67.0750
G01 X-0.2495 Y66.9803
G01 X-0.2967 Y66.8805
G01 X-0.3339 Y66.7766
G01 X-0.3607 Y66.6695
G01 X-0.3769 Y66.5603
G01 X-0.3823 Y66.4500
G01 X-0.3769 Y66.3397
G01 X-0.3607 Y66.2305
G01 X-0.3339 Y66.1234
G01 X-0.2967 Y66.0195
G01 X-0.2495 Y65.9197
G01 X-0.1927 Y65.8250
G01 X-0.1270 Y65.7363
G01 X-0.0528 Y65.6545
G01 X0.0290 Y65.5804
G01 X0.1177 Y65.5146
G01 X0.2124 Y65.4578
G01 X0.3122 Y65.4106
G01 X0.4161 Y65.3734
G01 X0.5232 Y65.3466
G01 X0.6324 Y65.3304
G01 X0.7427 Y65.3250
G01 X0.8530 Y65.3304
G01 X0.9622 Y65.3466
G01 X1.0693 Y65.3734
G01 X1.1732 Y65.4106
G01 X1.2730 Y65.4578
G01 X1.3677 Y65.5146
G01 X1.4564 Y65.5804
G01 X1.5382 Y65.6545
G01 X1.6123 Y65.7363
G01 X1.6781 Y65.8250
G01 X1.7348 Y65.9197
G01 X1.7820 Y66.0195
G01 X1.8192 Y66.1234
G01 X1.8461 Y66.2305
G01 X1.8615 Y66.3336
G00 Z2.0000
G00 X1.8862 Y68.8700
G01 F60.00
G01 Z-0.1418
G01 F60.00
G01 X1.8877 Y68.8846
G01 X1.8927 Y68.9900
G01 X1.8871 Y69.1027
G01 X1.8706 Y69.2144
G01 X1.8432 Y69.3238
G01 X1.8051 Y69.4301
G01 X1.7569 Y69.5321
G01 X1.6989 Y69.6289
G01 X1.6316 Y69.7196
G01 X1.5559 Y69.8032
G01 X1.4722 Y69.8790
G01 X1.3816 Y69.9462
G01 X1.2848 Y70.0042
G01 X1.1828 Y70.0525
G01 X1.0765 Y70.0905
G01 X0.9670 Y70.1179
G01 X0.8554 Y70.1345
G01 X0.7427 Y70.1400
G01 X0.6300 Y70.1345
G01 X0.5183 Y70.1179
G01 X0.4089 Y70.0905
G01 X0.3026 Y70.0525
G01 X0.2006 Y70.0042
G01 X0.1038 Y69.9462
G01 X0.0131 Y69.8790
G01 X-0.0705 Y69.8032
G01 X-0.1463 Y69.7196
G01 X-0.2135 Y69.6289
G01 X-0.2715 Y69.5321
G01 X-0.3198 Y69.4301
G01 X-0.3578 Y69.3238
G01 X-0.3852 Y69.2144
G01 X-0.4018 Y69.1027
G01 X-0.4073 Y68.9900
G01 X-0.4018 Y68.8773
G01 X-0.3852 Y68.7656
G01 X-0.3578 Y68.6562
G01 X-0.3198 Y68.5499
G01 X-0.2715 Y68.4479
G01 X-0.2135 Y68.3511
G01 X-0.1463 Y68.2604
G01 X-0.0705 Y68.1768
G01 X0.0131 Y68.1010
G01 X0.1038 Y68.0338
G01 X0.2006 Y67.9758
G01 X0.3026 Y67.9275
G01 X0.4089 Y67.8895
G01 X0.5183 Y67.8621
G01 X0.6300 Y67.8455
G01 X0.7427 Y67.8400
G01 X0.8554 Y67.8455
G01 X0.9670 Y67.8621
G01 X1.0765 Y67.8895
G01 X1.1828 Y67.9275
G01 X1.2848 Y67.9758
G01 X1.3816 Y68.0338
G01 X1.4722 Y68.1010
G01 X1.5559 Y68.1768
G01 X1.6316 Y68.2604
G01 X1.6989 Y68.3511
G01 X1.7569 Y68.4479
G01 X1.8051 Y68.5499
G01 X1.8432 Y68.6562
G01 X1.8706 Y68.7656
G01 X1.8862 Y68.8700
G00 Z2.0000
G00 X1.8615 Y68.8736
G01 F60.00
G01 Z-0.1418
G01 F60.00
G01 X1.8627 Y68.8858
G01 X1.8677 Y68.9900
G01 X1.8623 Y69.1003
G01 X1.8461 Y69.2095
G01 X1.8192 Y69.3166
G01 X1.7820 Y69.4205
G01 X1.7348 Y69.5203
G01 X1.6781 Y69.6150
G01 X1.6123 Y69.7037
G01 X1.5382 Y69.7855
G01 X1.4564 Y69.8596
G01 X1.3677 Y69.9254
G01 X1.2730 Y69.9822
G01 X1.1732 Y70.0294
G01 X1.0693 Y70.0666
G01 X0.9622 Y70.0934
G01 X0.8530 Y70.1096
G01 X0.7427 Y70.1150
G01 X0.6324 Y70.1096
G01 X0.5232 Y70.0934
G01 X0.4161 Y70.0666
G01 X0.3122 Y70.0294
G01 X0.2124 Y69.9822
G01 X0.1177 Y69.9254
G01 X0.0290 Y69.8596
G01 X-0.0528 Y69.7855
G01 X-0.1270 Y69.7037
G01 X-0.1927 Y69.6150
G01 X-0.2495 Y69.5203
G01 X-0.2967 Y69.4205
G01 X-0.3339 Y69.3166
G01 X-0.3607 Y69.2095
G01 X-0.3769 Y69.1003
G01 X-0.3823 Y68.9900
G01 X-0.3769 Y68.8797
G01 X-0.3607 Y68.7705
G01 X-0.3339 Y68.6634
G01 X-0.2967 Y68.5595
G01 X-0.2495 Y68.4597
G01 X-0.1927 Y68.3650
G01 X-0.1270 Y68.2763
G01 X-0.0528 Y68.1945
G01 X0.0290 Y68.1204
G01 X0.1177 Y68.0546
G01 X0.2124 Y67.9978
G01 X0.3122 Y67.9506
G01 X0.4161 Y67.9134
G01 X0.5232 Y67.8866
G01 X0.6324 Y67.8704
G01 X0.7427 Y67.8650
G01 X0.8530 Y67.8704
G01 X0.9622 Y67.8866
G01 X1.0693 Y67.9134
G01 X1.1732 Y67.9506
G01 X1.2730 Y67.9978
G01 X1.3677 Y68.0546
G01 X1.4564 Y68.1204
G01 X1.5382 Y68.1945
G01 X1.6123 Y68.2763
G01 X1.6781 Y68.3650
G01 X1.7348 Y68.4597
G01 X1.7820 Y68.5595
G01 X1.8192 Y68.6634
G01 X1.8461 Y68.7705
G01 X1.8615 Y68.8736
G00 Z2.0000
G00 X1.8862 Y71.4100
G01 F60.00
G01 Z-0.1418
G01 F60.00
G01 X1.8877 Y71.4246
G01 X1.8927 Y71.5300
G01 X1.8871 Y71.6427
G01 X1.8706 Y71.7544
G01 X1.8432 Y71.8638
G01 X1.8051 Y71.9701
G01 X1.7569 Y72.0721
G01 X1.6989 Y72.1689
G01 X1.6316 Y72.2596
G01 X1.5559 Y72.3432
G01 X1.4722 Y72.4190
G01 X1.3816 Y72.4862
G01 X1.2848 Y72.5442
G01 X1.1828 Y72.5925
G01 X1.0765 Y72.6305
G01 X0.9670 Y72.6579
G01 X0.8554 Y72.6745
G01 X0.7427 Y72.6800
G01 X0.6300 Y72.6745
G01 X0.5183 Y72.6579
G01 X0.4089 Y72.6305
G01 X0.3026 Y72.5925
G01 X0.2006 Y72.5442
G01 X0.1038 Y72.4862
G01 X0.0131 Y72.4190
G01 X-0.0705 Y72.3432
G01 X-0.1463 Y72.2596
G01 X-0.2135 Y72.1689
G01 X-0.2715 Y72.0721
G01 X-0.3198 Y71.9701
G01 X-0.3578 Y71.8638
G01 X-0.3852 Y71.7544
G01 X-0.4018 Y71.6427
G01 X-0.4073 Y71.5300
G01 X-0.4018 Y71.4173
G01 X-0.3852 Y71.3056
G01 X-0.3578 Y71.1962
G01 X-0.3198 Y71.0899
G01 X-0.2715 Y70.9879
G01 X-0.2135 Y70.8911
G01 X-0.1463 Y70.8004
G01 X-0.0705 Y70.7168
G01 X0.0131 Y70.6410
G01 X0.1038 Y70.5738
G01 X0.2006 Y70.5158
G01 X0.3026 Y70.4675
G01 X0.4089 Y70.4295
G01 X0.5183 Y70.4021
G01 X0.6300 Y70.3855
G01 X0.7427 Y70.3800
G01 X0.8554 Y70.3855
G01 X0.9670 Y70.4021
G01 X1.0765 Y70.4295
G01 X1.1828 Y70.4675
G01 X1.2848 Y70.5158
G01 X1.3816 Y70.5738
G01 X1.4722 Y70.6410
G01 X1.5559 Y70.7168
G01 X1.6316 Y70.8004
G01 X1.6989 Y70.8911
G01 X1.7569 Y70.9879
G01 X1.8051 Y71.0899
G01 X1.8432 Y71.1962
G01 X1.8706 Y71.3056
G01 X1.8862 Y71.4100
G00 Z2.0000
G00 X1.8615 Y71.4136
G01 F60.00
G01 Z-0.1418
G01 F60.00
G01 X1.8627 Y71.4258
G01 X1.8677 Y71.5300
G01 X1.8623 Y71.6403
G01 X1.8461 Y71.7495
G01 X1.8192 Y71.8566
G01 X1.7820 Y71.9605
G01 X1.7348 Y72.0603
G01 X1.6781 Y72.1550
G01 X1.6123 Y72.2437
G01 X1.5382 Y72.3255
G01 X1.4564 Y72.3996
G01 X1.3677 Y72.4654
G01 X1.2730 Y72.5222
G01 X1.1732 Y72.5694
G01 X1.0693 Y72.6066
G01 X0.9622 Y72.6334
G01 X0.8530 Y72.6496
G01 X0.7427 Y72.6550
G01 X0.6324 Y72.6496
G01 X0.5232 Y72.6334
G01 X0.4161 Y72.6066
G01 X0.3122 Y72.5694
G01 X0.2124 Y72.5222
G01 X0.1177 Y72.4654
G01 X0.0290 Y72.3996
G01 X-0.0528 Y72.3255
G01 X-0.1270 Y72.2437
G01 X-0.1927 Y72.1550
G01 X-0.2495 Y72.0603
G01 X-0.2967 Y71.9605
G01 X-0.3339 Y71.8566
G01 X-0.3607 Y71.7495
G01 X-0.3769 Y71.6403
G01 X-0.3823 Y71.5300
G01 X-0.3769 Y71.4197
G01 X-0.3607 Y71.3105
G01 X-0.3339 Y71.2034
G01 X-0.2967 Y71.0995
G01 X-0.2495 Y70.9997
G01 X-0.1927 Y70.9050
G01 X-0.1270 Y70.8163
G01 X-0.0528 Y70.7345
G01 X0.0290 Y70.6604
G01 X0.1177 Y70.5946
G01 X0.2124 Y70.5378
G01 X0.3122 Y70.4906
G01 X0.4161 Y70.4534
G01 X0.5232 Y70.4266
G01 X0.6324 Y70.4104
G01 X0.7427 Y70.4050
G01 X0.8530 Y70.4104
G01 X0.9622 Y70.4266
G01 X1.0693 Y70.4534
G01 X1.1732 Y70.4906
G01 X1.2730 Y70.5378
G01 X1.3677 Y70.5946
G01 X1.4564 Y70.6604
G01 X1.5382 Y70.7345
G01 X1.6123 Y70.8163
G01 X1.6781 Y70.9050
G01 X1.7348 Y70.9997
G01 X1.7820 Y71.0995
G01 X1.8192 Y71.2034
G01 X1.8461 Y71.3105
G01 X1.8615 Y71.4136
G00 Z2.0000
G00 X1.8862 Y73.9500
G01 F60.00
G01 Z-0.1418
G01 F60.00
G01 X1.8877 Y73.9646
G01 X1.8927 Y74.0700
G01 X1.8871 Y74.1827
G01 X1.8706 Y74.2944
G01 X1.8432 Y74.4038
G01 X1.8051 Y74.5101
G01 X1.7569 Y74.6121
G01 X1.6989 Y74.7089
G01 X1.6316 Y74.7996
G01 X1.5559 Y74.8832
G01 X1.4722 Y74.9590
G01 X1.3816 Y75.0262
G01 X1.2848 Y75.0842
G01 X1.1828 Y75.1325
G01 X1.0765 Y75.1705
G01 X0.9670 Y75.1979
G01 X0.8554 Y75.2145
G01 X0.7427 Y75.2200
G01 X0.6300 Y75.2145
G01 X0.5183 Y75.1979
G01 X0.4089 Y75.1705
G01 X0.3026 Y75.1325
G01 X0.2006 Y75.0842
G01 X0.1038 Y75.0262
G01 X0.0131 Y74.9590
G01 X-0.0705 Y74.8832
G01 X-0.1463 Y74.7996
G01 X-0.2135 Y74.7089
G01 X-0.2715 Y74.6121
G01 X-0.3198 Y74.5101
G01 X-0.3578 Y74.4038
G01 X-0.3852 Y74.2944
G01 X-0.4018 Y74.1827
G01 X-0.4073 Y74.0700
G01 X-0.4018 Y73.9573
G01 X-0.3852 Y73.8456
G01 X-0.3578 Y73.7362
G01 X-0.3198 Y73.6299
G01 X-0.2715 Y73.5279
G01 X-0.2135 Y73.4311
G01 X-0.1463 Y73.3404
G01 X-0.0705 Y73.2568
G01 X0.0131 Y73.1810
G01 X0.1038 Y73.1138
G01 X0.2006 Y73.0558
G01 X0.3026 Y73.0075
G01 X0.4089 Y72.9695
G01 X0.5183 Y72.9421
G01 X0.6300 Y72.9255
G01 X0.7427 Y72.9200
G01 X0.8554 Y72.9255
G01 X0.9670 Y72.9421
G01 X1.0765 Y72.9695
G01 X1.1828 Y73.0075
G01 X1.2848 Y73.0558
G01 X1.3816 Y73.1138
G01 X1.4722 Y73.1810
G01 X1.5559 Y73.2568
G01 X1.6316 Y73.3404
G01 X1.6989 Y73.4311
G01 X1.7569 Y73.5279
G01 X1.8051 Y73.6299
G01 X1.8432 Y73.7362
G01 X1.8706 Y73.8456
G01 X1.8862 Y73.9500
G00 Z2.0000
G00 X1.8615 Y73.9536
G01 F60.00
G01 Z-0.1418
G01 F60.00
G01 X1.8627 Y73.9658
G01 X1.8677 Y74.0700
G01 X1.8623 Y74.1803
G01 X1.8461 Y74.2895
G01 X1.8192 Y74.3966
G01 X1.7820 Y74.5005
G01 X1.7348 Y74.6003
G01 X1.6781 Y74.6950
G01 X1.6123 Y74.7837
G01 X1.5382 Y74.8655
G01 X1.4564 Y74.9396
G01 X1.3677 Y75.0054
G01 X1.2730 Y75.0622
G01 X1.1732 Y75.1094
G01 X1.0693 Y75.1466
G01 X0.9622 Y75.1734
G01 X0.8530 Y75.1896
G01 X0.7427 Y75.1950
G01 X0.6324 Y75.1896
G01 X0.5232 Y75.1734
G01 X0.4161 Y75.1466
G01 X0.3122 Y75.1094
G01 X0.2124 Y75.0622
G01 X0.1177 Y75.0054
G01 X0.0290 Y74.9396
G01 X-0.0528 Y74.8655
G01 X-0.1270 Y74.7837
G01 X-0.1927 Y74.6950
G01 X-0.2495 Y74.6003
G01 X-0.2967 Y74.5005
G01 X-0.3339 Y74.3966
G01 X-0.3607 Y74.2895
G01 X-0.3769 Y74.1803
G01 X-0.3823 Y74.0700
G01 X-0.3769 Y73.9597
G01 X-0.3607 Y73.8505
G01 X-0.3339 Y73.7434
G01 X-0.2967 Y73.6395
G01 X-0.2495 Y73.5397
G01 X-0.1927 Y73.4450
G01 X-0.1270 Y73.3563
G01 X-0.0528 Y73.2745
G01 X0.0290 Y73.2004
G01 X0.1177 Y73.1346
G01 X0.2124 Y73.0778
G01 X0.3122 Y73.0306
G01 X0.4161 Y72.9934
G01 X0.5232 Y72.9666
G01 X0.6324 Y72.9504
G01 X0.7427 Y72.9450
G01 X0.8530 Y72.9504
G01 X0.9622 Y72.9666
G01 X1.0693 Y72.9934
G01 X1.1732 Y73.0306
G01 X1.2730 Y73.0778
G01 X1.3677 Y73.1346
G01 X1.4564 Y73.2004
G01 X1.5382 Y73.2745
G01 X1.6123 Y73.3563
G01 X1.6781 Y73.4450
G01 X1.7348 Y73.5397
G01 X1.7820 Y73.6395
G01 X1.8192 Y73.7434
G01 X1.8461 Y73.8505
G01 X1.8615 Y73.9536
G00 Z2.0000
G00 X1.8862 Y76.4900
G01 F60.00
G01 Z-0.1418
G01 F60.00
G01 X1.8877 Y76.5046
G01 X1.8927 Y76.6100
G01 X1.8871 Y76.7227
G01 X1.8706 Y76.8344
G01 X1.8432 Y76.9438
G01 X1.8051 Y77.0501
G01 X1.7569 Y77.1521
G01 X1.6989 Y77.2489
G01 X1.6316 Y77.3396
G01 X1.5559 Y77.4232
G01 X1.4722 Y77.4990
G01 X1.3816 Y77.5662
G01 X1.2848 Y77.6242
G01 X1.1828 Y77.6725
G01 X1.0765 Y77.7105
G01 X0.9670 Y77.7379
G01 X0.8554 Y77.7545
G01 X0.7427 Y77.7600
G01 X0.6300 Y77.7545
G01 X0.5183 Y77.7379
G01 X0.4089 Y77.7105
G01 X0.3026 Y77.6725
G01 X0.2006 Y77.6242
G01 X0.1038 Y77.5662
G01 X0.0131 Y77.4990
G01 X-0.0705 Y77.4232
G01 X-0.1463 Y77.3396
G01 X-0.2135 Y77.2489
G01 X-0.2715 Y77.1521
G01 X-0.3198 Y77.0501
G01 X-0.3578 Y76.9438
G01 X-0.3852 Y76.8344
G01 X-0.4018 Y76.7227
G01 X-0.4073 Y76.6100
G01 X-0.4018 Y76.4973
G01 X-0.3852 Y76.3856
G01 X-0.3578 Y76.2762
G01 X-0.3198 Y76.1699
G01 X-0.2715 Y76.0679
G01 X-0.2135 Y75.9711
G01 X-0.1463 Y75.8804
G01 X-0.0705 Y75.7968
G01 X0.0131 Y75.7210
G01 X0.1038 Y75.6538
G01 X0.2006 Y75.5958
G01 X0.3026 Y75.5475
G01 X0.4089 Y75.5095
G01 X0.5183 Y75.4821
G01 X0.6300 Y75.4655
G01 X0.7427 Y75.4600
G01 X0.8554 Y75.4655
G01 X0.9670 Y75.4821
G01 X1.0765 Y75.5095
G01 X1.1828 Y75.5475
G01 X1.2848 Y75.5958
G01 X1.3816 Y75.6538
G01 X1.4722 Y75.7210
G01 X1.5559 Y75.7968
G01 X1.6316 Y75.8804
G01 X1.6989 Y75.9711
G01 X1.7569 Y76.0679
G01 X1.8051 Y76.1699
G01 X1.8432 Y76.2762
G01 X1.8706 Y76.3856
G01 X1.8862 Y76.4900
G00 Z2.0000
G00 X1.8615 Y76.4936
G01 F60.00
G01 Z-0.1418
G01 F60.00
G01 X1.8627 Y76.5058
G01 X1.8677 Y76.6100
G01 X1.8623 Y76.7203
G01 X1.8461 Y76.8295
G01 X1.8192 Y76.9366
G01 X1.7820 Y77.0405
G01 X1.7348 Y77.1403
G01 X1.6781 Y77.2350
G01 X1.6123 Y77.3237
G01 X1.5382 Y77.4055
G01 X1.4564 Y77.4796
G01 X1.3677 Y77.5454
G01 X1.2730 Y77.6022
G01 X1.1732 Y77.6494
G01 X1.0693 Y77.6866
G01 X0.9622 Y77.7134
G01 X0.8530 Y77.7296
G01 X0.7427 Y77.7350
G01 X0.6324 Y77.7296
G01 X0.5232 Y77.7134
G01 X0.4161 Y77.6866
G01 X0.3122 Y77.6494
G01 X0.2124 Y77.6022
G01 X0.1177 Y77.5454
G01 X0.0290 Y77.4796
G01 X-0.0528 Y77.4055
G01 X-0.1270 Y77.3237
G01 X-0.1927 Y77.2350
G01 X-0.2495 Y77.1403
G01 X-0.2967 Y77.0405
G01 X-0.3339 Y76.9366
G01 X-0.3607 Y76.8295
G01 X-0.3769 Y76.7203
G01 X-0.3823 Y76.6100
G01 X-0.3769 Y76.4997
G01 X-0.3607 Y76.3905
G01 X-0.3339 Y76.2834
G01 X-0.2967 Y76.1795
G01 X-0.2495 Y76.0797
G01 X-0.1927 Y75.9850
G01 X-0.1270 Y75.8963
G01 X-0.0528 Y75.8145
G01 X0.0290 Y75.7404
G01 X0.1177 Y75.6746
G01 X0.2124 Y75.6178
G01 X0.3122 Y75.5706
G01 X0.4161 Y75.5334
G01 X0.5232 Y75.5066
G01 X0.6324 Y75.4904
G01 X0.7427 Y75.4850
G01 X0.8530 Y75.4904
G01 X0.9622 Y75.5066
G01 X1.0693 Y75.5334
G01 X1.1732 Y75.5706
G01 X1.2730 Y75.6178
G01 X1.3677 Y75.6746
G01 X1.4564 Y75.7404
G01 X1.5382 Y75.8145
G01 X1.6123 Y75.8963
G01 X1.6781 Y75.9850
G01 X1.7348 Y76.0797
G01 X1.7820 Y76.1795
G01 X1.8192 Y76.2834
G01 X1.8461 Y76.3905
G01 X1.8615 Y76.4936
G00 Z2.0000
G00 X1.8862 Y79.0300
G01 F60.00
G01 Z-0.1418
G01 F60.00
G01 X1.8877 Y79.0446
G01 X1.8927 Y79.1500
G01 X1.8871 Y79.2627
G01 X1.8706 Y79.3744
G01 X1.8432 Y79.4838
G01 X1.8051 Y79.5901
G01 X1.7569 Y79.6921
G01 X1.6989 Y79.7889
G01 X1.6316 Y79.8796
G01 X1.5559 Y79.9632
G01 X1.4722 Y80.0390
G01 X1.3816 Y80.1062
G01 X1.2848 Y80.1642
G01 X1.1828 Y80.2125
G01 X1.0765 Y80.2505
G01 X0.9670 Y80.2779
G01 X0.8554 Y80.2945
G01 X0.7427 Y80.3000
G01 X0.6300 Y80.2945
G01 X0.5183 Y80.2779
G01 X0.4089 Y80.2505
G01 X0.3026 Y80.2125
G01 X0.2006 Y80.1642
G01 X0.1038 Y80.1062
G01 X0.0131 Y80.0390
G01 X-0.0705 Y79.9632
G01 X-0.1463 Y79.8796
G01 X-0.2135 Y79.7889
G01 X-0.2715 Y79.6921
G01 X-0.3198 Y79.5901
G01 X-0.3578 Y79.4838
G01 X-0.3852 Y79.3744
G01 X-0.4018 Y79.2627
G01 X-0.4073 Y79.1500
G01 X-0.4018 Y79.0373
G01 X-0.3852 Y78.9256
G01 X-0.3578 Y78.8162
G01 X-0.3198 Y78.7099
G01 X-0.2715 Y78.6079
G01 X-0.2135 Y78.5111
G01 X-0.1463 Y78.4204
G01 X-0.0705 Y78.3368
G01 X0.0131 Y78.2610
G01 X0.1038 Y78.1938
G01 X0.2006 Y78.1358
G01 X0.3026 Y78.0875
G01 X0.4089 Y78.0495
G01 X0.5183 Y78.0221
G01 X0.6300 Y78.0055
G01 X0.7427 Y78.0000
G01 X0.8554 Y78.0055
G01 X0.9670 Y78.0221
G01 X1.0765 Y78.0495
G01 X1.1828 Y78.0875
G01 X1.2848 Y78.1358
G01 X1.3816 Y78.1938
G01 X1.4722 Y78.2610
G01 X1.5559 Y78.3368
G01 X1.6316 Y78.4204
G01 X1.6989 Y78.5111
G01 X1.7569 Y78.6079
G01 X1.8051 Y78.7099
G01 X1.8432 Y78.8162
G01 X1.8706 Y78.9256
G01 X1.8862 Y79.0300
G00 Z2.0000
G00 X1.8615 Y79.0336
G01 F60.00
G01 Z-0.1418
G01 F60.00
G01 X1.8627 Y79.0458
G01 X1.8677 Y79.1500
G01 X1.8623 Y79.2603
G01 X1.8461 Y79.3695
G01 X1.8192 Y79.4766
G01 X1.7820 Y79.5805
G01 X1.7348 Y79.6803
G01 X1.6781 Y79.7750
G01 X1.6123 Y79.8637
G01 X1.5382 Y79.9455
G01 X1.4564 Y80.0196
G01 X1.3677 Y80.0854
G01 X1.2730 Y80.1422
G01 X1.1732 Y80.1894
G01 X1.0693 Y80.2266
G01 X0.9622 Y80.2534
G01 X0.8530 Y80.2696
G01 X0.7427 Y80.2750
G01 X0.6324 Y80.2696
G01 X0.5232 Y80.2534
G01 X0.4161 Y80.2266
G01 X0.3122 Y80.1894
G01 X0.2124 Y80.1422
G01 X0.1177 Y80.0854
G01 X0.0290 Y80.0196
G01 X-0.0528 Y79.9455
G01 X-0.1270 Y79.8637
G01 X-0.1927 Y79.7750
G01 X-0.2495 Y79.6803
G01 X-0.2967 Y79.5805
G01 X-0.3339 Y79.4766
G01 X-0.3607 Y79.3695
G01 X-0.3769 Y79.2603
G01 X-0.3823 Y79.1500
G01 X-0.3769 Y79.0397
G01 X-0.3607 Y78.9305
G01 X-0.3339 Y78.8234
G01 X-0.2967 Y78.7195
G01 X-0.2495 Y78.6197
G01 X-0.1927 Y78.5250
G01 X-0.1270 Y78.4363
G01 X-0.0528 Y78.3545
G01 X0.0290 Y78.2804
G01 X0.1177 Y78.2146
G01 X0.2124 Y78.1578
G01 X0.3122 Y78.1106
G01 X0.4161 Y78.0734
G01 X0.5232 Y78.0466
G01 X0.6324 Y78.0304
G01 X0.7427 Y78.0250
G01 X0.8530 Y78.0304
G01 X0.9622 Y78.0466
G01 X1.0693 Y78.0734
G01 X1.1732 Y78.1106
G01 X1.2730 Y78.1578
G01 X1.3677 Y78.2146
G01 X1.4564 Y78.2804
G01 X1.5382 Y78.3545
G01 X1.6123 Y78.4363
G01 X1.6781 Y78.5250
G01 X1.7348 Y78.6197
G01 X1.7820 Y78.7195
G01 X1.8192 Y78.8234
G01 X1.8461 Y78.9305
G01 X1.8615 Y79.0336
G00 Z2.0000
G00 X1.8862 Y81.5700
G01 F60.00
G01 Z-0.1418
G01 F60.00
G01 X1.8877 Y81.5846
G01 X1.8927 Y81.6900
G01 X1.8871 Y81.8027
G01 X1.8706 Y81.9144
G01 X1.8432 Y82.0238
G01 X1.8051 Y82.1301
G01 X1.7569 Y82.2321
G01 X1.6989 Y82.3289
G01 X1.6316 Y82.4196
G01 X1.5559 Y82.5032
G01 X1.4722 Y82.5790
G01 X1.3816 Y82.6462
G01 X1.2848 Y82.7042
G01 X1.1828 Y82.7525
G01 X1.0765 Y82.7905
G01 X0.9670 Y82.8179
G01 X0.8554 Y82.8345
G01 X0.7427 Y82.8400
G01 X0.6300 Y82.8345
G01 X0.5183 Y82.8179
G01 X0.4089 Y82.7905
G01 X0.3026 Y82.7525
G01 X0.2006 Y82.7042
G01 X0.1038 Y82.6462
G01 X0.0131 Y82.5790
G01 X-0.0705 Y82.5032
G01 X-0.1463 Y82.4196
G01 X-0.2135 Y82.3289
G01 X-0.2715 Y82.2321
G01 X-0.3198 Y82.1301
G01 X-0.3578 Y82.0238
G01 X-0.3852 Y81.9144
G01 X-0.4018 Y81.8027
G01 X-0.4073 Y81.6900
G01 X-0.4018 Y81.5773
G01 X-0.3852 Y81.4656
G01 X-0.3578 Y81.3562
G01 X-0.3198 Y81.2499
G01 X-0.2715 Y81.1479
G01 X-0.2135 Y81.0511
G01 X-0.1463 Y80.9604
G01 X-0.0705 Y80.8768
G01 X0.0131 Y80.8010
G01 X0.1038 Y80.7338
G01 X0.2006 Y80.6758
G01 X0.3026 Y80.6275
G01 X0.4089 Y80.5895
G01 X0.5183 Y80.5621
G01 X0.6300 Y80.5455
G01 X0.7427 Y80.5400
G01 X0.8554 Y80.5455
G01 X0.9670 Y80.5621
G01 X1.0765 Y80.5895
G01 X1.1828 Y80.6275
G01 X1.2848 Y80.6758
G01 X1.3816 Y80.7338
G01 X1.4722 Y80.8010
G01 X1.5559 Y80.8768
G01 X1.6316 Y80.9604
G01 X1.6989 Y81.0511
G01 X1.7569 Y81.1479
G01 X1.8051 Y81.2499
G01 X1.8432 Y81.3562
G01 X1.8706 Y81.4656
G01 X1.8862 Y81.5700
G00 Z2.0000
G00 X1.8615 Y81.5736
G01 F60.00
G01 Z-0.1418
G01 F60.00
G01 X1.8627 Y81.5858
G01 X1.8677 Y81.6900
G01 X1.8623 Y81.8003
G01 X1.8461 Y81.9095
G01 X1.8192 Y82.0166
G01 X1.7820 Y82.1205
G01 X1.7348 Y82.2203
G01 X1.6781 Y82.3150
G01 X1.6123 Y82.4037
G01 X1.5382 Y82.4855
G01 X1.4564 Y82.5596
G01 X1.3677 Y82.6254
G01 X1.2730 Y82.6822
G01 X1.1732 Y82.7294
G01 X1.0693 Y82.7666
G01 X0.9622 Y82.7934
G01 X0.8530 Y82.8096
G01 X0.7427 Y82.8150
G01 X0.6324 Y82.8096
G01 X0.5232 Y82.7934
G01 X0.4161 Y82.7666
G01 X0.3122 Y82.7294
G01 X0.2124 Y82.6822
G01 X0.1177 Y82.6254
G01 X0.0290 Y82.5596
G01 X-0.0528 Y82.4855
G01 X-0.1270 Y82.4037
G01 X-0.1927 Y82.3150
G01 X-0.2495 Y82.2203
G01 X-0.2967 Y82.1205
G01 X-0.3339 Y82.0166
G01 X-0.3607 Y81.9095
G01 X-0.3769 Y81.8003
G01 X-0.3823 Y81.6900
G01 X-0.3769 Y81.5797
G01 X-0.3607 Y81.4705
G01 X-0.3339 Y81.3634
G01 X-0.2967 Y81.2595
G01 X-0.2495 Y81.1597
G01 X-0.1927 Y81.0650
G01 X-0.1270 Y80.9763
G01 X-0.0528 Y80.8945
G01 X0.0290 Y80.8204
G01 X0.1177 Y80.7546
G01 X0.2124 Y80.6978
G01 X0.3122 Y80.6506
G01 X0.4161 Y80.6134
G01 X0.5232 Y80.5866
G01 X0.6324 Y80.5704
G01 X0.7427 Y80.5650
G01 X0.8530 Y80.5704
G01 X0.9622 Y80.5866
G01 X1.0693 Y80.6134
G01 X1.1732 Y80.6506
G01 X1.2730 Y80.6978
G01 X1.3677 Y80.7546
G01 X1.4564 Y80.8204
G01 X1.5382 Y80.8945
G01 X1.6123 Y80.9763
G01 X1.6781 Y81.0650
G01 X1.7348 Y81.1597
G01 X1.7820 Y81.2595
G01 X1.8192 Y81.3634
G01 X1.8461 Y81.4705
G01 X1.8615 Y81.5736
G00 Z2.0000
G00 X1.8862 Y84.1100
G01 F60.00
G01 Z-0.1418
G01 F60.00
G01 X1.8877 Y84.1246
G01 X1.8927 Y84.2300
G01 X1.8871 Y84.3427
G01 X1.8706 Y84.4544
G01 X1.8432 Y84.5638
G01 X1.8051 Y84.6701
G01 X1.7569 Y84.7721
G01 X1.6989 Y84.8689
G01 X1.6316 Y84.9596
G01 X1.5559 Y85.0432
G01 X1.4722 Y85.1190
G01 X1.3816 Y85.1862
G01 X1.2848 Y85.2442
G01 X1.1828 Y85.2925
G01 X1.0765 Y85.3305
G01 X0.9670 Y85.3579
G01 X0.8554 Y85.3745
G01 X0.7427 Y85.3800
G01 X0.6300 Y85.3745
G01 X0.5183 Y85.3579
G01 X0.4089 Y85.3305
G01 X0.3026 Y85.2925
G01 X0.2006 Y85.2442
G01 X0.1038 Y85.1862
G01 X0.0131 Y85.1190
G01 X-0.0705 Y85.0432
G01 X-0.1463 Y84.9596
G01 X-0.2135 Y84.8689
G01 X-0.2715 Y84.7721
G01 X-0.3198 Y84.6701
G01 X-0.3578 Y84.5638
G01 X-0.3852 Y84.4544
G01 X-0.4018 Y84.3427
G01 X-0.4073 Y84.2300
G01 X-0.4018 Y84.1173
G01 X-0.3852 Y84.0056
G01 X-0.3578 Y83.8962
G01 X-0.3198 Y83.7899
G01 X-0.2715 Y83.6879
G01 X-0.2135 Y83.5911
G01 X-0.1463 Y83.5004
G01 X-0.0705 Y83.4168
G01 X0.0131 Y83.3410
G01 X0.1038 Y83.2738
G01 X0.2006 Y83.2158
G01 X0.3026 Y83.1675
G01 X0.4089 Y83.1295
G01 X0.5183 Y83.1021
G01 X0.6300 Y83.0855
G01 X0.7427 Y83.0800
G01 X0.8554 Y83.0855
G01 X0.9670 Y83.1021
G01 X1.0765 Y83.1295
G01 X1.1828 Y83.1675
G01 X1.2848 Y83.2158
G01 X1.3816 Y83.2738
G01 X1.4722 Y83.3410
G01 X1.5559 Y83.4168
G01 X1.6316 Y83.5004
G01 X1.6989 Y83.5911
G01 X1.7569 Y83.6879
G01 X1.8051 Y83.7899
G01 X1.8432 Y83.8962
G01 X1.8706 Y84.0056
G01 X1.8862 Y84.1100
G00 Z2.0000
G00 X1.8615 Y84.1136
G01 F60.00
G01 Z-0.1418
G01 F60.00
G01 X1.8627 Y84.1258
G01 X1.8677 Y84.2300
G01 X1.8623 Y84.3403
G01 X1.8461 Y84.4495
G01 X1.8192 Y84.5566
G01 X1.7820 Y84.6605
G01 X1.7348 Y84.7603
G01 X1.6781 Y84.8550
G01 X1.6123 Y84.9437
G01 X1.5382 Y85.0255
G01 X1.4564 Y85.0996
G01 X1.3677 Y85.1654
G01 X1.2730 Y85.2222
G01 X1.1732 Y85.2694
G01 X1.0693 Y85.3066
G01 X0.9622 Y85.3334
G01 X0.8530 Y85.3496
G01 X0.7427 Y85.3550
G01 X0.6324 Y85.3496
G01 X0.5232 Y85.3334
G01 X0.4161 Y85.3066
G01 X0.3122 Y85.2694
G01 X0.2124 Y85.2222
G01 X0.1177 Y85.1654
G01 X0.0290 Y85.0996
G01 X-0.0528 Y85.0255
G01 X-0.1270 Y84.9437
G01 X-0.1927 Y84.8550
G01 X-0.2495 Y84.7603
G01 X-0.2967 Y84.6605
G01 X-0.3339 Y84.5566
G01 X-0.3607 Y84.4495
G01 X-0.3769 Y84.3403
G01 X-0.3823 Y84.2300
G01 X-0.3769 Y84.1197
G01 X-0.3607 Y84.0105
G01 X-0.3339 Y83.9034
G01 X-0.2967 Y83.7995
G01 X-0.2495 Y83.6997
G01 X-0.1927 Y83.6050
G01 X-0.1270 Y83.5163
G01 X-0.0528 Y83.4345
G01 X0.0290 Y83.3604
G01 X0.1177 Y83.2946
G01 X0.2124 Y83.2378
G01 X0.3122 Y83.1906
G01 X0.4161 Y83.1534
G01 X0.5232 Y83.1266
G01 X0.6324 Y83.1104
G01 X0.7427 Y83.1050
G01 X0.8530 Y83.1104
G01 X0.9622 Y83.1266
G01 X1.0693 Y83.1534
G01 X1.1732 Y83.1906
G01 X1.2730 Y83.2378
G01 X1.3677 Y83.2946
G01 X1.4564 Y83.3604
G01 X1.5382 Y83.4345
G01 X1.6123 Y83.5163
G01 X1.6781 Y83.6050
G01 X1.7348 Y83.6997
G01 X1.7820 Y83.7995
G01 X1.8192 Y83.9034
G01 X1.8461 Y84.0105
G01 X1.8615 Y84.1136
G00 Z2.0000
G00 X1.8862 Y86.6500
G01 F60.00
G01 Z-0.1418
G01 F60.00
G01 X1.8877 Y86.6646
G01 X1.8927 Y86.7700
G01 X1.8871 Y86.8827
G01 X1.8706 Y86.9944
G01 X1.8432 Y87.1038
G01 X1.8051 Y87.2101
G01 X1.7569 Y87.3121
G01 X1.6989 Y87.4089
G01 X1.6316 Y87.4996
G01 X1.5559 Y87.5832
G01 X1.4722 Y87.6590
G01 X1.3816 Y87.7262
G01 X1.2848 Y87.7842
G01 X1.1828 Y87.8325
G01 X1.0765 Y87.8705
G01 X0.9670 Y87.8979
G01 X0.8554 Y87.9145
G01 X0.7427 Y87.9200
G01 X0.6300 Y87.9145
G01 X0.5183 Y87.8979
G01 X0.4089 Y87.8705
G01 X0.3026 Y87.8325
G01 X0.2006 Y87.7842
G01 X0.1038 Y87.7262
G01 X0.0131 Y87.6590
G01 X-0.0705 Y87.5832
G01 X-0.1463 Y87.4996
G01 X-0.2135 Y87.4089
G01 X-0.2715 Y87.3121
G01 X-0.3198 Y87.2101
G01 X-0.3578 Y87.1038
G01 X-0.3852 Y86.9944
G01 X-0.4018 Y86.8827
G01 X-0.4073 Y86.7700
G01 X-0.4018 Y86.6573
G01 X-0.3852 Y86.5456
G01 X-0.3578 Y86.4362
G01 X-0.3198 Y86.3299
G01 X-0.2715 Y86.2279
G01 X-0.2135 Y86.1311
G01 X-0.1463 Y86.0404
G01 X-0.0705 Y85.9568
G01 X0.0131 Y85.8810
G01 X0.1038 Y85.8138
G01 X0.2006 Y85.7558
G01 X0.3026 Y85.7075
G01 X0.4089 Y85.6695
G01 X0.5183 Y85.6421
G01 X0.6300 Y85.6255
G01 X0.7427 Y85.6200
G01 X0.8554 Y85.6255
G01 X0.9670 Y85.6421
G01 X1.0765 Y85.6695
G01 X1.1828 Y85.7075
G01 X1.2848 Y85.7558
G01 X1.3816 Y85.8138
G01 X1.4722 Y85.8810
G01 X1.5559 Y85.9568
G01 X1.6316 Y86.0404
G01 X1.6989 Y86.1311
G01 X1.7569 Y86.2279
G01 X1.8051 Y86.3299
G01 X1.8432 Y86.4362
G01 X1.8706 Y86.5456
G01 X1.8862 Y86.6500
G00 Z2.0000
G00 X1.8615 Y86.6536
G01 F60.00
G01 Z-0.1418
G01 F60.00
G01 X1.8627 Y86.6658
G01 X1.8677 Y86.7700
G01 X1.8623 Y86.8803
G01 X1.8461 Y86.9895
G01 X1.8192 Y87.0966
G01 X1.7820 Y87.2005
G01 X1.7348 Y87.3003
G01 X1.6781 Y87.3950
G01 X1.6123 Y87.4837
G01 X1.5382 Y87.5655
G01 X1.4564 Y87.6396
G01 X1.3677 Y87.7054
G01 X1.2730 Y87.7622
G01 X1.1732 Y87.8094
G01 X1.0693 Y87.8466
G01 X0.9622 Y87.8734
G01 X0.8530 Y87.8896
G01 X0.7427 Y87.8950
G01 X0.6324 Y87.8896
G01 X0.5232 Y87.8734
G01 X0.4161 Y87.8466
G01 X0.3122 Y87.8094
G01 X0.2124 Y87.7622
G01 X0.1177 Y87.7054
G01 X0.0290 Y87.6396
G01 X-0.0528 Y87.5655
G01 X-0.1270 Y87.4837
G01 X-0.1927 Y87.3950
G01 X-0.2495 Y87.3003
G01 X-0.2967 Y87.2005
G01 X-0.3339 Y87.0966
G01 X-0.3607 Y86.9895
G01 X-0.3769 Y86.8803
G01 X-0.3823 Y86.7700
G01 X-0.3769 Y86.6597
G01 X-0.3607 Y86.5505
G01 X-0.3339 Y86.4434
G01 X-0.2967 Y86.3395
G01 X-0.2495 Y86.2397
G01 X-0.1927 Y86.1450
G01 X-0.1270 Y86.0563
G01 X-0.0528 Y85.9745
G01 X0.0290 Y85.9004
G01 X0.1177 Y85.8346
G01 X0.2124 Y85.7778
G01 X0.3122 Y85.7306
G01 X0.4161 Y85.6934
G01 X0.5232 Y85.6666
G01 X0.6324 Y85.6504
G01 X0.7427 Y85.6450
G01 X0.8530 Y85.6504
G01 X0.9622 Y85.6666
G01 X1.0693 Y85.6934
G01 X1.1732 Y85.7306
G01 X1.2730 Y85.7778
G01 X1.3677 Y85.8346
G01 X1.4564 Y85.9004
G01 X1.5382 Y85.9745
G01 X1.6123 Y86.0563
G01 X1.6781 Y86.1450
G01 X1.7348 Y86.2397
G01 X1.7820 Y86.3395
G01 X1.8192 Y86.4434
G01 X1.8461 Y86.5505
G01 X1.8615 Y86.6536
G00 Z2.0000
G00 X1.8862 Y89.1900
G01 F60.00
G01 Z-0.1418
G01 F60.00
G01 X1.8877 Y89.2046
G01 X1.8927 Y89.3100
G01 X1.8871 Y89.4227
G01 X1.8706 Y89.5344
G01 X1.8432 Y89.6438
G01 X1.8051 Y89.7501
G01 X1.7569 Y89.8521
G01 X1.6989 Y89.9489
G01 X1.6316 Y90.0396
G01 X1.5559 Y90.1232
G01 X1.4722 Y90.1990
G01 X1.3816 Y90.2662
G01 X1.2848 Y90.3242
G01 X1.1828 Y90.3725
G01 X1.0765 Y90.4105
G01 X0.9670 Y90.4379
G01 X0.8554 Y90.4545
G01 X0.7427 Y90.4600
G01 X0.6300 Y90.4545
G01 X0.5183 Y90.4379
G01 X0.4089 Y90.4105
G01 X0.3026 Y90.3725
G01 X0.2006 Y90.3242
G01 X0.1038 Y90.2662
G01 X0.0131 Y90.1990
G01 X-0.0705 Y90.1232
G01 X-0.1463 Y90.0396
G01 X-0.2135 Y89.9489
G01 X-0.2715 Y89.8521
G01 X-0.3198 Y89.7501
G01 X-0.3578 Y89.6438
G01 X-0.3852 Y89.5344
G01 X-0.4018 Y89.4227
G01 X-0.4073 Y89.3100
G01 X-0.4018 Y89.1973
G01 X-0.3852 Y89.0856
G01 X-0.3578 Y88.9762
G01 X-0.3198 Y88.8699
G01 X-0.2715 Y88.7679
G01 X-0.2135 Y88.6711
G01 X-0.1463 Y88.5804
G01 X-0.0705 Y88.4968
G01 X0.0131 Y88.4210
G01 X0.1038 Y88.3538
G01 X0.2006 Y88.2958
G01 X0.3026 Y88.2475
G01 X0.4089 Y88.2095
G01 X0.5183 Y88.1821
G01 X0.6300 Y88.1655
G01 X0.7427 Y88.1600
G01 X0.8554 Y88.1655
G01 X0.9670 Y88.1821
G01 X1.0765 Y88.2095
G01 X1.1828 Y88.2475
G01 X1.2848 Y88.2958
G01 X1.3816 Y88.3538
G01 X1.4722 Y88.4210
G01 X1.5559 Y88.4968
G01 X1.6316 Y88.5804
G01 X1.6989 Y88.6711
G01 X1.7569 Y88.7679
G01 X1.8051 Y88.8699
G01 X1.8432 Y88.9762
G01 X1.8706 Y89.0856
G01 X1.8862 Y89.1900
G00 Z2.0000
G00 X1.8615 Y89.1936
G01 F60.00
G01 Z-0.1418
G01 F60.00
G01 X1.8627 Y89.2058
G01 X1.8677 Y89.3100
G01 X1.8623 Y89.4203
G01 X1.8461 Y89.5295
G01 X1.8192 Y89.6366
G01 X1.7820 Y89.7405
G01 X1.7348 Y89.8403
G01 X1.6781 Y89.9350
G01 X1.6123 Y90.0237
G01 X1.5382 Y90.1055
G01 X1.4564 Y90.1796
G01 X1.3677 Y90.2454
G01 X1.2730 Y90.3022
G01 X1.1732 Y90.3494
G01 X1.0693 Y90.3866
G01 X0.9622 Y90.4134
G01 X0.8530 Y90.4296
G01 X0.7427 Y90.4350
G01 X0.6324 Y90.4296
G01 X0.5232 Y90.4134
G01 X0.4161 Y90.3866
G01 X0.3122 Y90.3494
G01 X0.2124 Y90.3022
G01 X0.1177 Y90.2454
G01 X0.0290 Y90.1796
G01 X-0.0528 Y90.1055
G01 X-0.1270 Y90.0237
G01 X-0.1927 Y89.9350
G01 X-0.2495 Y89.8403
G01 X-0.2967 Y89.7405
G01 X-0.3339 Y89.6366
G01 X-0.3607 Y89.5295
G01 X-0.3769 Y89.4203
G01 X-0.3823 Y89.3100
G01 X-0.3769 Y89.1997
G01 X-0.3607 Y89.0905
G01 X-0.3339 Y88.9834
G01 X-0.2967 Y88.8795
G01 X-0.2495 Y88.7797
G01 X-0.1927 Y88.6850
G01 X-0.1270 Y88.5963
G01 X-0.0528 Y88.5145
G01 X0.0290 Y88.4404
G01 X0.1177 Y88.3746
G01 X0.2124 Y88.3178
G01 X0.3122 Y88.2706
G01 X0.4161 Y88.2334
G01 X0.5232 Y88.2066
G01 X0.6324 Y88.1904
G01 X0.7427 Y88.1850
G01 X0.8530 Y88.1904
G01 X0.9622 Y88.2066
G01 X1.0693 Y88.2334
G01 X1.1732 Y88.2706
G01 X1.2730 Y88.3178
G01 X1.3677 Y88.3746
G01 X1.4564 Y88.4404
G01 X1.5382 Y88.5145
G01 X1.6123 Y88.5963
G01 X1.6781 Y88.6850
G01 X1.7348 Y88.7797
G01 X1.7820 Y88.8795
G01 X1.8192 Y88.9834
G01 X1.8461 Y89.0905
G01 X1.8615 Y89.1936
G00 Z2.0000
G00 X1.8862 Y91.7300
G01 F60.00
G01 Z-0.1418
G01 F60.00
G01 X1.8877 Y91.7446
G01 X1.8927 Y91.8500
G01 X1.8871 Y91.9627
G01 X1.8706 Y92.0744
G01 X1.8432 Y92.1838
G01 X1.8051 Y92.2901
G01 X1.7569 Y92.3921
G01 X1.6989 Y92.4889
G01 X1.6316 Y92.5796
G01 X1.5559 Y92.6632
G01 X1.4722 Y92.7390
G01 X1.3816 Y92.8062
G01 X1.2848 Y92.8642
G01 X1.1828 Y92.9125
G01 X1.0765 Y92.9505
G01 X0.9670 Y92.9779
G01 X0.8554 Y92.9945
G01 X0.7427 Y93.0000
G01 X0.6300 Y92.9945
G01 X0.5183 Y92.9779
G01 X0.4089 Y92.9505
G01 X0.3026 Y92.9125
G01 X0.2006 Y92.8642
G01 X0.1038 Y92.8062
G01 X0.0131 Y92.7390
G01 X-0.0705 Y92.6632
G01 X-0.1463 Y92.5796
G01 X-0.2135 Y92.4889
G01 X-0.2715 Y92.3921
G01 X-0.3198 Y92.2901
G01 X-0.3578 Y92.1838
G01 X-0.3852 Y92.0744
G01 X-0.4018 Y91.9627
G01 X-0.4073 Y91.8500
G01 X-0.4018 Y91.7373
G01 X-0.3852 Y91.6256
