(G-CODE GENERATED BY FLATCAM v8.994 - www.flatcam.org - Version Date: 2020/11/7)

(Name: Fonte_tensao_LM675_LIMPO.drl_mill_cnc)
(Type: G-code from Geometry)
(Units: MM)

(Created on quinta, 15 junho 2023 at 19:16)

(This preprocessor is the default preprocessor used by FlatCAM.)
(It is made to work with MACH3 compatible motion controllers.)

(TOOL DIAMETER: 0.8 mm)
(Feedrate_XY: 60.0 mm/min)
(Feedrate_Z: 60.0 mm/min)
(Feedrate rapids 1500.0 mm/min)

(Z_Cut: -2.4 mm)
(Z_Move: 2.0 mm)
(Z Start: None mm)
(Z End: 15.0 mm)
(X,Y End: None mm)
(Steps per circle: 64)
(Preprocessor Geometry: default)

(X range:    0.7426 ...   80.7527  mm)
(Y range:    1.6800 ...   91.8500  mm)

(Spindle Speed: 1000.0 RPM)
G21
G90
G94

G01 F60.00

M5
G00 Z5.0000
G00 X0.0000 Y0.0000
(T1)
(M6  )  
(MSG, Change to Tool Dia = 0.8000)
(M0)
G00 Z5.0000

M03 S1000.0
G01 F60.00
G00 X0.7427 Y5.4900
G01 F60.00
G01 Z-2.4000
G01 F60.00
G01 X0.7427 Y5.4900
G01 X0.7426 Y5.4900
G01 X0.7427 Y5.4901
G01 X0.7427 Y5.4900
G00 Z2.0000
G00 X0.7427 Y8.0300
G01 F60.00
G01 Z-2.4000
G01 F60.00
G01 X0.7427 Y8.0300
G01 X0.7426 Y8.0300
G01 X0.7427 Y8.0301
G01 X0.7427 Y8.0300
G00 Z2.0000
G00 X0.7427 Y10.5700
G01 F60.00
G01 Z-2.4000
G01 F60.00
G01 X0.7427 Y10.5699
G01 X0.7426 Y10.5700
G01 X0.7427 Y10.5700
G01 X0.7427 Y10.5700
G00 Z2.0000
G00 X0.7427 Y13.1100
G01 F60.00
G01 Z-2.4000
G01 F60.00
G01 X0.7427 Y13.1100
G01 X0.7426 Y13.1100
G01 X0.7427 Y13.1101
G01 X0.7427 Y13.1100
G00 Z2.0000
G00 X0.7427 Y15.6500
G01 F60.00
G01 Z-2.4000
G01 F60.00
G01 X0.7427 Y15.6500
G01 X0.7426 Y15.6500
G01 X0.7427 Y15.6501
G01 X0.7427 Y15.6500
G00 Z2.0000
G00 X0.7427 Y18.1900
G01 F60.00
G01 Z-2.4000
G01 F60.00
G01 X0.7427 Y18.1899
G01 X0.7426 Y18.1900
G01 X0.7427 Y18.1900
G01 X0.7427 Y18.1900
G00 Z2.0000
G00 X0.7427 Y20.7300
G01 F60.00
G01 Z-2.4000
G01 F60.00
G01 X0.7427 Y20.7300
G01 X0.7426 Y20.7300
G01 X0.7427 Y20.7301
G01 X0.7427 Y20.7300
G00 Z2.0000
G00 X0.7427 Y23.2700
G01 F60.00
G01 Z-2.4000
G01 F60.00
G01 X0.7427 Y23.2699
G01 X0.7426 Y23.2700
G01 X0.7427 Y23.2700
G01 X0.7427 Y23.2700
G00 Z2.0000
G00 X0.7427 Y25.8100
G01 F60.00
G01 Z-2.4000
G01 F60.00
G01 X0.7427 Y25.8100
G01 X0.7426 Y25.8100
G01 X0.7427 Y25.8101
G01 X0.7427 Y25.8100
G00 Z2.0000
G00 X0.7427 Y28.3500
G01 F60.00
G01 Z-2.4000
G01 F60.00
G01 X0.7427 Y28.3500
G01 X0.7426 Y28.3500
G01 X0.7427 Y28.3501
G01 X0.7427 Y28.3500
G00 Z2.0000
G00 X0.7427 Y30.8900
G01 F60.00
G01 Z-2.4000
G01 F60.00
G01 X0.7427 Y30.8899
G01 X0.7426 Y30.8900
G01 X0.7427 Y30.8901
G01 X0.7427 Y30.8900
G00 Z2.0000
G00 X0.7427 Y33.4300
G01 F60.00
G01 Z-2.4000
G01 F60.00
G01 X0.7427 Y33.4300
G01 X0.7426 Y33.4300
G01 X0.7427 Y33.4301
G01 X0.7427 Y33.4300
G00 Z2.0000
G00 X0.7427 Y35.9700
G01 F60.00
G01 Z-2.4000
G01 F60.00
G01 X0.7427 Y35.9699
G01 X0.7426 Y35.9700
G01 X0.7427 Y35.9701
G01 X0.7427 Y35.9700
G00 Z2.0000
G00 X0.7427 Y38.5100
G01 F60.00
G01 Z-2.4000
G01 F60.00
G01 X0.7427 Y38.5100
G01 X0.7426 Y38.5100
G01 X0.7427 Y38.5101
G01 X0.7427 Y38.5100
G00 Z2.0000
G00 X0.7427 Y41.0500
G01 F60.00
G01 Z-2.4000
G01 F60.00
G01 X0.7427 Y41.0500
G01 X0.7426 Y41.0500
G01 X0.7427 Y41.0501
G01 X0.7427 Y41.0500
G00 Z2.0000
G00 X0.7427 Y43.5900
G01 F60.00
G01 Z-2.4000
G01 F60.00
G01 X0.7427 Y43.5900
G01 X0.7426 Y43.5900
G01 X0.7427 Y43.5901
G01 X0.7427 Y43.5900
G00 Z2.0000
G00 X0.7427 Y46.1300
G01 F60.00
G01 Z-2.4000
G01 F60.00
G01 X0.7427 Y46.1300
G01 X0.7426 Y46.1300
G01 X0.7427 Y46.1301
G01 X0.7427 Y46.1300
G00 Z2.0000
G00 X0.7427 Y48.6700
G01 F60.00
G01 Z-2.4000
G01 F60.00
G01 X0.7427 Y48.6700
G01 X0.7426 Y48.6700
G01 X0.7427 Y48.6701
G01 X0.7427 Y48.6700
G00 Z2.0000
G00 X0.7427 Y51.2100
G01 F60.00
G01 Z-2.4000
G01 F60.00
G01 X0.7427 Y51.2100
G01 X0.7426 Y51.2100
G01 X0.7427 Y51.2101
G01 X0.7427 Y51.2100
G00 Z2.0000
G00 X0.7427 Y53.7500
G01 F60.00
G01 Z-2.4000
G01 F60.00
G01 X0.7427 Y53.7499
G01 X0.7426 Y53.7500
G01 X0.7427 Y53.7501
G01 X0.7427 Y53.7500
G00 Z2.0000
G00 X0.7427 Y56.2900
G01 F60.00
G01 Z-2.4000
G01 F60.00
G01 X0.7427 Y56.2900
G01 X0.7426 Y56.2900
G01 X0.7427 Y56.2901
G01 X0.7427 Y56.2900
G00 Z2.0000
G00 X0.7427 Y58.8300
G01 F60.00
G01 Z-2.4000
G01 F60.00
G01 X0.7427 Y58.8300
G01 X0.7426 Y58.8300
G01 X0.7427 Y58.8301
G01 X0.7427 Y58.8300
G00 Z2.0000
G00 X0.7427 Y61.3700
G01 F60.00
G01 Z-2.4000
G01 F60.00
G01 X0.7427 Y61.3700
G01 X0.7426 Y61.3700
G01 X0.7427 Y61.3701
G01 X0.7427 Y61.3700
G00 Z2.0000
G00 X0.7427 Y63.9100
G01 F60.00
G01 Z-2.4000
G01 F60.00
G01 X0.7427 Y63.9099
G01 X0.7426 Y63.9100
G01 X0.7427 Y63.9100
G01 X0.7427 Y63.9100
G00 Z2.0000
G00 X0.7427 Y66.4500
G01 F60.00
G01 Z-2.4000
G01 F60.00
G01 X0.7427 Y66.4500
G01 X0.7426 Y66.4500
G01 X0.7427 Y66.4501
G01 X0.7427 Y66.4500
G00 Z2.0000
G00 X0.7427 Y68.9900
G01 F60.00
G01 Z-2.4000
G01 F60.00
G01 X0.7427 Y68.9900
G01 X0.7426 Y68.9900
G01 X0.7427 Y68.9901
G01 X0.7427 Y68.9900
G00 Z2.0000
G00 X0.7427 Y71.5300
G01 F60.00
G01 Z-2.4000
G01 F60.00
G01 X0.7427 Y71.5300
G01 X0.7426 Y71.5300
G01 X0.7427 Y71.5301
G01 X0.7427 Y71.5300
G00 Z2.0000
G00 X0.7427 Y74.0700
G01 F60.00
G01 Z-2.4000
G01 F60.00
G01 X0.7427 Y74.0699
G01 X0.7426 Y74.0700
G01 X0.7427 Y74.0700
G01 X0.7427 Y74.0700
G00 Z2.0000
G00 X0.7427 Y76.6100
G01 F60.00
G01 Z-2.4000
G01 F60.00
G01 X0.7427 Y76.6099
G01 X0.7426 Y76.6100
G01 X0.7427 Y76.6101
G01 X0.7427 Y76.6100
G00 Z2.0000
G00 X0.7427 Y79.1500
G01 F60.00
G01 Z-2.4000
G01 F60.00
G01 X0.7427 Y79.1500
G01 X0.7426 Y79.1500
G01 X0.7427 Y79.1501
G01 X0.7427 Y79.1500
G00 Z2.0000
G00 X0.7427 Y81.6900
G01 F60.00
G01 Z-2.4000
G01 F60.00
G01 X0.7427 Y81.6900
G01 X0.7426 Y81.6900
G01 X0.7427 Y81.6901
G01 X0.7427 Y81.6900
G00 Z2.0000
G00 X0.7427 Y84.2300
G01 F60.00
G01 Z-2.4000
G01 F60.00
G01 X0.7427 Y84.2300
G01 X0.7426 Y84.2300
G01 X0.7427 Y84.2301
G01 X0.7427 Y84.2300
G00 Z2.0000
G00 X0.7427 Y86.7700
G01 F60.00
G01 Z-2.4000
G01 F60.00
G01 X0.7427 Y86.7699
G01 X0.7426 Y86.7700
G01 X0.7427 Y86.7700
G01 X0.7427 Y86.7700
G00 Z2.0000
G00 X0.7427 Y89.3100
G01 F60.00
G01 Z-2.4000
G01 F60.00
G01 X0.7427 Y89.3100
G01 X0.7426 Y89.3100
G01 X0.7427 Y89.3101
G01 X0.7427 Y89.3100
G00 Z2.0000
G00 X0.7427 Y91.8500
G01 F60.00
G01 Z-2.4000
G01 F60.00
G01 X0.7427 Y91.8499
G01 X0.7426 Y91.8500
G01 X0.7427 Y91.8500
G01 X0.7427 Y91.8500
G00 Z2.0000
G00 X9.6327 Y90.5800
G01 F60.00
G01 Z-2.4000
G01 F60.00
G01 X9.6327 Y90.5800
G01 X9.6326 Y90.5800
G01 X9.6327 Y90.5801
G01 X9.6327 Y90.5800
G00 Z2.0000
G00 X12.1727 Y90.5800
G01 F60.00
G01 Z-2.4000
G01 F60.00
G01 X12.1727 Y90.5800
G01 X12.1726 Y90.5800
G01 X12.1727 Y90.5801
G01 X12.1727 Y90.5800
G00 Z2.0000
G00 X14.7127 Y90.5800
G01 F60.00
G01 Z-2.4000
G01 F60.00
G01 X14.7127 Y90.5800
G01 X14.7126 Y90.5800
G01 X14.7127 Y90.5801
G01 X14.7127 Y90.5800
G00 Z2.0000
G00 X12.1727 Y85.5000
G01 F60.00
G01 Z-2.4000
G01 F60.00
G01 X12.1727 Y85.4999
G01 X12.1726 Y85.5000
G01 X12.1727 Y85.5001
G01 X12.1727 Y85.5000
G00 Z2.0000
G00 X13.4021 Y81.6900
G01 F60.00
G01 Z-2.4000
G01 F60.00
G01 X13.4020 Y81.6900
G01 X13.4020 Y81.6900
G01 X13.4020 Y81.6901
G01 X13.4021 Y81.6900
G00 Z2.0000
G00 X10.9027 Y81.6900
G01 F60.00
G01 Z-2.4000
G01 F60.00
G01 X10.9027 Y81.6900
G01 X10.9026 Y81.6900
G01 X10.9027 Y81.6901
G01 X10.9027 Y81.6900
G00 Z2.0000
G00 X22.3327 Y74.0700
G01 F60.00
G01 Z-2.4000
G01 F60.00
G01 X22.3327 Y74.0699
G01 X22.3326 Y74.0700
G01 X22.3327 Y74.0700
G01 X22.3327 Y74.0700
G00 Z2.0000
G00 X24.8321 Y74.0700
G01 F60.00
G01 Z-2.4000
G01 F60.00
G01 X24.8320 Y74.0699
G01 X24.8320 Y74.0700
G01 X24.8320 Y74.0700
G01 X24.8321 Y74.0700
G00 Z2.0000
G00 X27.4127 Y74.1970
G01 F60.00
G01 Z-2.4000
G01 F60.00
G01 X27.4127 Y74.1970
G01 X27.4126 Y74.1970
G01 X27.4127 Y74.1971
G01 X27.4127 Y74.1970
G00 Z2.0000
G00 X29.9527 Y68.9900
G01 F60.00
G01 Z-2.4000
G01 F60.00
G01 X29.9527 Y68.9900
G01 X29.9526 Y68.9900
G01 X29.9527 Y68.9901
G01 X29.9527 Y68.9900
G00 Z2.0000
G00 X33.7627 Y68.9900
G01 F60.00
G01 Z-2.4000
G01 F60.00
G01 X33.7627 Y68.9900
G01 X33.7626 Y68.9900
G01 X33.7627 Y68.9901
G01 X33.7627 Y68.9900
G00 Z2.0000
G00 X41.3827 Y68.9900
G01 F60.00
G01 Z-2.4000
G01 F60.00
G01 X41.3827 Y68.9900
G01 X41.3826 Y68.9900
G01 X41.3827 Y68.9901
G01 X41.3827 Y68.9900
G00 Z2.0000
G00 X47.7327 Y66.4500
G01 F60.00
G01 Z-2.4000
G01 F60.00
G01 X47.7327 Y66.4500
G01 X47.7326 Y66.4500
G01 X47.7327 Y66.4501
G01 X47.7327 Y66.4500
G00 Z2.0000
G00 X47.7327 Y76.6100
G01 F60.00
G01 Z-2.4000
G01 F60.00
G01 X47.7327 Y76.6099
G01 X47.7326 Y76.6100
G01 X47.7327 Y76.6101
G01 X47.7327 Y76.6100
G00 Z2.0000
G00 X55.8607 Y80.0390
G01 F60.00
G01 Z-2.4000
G01 F60.00
G01 X55.8607 Y80.0389
G01 X55.8606 Y80.0390
G01 X55.8607 Y80.0391
G01 X55.8607 Y80.0390
G00 Z2.0000
G00 X57.8927 Y86.7700
G01 F60.00
G01 Z-2.4000
G01 F60.00
G01 X57.8927 Y86.7699
G01 X57.8926 Y86.7700
G01 X57.8927 Y86.7700
G01 X57.8927 Y86.7700
G00 Z2.0000
G00 X57.8927 Y90.5800
G01 F60.00
G01 Z-2.4000
G01 F60.00
G01 X57.8927 Y90.5800
G01 X57.8926 Y90.5800
G01 X57.8927 Y90.5801
G01 X57.8927 Y90.5800
G00 Z2.0000
G00 X55.3527 Y90.5800
G01 F60.00
G01 Z-2.4000
G01 F60.00
G01 X55.3527 Y90.5800
G01 X55.3526 Y90.5800
G01 X55.3527 Y90.5801
G01 X55.3527 Y90.5800
G00 Z2.0000
G00 X52.8127 Y90.5800
G01 F60.00
G01 Z-2.4000
G01 F60.00
G01 X52.8127 Y90.5800
G01 X52.8126 Y90.5800
G01 X52.8127 Y90.5801
G01 X52.8127 Y90.5800
G00 Z2.0000
G00 X48.6776 Y87.2221
G01 F60.00
G01 Z-2.4000
G01 F60.00
G01 X48.6776 Y87.2221
G01 X48.6775 Y87.2221
G01 X48.6776 Y87.2222
G01 X48.6776 Y87.2221
G00 Z2.0000
G00 X38.2382 Y80.4200
G01 F60.00
G01 Z-2.4000
G01 F60.00
G01 X38.2382 Y80.4200
G01 X38.2381 Y80.4200
G01 X38.2382 Y80.4201
G01 X38.2382 Y80.4200
G00 Z2.0000
G00 X35.7389 Y80.4200
G01 F60.00
G01 Z-2.4000
G01 F60.00
G01 X35.7388 Y80.4200
G01 X35.7388 Y80.4200
G01 X35.7388 Y80.4201
G01 X35.7389 Y80.4200
G00 Z2.0000
G00 X29.9527 Y80.4200
G01 F60.00
G01 Z-2.4000
G01 F60.00
G01 X29.9527 Y80.4200
G01 X29.9526 Y80.4200
G01 X29.9527 Y80.4201
G01 X29.9527 Y80.4200
G00 Z2.0000
G00 X27.4534 Y80.4200
G01 F60.00
G01 Z-2.4000
G01 F60.00
G01 X27.4533 Y80.4200
G01 X27.4533 Y80.4200
G01 X27.4533 Y80.4201
G01 X27.4534 Y80.4200
G00 Z2.0000
G00 X24.8727 Y85.5000
G01 F60.00
G01 Z-2.4000
G01 F60.00
G01 X24.8727 Y85.4999
G01 X24.8726 Y85.5000
G01 X24.8727 Y85.5001
G01 X24.8727 Y85.5000
G00 Z2.0000
G00 X24.8727 Y90.5800
G01 F60.00
G01 Z-2.4000
G01 F60.00
G01 X24.8727 Y90.5800
G01 X24.8726 Y90.5800
G01 X24.8727 Y90.5801
G01 X24.8727 Y90.5800
G00 Z2.0000
G00 X27.4127 Y90.5800
G01 F60.00
G01 Z-2.4000
G01 F60.00
G01 X27.4127 Y90.5800
G01 X27.4126 Y90.5800
G01 X27.4127 Y90.5801
G01 X27.4127 Y90.5800
G00 Z2.0000
G00 X29.9527 Y90.5800
G01 F60.00
G01 Z-2.4000
G01 F60.00
G01 X29.9527 Y90.5800
G01 X29.9526 Y90.5800
G01 X29.9527 Y90.5801
G01 X29.9527 Y90.5800
G00 Z2.0000
G00 X29.9527 Y58.8300
G01 F60.00
G01 Z-2.4000
G01 F60.00
G01 X29.9527 Y58.8300
G01 X29.9526 Y58.8300
G01 X29.9527 Y58.8301
G01 X29.9527 Y58.8300
G00 Z2.0000
G00 X27.4127 Y58.8300
G01 F60.00
G01 Z-2.4000
G01 F60.00
G01 X27.4127 Y58.8300
G01 X27.4126 Y58.8300
G01 X27.4127 Y58.8301
G01 X27.4127 Y58.8300
G00 Z2.0000
G00 X17.3797 Y55.6550
G01 F60.00
G01 Z-2.4000
G01 F60.00
G01 X17.3797 Y55.6550
G01 X17.3796 Y55.6550
G01 X17.3797 Y55.6551
G01 X17.3797 Y55.6550
G00 Z2.0000
G00 X17.3797 Y35.3350
G01 F60.00
G01 Z-2.4000
G01 F60.00
G01 X17.3797 Y35.3350
G01 X17.3796 Y35.3350
G01 X17.3797 Y35.3351
G01 X17.3797 Y35.3350
G00 Z2.0000
G00 X15.9319 Y26.5999
G01 F60.00
G01 Z-2.4000
G01 F60.00
G01 X15.9319 Y26.5999
G01 X15.9318 Y26.5999
G01 X15.9319 Y26.6000
G01 X15.9319 Y26.5999
G00 Z2.0000
G00 X13.4326 Y26.5999
G01 F60.00
G01 Z-2.4000
G01 F60.00
G01 X13.4325 Y26.5999
G01 X13.4325 Y26.5999
G01 X13.4325 Y26.6000
G01 X13.4326 Y26.5999
G00 Z2.0000
G00 X13.1227 Y15.0150
G01 F60.00
G01 Z-2.4000
G01 F60.00
G01 X13.1226 Y15.0149
G01 X13.1226 Y15.0150
G01 X13.1226 Y15.0150
G01 X13.1227 Y15.0150
G00 Z2.0000
G00 X10.6233 Y15.0150
G01 F60.00
G01 Z-2.4000
G01 F60.00
G01 X10.6233 Y15.0149
G01 X10.6232 Y15.0150
G01 X10.6233 Y15.0150
G01 X10.6233 Y15.0150
G00 Z2.0000
G00 X16.2367 Y11.9670
G01 F60.00
G01 Z-2.4000
G01 F60.00
G01 X16.2367 Y11.9670
G01 X16.2366 Y11.9670
G01 X16.2367 Y11.9671
G01 X16.2367 Y11.9670
G00 Z2.0000
G00 X15.9726 Y5.1446
G01 F60.00
G01 Z-2.4000
G01 F60.00
G01 X15.9725 Y5.1445
G01 X15.9725 Y5.1446
G01 X15.9725 Y5.1446
G01 X15.9726 Y5.1446
G00 Z2.0000
G00 X13.4326 Y5.1446
G01 F60.00
G01 Z-2.4000
G01 F60.00
G01 X13.4325 Y5.1445
G01 X13.4325 Y5.1446
G01 X13.4325 Y5.1446
G01 X13.4326 Y5.1446
G00 Z2.0000
G00 X10.8926 Y5.1446
G01 F60.00
G01 Z-2.4000
G01 F60.00
G01 X10.8925 Y5.1445
G01 X10.8925 Y5.1446
G01 X10.8925 Y5.1446
G01 X10.8926 Y5.1446
G00 Z2.0000
G00 X24.2733 Y22.0000
G01 F60.00
G01 Z-2.4000
G01 F60.00
G01 X24.2732 Y21.9999
G01 X24.2732 Y22.0000
G01 X24.2732 Y22.0001
G01 X24.2733 Y22.0000
G00 Z2.0000
G00 X33.3335 Y9.2009
G01 F60.00
G01 Z-2.4000
G01 F60.00
G01 X33.3334 Y9.2009
G01 X33.3334 Y9.2009
G01 X33.3334 Y9.2010
G01 X33.3335 Y9.2009
G00 Z2.0000
G00 X36.7320 Y9.2009
G01 F60.00
G01 Z-2.4000
G01 F60.00
G01 X36.7319 Y9.2009
G01 X36.7319 Y9.2009
G01 X36.7319 Y9.2010
G01 X36.7320 Y9.2009
G00 Z2.0000
G00 X40.1331 Y9.2009
G01 F60.00
G01 Z-2.4000
G01 F60.00
G01 X40.1330 Y9.2009
G01 X40.1330 Y9.2009
G01 X40.1330 Y9.2010
G01 X40.1331 Y9.2009
G00 Z2.0000
G00 X41.1287 Y11.9670
G01 F60.00
G01 Z-2.4000
G01 F60.00
G01 X41.1287 Y11.9670
G01 X41.1286 Y11.9670
G01 X41.1287 Y11.9671
G01 X41.1287 Y11.9670
G00 Z2.0000
G00 X46.0817 Y10.2373
G01 F60.00
G01 Z-2.4000
G01 F60.00
G01 X46.0817 Y10.2372
G01 X46.0816 Y10.2373
G01 X46.0817 Y10.2373
G01 X46.0817 Y10.2373
G00 Z2.0000
G00 X50.0822 Y10.2373
G01 F60.00
G01 Z-2.4000
G01 F60.00
G01 X50.0822 Y10.2372
G01 X50.0821 Y10.2373
G01 X50.0822 Y10.2373
G01 X50.0822 Y10.2373
G00 Z2.0000
G00 X54.0827 Y10.2373
G01 F60.00
G01 Z-2.4000
G01 F60.00
G01 X54.0827 Y10.2372
G01 X54.0826 Y10.2373
G01 X54.0827 Y10.2373
G01 X54.0827 Y10.2373
G00 Z2.0000
G00 X54.0827 Y5.2360
G01 F60.00
G01 Z-2.4000
G01 F60.00
G01 X54.0827 Y5.2360
G01 X54.0826 Y5.2360
G01 X54.0827 Y5.2361
G01 X54.0827 Y5.2360
G00 Z2.0000
G00 X50.0822 Y5.2360
G01 F60.00
G01 Z-2.4000
G01 F60.00
G01 X50.0822 Y5.2360
G01 X50.0821 Y5.2360
G01 X50.0822 Y5.2361
G01 X50.0822 Y5.2360
G00 Z2.0000
G00 X46.0817 Y5.2360
G01 F60.00
G01 Z-2.4000
G01 F60.00
G01 X46.0817 Y5.2360
G01 X46.0816 Y5.2360
G01 X46.0817 Y5.2361
G01 X46.0817 Y5.2360
G00 Z2.0000
G00 X38.4338 Y5.5002
G01 F60.00
G01 Z-2.4000
G01 F60.00
G01 X38.4337 Y5.5001
G01 X38.4337 Y5.5002
G01 X38.4337 Y5.5002
G01 X38.4338 Y5.5002
G00 Z2.0000
G00 X35.0327 Y5.5002
G01 F60.00
G01 Z-2.4000
G01 F60.00
G01 X35.0327 Y5.5001
G01 X35.0326 Y5.5002
G01 X35.0327 Y5.5002
G01 X35.0327 Y5.5002
G00 Z2.0000
G00 X44.5933 Y22.0000
G01 F60.00
G01 Z-2.4000
G01 F60.00
G01 X44.5932 Y21.9999
G01 X44.5932 Y22.0000
G01 X44.5932 Y22.0001
G01 X44.5933 Y22.0000
G00 Z2.0000
G00 X48.1315 Y28.4008
G01 F60.00
G01 Z-2.4000
G01 F60.00
G01 X48.1315 Y28.4008
G01 X48.1314 Y28.4008
G01 X48.1315 Y28.4009
G01 X48.1315 Y28.4008
G00 Z2.0000
G00 X50.6334 Y28.4008
G01 F60.00
G01 Z-2.4000
G01 F60.00
G01 X50.6334 Y28.4008
G01 X50.6333 Y28.4008
G01 X50.6334 Y28.4009
G01 X50.6334 Y28.4008
G00 Z2.0000
G00 X58.9087 Y24.5400
G01 F60.00
G01 Z-2.4000
G01 F60.00
G01 X58.9087 Y24.5399
G01 X58.9086 Y24.5400
G01 X58.9087 Y24.5400
G01 X58.9087 Y24.5400
G00 Z2.0000
G00 X66.7827 Y20.3490
G01 F60.00
G01 Z-2.4000
G01 F60.00
G01 X66.7827 Y20.3489
G01 X66.7826 Y20.3490
G01 X66.7827 Y20.3490
G01 X66.7827 Y20.3490
G00 Z2.0000
G00 X73.2318 Y16.2393
G01 F60.00
G01 Z-2.4000
G01 F60.00
G01 X73.2317 Y16.2392
G01 X73.2317 Y16.2393
G01 X73.2317 Y16.2393
G01 X73.2318 Y16.2393
G00 Z2.0000
G00 X80.7527 Y16.9200
G01 F60.00
G01 Z-2.4000
G01 F60.00
G01 X80.7527 Y16.9200
G01 X80.7526 Y16.9200
G01 X80.7527 Y16.9201
G01 X80.7527 Y16.9200
G00 Z2.0000
G00 X80.7527 Y14.3800
G01 F60.00
G01 Z-2.4000
G01 F60.00
G01 X80.7527 Y14.3800
G01 X80.7526 Y14.3800
G01 X80.7527 Y14.3801
G01 X80.7527 Y14.3800
G00 Z2.0000
G00 X80.7527 Y11.8400
G01 F60.00
G01 Z-2.4000
G01 F60.00
G01 X80.7527 Y11.8400
G01 X80.7526 Y11.8400
G01 X80.7527 Y11.8401
G01 X80.7527 Y11.8400
G00 Z2.0000
G00 X80.7527 Y9.3000
G01 F60.00
G01 Z-2.4000
G01 F60.00
G01 X80.7527 Y9.3000
G01 X80.7526 Y9.3000
G01 X80.7527 Y9.3001
G01 X80.7527 Y9.3000
G00 Z2.0000
G00 X80.7527 Y6.7600
G01 F60.00
G01 Z-2.4000
G01 F60.00
G01 X80.7527 Y6.7600
G01 X80.7526 Y6.7600
G01 X80.7527 Y6.7601
G01 X80.7527 Y6.7600
G00 Z2.0000
G00 X80.7527 Y4.2200
G01 F60.00
G01 Z-2.4000
G01 F60.00
G01 X80.7527 Y4.2199
G01 X80.7526 Y4.2200
G01 X80.7527 Y4.2200
G01 X80.7527 Y4.2200
G00 Z2.0000
G00 X80.7527 Y1.6800
G01 F60.00
G01 Z-2.4000
G01 F60.00
G01 X80.7527 Y1.6800
G01 X80.7526 Y1.6800
G01 X80.7527 Y1.6801
G01 X80.7527 Y1.6800
G00 Z2.0000
G00 X66.7827 Y11.8400
G01 F60.00
G01 Z-2.4000
G01 F60.00
G01 X66.7827 Y11.8400
G01 X66.7826 Y11.8400
G01 X66.7827 Y11.8401
G01 X66.7827 Y11.8400
G00 Z2.0000
G00 X63.8338 Y13.1989
G01 F60.00
G01 Z-2.4000
G01 F60.00
G01 X63.8337 Y13.1989
G01 X63.8337 Y13.1989
G01 X63.8337 Y13.1990
G01 X63.8338 Y13.1989
G00 Z2.0000
G00 X61.3319 Y13.1989
G01 F60.00
G01 Z-2.4000
G01 F60.00
G01 X61.3318 Y13.1989
G01 X61.3318 Y13.1989
G01 X61.3318 Y13.1990
G01 X61.3319 Y13.1989
G00 Z2.0000
G00 X58.6547 Y14.5070
G01 F60.00
G01 Z-2.4000
G01 F60.00
G01 X58.6547 Y14.5070
G01 X58.6546 Y14.5070
G01 X58.6547 Y14.5071
G01 X58.6547 Y14.5070
G00 Z2.0000
G00 X60.4327 Y2.3988
G01 F60.00
G01 Z-2.4000
G01 F60.00
G01 X60.4327 Y2.3988
G01 X60.4326 Y2.3988
G01 X60.4327 Y2.3989
G01 X60.4327 Y2.3988
G00 Z2.0000
G00 X62.9727 Y2.3988
G01 F60.00
G01 Z-2.4000
G01 F60.00
G01 X62.9727 Y2.3988
G01 X62.9726 Y2.3988
G01 X62.9727 Y2.3989
G01 X62.9727 Y2.3988
G00 Z2.0000
G00 X80.7527 Y19.4600
G01 F60.00
G01 Z-2.4000
G01 F60.00
G01 X80.7527 Y19.4600
G01 X80.7526 Y19.4600
G01 X80.7527 Y19.4601
G01 X80.7527 Y19.4600
G00 Z2.0000
G00 X80.7527 Y22.0000
G01 F60.00
G01 Z-2.4000
G01 F60.00
G01 X80.7527 Y21.9999
G01 X80.7526 Y22.0000
G01 X80.7527 Y22.0001
G01 X80.7527 Y22.0000
G00 Z2.0000
G00 X80.7527 Y24.5400
G01 F60.00
G01 Z-2.4000
G01 F60.00
G01 X80.7527 Y24.5399
G01 X80.7526 Y24.5400
G01 X80.7527 Y24.5400
G01 X80.7527 Y24.5400
G00 Z2.0000
G00 X80.7527 Y27.0800
G01 F60.00
G01 Z-2.4000
G01 F60.00
G01 X80.7527 Y27.0800
G01 X80.7526 Y27.0800
G01 X80.7527 Y27.0801
G01 X80.7527 Y27.0800
G00 Z2.0000
G00 X80.7527 Y29.6200
G01 F60.00
G01 Z-2.4000
G01 F60.00
G01 X80.7527 Y29.6200
G01 X80.7526 Y29.6200
G01 X80.7527 Y29.6201
G01 X80.7527 Y29.6200
G00 Z2.0000
G00 X80.7527 Y32.1600
G01 F60.00
G01 Z-2.4000
G01 F60.00
G01 X80.7527 Y32.1600
G01 X80.7526 Y32.1600
G01 X80.7527 Y32.1601
G01 X80.7527 Y32.1600
G00 Z2.0000
G00 X80.7527 Y34.7000
G01 F60.00
G01 Z-2.4000
G01 F60.00
G01 X80.7527 Y34.7000
G01 X80.7526 Y34.7000
G01 X80.7527 Y34.7001
G01 X80.7527 Y34.7000
G00 Z2.0000
G00 X80.7527 Y37.2400
G01 F60.00
G01 Z-2.4000
G01 F60.00
G01 X80.7527 Y37.2399
G01 X80.7526 Y37.2400
G01 X80.7527 Y37.2400
G01 X80.7527 Y37.2400
G00 Z2.0000
G00 X80.7527 Y39.7800
G01 F60.00
G01 Z-2.4000
G01 F60.00
G01 X80.7527 Y39.7800
G01 X80.7526 Y39.7800
G01 X80.7527 Y39.7801
G01 X80.7527 Y39.7800
G00 Z2.0000
G00 X80.7527 Y42.3200
G01 F60.00
G01 Z-2.4000
G01 F60.00
G01 X80.7527 Y42.3200
G01 X80.7526 Y42.3200
G01 X80.7527 Y42.3201
G01 X80.7527 Y42.3200
G00 Z2.0000
G00 X80.7527 Y44.8600
G01 F60.00
G01 Z-2.4000
G01 F60.00
G01 X80.7527 Y44.8600
G01 X80.7526 Y44.8600
G01 X80.7527 Y44.8601
G01 X80.7527 Y44.8600
G00 Z2.0000
G00 X80.7527 Y47.4000
G01 F60.00
G01 Z-2.4000
G01 F60.00
G01 X80.7527 Y47.4000
G01 X80.7526 Y47.4000
G01 X80.7527 Y47.4001
G01 X80.7527 Y47.4000
G00 Z2.0000
G00 X80.7527 Y49.9400
G01 F60.00
G01 Z-2.4000
G01 F60.00
G01 X80.7527 Y49.9400
G01 X80.7526 Y49.9400
G01 X80.7527 Y49.9401
G01 X80.7527 Y49.9400
G00 Z2.0000
G00 X80.7527 Y52.4800
G01 F60.00
G01 Z-2.4000
G01 F60.00
G01 X80.7527 Y52.4800
G01 X80.7526 Y52.4800
G01 X80.7527 Y52.4801
G01 X80.7527 Y52.4800
G00 Z2.0000
G00 X80.7527 Y55.0200
G01 F60.00
G01 Z-2.4000
G01 F60.00
G01 X80.7527 Y55.0199
G01 X80.7526 Y55.0200
G01 X80.7527 Y55.0200
G01 X80.7527 Y55.0200
G00 Z2.0000
G00 X80.7527 Y57.5600
G01 F60.00
G01 Z-2.4000
G01 F60.00
G01 X80.7527 Y57.5600
G01 X80.7526 Y57.5600
G01 X80.7527 Y57.5601
G01 X80.7527 Y57.5600
G00 Z2.0000
G00 X80.7527 Y60.1000
G01 F60.00
G01 Z-2.4000
G01 F60.00
G01 X80.7527 Y60.1000
G01 X80.7526 Y60.1000
G01 X80.7527 Y60.1001
G01 X80.7527 Y60.1000
G00 Z2.0000
G00 X80.7527 Y62.6400
G01 F60.00
G01 Z-2.4000
G01 F60.00
G01 X80.7527 Y62.6399
G01 X80.7526 Y62.6400
G01 X80.7527 Y62.6401
G01 X80.7527 Y62.6400
G00 Z2.0000
G00 X80.7527 Y65.1800
G01 F60.00
G01 Z-2.4000
G01 F60.00
G01 X80.7527 Y65.1800
G01 X80.7526 Y65.1800
G01 X80.7527 Y65.1801
G01 X80.7527 Y65.1800
G00 Z2.0000
G00 X80.7527 Y67.7200
G01 F60.00
G01 Z-2.4000
G01 F60.00
G01 X80.7527 Y67.7199
G01 X80.7526 Y67.7200
G01 X80.7527 Y67.7201
G01 X80.7527 Y67.7200
G00 Z2.0000
G00 X76.4347 Y65.6880
G01 F60.00
G01 Z-2.4000
G01 F60.00
G01 X76.4347 Y65.6880
G01 X76.4346 Y65.6880
G01 X76.4347 Y65.6881
G01 X76.4347 Y65.6880
G00 Z2.0000
G00 X80.7527 Y74.0700
G01 F60.00
G01 Z-2.4000
G01 F60.00
G01 X80.7527 Y74.0699
G01 X80.7526 Y74.0700
G01 X80.7527 Y74.0700
G01 X80.7527 Y74.0700
G00 Z2.0000
G00 X80.7527 Y76.6100
G01 F60.00
G01 Z-2.4000
G01 F60.00
G01 X80.7527 Y76.6099
G01 X80.7526 Y76.6100
G01 X80.7527 Y76.6101
G01 X80.7527 Y76.6100
G00 Z2.0000
G00 X80.7527 Y79.1500
G01 F60.00
G01 Z-2.4000
G01 F60.00
G01 X80.7527 Y79.1500
G01 X80.7526 Y79.1500
G01 X80.7527 Y79.1501
G01 X80.7527 Y79.1500
G00 Z2.0000
G00 X80.7527 Y81.6900
G01 F60.00
G01 Z-2.4000
G01 F60.00
G01 X80.7527 Y81.6900
G01 X80.7526 Y81.6900
G01 X80.7527 Y81.6901
G01 X80.7527 Y81.6900
G00 Z2.0000
G00 X80.7527 Y84.2300
G01 F60.00
G01 Z-2.4000
G01 F60.00
G01 X80.7527 Y84.2300
G01 X80.7526 Y84.2300
G01 X80.7527 Y84.2301
G01 X80.7527 Y84.2300
G00 Z2.0000
G00 X80.7527 Y86.7700
G01 F60.00
G01 Z-2.4000
G01 F60.00
G01 X80.7527 Y86.7699
G01 X80.7526 Y86.7700
G01 X80.7527 Y86.7700
G01 X80.7527 Y86.7700
G00 Z2.0000
G00 X80.7527 Y89.3100
G01 F60.00
G01 Z-2.4000
G01 F60.00
G01 X80.7527 Y89.3100
G01 X80.7526 Y89.3100
G01 X80.7527 Y89.3101
G01 X80.7527 Y89.3100
G00 Z2.0000
G00 X80.7527 Y91.8500
G01 F60.00
G01 Z-2.4000
G01 F60.00
G01 X80.7527 Y91.8499
G01 X80.7526 Y91.8500
G01 X80.7527 Y91.8500
G01 X80.7527 Y91.8500
G00 Z2.0000
G00 X76.4347 Y86.7700
G01 F60.00
G01 Z-2.4000
G01 F60.00
G01 X76.4347 Y86.7699
G01 X76.4346 Y86.7700
G01 X76.4347 Y86.7700
G01 X76.4347 Y86.7700
G00 Z2.0000
G00 X73.1327 Y90.5800
G01 F60.00
G01 Z-2.4000
G01 F60.00
G01 X73.1327 Y90.5800
G01 X73.1326 Y90.5800
G01 X73.1327 Y90.5801
G01 X73.1327 Y90.5800
G00 Z2.0000
G00 X70.5927 Y90.5800
G01 F60.00
G01 Z-2.4000
G01 F60.00
G01 X70.5927 Y90.5800
G01 X70.5926 Y90.5800
G01 X70.5927 Y90.5801
G01 X70.5927 Y90.5800
G00 Z2.0000
G00 X68.0527 Y90.5800
G01 F60.00
G01 Z-2.4000
G01 F60.00
G01 X68.0527 Y90.5800
G01 X68.0526 Y90.5800
G01 X68.0527 Y90.5801
G01 X68.0527 Y90.5800
G00 Z2.0000
G00 X70.5927 Y82.9600
G01 F60.00
G01 Z-2.4000
G01 F60.00
G01 X70.5927 Y82.9600
G01 X70.5926 Y82.9600
G01 X70.5927 Y82.9601
G01 X70.5927 Y82.9600
G00 Z2.0000
G00 X73.0921 Y82.9600
G01 F60.00
G01 Z-2.4000
G01 F60.00
G01 X73.0920 Y82.9600
G01 X73.0920 Y82.9600
G01 X73.0920 Y82.9601
G01 X73.0921 Y82.9600
G00 Z2.0000
G00 X65.4721 Y82.9600
G01 F60.00
G01 Z-2.4000
G01 F60.00
G01 X65.4720 Y82.9600
G01 X65.4720 Y82.9600
G01 X65.4720 Y82.9601
G01 X65.4721 Y82.9600
G00 Z2.0000
G00 X62.9727 Y82.9600
G01 F60.00
G01 Z-2.4000
G01 F60.00
G01 X62.9727 Y82.9600
G01 X62.9726 Y82.9600
G01 X62.9727 Y82.9601
G01 X62.9727 Y82.9600
G00 Z2.0000
G00 X66.7827 Y73.8160
G01 F60.00
G01 Z-2.4000
G01 F60.00
G01 X66.7827 Y73.8160
G01 X66.7826 Y73.8160
G01 X66.7827 Y73.8161
G01 X66.7827 Y73.8160
G00 Z2.0000
G00 X57.8927 Y71.0220
G01 F60.00
G01 Z-2.4000
G01 F60.00
G01 X57.8927 Y71.0220
G01 X57.8926 Y71.0220
G01 X57.8927 Y71.0221
G01 X57.8927 Y71.0220
G00 Z2.0000
G00 X57.8927 Y60.7350
G01 F60.00
G01 Z-2.4000
G01 F60.00
G01 X57.8927 Y60.7349
G01 X57.8926 Y60.7350
G01 X57.8927 Y60.7351
G01 X57.8927 Y60.7350
G00 Z2.0000
G00 X66.7827 Y63.6560
G01 F60.00
G01 Z-2.4000
G01 F60.00
G01 X66.7827 Y63.6560
G01 X66.7826 Y63.6560
G01 X66.7827 Y63.6561
G01 X66.7827 Y63.6560
G00 Z2.0000
G00 X71.4335 Y50.3997
G01 F60.00
G01 Z-2.4000
G01 F60.00
G01 X71.4334 Y50.3997
G01 X71.4334 Y50.3997
G01 X71.4334 Y50.3998
G01 X71.4335 Y50.3997
G00 Z2.0000
G00 X73.2318 Y36.5593
G01 F60.00
G01 Z-2.4000
G01 F60.00
G01 X73.2317 Y36.5592
G01 X73.2317 Y36.5593
G01 X73.2317 Y36.5593
G01 X73.2318 Y36.5593
G00 Z2.0000
G00 X65.2587 Y37.6210
G01 F60.00
G01 Z-2.4000
G01 F60.00
G01 X65.2587 Y37.6210
G01 X65.2586 Y37.6210
G01 X65.2587 Y37.6211
G01 X65.2587 Y37.6210
G00 Z2.0000
G00 X51.1135 Y50.3997
G01 F60.00
G01 Z-2.4000
G01 F60.00
G01 X51.1134 Y50.3997
G01 X51.1134 Y50.3997
G01 X51.1134 Y50.3998
G01 X51.1135 Y50.3997
G00 Z2.0000
G00 X39.3507 Y58.1950
G01 F60.00
G01 Z-2.4000
G01 F60.00
G01 X39.3507 Y58.1950
G01 X39.3506 Y58.1950
G01 X39.3507 Y58.1951
G01 X39.3507 Y58.1950
G00 Z2.0000
G00 X39.3507 Y37.8750
G01 F60.00
G01 Z-2.4000
G01 F60.00
G01 X39.3507 Y37.8749
G01 X39.3506 Y37.8750
G01 X39.3507 Y37.8751
G01 X39.3507 Y37.8750
G00 Z2.0000
G00 X34.3317 Y36.3993
G01 F60.00
G01 Z-2.4000
G01 F60.00
G01 X34.3316 Y36.3992
G01 X34.3316 Y36.3993
G01 X34.3316 Y36.3993
G01 X34.3317 Y36.3993
G00 Z2.0000
G00 X31.8323 Y36.3993
G01 F60.00
G01 Z-2.4000
G01 F60.00
G01 X31.8323 Y36.3992
G01 X31.8322 Y36.3993
G01 X31.8323 Y36.3993
G01 X31.8323 Y36.3993
G00 Z2.0000
G00 X44.9387 Y37.6210
G01 F60.00
G01 Z-2.4000
G01 F60.00
G01 X44.9387 Y37.6210
G01 X44.9386 Y37.6210
G01 X44.9387 Y37.6211
G01 X44.9387 Y37.6210
G00 Z2.0000
M05
G00 Z2.0000
G00 Z15.00


