(G-CODE GENERATED BY FLATCAM v8.994 - www.flatcam.org - Version Date: 2020/11/7)

(Name: Gerador_sinais_AD9833-PTH.drl_mill_cnc)
(Type: G-code from Geometry)
(Units: MM)

(Created on sexta, 21 julho 2023 at 19:55)

(This preprocessor is the default preprocessor used by FlatCAM.)
(It is made to work with MACH3 compatible motion controllers.)

(TOOL DIAMETER: 0.8 mm)
(Feedrate_XY: 120.0 mm/min)
(Feedrate_Z: 60.0 mm/min)
(Feedrate rapids 1500.0 mm/min)

(Z_Cut: -2.6 mm)
(Z_Move: 1.0 mm)
(Z Start: None mm)
(Z End: 15.0 mm)
(X,Y End: None mm)
(Steps per circle: 64)
(Preprocessor Geometry: default)

(X range:    0.9999 ...   81.0100  mm)
(Y range:    3.2301 ...   93.4002  mm)

(Spindle Speed: 1000.0 RPM)
G21
G90
G94

G01 F120.00

M5
G00 Z1.0000
G00 X0.0000 Y0.0000
(T1)
(M6  )  
(MSG, Change to Tool Dia = 0.80000)
(M0)
G00 Z1.0000

M03 S1000.0
G01 F120.00
G00 X1.0000 Y7.0401
G01 F60.00
G01 Z-2.6000
G01 F120.00
G01 X1.0000 Y7.0401
G01 X0.9999 Y7.0401
G01 X1.0000 Y7.0402
G01 X1.0000 Y7.0401
G00 Z1.0000
G00 X1.0000 Y9.5801
G01 F60.00
G01 Z-2.6000
G01 F120.00
G01 X1.0000 Y9.5801
G01 X0.9999 Y9.5801
G01 X1.0000 Y9.5802
G01 X1.0000 Y9.5801
G00 Z1.0000
G00 X1.0000 Y12.1201
G01 F60.00
G01 Z-2.6000
G01 F120.00
G01 X1.0000 Y12.1201
G01 X0.9999 Y12.1201
G01 X1.0000 Y12.1202
G01 X1.0000 Y12.1201
G00 Z1.0000
G00 X1.0000 Y14.6601
G01 F60.00
G01 Z-2.6000
G01 F120.00
G01 X1.0000 Y14.6601
G01 X0.9999 Y14.6601
G01 X1.0000 Y14.6602
G01 X1.0000 Y14.6601
G00 Z1.0000
G00 X1.0000 Y17.2001
G01 F60.00
G01 Z-2.6000
G01 F120.00
G01 X1.0000 Y17.2001
G01 X0.9999 Y17.2001
G01 X1.0000 Y17.2002
G01 X1.0000 Y17.2001
G00 Z1.0000
G00 X1.0000 Y19.7401
G01 F60.00
G01 Z-2.6000
G01 F120.00
G01 X1.0000 Y19.7401
G01 X0.9999 Y19.7401
G01 X1.0000 Y19.7402
G01 X1.0000 Y19.7401
G00 Z1.0000
G00 X1.0000 Y22.2801
G01 F60.00
G01 Z-2.6000
G01 F120.00
G01 X1.0000 Y22.2801
G01 X0.9999 Y22.2801
G01 X1.0000 Y22.2802
G01 X1.0000 Y22.2801
G00 Z1.0000
G00 X1.0000 Y24.8201
G01 F60.00
G01 Z-2.6000
G01 F120.00
G01 X1.0000 Y24.8201
G01 X0.9999 Y24.8201
G01 X1.0000 Y24.8202
G01 X1.0000 Y24.8201
G00 Z1.0000
G00 X1.0000 Y27.3601
G01 F60.00
G01 Z-2.6000
G01 F120.00
G01 X1.0000 Y27.3601
G01 X0.9999 Y27.3601
G01 X1.0000 Y27.3602
G01 X1.0000 Y27.3601
G00 Z1.0000
G00 X1.0000 Y29.9001
G01 F60.00
G01 Z-2.6000
G01 F120.00
G01 X1.0000 Y29.9001
G01 X0.9999 Y29.9001
G01 X1.0000 Y29.9002
G01 X1.0000 Y29.9001
G00 Z1.0000
G00 X1.0000 Y32.4401
G01 F60.00
G01 Z-2.6000
G01 F120.00
G01 X1.0000 Y32.4401
G01 X0.9999 Y32.4401
G01 X1.0000 Y32.4402
G01 X1.0000 Y32.4401
G00 Z1.0000
G00 X1.0000 Y34.9801
G01 F60.00
G01 Z-2.6000
G01 F120.00
G01 X1.0000 Y34.9801
G01 X0.9999 Y34.9801
G01 X1.0000 Y34.9802
G01 X1.0000 Y34.9801
G00 Z1.0000
G00 X1.0000 Y37.5201
G01 F60.00
G01 Z-2.6000
G01 F120.00
G01 X1.0000 Y37.5201
G01 X0.9999 Y37.5201
G01 X1.0000 Y37.5202
G01 X1.0000 Y37.5201
G00 Z1.0000
G00 X1.0000 Y40.0601
G01 F60.00
G01 Z-2.6000
G01 F120.00
G01 X1.0000 Y40.0601
G01 X0.9999 Y40.0601
G01 X1.0000 Y40.0602
G01 X1.0000 Y40.0601
G00 Z1.0000
G00 X1.0000 Y42.6001
G01 F60.00
G01 Z-2.6000
G01 F120.00
G01 X1.0000 Y42.6001
G01 X0.9999 Y42.6001
G01 X1.0000 Y42.6002
G01 X1.0000 Y42.6001
G00 Z1.0000
G00 X1.0000 Y45.1401
G01 F60.00
G01 Z-2.6000
G01 F120.00
G01 X1.0000 Y45.1401
G01 X0.9999 Y45.1401
G01 X1.0000 Y45.1402
G01 X1.0000 Y45.1401
G00 Z1.0000
G00 X1.0000 Y47.6801
G01 F60.00
G01 Z-2.6000
G01 F120.00
G01 X1.0000 Y47.6801
G01 X0.9999 Y47.6801
G01 X1.0000 Y47.6802
G01 X1.0000 Y47.6801
G00 Z1.0000
G00 X1.0000 Y50.2201
G01 F60.00
G01 Z-2.6000
G01 F120.00
G01 X1.0000 Y50.2201
G01 X0.9999 Y50.2201
G01 X1.0000 Y50.2202
G01 X1.0000 Y50.2201
G00 Z1.0000
G00 X1.0000 Y52.7601
G01 F60.00
G01 Z-2.6000
G01 F120.00
G01 X1.0000 Y52.7601
G01 X0.9999 Y52.7601
G01 X1.0000 Y52.7602
G01 X1.0000 Y52.7601
G00 Z1.0000
G00 X1.0000 Y55.3001
G01 F60.00
G01 Z-2.6000
G01 F120.00
G01 X1.0000 Y55.3001
G01 X0.9999 Y55.3001
G01 X1.0000 Y55.3002
G01 X1.0000 Y55.3001
G00 Z1.0000
G00 X1.0000 Y57.8401
G01 F60.00
G01 Z-2.6000
G01 F120.00
G01 X1.0000 Y57.8401
G01 X0.9999 Y57.8401
G01 X1.0000 Y57.8402
G01 X1.0000 Y57.8401
G00 Z1.0000
G00 X1.0000 Y60.3801
G01 F60.00
G01 Z-2.6000
G01 F120.00
G01 X1.0000 Y60.3801
G01 X0.9999 Y60.3801
G01 X1.0000 Y60.3802
G01 X1.0000 Y60.3801
G00 Z1.0000
G00 X1.0000 Y62.9201
G01 F60.00
G01 Z-2.6000
G01 F120.00
G01 X1.0000 Y62.9201
G01 X0.9999 Y62.9201
G01 X1.0000 Y62.9202
G01 X1.0000 Y62.9201
G00 Z1.0000
G00 X1.0000 Y65.4601
G01 F60.00
G01 Z-2.6000
G01 F120.00
G01 X1.0000 Y65.4601
G01 X0.9999 Y65.4601
G01 X1.0000 Y65.4602
G01 X1.0000 Y65.4601
G00 Z1.0000
G00 X1.0000 Y68.0001
G01 F60.00
G01 Z-2.6000
G01 F120.00
G01 X1.0000 Y68.0001
G01 X0.9999 Y68.0001
G01 X1.0000 Y68.0002
G01 X1.0000 Y68.0001
G00 Z1.0000
G00 X1.0000 Y70.5401
G01 F60.00
G01 Z-2.6000
G01 F120.00
G01 X1.0000 Y70.5401
G01 X0.9999 Y70.5401
G01 X1.0000 Y70.5402
G01 X1.0000 Y70.5401
G00 Z1.0000
G00 X1.0000 Y73.0801
G01 F60.00
G01 Z-2.6000
G01 F120.00
G01 X1.0000 Y73.0801
G01 X0.9999 Y73.0801
G01 X1.0000 Y73.0802
G01 X1.0000 Y73.0801
G00 Z1.0000
G00 X1.0000 Y75.6201
G01 F60.00
G01 Z-2.6000
G01 F120.00
G01 X1.0000 Y75.6201
G01 X0.9999 Y75.6201
G01 X1.0000 Y75.6202
G01 X1.0000 Y75.6201
G00 Z1.0000
G00 X1.0000 Y78.1601
G01 F60.00
G01 Z-2.6000
G01 F120.00
G01 X1.0000 Y78.1601
G01 X0.9999 Y78.1601
G01 X1.0000 Y78.1602
G01 X1.0000 Y78.1601
G00 Z1.0000
G00 X1.0000 Y80.7001
G01 F60.00
G01 Z-2.6000
G01 F120.00
G01 X1.0000 Y80.7001
G01 X0.9999 Y80.7001
G01 X1.0000 Y80.7002
G01 X1.0000 Y80.7001
G00 Z1.0000
G00 X1.0000 Y83.2401
G01 F60.00
G01 Z-2.6000
G01 F120.00
G01 X1.0000 Y83.2401
G01 X0.9999 Y83.2401
G01 X1.0000 Y83.2402
G01 X1.0000 Y83.2401
G00 Z1.0000
G00 X1.0000 Y85.7801
G01 F60.00
G01 Z-2.6000
G01 F120.00
G01 X1.0000 Y85.7801
G01 X0.9999 Y85.7801
G01 X1.0000 Y85.7802
G01 X1.0000 Y85.7801
G00 Z1.0000
G00 X1.0000 Y88.3201
G01 F60.00
G01 Z-2.6000
G01 F120.00
G01 X1.0000 Y88.3201
G01 X0.9999 Y88.3201
G01 X1.0000 Y88.3202
G01 X1.0000 Y88.3201
G00 Z1.0000
G00 X1.0000 Y90.8601
G01 F60.00
G01 Z-2.6000
G01 F120.00
G01 X1.0000 Y90.8601
G01 X0.9999 Y90.8601
G01 X1.0000 Y90.8602
G01 X1.0000 Y90.8601
G00 Z1.0000
G00 X1.0000 Y93.4001
G01 F60.00
G01 Z-2.6000
G01 F120.00
G01 X1.0000 Y93.4001
G01 X0.9999 Y93.4001
G01 X1.0000 Y93.4002
G01 X1.0000 Y93.4001
G00 Z1.0000
G00 X8.6912 Y93.0496
G01 F60.00
G01 Z-2.6000
G01 F120.00
G01 X8.6911 Y93.0495
G01 X8.6911 Y93.0496
G01 X8.6911 Y93.0496
G01 X8.6912 Y93.0496
G00 Z1.0000
G00 X13.6899 Y93.0496
G01 F60.00
G01 Z-2.6000
G01 F120.00
G01 X13.6898 Y93.0495
G01 X13.6898 Y93.0496
G01 X13.6898 Y93.0496
G01 X13.6899 Y93.0496
G00 Z1.0000
G00 X20.6901 Y93.0496
G01 F60.00
G01 Z-2.6000
G01 F120.00
G01 X20.6901 Y93.0495
G01 X20.6900 Y93.0496
G01 X20.6901 Y93.0496
G01 X20.6901 Y93.0496
G00 Z1.0000
G00 X25.6888 Y93.0496
G01 F60.00
G01 Z-2.6000
G01 F120.00
G01 X25.6888 Y93.0495
G01 X25.6887 Y93.0496
G01 X25.6888 Y93.0496
G01 X25.6888 Y93.0496
G00 Z1.0000
G00 X32.6891 Y93.0496
G01 F60.00
G01 Z-2.6000
G01 F120.00
G01 X32.6890 Y93.0495
G01 X32.6890 Y93.0496
G01 X32.6890 Y93.0496
G01 X32.6891 Y93.0496
G00 Z1.0000
G00 X37.6903 Y93.0496
G01 F60.00
G01 Z-2.6000
G01 F120.00
G01 X37.6903 Y93.0495
G01 X37.6902 Y93.0496
G01 X37.6903 Y93.0496
G01 X37.6903 Y93.0496
G00 Z1.0000
G00 X44.6906 Y93.0496
G01 F60.00
G01 Z-2.6000
G01 F120.00
G01 X44.6905 Y93.0495
G01 X44.6905 Y93.0496
G01 X44.6905 Y93.0496
G01 X44.6906 Y93.0496
G00 Z1.0000
G00 X49.6893 Y93.0496
G01 F60.00
G01 Z-2.6000
G01 F120.00
G01 X49.6893 Y93.0495
G01 X49.6892 Y93.0496
G01 X49.6893 Y93.0496
G01 X49.6893 Y93.0496
G00 Z1.0000
G00 X56.6895 Y93.0496
G01 F60.00
G01 Z-2.6000
G01 F120.00
G01 X56.6895 Y93.0495
G01 X56.6894 Y93.0496
G01 X56.6895 Y93.0496
G01 X56.6895 Y93.0496
G00 Z1.0000
G00 X61.6908 Y93.0496
G01 F60.00
G01 Z-2.6000
G01 F120.00
G01 X61.6908 Y93.0495
G01 X61.6907 Y93.0496
G01 X61.6908 Y93.0496
G01 X61.6908 Y93.0496
G00 Z1.0000
G00 X68.6910 Y93.0496
G01 F60.00
G01 Z-2.6000
G01 F120.00
G01 X68.6910 Y93.0495
G01 X68.6909 Y93.0496
G01 X68.6910 Y93.0496
G01 X68.6910 Y93.0496
G00 Z1.0000
G00 X73.6898 Y93.0496
G01 F60.00
G01 Z-2.6000
G01 F120.00
G01 X73.6897 Y93.0495
G01 X73.6897 Y93.0496
G01 X73.6897 Y93.0496
G01 X73.6898 Y93.0496
G00 Z1.0000
G00 X81.0100 Y93.4001
G01 F60.00
G01 Z-2.6000
G01 F120.00
G01 X81.0100 Y93.4001
G01 X81.0099 Y93.4001
G01 X81.0100 Y93.4002
G01 X81.0100 Y93.4001
G00 Z1.0000
G00 X81.0100 Y90.8601
G01 F60.00
G01 Z-2.6000
G01 F120.00
G01 X81.0100 Y90.8601
G01 X81.0099 Y90.8601
G01 X81.0100 Y90.8602
G01 X81.0100 Y90.8601
G00 Z1.0000
G00 X81.0100 Y88.3201
G01 F60.00
G01 Z-2.6000
G01 F120.00
G01 X81.0100 Y88.3201
G01 X81.0099 Y88.3201
G01 X81.0100 Y88.3202
G01 X81.0100 Y88.3201
G00 Z1.0000
G00 X81.0100 Y85.7801
G01 F60.00
G01 Z-2.6000
G01 F120.00
G01 X81.0100 Y85.7801
G01 X81.0099 Y85.7801
G01 X81.0100 Y85.7802
G01 X81.0100 Y85.7801
G00 Z1.0000
G00 X81.0100 Y83.2401
G01 F60.00
G01 Z-2.6000
G01 F120.00
G01 X81.0100 Y83.2401
G01 X81.0099 Y83.2401
G01 X81.0100 Y83.2402
G01 X81.0100 Y83.2401
G00 Z1.0000
G00 X81.0100 Y80.7001
G01 F60.00
G01 Z-2.6000
G01 F120.00
G01 X81.0100 Y80.7001
G01 X81.0099 Y80.7001
G01 X81.0100 Y80.7002
G01 X81.0100 Y80.7001
G00 Z1.0000
G00 X81.0100 Y78.1601
G01 F60.00
G01 Z-2.6000
G01 F120.00
G01 X81.0100 Y78.1601
G01 X81.0099 Y78.1601
G01 X81.0100 Y78.1602
G01 X81.0100 Y78.1601
G00 Z1.0000
G00 X81.0100 Y75.6201
G01 F60.00
G01 Z-2.6000
G01 F120.00
G01 X81.0100 Y75.6201
G01 X81.0099 Y75.6201
G01 X81.0100 Y75.6202
G01 X81.0100 Y75.6201
G00 Z1.0000
G00 X75.6913 Y78.0509
G01 F60.00
G01 Z-2.6000
G01 F120.00
G01 X75.6912 Y78.0508
G01 X75.6912 Y78.0509
G01 X75.6912 Y78.0509
G01 X75.6913 Y78.0509
G00 Z1.0000
G00 X75.6913 Y70.7992
G01 F60.00
G01 Z-2.6000
G01 F120.00
G01 X75.6912 Y70.7991
G01 X75.6912 Y70.7992
G01 X75.6912 Y70.7992
G01 X75.6913 Y70.7992
G00 Z1.0000
G00 X75.9402 Y66.5498
G01 F60.00
G01 Z-2.6000
G01 F120.00
G01 X75.9402 Y66.5497
G01 X75.9401 Y66.5498
G01 X75.9402 Y66.5498
G01 X75.9402 Y66.5498
G00 Z1.0000
G00 X81.0100 Y66.7301
G01 F60.00
G01 Z-2.6000
G01 F120.00
G01 X81.0100 Y66.7301
G01 X81.0099 Y66.7301
G01 X81.0100 Y66.7302
G01 X81.0100 Y66.7301
G00 Z1.0000
G00 X81.0100 Y69.2701
G01 F60.00
G01 Z-2.6000
G01 F120.00
G01 X81.0100 Y69.2701
G01 X81.0099 Y69.2701
G01 X81.0100 Y69.2702
G01 X81.0100 Y69.2701
G00 Z1.0000
G00 X81.0100 Y64.1901
G01 F60.00
G01 Z-2.6000
G01 F120.00
G01 X81.0100 Y64.1901
G01 X81.0099 Y64.1901
G01 X81.0100 Y64.1902
G01 X81.0100 Y64.1901
G00 Z1.0000
G00 X81.0100 Y61.6501
G01 F60.00
G01 Z-2.6000
G01 F120.00
G01 X81.0100 Y61.6501
G01 X81.0099 Y61.6501
G01 X81.0100 Y61.6502
G01 X81.0100 Y61.6501
G00 Z1.0000
G00 X81.0100 Y59.1101
G01 F60.00
G01 Z-2.6000
G01 F120.00
G01 X81.0100 Y59.1101
G01 X81.0099 Y59.1101
G01 X81.0100 Y59.1102
G01 X81.0100 Y59.1101
G00 Z1.0000
G00 X81.0100 Y56.5701
G01 F60.00
G01 Z-2.6000
G01 F120.00
G01 X81.0100 Y56.5701
G01 X81.0099 Y56.5701
G01 X81.0100 Y56.5702
G01 X81.0100 Y56.5701
G00 Z1.0000
G00 X81.0100 Y54.0301
G01 F60.00
G01 Z-2.6000
G01 F120.00
G01 X81.0100 Y54.0301
G01 X81.0099 Y54.0301
G01 X81.0100 Y54.0302
G01 X81.0100 Y54.0301
G00 Z1.0000
G00 X81.0100 Y51.4901
G01 F60.00
G01 Z-2.6000
G01 F120.00
G01 X81.0100 Y51.4901
G01 X81.0099 Y51.4901
G01 X81.0100 Y51.4902
G01 X81.0100 Y51.4901
G00 Z1.0000
G00 X81.0100 Y48.9501
G01 F60.00
G01 Z-2.6000
G01 F120.00
G01 X81.0100 Y48.9501
G01 X81.0099 Y48.9501
G01 X81.0100 Y48.9502
G01 X81.0100 Y48.9501
G00 Z1.0000
G00 X81.0100 Y46.4101
G01 F60.00
G01 Z-2.6000
G01 F120.00
G01 X81.0100 Y46.4101
G01 X81.0099 Y46.4101
G01 X81.0100 Y46.4102
G01 X81.0100 Y46.4101
G00 Z1.0000
G00 X81.0100 Y43.8701
G01 F60.00
G01 Z-2.6000
G01 F120.00
G01 X81.0100 Y43.8701
G01 X81.0099 Y43.8701
G01 X81.0100 Y43.8702
G01 X81.0100 Y43.8701
G00 Z1.0000
G00 X81.0100 Y41.3301
G01 F60.00
G01 Z-2.6000
G01 F120.00
G01 X81.0100 Y41.3301
G01 X81.0099 Y41.3301
G01 X81.0100 Y41.3302
G01 X81.0100 Y41.3301
G00 Z1.0000
G00 X81.0100 Y38.7901
G01 F60.00
G01 Z-2.6000
G01 F120.00
G01 X81.0100 Y38.7901
G01 X81.0099 Y38.7901
G01 X81.0100 Y38.7902
G01 X81.0100 Y38.7901
G00 Z1.0000
G00 X81.0100 Y36.2501
G01 F60.00
G01 Z-2.6000
G01 F120.00
G01 X81.0100 Y36.2501
G01 X81.0099 Y36.2501
G01 X81.0100 Y36.2502
G01 X81.0100 Y36.2501
G00 Z1.0000
G00 X81.0100 Y33.7101
G01 F60.00
G01 Z-2.6000
G01 F120.00
G01 X81.0100 Y33.7101
G01 X81.0099 Y33.7101
G01 X81.0100 Y33.7102
G01 X81.0100 Y33.7101
G00 Z1.0000
G00 X81.0100 Y31.1701
G01 F60.00
G01 Z-2.6000
G01 F120.00
G01 X81.0100 Y31.1701
G01 X81.0099 Y31.1701
G01 X81.0100 Y31.1702
G01 X81.0100 Y31.1701
G00 Z1.0000
G00 X81.0100 Y28.6301
G01 F60.00
G01 Z-2.6000
G01 F120.00
G01 X81.0100 Y28.6301
G01 X81.0099 Y28.6301
G01 X81.0100 Y28.6302
G01 X81.0100 Y28.6301
G00 Z1.0000
G00 X81.0100 Y26.0901
G01 F60.00
G01 Z-2.6000
G01 F120.00
G01 X81.0100 Y26.0901
G01 X81.0099 Y26.0901
G01 X81.0100 Y26.0902
G01 X81.0100 Y26.0901
G00 Z1.0000
G00 X81.0100 Y23.5501
G01 F60.00
G01 Z-2.6000
G01 F120.00
G01 X81.0100 Y23.5501
G01 X81.0099 Y23.5501
G01 X81.0100 Y23.5502
G01 X81.0100 Y23.5501
G00 Z1.0000
G00 X81.0100 Y21.0101
G01 F60.00
G01 Z-2.6000
G01 F120.00
G01 X81.0100 Y21.0101
G01 X81.0099 Y21.0101
G01 X81.0100 Y21.0102
G01 X81.0100 Y21.0101
G00 Z1.0000
G00 X81.0100 Y18.4701
G01 F60.00
G01 Z-2.6000
G01 F120.00
G01 X81.0100 Y18.4701
G01 X81.0099 Y18.4701
G01 X81.0100 Y18.4702
G01 X81.0100 Y18.4701
G00 Z1.0000
G00 X81.0100 Y15.9301
G01 F60.00
G01 Z-2.6000
G01 F120.00
G01 X81.0100 Y15.9301
G01 X81.0099 Y15.9301
G01 X81.0100 Y15.9302
G01 X81.0100 Y15.9301
G00 Z1.0000
G00 X81.0100 Y13.3901
G01 F60.00
G01 Z-2.6000
G01 F120.00
G01 X81.0100 Y13.3901
G01 X81.0099 Y13.3901
G01 X81.0100 Y13.3902
G01 X81.0100 Y13.3901
G00 Z1.0000
G00 X81.0100 Y10.8501
G01 F60.00
G01 Z-2.6000
G01 F120.00
G01 X81.0100 Y10.8501
G01 X81.0099 Y10.8501
G01 X81.0100 Y10.8502
G01 X81.0100 Y10.8501
G00 Z1.0000
G00 X81.0100 Y8.3101
G01 F60.00
G01 Z-2.6000
G01 F120.00
G01 X81.0100 Y8.3101
G01 X81.0099 Y8.3101
G01 X81.0100 Y8.3102
G01 X81.0100 Y8.3101
G00 Z1.0000
G00 X81.0100 Y5.7701
G01 F60.00
G01 Z-2.6000
G01 F120.00
G01 X81.0100 Y5.7701
G01 X81.0099 Y5.7701
G01 X81.0100 Y5.7702
G01 X81.0100 Y5.7701
G00 Z1.0000
G00 X81.0100 Y3.2301
G01 F60.00
G01 Z-2.6000
G01 F120.00
G01 X81.0100 Y3.2301
G01 X81.0099 Y3.2301
G01 X81.0100 Y3.2302
G01 X81.0100 Y3.2301
G00 Z1.0000
G00 X63.6898 Y26.3492
G01 F60.00
G01 Z-2.6000
G01 F120.00
G01 X63.6897 Y26.3491
G01 X63.6897 Y26.3492
G01 X63.6897 Y26.3492
G01 X63.6898 Y26.3492
G00 Z1.0000
G00 X54.0911 Y27.1493
G01 F60.00
G01 Z-2.6000
G01 F120.00
G01 X54.0911 Y27.1492
G01 X54.0910 Y27.1493
G01 X54.0911 Y27.1493
G01 X54.0911 Y27.1493
G00 Z1.0000
G00 X49.1889 Y27.0807
G01 F60.00
G01 Z-2.6000
G01 F120.00
G01 X49.1889 Y27.0807
G01 X49.1888 Y27.0807
G01 X49.1889 Y27.0808
G01 X49.1889 Y27.0807
G00 Z1.0000
G00 X49.1889 Y29.6207
G01 F60.00
G01 Z-2.6000
G01 F120.00
G01 X49.1889 Y29.6207
G01 X49.1888 Y29.6207
G01 X49.1889 Y29.6208
G01 X49.1889 Y29.6207
G00 Z1.0000
G00 X49.1889 Y32.1607
G01 F60.00
G01 Z-2.6000
G01 F120.00
G01 X49.1889 Y32.1607
G01 X49.1888 Y32.1607
G01 X49.1889 Y32.1608
G01 X49.1889 Y32.1607
G00 Z1.0000
G00 X49.1889 Y34.7007
G01 F60.00
G01 Z-2.6000
G01 F120.00
G01 X49.1889 Y34.7007
G01 X49.1888 Y34.7007
G01 X49.1889 Y34.7008
G01 X49.1889 Y34.7007
G00 Z1.0000
G00 X49.1889 Y37.2407
G01 F60.00
G01 Z-2.6000
G01 F120.00
G01 X49.1889 Y37.2407
G01 X49.1888 Y37.2407
G01 X49.1889 Y37.2408
G01 X49.1889 Y37.2407
G00 Z1.0000
G00 X49.1889 Y39.7807
G01 F60.00
G01 Z-2.6000
G01 F120.00
G01 X49.1889 Y39.7807
G01 X49.1888 Y39.7807
G01 X49.1889 Y39.7808
G01 X49.1889 Y39.7807
G00 Z1.0000
G00 X49.1889 Y42.3207
G01 F60.00
G01 Z-2.6000
G01 F120.00
G01 X49.1889 Y42.3207
G01 X49.1888 Y42.3207
G01 X49.1889 Y42.3208
G01 X49.1889 Y42.3207
G00 Z1.0000
G00 X50.4411 Y48.0510
G01 F60.00
G01 Z-2.6000
G01 F120.00
G01 X50.4411 Y48.0509
G01 X50.4410 Y48.0510
G01 X50.4411 Y48.0510
G01 X50.4411 Y48.0510
G00 Z1.0000
G00 X42.6027 Y50.9618
G01 F60.00
G01 Z-2.6000
G01 F120.00
G01 X42.6027 Y50.9617
G01 X42.6026 Y50.9618
G01 X42.6027 Y50.9618
G01 X42.6027 Y50.9618
G00 Z1.0000
G00 X45.5694 Y56.3695
G01 F60.00
G01 Z-2.6000
G01 F120.00
G01 X45.5694 Y56.3694
G01 X45.5693 Y56.3695
G01 X45.5694 Y56.3695
G01 X45.5694 Y56.3695
G00 Z1.0000
G00 X45.5694 Y58.9095
G01 F60.00
G01 Z-2.6000
G01 F120.00
G01 X45.5694 Y58.9094
G01 X45.5693 Y58.9095
G01 X45.5694 Y58.9095
G01 X45.5694 Y58.9095
G00 Z1.0000
G00 X45.5694 Y61.4495
G01 F60.00
G01 Z-2.6000
G01 F120.00
G01 X45.5694 Y61.4494
G01 X45.5693 Y61.4495
G01 X45.5694 Y61.4495
G01 X45.5694 Y61.4495
G00 Z1.0000
G00 X45.5694 Y63.9895
G01 F60.00
G01 Z-2.6000
G01 F120.00
G01 X45.5694 Y63.9894
G01 X45.5693 Y63.9895
G01 X45.5694 Y63.9895
G01 X45.5694 Y63.9895
G00 Z1.0000
G00 X45.5694 Y66.5295
G01 F60.00
G01 Z-2.6000
G01 F120.00
G01 X45.5694 Y66.5294
G01 X45.5693 Y66.5295
G01 X45.5694 Y66.5295
G01 X45.5694 Y66.5295
G00 Z1.0000
G00 X44.9395 Y70.7992
G01 F60.00
G01 Z-2.6000
G01 F120.00
G01 X44.9395 Y70.7991
G01 X44.9394 Y70.7992
G01 X44.9395 Y70.7992
G01 X44.9395 Y70.7992
G00 Z1.0000
G00 X45.4399 Y78.0509
G01 F60.00
G01 Z-2.6000
G01 F120.00
G01 X45.4398 Y78.0508
G01 X45.4398 Y78.0509
G01 X45.4398 Y78.0509
G01 X45.4399 Y78.0509
G00 Z1.0000
G00 X35.4094 Y66.5295
G01 F60.00
G01 Z-2.6000
G01 F120.00
G01 X35.4094 Y66.5294
G01 X35.4093 Y66.5295
G01 X35.4094 Y66.5295
G01 X35.4094 Y66.5295
G00 Z1.0000
G00 X35.4094 Y63.9895
G01 F60.00
G01 Z-2.6000
G01 F120.00
G01 X35.4094 Y63.9894
G01 X35.4093 Y63.9895
G01 X35.4094 Y63.9895
G01 X35.4094 Y63.9895
G00 Z1.0000
G00 X35.4094 Y61.4495
G01 F60.00
G01 Z-2.6000
G01 F120.00
G01 X35.4094 Y61.4494
G01 X35.4093 Y61.4495
G01 X35.4094 Y61.4495
G01 X35.4094 Y61.4495
G00 Z1.0000
G00 X35.4094 Y58.9095
G01 F60.00
G01 Z-2.6000
G01 F120.00
G01 X35.4094 Y58.9094
G01 X35.4093 Y58.9095
G01 X35.4094 Y58.9095
G01 X35.4094 Y58.9095
G00 Z1.0000
G00 X35.4094 Y56.3695
G01 F60.00
G01 Z-2.6000
G01 F120.00
G01 X35.4094 Y56.3694
G01 X35.4093 Y56.3695
G01 X35.4094 Y56.3695
G01 X35.4094 Y56.3695
G00 Z1.0000
G00 X30.6901 Y57.7995
G01 F60.00
G01 Z-2.6000
G01 F120.00
G01 X30.6901 Y57.7994
G01 X30.6900 Y57.7995
G01 X30.6901 Y57.7995
G01 X30.6901 Y57.7995
G00 Z1.0000
G00 X28.4397 Y53.3011
G01 F60.00
G01 Z-2.6000
G01 F120.00
G01 X28.4396 Y53.3011
G01 X28.4396 Y53.3011
G01 X28.4396 Y53.3012
G01 X28.4397 Y53.3011
G00 Z1.0000
G00 X33.4409 Y50.7992
G01 F60.00
G01 Z-2.6000
G01 F120.00
G01 X33.4409 Y50.7992
G01 X33.4408 Y50.7992
G01 X33.4409 Y50.7993
G01 X33.4409 Y50.7992
G00 Z1.0000
G00 X34.4391 Y48.2999
G01 F60.00
G01 Z-2.6000
G01 F120.00
G01 X34.4391 Y48.2998
G01 X34.4390 Y48.2999
G01 X34.4391 Y48.2999
G01 X34.4391 Y48.2999
G00 Z1.0000
G00 X33.9489 Y42.3207
G01 F60.00
G01 Z-2.6000
G01 F120.00
G01 X33.9489 Y42.3207
G01 X33.9488 Y42.3207
G01 X33.9489 Y42.3208
G01 X33.9489 Y42.3207
G00 Z1.0000
G00 X33.9489 Y39.7807
G01 F60.00
G01 Z-2.6000
G01 F120.00
G01 X33.9489 Y39.7807
G01 X33.9488 Y39.7807
G01 X33.9489 Y39.7808
G01 X33.9489 Y39.7807
G00 Z1.0000
G00 X33.9489 Y37.2407
G01 F60.00
G01 Z-2.6000
G01 F120.00
G01 X33.9489 Y37.2407
G01 X33.9488 Y37.2407
G01 X33.9489 Y37.2408
G01 X33.9489 Y37.2407
G00 Z1.0000
G00 X33.9489 Y34.7007
G01 F60.00
G01 Z-2.6000
G01 F120.00
G01 X33.9489 Y34.7007
G01 X33.9488 Y34.7007
G01 X33.9489 Y34.7008
G01 X33.9489 Y34.7007
G00 Z1.0000
G00 X33.9489 Y32.1607
G01 F60.00
G01 Z-2.6000
G01 F120.00
G01 X33.9489 Y32.1607
G01 X33.9488 Y32.1607
G01 X33.9489 Y32.1608
G01 X33.9489 Y32.1607
G00 Z1.0000
G00 X33.9489 Y29.6207
G01 F60.00
G01 Z-2.6000
G01 F120.00
G01 X33.9489 Y29.6207
G01 X33.9488 Y29.6207
G01 X33.9489 Y29.6208
G01 X33.9489 Y29.6207
G00 Z1.0000
G00 X33.9489 Y27.0807
G01 F60.00
G01 Z-2.6000
G01 F120.00
G01 X33.9489 Y27.0807
G01 X33.9488 Y27.0807
G01 X33.9489 Y27.0808
G01 X33.9489 Y27.0807
G00 Z1.0000
G00 X33.9489 Y24.5407
G01 F60.00
G01 Z-2.6000
G01 F120.00
G01 X33.9489 Y24.5407
G01 X33.9488 Y24.5407
G01 X33.9489 Y24.5408
G01 X33.9489 Y24.5407
G00 Z1.0000
G00 X33.9489 Y22.0007
G01 F60.00
G01 Z-2.6000
G01 F120.00
G01 X33.9489 Y22.0007
G01 X33.9488 Y22.0007
G01 X33.9489 Y22.0008
G01 X33.9489 Y22.0007
G00 Z1.0000
G00 X33.9489 Y19.4607
G01 F60.00
G01 Z-2.6000
G01 F120.00
G01 X33.9489 Y19.4607
G01 X33.9488 Y19.4607
G01 X33.9489 Y19.4608
G01 X33.9489 Y19.4607
G00 Z1.0000
G00 X33.9489 Y16.9207
G01 F60.00
G01 Z-2.6000
G01 F120.00
G01 X33.9489 Y16.9207
G01 X33.9488 Y16.9207
G01 X33.9489 Y16.9208
G01 X33.9489 Y16.9207
G00 Z1.0000
G00 X33.9489 Y14.3807
G01 F60.00
G01 Z-2.6000
G01 F120.00
G01 X33.9489 Y14.3807
G01 X33.9488 Y14.3807
G01 X33.9489 Y14.3808
G01 X33.9489 Y14.3807
G00 Z1.0000
G00 X33.9489 Y11.8407
G01 F60.00
G01 Z-2.6000
G01 F120.00
G01 X33.9489 Y11.8407
G01 X33.9488 Y11.8407
G01 X33.9489 Y11.8408
G01 X33.9489 Y11.8407
G00 Z1.0000
G00 X33.9489 Y9.3007
G01 F60.00
G01 Z-2.6000
G01 F120.00
G01 X33.9489 Y9.3007
G01 X33.9488 Y9.3007
G01 X33.9489 Y9.3008
G01 X33.9489 Y9.3007
G00 Z1.0000
G00 X33.9489 Y6.7607
G01 F60.00
G01 Z-2.6000
G01 F120.00
G01 X33.9489 Y6.7607
G01 X33.9488 Y6.7607
G01 X33.9489 Y6.7608
G01 X33.9489 Y6.7607
G00 Z1.0000
G00 X31.4394 Y11.0508
G01 F60.00
G01 Z-2.6000
G01 F120.00
G01 X31.4394 Y11.0507
G01 X31.4393 Y11.0508
G01 X31.4394 Y11.0508
G01 X31.4394 Y11.0508
G00 Z1.0000
G00 X29.4049 Y13.3342
G01 F60.00
G01 Z-2.6000
G01 F120.00
G01 X29.4048 Y13.3342
G01 X29.4048 Y13.3342
G01 X29.4048 Y13.3343
G01 X29.4049 Y13.3342
G00 Z1.0000
G00 X22.4402 Y17.0503
G01 F60.00
G01 Z-2.6000
G01 F120.00
G01 X22.4401 Y17.0502
G01 X22.4401 Y17.0503
G01 X22.4401 Y17.0503
G01 X22.4402 Y17.0503
G00 Z1.0000
G00 X19.9408 Y17.0503
G01 F60.00
G01 Z-2.6000
G01 F120.00
G01 X19.9408 Y17.0502
G01 X19.9407 Y17.0503
G01 X19.9408 Y17.0503
G01 X19.9408 Y17.0503
G00 Z1.0000
G00 X18.8893 Y22.5494
G01 F60.00
G01 Z-2.6000
G01 F120.00
G01 X18.8892 Y22.5493
G01 X18.8892 Y22.5494
G01 X18.8892 Y22.5494
G01 X18.8893 Y22.5494
G00 Z1.0000
G00 X18.8893 Y25.0894
G01 F60.00
G01 Z-2.6000
G01 F120.00
G01 X18.8892 Y25.0893
G01 X18.8892 Y25.0894
G01 X18.8892 Y25.0894
G01 X18.8893 Y25.0894
G00 Z1.0000
G00 X18.8893 Y27.6294
G01 F60.00
G01 Z-2.6000
G01 F120.00
G01 X18.8892 Y27.6293
G01 X18.8892 Y27.6294
G01 X18.8892 Y27.6294
G01 X18.8893 Y27.6294
G00 Z1.0000
G00 X18.8893 Y30.1694
G01 F60.00
G01 Z-2.6000
G01 F120.00
G01 X18.8892 Y30.1693
G01 X18.8892 Y30.1694
G01 X18.8892 Y30.1694
G01 X18.8893 Y30.1694
G00 Z1.0000
G00 X18.8893 Y32.7094
G01 F60.00
G01 Z-2.6000
G01 F120.00
G01 X18.8892 Y32.7093
G01 X18.8892 Y32.7094
G01 X18.8892 Y32.7094
G01 X18.8893 Y32.7094
G00 Z1.0000
G00 X18.8893 Y35.2494
G01 F60.00
G01 Z-2.6000
G01 F120.00
G01 X18.8892 Y35.2493
G01 X18.8892 Y35.2494
G01 X18.8892 Y35.2494
G01 X18.8893 Y35.2494
G00 Z1.0000
G00 X18.8893 Y37.7894
G01 F60.00
G01 Z-2.6000
G01 F120.00
G01 X18.8892 Y37.7893
G01 X18.8892 Y37.7894
G01 X18.8892 Y37.7894
G01 X18.8893 Y37.7894
G00 Z1.0000
G00 X18.9401 Y42.5493
G01 F60.00
G01 Z-2.6000
G01 F120.00
G01 X18.9400 Y42.5493
G01 X18.9400 Y42.5493
G01 X18.9400 Y42.5494
G01 X18.9401 Y42.5493
G00 Z1.0000
G00 X14.1903 Y48.2999
G01 F60.00
G01 Z-2.6000
G01 F120.00
G01 X14.1902 Y48.2998
G01 X14.1902 Y48.2999
G01 X14.1902 Y48.2999
G01 X14.1903 Y48.2999
G00 Z1.0000
G00 X16.1892 Y53.3011
G01 F60.00
G01 Z-2.6000
G01 F120.00
G01 X16.1892 Y53.3011
G01 X16.1891 Y53.3011
G01 X16.1892 Y53.3012
G01 X16.1892 Y53.3011
G00 Z1.0000
G00 X16.6896 Y57.7995
G01 F60.00
G01 Z-2.6000
G01 F120.00
G01 X16.6896 Y57.7994
G01 X16.6895 Y57.7995
G01 X16.6896 Y57.7995
G01 X16.6896 Y57.7995
G00 Z1.0000
G00 X14.2309 Y57.7995
G01 F60.00
G01 Z-2.6000
G01 F120.00
G01 X14.2309 Y57.7994
G01 X14.2308 Y57.7995
G01 X14.2309 Y57.7995
G01 X14.2309 Y57.7995
G00 Z1.0000
G00 X9.1509 Y57.7995
G01 F60.00
G01 Z-2.6000
G01 F120.00
G01 X9.1509 Y57.7994
G01 X9.1508 Y57.7995
G01 X9.1509 Y57.7995
G01 X9.1509 Y57.7995
G00 Z1.0000
G00 X14.1699 Y67.2305
G01 F60.00
G01 Z-2.6000
G01 F120.00
G01 X14.1699 Y67.2304
G01 X14.1698 Y67.2305
G01 X14.1699 Y67.2305
G01 X14.1699 Y67.2305
G00 Z1.0000
G00 X14.1699 Y69.7705
G01 F60.00
G01 Z-2.6000
G01 F120.00
G01 X14.1699 Y69.7704
G01 X14.1698 Y69.7705
G01 X14.1699 Y69.7705
G01 X14.1699 Y69.7705
G00 Z1.0000
G00 X14.1699 Y72.3105
G01 F60.00
G01 Z-2.6000
G01 F120.00
G01 X14.1699 Y72.3104
G01 X14.1698 Y72.3105
G01 X14.1699 Y72.3105
G01 X14.1699 Y72.3105
G00 Z1.0000
G00 X14.1699 Y74.8505
G01 F60.00
G01 Z-2.6000
G01 F120.00
G01 X14.1699 Y74.8504
G01 X14.1698 Y74.8505
G01 X14.1699 Y74.8505
G01 X14.1699 Y74.8505
G00 Z1.0000
G00 X21.7899 Y74.8505
G01 F60.00
G01 Z-2.6000
G01 F120.00
G01 X21.7899 Y74.8504
G01 X21.7898 Y74.8505
G01 X21.7899 Y74.8505
G01 X21.7899 Y74.8505
G00 Z1.0000
G00 X21.7899 Y72.3105
G01 F60.00
G01 Z-2.6000
G01 F120.00
G01 X21.7899 Y72.3104
G01 X21.7898 Y72.3105
G01 X21.7899 Y72.3105
G01 X21.7899 Y72.3105
G00 Z1.0000
G00 X21.7899 Y69.7705
G01 F60.00
G01 Z-2.6000
G01 F120.00
G01 X21.7899 Y69.7704
G01 X21.7898 Y69.7705
G01 X21.7899 Y69.7705
G01 X21.7899 Y69.7705
G00 Z1.0000
G00 X21.7899 Y67.2305
G01 F60.00
G01 Z-2.6000
G01 F120.00
G01 X21.7899 Y67.2304
G01 X21.7898 Y67.2305
G01 X21.7899 Y67.2305
G01 X21.7899 Y67.2305
G00 Z1.0000
G00 X28.4397 Y70.7992
G01 F60.00
G01 Z-2.6000
G01 F120.00
G01 X28.4396 Y70.7991
G01 X28.4396 Y70.7992
G01 X28.4396 Y70.7992
G01 X28.4397 Y70.7992
G00 Z1.0000
G00 X21.1905 Y78.0509
G01 F60.00
G01 Z-2.6000
G01 F120.00
G01 X21.1905 Y78.0508
G01 X21.1904 Y78.0509
G01 X21.1905 Y78.0509
G01 X21.1905 Y78.0509
G00 Z1.0000
G00 X22.6891 Y53.3011
G01 F60.00
G01 Z-2.6000
G01 F120.00
G01 X22.6891 Y53.3011
G01 X22.6890 Y53.3011
G01 X22.6891 Y53.3012
G01 X22.6891 Y53.3011
G00 Z1.0000
G00 X31.1905 Y42.5493
G01 F60.00
G01 Z-2.6000
G01 F120.00
G01 X31.1904 Y42.5493
G01 X31.1904 Y42.5493
G01 X31.1904 Y42.5494
G01 X31.1905 Y42.5493
G00 Z1.0000
G00 X29.2906 Y32.7500
G01 F60.00
G01 Z-2.6000
G01 F120.00
G01 X29.2905 Y32.7499
G01 X29.2905 Y32.7500
G01 X29.2905 Y32.7500
G01 X29.2906 Y32.7500
G00 Z1.0000
G00 X29.2906 Y30.1490
G01 F60.00
G01 Z-2.6000
G01 F120.00
G01 X29.2905 Y30.1490
G01 X29.2905 Y30.1490
G01 X29.2905 Y30.1491
G01 X29.2906 Y30.1490
G00 Z1.0000
G00 X27.4745 Y27.6497
G01 F60.00
G01 Z-2.6000
G01 F120.00
G01 X27.4744 Y27.6496
G01 X27.4744 Y27.6497
G01 X27.4744 Y27.6497
G01 X27.4745 Y27.6497
G00 Z1.0000
G00 X23.3901 Y27.6497
G01 F60.00
G01 Z-2.6000
G01 F120.00
G01 X23.3901 Y27.6496
G01 X23.3900 Y27.6497
G01 X23.3901 Y27.6497
G01 X23.3901 Y27.6497
G00 Z1.0000
G00 X23.3901 Y30.1490
G01 F60.00
G01 Z-2.6000
G01 F120.00
G01 X23.3901 Y30.1490
G01 X23.3900 Y30.1490
G01 X23.3901 Y30.1491
G01 X23.3901 Y30.1490
G00 Z1.0000
G00 X23.3901 Y32.7500
G01 F60.00
G01 Z-2.6000
G01 F120.00
G01 X23.3901 Y32.7499
G01 X23.3900 Y32.7500
G01 X23.3901 Y32.7500
G01 X23.3901 Y32.7500
G00 Z1.0000
G00 X4.1903 Y30.0500
G01 F60.00
G01 Z-2.6000
G01 F120.00
G01 X4.1902 Y30.0499
G01 X4.1902 Y30.0500
G01 X4.1902 Y30.0500
G01 X4.1903 Y30.0500
G00 Z1.0000
G00 X5.4400 Y42.5493
G01 F60.00
G01 Z-2.6000
G01 F120.00
G01 X5.4399 Y42.5493
G01 X5.4399 Y42.5493
G01 X5.4399 Y42.5494
G01 X5.4400 Y42.5493
G00 Z1.0000
G00 X16.7506 Y7.3500
G01 F60.00
G01 Z-2.6000
G01 F120.00
G01 X16.7505 Y7.3499
G01 X16.7505 Y7.3500
G01 X16.7505 Y7.3500
G01 X16.7506 Y7.3500
G00 Z1.0000
G00 X21.8306 Y7.3500
G01 F60.00
G01 Z-2.6000
G01 F120.00
G01 X21.8305 Y7.3499
G01 X21.8305 Y7.3500
G01 X21.8305 Y7.3500
G01 X21.8306 Y7.3500
G00 Z1.0000
G00 X49.1889 Y6.7607
G01 F60.00
G01 Z-2.6000
G01 F120.00
G01 X49.1889 Y6.7607
G01 X49.1888 Y6.7607
G01 X49.1889 Y6.7608
G01 X49.1889 Y6.7607
G00 Z1.0000
G00 X49.1889 Y9.3007
G01 F60.00
G01 Z-2.6000
G01 F120.00
G01 X49.1889 Y9.3007
G01 X49.1888 Y9.3007
G01 X49.1889 Y9.3008
G01 X49.1889 Y9.3007
G00 Z1.0000
G00 X49.1889 Y11.8407
G01 F60.00
G01 Z-2.6000
G01 F120.00
G01 X49.1889 Y11.8407
G01 X49.1888 Y11.8407
G01 X49.1889 Y11.8408
G01 X49.1889 Y11.8407
G00 Z1.0000
G00 X49.1889 Y14.3807
G01 F60.00
G01 Z-2.6000
G01 F120.00
G01 X49.1889 Y14.3807
G01 X49.1888 Y14.3807
G01 X49.1889 Y14.3808
G01 X49.1889 Y14.3807
G00 Z1.0000
G00 X49.1889 Y16.9207
G01 F60.00
G01 Z-2.6000
G01 F120.00
G01 X49.1889 Y16.9207
G01 X49.1888 Y16.9207
G01 X49.1889 Y16.9208
G01 X49.1889 Y16.9207
G00 Z1.0000
G00 X49.1889 Y19.4607
G01 F60.00
G01 Z-2.6000
G01 F120.00
G01 X49.1889 Y19.4607
G01 X49.1888 Y19.4607
G01 X49.1889 Y19.4608
G01 X49.1889 Y19.4607
G00 Z1.0000
G00 X49.1889 Y22.0007
G01 F60.00
G01 Z-2.6000
G01 F120.00
G01 X49.1889 Y22.0007
G01 X49.1888 Y22.0007
G01 X49.1889 Y22.0008
G01 X49.1889 Y22.0007
G00 Z1.0000
G00 X49.1889 Y24.5407
G01 F60.00
G01 Z-2.6000
G01 F120.00
G01 X49.1889 Y24.5407
G01 X49.1888 Y24.5407
G01 X49.1889 Y24.5408
G01 X49.1889 Y24.5407
G00 Z1.0000
G00 X54.0911 Y38.4498
G01 F60.00
G01 Z-2.6000
G01 F120.00
G01 X54.0911 Y38.4497
G01 X54.0910 Y38.4498
G01 X54.0911 Y38.4498
G01 X54.0911 Y38.4498
G00 Z1.0000
G00 X63.6898 Y38.7495
G01 F60.00
G01 Z-2.6000
G01 F120.00
G01 X63.6897 Y38.7494
G01 X63.6897 Y38.7495
G01 X63.6897 Y38.7495
G01 X63.6898 Y38.7495
G00 Z1.0000
G00 X50.4411 Y62.3004
G01 F60.00
G01 Z-2.6000
G01 F120.00
G01 X50.4411 Y62.3003
G01 X50.4410 Y62.3004
G01 X50.4411 Y62.3004
G01 X50.4411 Y62.3004
G00 Z1.0000
G00 X63.9412 Y66.5498
G01 F60.00
G01 Z-2.6000
G01 F120.00
G01 X63.9412 Y66.5497
G01 X63.9411 Y66.5498
G01 X63.9412 Y66.5498
G01 X63.9412 Y66.5498
G00 Z1.0000
G00 X63.9412 Y70.7992
G01 F60.00
G01 Z-2.6000
G01 F120.00
G01 X63.9412 Y70.7991
G01 X63.9411 Y70.7992
G01 X63.9412 Y70.7992
G01 X63.9412 Y70.7992
G00 Z1.0000
G00 X63.9412 Y78.0509
G01 F60.00
G01 Z-2.6000
G01 F120.00
G01 X63.9412 Y78.0508
G01 X63.9411 Y78.0509
G01 X63.9412 Y78.0509
G01 X63.9412 Y78.0509
G00 Z1.0000
M05
G00 Z1.0000
G00 Z15.00


