(G-CODE GENERATED BY FLATCAM v8.994 - www.flatcam.org - Version Date: 2020/11/7)

(Name: Gerador_sinais_AD9833-PTH.drl_mill_cnc)
(Type: G-code from Geometry)
(Units: MM)

(Created on quarta, 19 julho 2023 at 19:12)

(This preprocessor is the default preprocessor used by FlatCAM.)
(It is made to work with MACH3 compatible motion controllers.)

(TOOL DIAMETER: 0.8 mm)
(Feedrate_XY: 120.0 mm/min)
(Feedrate_Z: 15.0 mm/min)
(Feedrate rapids 1500.0 mm/min)

(Z_Cut: -2.6 mm)
(Z_Move: 2.0 mm)
(Z Start: None mm)
(Z End: 5.0 mm)
(X,Y End: None mm)
(Steps per circle: 64)
(Preprocessor Geometry: default)

(X range:    0.9999 ...   81.0100  mm)
(Y range:    3.4801 ...   93.6502  mm)

(Spindle Speed: 1000.0 RPM)
G21
G90
G94

G01 F120.00

M5
G00 Z5.0000
G00 X0.0000 Y0.0000
(T1)
(M6  )  
(MSG, Change to Tool Dia = 0.80000)
(M0)
G00 Z5.0000

M03 S1000.0
G01 F120.00
G00 X1.0000 Y7.2901
G01 F15.00
G01 Z-2.6000
G01 F120.00
G01 X1.0000 Y7.2901
G01 X0.9999 Y7.2901
G01 X1.0000 Y7.2902
G01 X1.0000 Y7.2901
G00 Z2.0000
G00 X1.0000 Y9.8301
G01 F15.00
G01 Z-2.6000
G01 F120.00
G01 X1.0000 Y9.8301
G01 X0.9999 Y9.8301
G01 X1.0000 Y9.8302
G01 X1.0000 Y9.8301
G00 Z2.0000
G00 X1.0000 Y12.3701
G01 F15.00
G01 Z-2.6000
G01 F120.00
G01 X1.0000 Y12.3701
G01 X0.9999 Y12.3701
G01 X1.0000 Y12.3702
G01 X1.0000 Y12.3701
G00 Z2.0000
G00 X1.0000 Y14.9101
G01 F15.00
G01 Z-2.6000
G01 F120.00
G01 X1.0000 Y14.9101
G01 X0.9999 Y14.9101
G01 X1.0000 Y14.9102
G01 X1.0000 Y14.9101
G00 Z2.0000
G00 X1.0000 Y17.4501
G01 F15.00
G01 Z-2.6000
G01 F120.00
G01 X1.0000 Y17.4501
G01 X0.9999 Y17.4501
G01 X1.0000 Y17.4502
G01 X1.0000 Y17.4501
G00 Z2.0000
G00 X1.0000 Y19.9901
G01 F15.00
G01 Z-2.6000
G01 F120.00
G01 X1.0000 Y19.9901
G01 X0.9999 Y19.9901
G01 X1.0000 Y19.9902
G01 X1.0000 Y19.9901
G00 Z2.0000
G00 X1.0000 Y22.5301
G01 F15.00
G01 Z-2.6000
G01 F120.00
G01 X1.0000 Y22.5301
G01 X0.9999 Y22.5301
G01 X1.0000 Y22.5302
G01 X1.0000 Y22.5301
G00 Z2.0000
G00 X1.0000 Y25.0701
G01 F15.00
G01 Z-2.6000
G01 F120.00
G01 X1.0000 Y25.0701
G01 X0.9999 Y25.0701
G01 X1.0000 Y25.0702
G01 X1.0000 Y25.0701
G00 Z2.0000
G00 X1.0000 Y27.6101
G01 F15.00
G01 Z-2.6000
G01 F120.00
G01 X1.0000 Y27.6101
G01 X0.9999 Y27.6101
G01 X1.0000 Y27.6102
G01 X1.0000 Y27.6101
G00 Z2.0000
G00 X1.0000 Y30.1501
G01 F15.00
G01 Z-2.6000
G01 F120.00
G01 X1.0000 Y30.1501
G01 X0.9999 Y30.1501
G01 X1.0000 Y30.1502
G01 X1.0000 Y30.1501
G00 Z2.0000
G00 X1.0000 Y32.6901
G01 F15.00
G01 Z-2.6000
G01 F120.00
G01 X1.0000 Y32.6901
G01 X0.9999 Y32.6901
G01 X1.0000 Y32.6902
G01 X1.0000 Y32.6901
G00 Z2.0000
G00 X1.0000 Y35.2301
G01 F15.00
G01 Z-2.6000
G01 F120.00
G01 X1.0000 Y35.2301
G01 X0.9999 Y35.2301
G01 X1.0000 Y35.2302
G01 X1.0000 Y35.2301
G00 Z2.0000
G00 X1.0000 Y37.7701
G01 F15.00
G01 Z-2.6000
G01 F120.00
G01 X1.0000 Y37.7701
G01 X0.9999 Y37.7701
G01 X1.0000 Y37.7702
G01 X1.0000 Y37.7701
G00 Z2.0000
G00 X1.0000 Y40.3101
G01 F15.00
G01 Z-2.6000
G01 F120.00
G01 X1.0000 Y40.3101
G01 X0.9999 Y40.3101
G01 X1.0000 Y40.3102
G01 X1.0000 Y40.3101
G00 Z2.0000
G00 X1.0000 Y42.8501
G01 F15.00
G01 Z-2.6000
G01 F120.00
G01 X1.0000 Y42.8501
G01 X0.9999 Y42.8501
G01 X1.0000 Y42.8502
G01 X1.0000 Y42.8501
G00 Z2.0000
G00 X1.0000 Y45.3901
G01 F15.00
G01 Z-2.6000
G01 F120.00
G01 X1.0000 Y45.3901
G01 X0.9999 Y45.3901
G01 X1.0000 Y45.3902
G01 X1.0000 Y45.3901
G00 Z2.0000
G00 X1.0000 Y47.9301
G01 F15.00
G01 Z-2.6000
G01 F120.00
G01 X1.0000 Y47.9301
G01 X0.9999 Y47.9301
G01 X1.0000 Y47.9302
G01 X1.0000 Y47.9301
G00 Z2.0000
G00 X1.0000 Y50.4701
G01 F15.00
G01 Z-2.6000
G01 F120.00
G01 X1.0000 Y50.4701
G01 X0.9999 Y50.4701
G01 X1.0000 Y50.4702
G01 X1.0000 Y50.4701
G00 Z2.0000
G00 X1.0000 Y53.0101
G01 F15.00
G01 Z-2.6000
G01 F120.00
G01 X1.0000 Y53.0101
G01 X0.9999 Y53.0101
G01 X1.0000 Y53.0102
G01 X1.0000 Y53.0101
G00 Z2.0000
G00 X1.0000 Y55.5501
G01 F15.00
G01 Z-2.6000
G01 F120.00
G01 X1.0000 Y55.5501
G01 X0.9999 Y55.5501
G01 X1.0000 Y55.5502
G01 X1.0000 Y55.5501
G00 Z2.0000
G00 X1.0000 Y58.0901
G01 F15.00
G01 Z-2.6000
G01 F120.00
G01 X1.0000 Y58.0901
G01 X0.9999 Y58.0901
G01 X1.0000 Y58.0902
G01 X1.0000 Y58.0901
G00 Z2.0000
G00 X1.0000 Y60.6301
G01 F15.00
G01 Z-2.6000
G01 F120.00
G01 X1.0000 Y60.6301
G01 X0.9999 Y60.6301
G01 X1.0000 Y60.6302
G01 X1.0000 Y60.6301
G00 Z2.0000
G00 X1.0000 Y63.1701
G01 F15.00
G01 Z-2.6000
G01 F120.00
G01 X1.0000 Y63.1701
G01 X0.9999 Y63.1701
G01 X1.0000 Y63.1702
G01 X1.0000 Y63.1701
G00 Z2.0000
G00 X1.0000 Y65.7101
G01 F15.00
G01 Z-2.6000
G01 F120.00
G01 X1.0000 Y65.7101
G01 X0.9999 Y65.7101
G01 X1.0000 Y65.7102
G01 X1.0000 Y65.7101
G00 Z2.0000
G00 X1.0000 Y68.2501
G01 F15.00
G01 Z-2.6000
G01 F120.00
G01 X1.0000 Y68.2501
G01 X0.9999 Y68.2501
G01 X1.0000 Y68.2502
G01 X1.0000 Y68.2501
G00 Z2.0000
G00 X1.0000 Y70.7901
G01 F15.00
G01 Z-2.6000
G01 F120.00
G01 X1.0000 Y70.7901
G01 X0.9999 Y70.7901
G01 X1.0000 Y70.7902
G01 X1.0000 Y70.7901
G00 Z2.0000
G00 X1.0000 Y73.3301
G01 F15.00
G01 Z-2.6000
G01 F120.00
G01 X1.0000 Y73.3301
G01 X0.9999 Y73.3301
G01 X1.0000 Y73.3302
G01 X1.0000 Y73.3301
G00 Z2.0000
G00 X1.0000 Y75.8701
G01 F15.00
G01 Z-2.6000
G01 F120.00
G01 X1.0000 Y75.8701
G01 X0.9999 Y75.8701
G01 X1.0000 Y75.8702
G01 X1.0000 Y75.8701
G00 Z2.0000
G00 X1.0000 Y78.4101
G01 F15.00
G01 Z-2.6000
G01 F120.00
G01 X1.0000 Y78.4101
G01 X0.9999 Y78.4101
G01 X1.0000 Y78.4102
G01 X1.0000 Y78.4101
G00 Z2.0000
G00 X1.0000 Y80.9501
G01 F15.00
G01 Z-2.6000
G01 F120.00
G01 X1.0000 Y80.9501
G01 X0.9999 Y80.9501
G01 X1.0000 Y80.9502
G01 X1.0000 Y80.9501
G00 Z2.0000
G00 X1.0000 Y83.4901
G01 F15.00
G01 Z-2.6000
G01 F120.00
G01 X1.0000 Y83.4901
G01 X0.9999 Y83.4901
G01 X1.0000 Y83.4902
G01 X1.0000 Y83.4901
G00 Z2.0000
G00 X1.0000 Y86.0301
G01 F15.00
G01 Z-2.6000
G01 F120.00
G01 X1.0000 Y86.0301
G01 X0.9999 Y86.0301
G01 X1.0000 Y86.0302
G01 X1.0000 Y86.0301
G00 Z2.0000
G00 X1.0000 Y88.5701
G01 F15.00
G01 Z-2.6000
G01 F120.00
G01 X1.0000 Y88.5701
G01 X0.9999 Y88.5701
G01 X1.0000 Y88.5702
G01 X1.0000 Y88.5701
G00 Z2.0000
G00 X1.0000 Y91.1101
G01 F15.00
G01 Z-2.6000
G01 F120.00
G01 X1.0000 Y91.1101
G01 X0.9999 Y91.1101
G01 X1.0000 Y91.1102
G01 X1.0000 Y91.1101
G00 Z2.0000
G00 X1.0000 Y93.6501
G01 F15.00
G01 Z-2.6000
G01 F120.00
G01 X1.0000 Y93.6501
G01 X0.9999 Y93.6501
G01 X1.0000 Y93.6502
G01 X1.0000 Y93.6501
G00 Z2.0000
G00 X8.6912 Y93.2996
G01 F15.00
G01 Z-2.6000
G01 F120.00
G01 X8.6911 Y93.2995
G01 X8.6911 Y93.2996
G01 X8.6911 Y93.2996
G01 X8.6912 Y93.2996
G00 Z2.0000
G00 X13.6899 Y93.2996
G01 F15.00
G01 Z-2.6000
G01 F120.00
G01 X13.6898 Y93.2995
G01 X13.6898 Y93.2996
G01 X13.6898 Y93.2996
G01 X13.6899 Y93.2996
G00 Z2.0000
G00 X20.6901 Y93.2996
G01 F15.00
G01 Z-2.6000
G01 F120.00
G01 X20.6901 Y93.2995
G01 X20.6900 Y93.2996
G01 X20.6901 Y93.2996
G01 X20.6901 Y93.2996
G00 Z2.0000
G00 X25.6888 Y93.2996
G01 F15.00
G01 Z-2.6000
G01 F120.00
G01 X25.6888 Y93.2995
G01 X25.6887 Y93.2996
G01 X25.6888 Y93.2996
G01 X25.6888 Y93.2996
G00 Z2.0000
G00 X32.6891 Y93.2996
G01 F15.00
G01 Z-2.6000
G01 F120.00
G01 X32.6890 Y93.2995
G01 X32.6890 Y93.2996
G01 X32.6890 Y93.2996
G01 X32.6891 Y93.2996
G00 Z2.0000
G00 X37.6903 Y93.2996
G01 F15.00
G01 Z-2.6000
G01 F120.00
G01 X37.6903 Y93.2995
G01 X37.6902 Y93.2996
G01 X37.6903 Y93.2996
G01 X37.6903 Y93.2996
G00 Z2.0000
G00 X44.6906 Y93.2996
G01 F15.00
G01 Z-2.6000
G01 F120.00
G01 X44.6905 Y93.2995
G01 X44.6905 Y93.2996
G01 X44.6905 Y93.2996
G01 X44.6906 Y93.2996
G00 Z2.0000
G00 X49.6893 Y93.2996
G01 F15.00
G01 Z-2.6000
G01 F120.00
G01 X49.6893 Y93.2995
G01 X49.6892 Y93.2996
G01 X49.6893 Y93.2996
G01 X49.6893 Y93.2996
G00 Z2.0000
G00 X56.6895 Y93.2996
G01 F15.00
G01 Z-2.6000
G01 F120.00
G01 X56.6895 Y93.2995
G01 X56.6894 Y93.2996
G01 X56.6895 Y93.2996
G01 X56.6895 Y93.2996
G00 Z2.0000
G00 X61.6908 Y93.2996
G01 F15.00
G01 Z-2.6000
G01 F120.00
G01 X61.6908 Y93.2995
G01 X61.6907 Y93.2996
G01 X61.6908 Y93.2996
G01 X61.6908 Y93.2996
G00 Z2.0000
G00 X68.6910 Y93.2996
G01 F15.00
G01 Z-2.6000
G01 F120.00
G01 X68.6910 Y93.2995
G01 X68.6909 Y93.2996
G01 X68.6910 Y93.2996
G01 X68.6910 Y93.2996
G00 Z2.0000
G00 X73.6898 Y93.2996
G01 F15.00
G01 Z-2.6000
G01 F120.00
G01 X73.6897 Y93.2995
G01 X73.6897 Y93.2996
G01 X73.6897 Y93.2996
G01 X73.6898 Y93.2996
G00 Z2.0000
G00 X81.0100 Y93.6501
G01 F15.00
G01 Z-2.6000
G01 F120.00
G01 X81.0100 Y93.6501
G01 X81.0099 Y93.6501
G01 X81.0100 Y93.6502
G01 X81.0100 Y93.6501
G00 Z2.0000
G00 X81.0100 Y91.1101
G01 F15.00
G01 Z-2.6000
G01 F120.00
G01 X81.0100 Y91.1101
G01 X81.0099 Y91.1101
G01 X81.0100 Y91.1102
G01 X81.0100 Y91.1101
G00 Z2.0000
G00 X81.0100 Y88.5701
G01 F15.00
G01 Z-2.6000
G01 F120.00
G01 X81.0100 Y88.5701
G01 X81.0099 Y88.5701
G01 X81.0100 Y88.5702
G01 X81.0100 Y88.5701
G00 Z2.0000
G00 X81.0100 Y86.0301
G01 F15.00
G01 Z-2.6000
G01 F120.00
G01 X81.0100 Y86.0301
G01 X81.0099 Y86.0301
G01 X81.0100 Y86.0302
G01 X81.0100 Y86.0301
G00 Z2.0000
G00 X81.0100 Y83.4901
G01 F15.00
G01 Z-2.6000
G01 F120.00
G01 X81.0100 Y83.4901
G01 X81.0099 Y83.4901
G01 X81.0100 Y83.4902
G01 X81.0100 Y83.4901
G00 Z2.0000
G00 X81.0100 Y80.9501
G01 F15.00
G01 Z-2.6000
G01 F120.00
G01 X81.0100 Y80.9501
G01 X81.0099 Y80.9501
G01 X81.0100 Y80.9502
G01 X81.0100 Y80.9501
G00 Z2.0000
G00 X81.0100 Y78.4101
G01 F15.00
G01 Z-2.6000
G01 F120.00
G01 X81.0100 Y78.4101
G01 X81.0099 Y78.4101
G01 X81.0100 Y78.4102
G01 X81.0100 Y78.4101
G00 Z2.0000
G00 X81.0100 Y75.8701
G01 F15.00
G01 Z-2.6000
G01 F120.00
G01 X81.0100 Y75.8701
G01 X81.0099 Y75.8701
G01 X81.0100 Y75.8702
G01 X81.0100 Y75.8701
G00 Z2.0000
G00 X75.6913 Y78.3009
G01 F15.00
G01 Z-2.6000
G01 F120.00
G01 X75.6912 Y78.3008
G01 X75.6912 Y78.3009
G01 X75.6912 Y78.3009
G01 X75.6913 Y78.3009
G00 Z2.0000
G00 X75.6913 Y71.0492
G01 F15.00
G01 Z-2.6000
G01 F120.00
G01 X75.6912 Y71.0491
G01 X75.6912 Y71.0492
G01 X75.6912 Y71.0492
G01 X75.6913 Y71.0492
G00 Z2.0000
G00 X75.9402 Y66.7998
G01 F15.00
G01 Z-2.6000
G01 F120.00
G01 X75.9402 Y66.7997
G01 X75.9401 Y66.7998
G01 X75.9402 Y66.7998
G01 X75.9402 Y66.7998
G00 Z2.0000
G00 X81.0100 Y66.9801
G01 F15.00
G01 Z-2.6000
G01 F120.00
G01 X81.0100 Y66.9801
G01 X81.0099 Y66.9801
G01 X81.0100 Y66.9802
G01 X81.0100 Y66.9801
G00 Z2.0000
G00 X81.0100 Y69.5201
G01 F15.00
G01 Z-2.6000
G01 F120.00
G01 X81.0100 Y69.5201
G01 X81.0099 Y69.5201
G01 X81.0100 Y69.5202
G01 X81.0100 Y69.5201
G00 Z2.0000
G00 X81.0100 Y64.4401
G01 F15.00
G01 Z-2.6000
G01 F120.00
G01 X81.0100 Y64.4401
G01 X81.0099 Y64.4401
G01 X81.0100 Y64.4402
G01 X81.0100 Y64.4401
G00 Z2.0000
G00 X81.0100 Y61.9001
G01 F15.00
G01 Z-2.6000
G01 F120.00
G01 X81.0100 Y61.9001
G01 X81.0099 Y61.9001
G01 X81.0100 Y61.9002
G01 X81.0100 Y61.9001
G00 Z2.0000
G00 X81.0100 Y59.3601
G01 F15.00
G01 Z-2.6000
G01 F120.00
G01 X81.0100 Y59.3601
G01 X81.0099 Y59.3601
G01 X81.0100 Y59.3602
G01 X81.0100 Y59.3601
G00 Z2.0000
G00 X81.0100 Y56.8201
G01 F15.00
G01 Z-2.6000
G01 F120.00
G01 X81.0100 Y56.8201
G01 X81.0099 Y56.8201
G01 X81.0100 Y56.8202
G01 X81.0100 Y56.8201
G00 Z2.0000
G00 X81.0100 Y54.2801
G01 F15.00
G01 Z-2.6000
G01 F120.00
G01 X81.0100 Y54.2801
G01 X81.0099 Y54.2801
G01 X81.0100 Y54.2802
G01 X81.0100 Y54.2801
G00 Z2.0000
G00 X81.0100 Y51.7401
G01 F15.00
G01 Z-2.6000
G01 F120.00
G01 X81.0100 Y51.7401
G01 X81.0099 Y51.7401
G01 X81.0100 Y51.7402
G01 X81.0100 Y51.7401
G00 Z2.0000
G00 X81.0100 Y49.2001
G01 F15.00
G01 Z-2.6000
G01 F120.00
G01 X81.0100 Y49.2001
G01 X81.0099 Y49.2001
G01 X81.0100 Y49.2002
G01 X81.0100 Y49.2001
G00 Z2.0000
G00 X81.0100 Y46.6601
G01 F15.00
G01 Z-2.6000
G01 F120.00
G01 X81.0100 Y46.6601
G01 X81.0099 Y46.6601
G01 X81.0100 Y46.6602
G01 X81.0100 Y46.6601
G00 Z2.0000
G00 X81.0100 Y44.1201
G01 F15.00
G01 Z-2.6000
G01 F120.00
G01 X81.0100 Y44.1201
G01 X81.0099 Y44.1201
G01 X81.0100 Y44.1202
G01 X81.0100 Y44.1201
G00 Z2.0000
G00 X81.0100 Y41.5801
G01 F15.00
G01 Z-2.6000
G01 F120.00
G01 X81.0100 Y41.5801
G01 X81.0099 Y41.5801
G01 X81.0100 Y41.5802
G01 X81.0100 Y41.5801
G00 Z2.0000
G00 X81.0100 Y39.0401
G01 F15.00
G01 Z-2.6000
G01 F120.00
G01 X81.0100 Y39.0401
G01 X81.0099 Y39.0401
G01 X81.0100 Y39.0402
G01 X81.0100 Y39.0401
G00 Z2.0000
G00 X81.0100 Y36.5001
G01 F15.00
G01 Z-2.6000
G01 F120.00
G01 X81.0100 Y36.5001
G01 X81.0099 Y36.5001
G01 X81.0100 Y36.5002
G01 X81.0100 Y36.5001
G00 Z2.0000
G00 X81.0100 Y33.9601
G01 F15.00
G01 Z-2.6000
G01 F120.00
G01 X81.0100 Y33.9601
G01 X81.0099 Y33.9601
G01 X81.0100 Y33.9602
G01 X81.0100 Y33.9601
G00 Z2.0000
G00 X81.0100 Y31.4201
G01 F15.00
G01 Z-2.6000
G01 F120.00
G01 X81.0100 Y31.4201
G01 X81.0099 Y31.4201
G01 X81.0100 Y31.4202
G01 X81.0100 Y31.4201
G00 Z2.0000
G00 X81.0100 Y28.8801
G01 F15.00
G01 Z-2.6000
G01 F120.00
G01 X81.0100 Y28.8801
G01 X81.0099 Y28.8801
G01 X81.0100 Y28.8802
G01 X81.0100 Y28.8801
G00 Z2.0000
G00 X81.0100 Y26.3401
G01 F15.00
G01 Z-2.6000
G01 F120.00
G01 X81.0100 Y26.3401
G01 X81.0099 Y26.3401
G01 X81.0100 Y26.3402
G01 X81.0100 Y26.3401
G00 Z2.0000
G00 X81.0100 Y23.8001
G01 F15.00
G01 Z-2.6000
G01 F120.00
G01 X81.0100 Y23.8001
G01 X81.0099 Y23.8001
G01 X81.0100 Y23.8002
G01 X81.0100 Y23.8001
G00 Z2.0000
G00 X81.0100 Y21.2601
G01 F15.00
G01 Z-2.6000
G01 F120.00
G01 X81.0100 Y21.2601
G01 X81.0099 Y21.2601
G01 X81.0100 Y21.2602
G01 X81.0100 Y21.2601
G00 Z2.0000
G00 X81.0100 Y18.7201
G01 F15.00
G01 Z-2.6000
G01 F120.00
G01 X81.0100 Y18.7201
G01 X81.0099 Y18.7201
G01 X81.0100 Y18.7202
G01 X81.0100 Y18.7201
G00 Z2.0000
G00 X81.0100 Y16.1801
G01 F15.00
G01 Z-2.6000
G01 F120.00
G01 X81.0100 Y16.1801
G01 X81.0099 Y16.1801
G01 X81.0100 Y16.1802
G01 X81.0100 Y16.1801
G00 Z2.0000
G00 X81.0100 Y13.6401
G01 F15.00
G01 Z-2.6000
G01 F120.00
G01 X81.0100 Y13.6401
G01 X81.0099 Y13.6401
G01 X81.0100 Y13.6402
G01 X81.0100 Y13.6401
G00 Z2.0000
G00 X81.0100 Y11.1001
G01 F15.00
G01 Z-2.6000
G01 F120.00
G01 X81.0100 Y11.1001
G01 X81.0099 Y11.1001
G01 X81.0100 Y11.1002
G01 X81.0100 Y11.1001
G00 Z2.0000
G00 X81.0100 Y8.5601
G01 F15.00
G01 Z-2.6000
G01 F120.00
G01 X81.0100 Y8.5601
G01 X81.0099 Y8.5601
G01 X81.0100 Y8.5602
G01 X81.0100 Y8.5601
G00 Z2.0000
G00 X81.0100 Y6.0201
G01 F15.00
G01 Z-2.6000
G01 F120.00
G01 X81.0100 Y6.0201
G01 X81.0099 Y6.0201
G01 X81.0100 Y6.0202
G01 X81.0100 Y6.0201
G00 Z2.0000
G00 X81.0100 Y3.4801
G01 F15.00
G01 Z-2.6000
G01 F120.00
G01 X81.0100 Y3.4801
G01 X81.0099 Y3.4801
G01 X81.0100 Y3.4802
G01 X81.0100 Y3.4801
G00 Z2.0000
G00 X63.6898 Y26.5992
G01 F15.00
G01 Z-2.6000
G01 F120.00
G01 X63.6897 Y26.5991
G01 X63.6897 Y26.5992
G01 X63.6897 Y26.5992
G01 X63.6898 Y26.5992
G00 Z2.0000
G00 X54.0911 Y27.3993
G01 F15.00
G01 Z-2.6000
G01 F120.00
G01 X54.0911 Y27.3992
G01 X54.0910 Y27.3993
G01 X54.0911 Y27.3993
G01 X54.0911 Y27.3993
G00 Z2.0000
G00 X49.1889 Y27.3307
G01 F15.00
G01 Z-2.6000
G01 F120.00
G01 X49.1889 Y27.3307
G01 X49.1888 Y27.3307
G01 X49.1889 Y27.3308
G01 X49.1889 Y27.3307
G00 Z2.0000
G00 X49.1889 Y29.8707
G01 F15.00
G01 Z-2.6000
G01 F120.00
G01 X49.1889 Y29.8707
G01 X49.1888 Y29.8707
G01 X49.1889 Y29.8708
G01 X49.1889 Y29.8707
G00 Z2.0000
G00 X49.1889 Y32.4107
G01 F15.00
G01 Z-2.6000
G01 F120.00
G01 X49.1889 Y32.4107
G01 X49.1888 Y32.4107
G01 X49.1889 Y32.4108
G01 X49.1889 Y32.4107
G00 Z2.0000
G00 X49.1889 Y34.9507
G01 F15.00
G01 Z-2.6000
G01 F120.00
G01 X49.1889 Y34.9507
G01 X49.1888 Y34.9507
G01 X49.1889 Y34.9508
G01 X49.1889 Y34.9507
G00 Z2.0000
G00 X49.1889 Y37.4907
G01 F15.00
G01 Z-2.6000
G01 F120.00
G01 X49.1889 Y37.4907
G01 X49.1888 Y37.4907
G01 X49.1889 Y37.4908
G01 X49.1889 Y37.4907
G00 Z2.0000
G00 X49.1889 Y40.0307
G01 F15.00
G01 Z-2.6000
G01 F120.00
G01 X49.1889 Y40.0307
G01 X49.1888 Y40.0307
G01 X49.1889 Y40.0308
G01 X49.1889 Y40.0307
G00 Z2.0000
G00 X49.1889 Y42.5707
G01 F15.00
G01 Z-2.6000
G01 F120.00
G01 X49.1889 Y42.5707
G01 X49.1888 Y42.5707
G01 X49.1889 Y42.5708
G01 X49.1889 Y42.5707
G00 Z2.0000
G00 X50.4411 Y48.3010
G01 F15.00
G01 Z-2.6000
G01 F120.00
G01 X50.4411 Y48.3009
G01 X50.4410 Y48.3010
G01 X50.4411 Y48.3010
G01 X50.4411 Y48.3010
G00 Z2.0000
G00 X42.6027 Y51.2118
G01 F15.00
G01 Z-2.6000
G01 F120.00
G01 X42.6027 Y51.2117
G01 X42.6026 Y51.2118
G01 X42.6027 Y51.2118
G01 X42.6027 Y51.2118
G00 Z2.0000
G00 X45.5694 Y56.6195
G01 F15.00
G01 Z-2.6000
G01 F120.00
G01 X45.5694 Y56.6194
G01 X45.5693 Y56.6195
G01 X45.5694 Y56.6195
G01 X45.5694 Y56.6195
G00 Z2.0000
G00 X45.5694 Y59.1595
G01 F15.00
G01 Z-2.6000
G01 F120.00
G01 X45.5694 Y59.1594
G01 X45.5693 Y59.1595
G01 X45.5694 Y59.1595
G01 X45.5694 Y59.1595
G00 Z2.0000
G00 X45.5694 Y61.6995
G01 F15.00
G01 Z-2.6000
G01 F120.00
G01 X45.5694 Y61.6994
G01 X45.5693 Y61.6995
G01 X45.5694 Y61.6995
G01 X45.5694 Y61.6995
G00 Z2.0000
G00 X45.5694 Y64.2395
G01 F15.00
G01 Z-2.6000
G01 F120.00
G01 X45.5694 Y64.2394
G01 X45.5693 Y64.2395
G01 X45.5694 Y64.2395
G01 X45.5694 Y64.2395
G00 Z2.0000
G00 X45.5694 Y66.7795
G01 F15.00
G01 Z-2.6000
G01 F120.00
G01 X45.5694 Y66.7794
G01 X45.5693 Y66.7795
G01 X45.5694 Y66.7795
G01 X45.5694 Y66.7795
G00 Z2.0000
G00 X44.9395 Y71.0492
G01 F15.00
G01 Z-2.6000
G01 F120.00
G01 X44.9395 Y71.0491
G01 X44.9394 Y71.0492
G01 X44.9395 Y71.0492
G01 X44.9395 Y71.0492
G00 Z2.0000
G00 X45.4399 Y78.3009
G01 F15.00
G01 Z-2.6000
G01 F120.00
G01 X45.4398 Y78.3008
G01 X45.4398 Y78.3009
G01 X45.4398 Y78.3009
G01 X45.4399 Y78.3009
G00 Z2.0000
G00 X35.4094 Y66.7795
G01 F15.00
G01 Z-2.6000
G01 F120.00
G01 X35.4094 Y66.7794
G01 X35.4093 Y66.7795
G01 X35.4094 Y66.7795
G01 X35.4094 Y66.7795
G00 Z2.0000
G00 X35.4094 Y64.2395
G01 F15.00
G01 Z-2.6000
G01 F120.00
G01 X35.4094 Y64.2394
G01 X35.4093 Y64.2395
G01 X35.4094 Y64.2395
G01 X35.4094 Y64.2395
G00 Z2.0000
G00 X35.4094 Y61.6995
G01 F15.00
G01 Z-2.6000
G01 F120.00
G01 X35.4094 Y61.6994
G01 X35.4093 Y61.6995
G01 X35.4094 Y61.6995
G01 X35.4094 Y61.6995
G00 Z2.0000
G00 X35.4094 Y59.1595
G01 F15.00
G01 Z-2.6000
G01 F120.00
G01 X35.4094 Y59.1594
G01 X35.4093 Y59.1595
G01 X35.4094 Y59.1595
G01 X35.4094 Y59.1595
G00 Z2.0000
G00 X35.4094 Y56.6195
G01 F15.00
G01 Z-2.6000
G01 F120.00
G01 X35.4094 Y56.6194
G01 X35.4093 Y56.6195
G01 X35.4094 Y56.6195
G01 X35.4094 Y56.6195
G00 Z2.0000
G00 X30.6901 Y58.0495
G01 F15.00
G01 Z-2.6000
G01 F120.00
G01 X30.6901 Y58.0494
G01 X30.6900 Y58.0495
G01 X30.6901 Y58.0495
G01 X30.6901 Y58.0495
G00 Z2.0000
G00 X28.4397 Y53.5511
G01 F15.00
G01 Z-2.6000
G01 F120.00
G01 X28.4396 Y53.5511
G01 X28.4396 Y53.5511
G01 X28.4396 Y53.5512
G01 X28.4397 Y53.5511
G00 Z2.0000
G00 X33.4409 Y51.0492
G01 F15.00
G01 Z-2.6000
G01 F120.00
G01 X33.4409 Y51.0492
G01 X33.4408 Y51.0492
G01 X33.4409 Y51.0493
G01 X33.4409 Y51.0492
G00 Z2.0000
G00 X34.4391 Y48.5499
G01 F15.00
G01 Z-2.6000
G01 F120.00
G01 X34.4391 Y48.5498
G01 X34.4390 Y48.5499
G01 X34.4391 Y48.5499
G01 X34.4391 Y48.5499
G00 Z2.0000
G00 X33.9489 Y42.5707
G01 F15.00
G01 Z-2.6000
G01 F120.00
G01 X33.9489 Y42.5707
G01 X33.9488 Y42.5707
G01 X33.9489 Y42.5708
G01 X33.9489 Y42.5707
G00 Z2.0000
G00 X33.9489 Y40.0307
G01 F15.00
G01 Z-2.6000
G01 F120.00
G01 X33.9489 Y40.0307
G01 X33.9488 Y40.0307
G01 X33.9489 Y40.0308
G01 X33.9489 Y40.0307
G00 Z2.0000
G00 X33.9489 Y37.4907
G01 F15.00
G01 Z-2.6000
G01 F120.00
G01 X33.9489 Y37.4907
G01 X33.9488 Y37.4907
G01 X33.9489 Y37.4908
G01 X33.9489 Y37.4907
G00 Z2.0000
G00 X33.9489 Y34.9507
G01 F15.00
G01 Z-2.6000
G01 F120.00
G01 X33.9489 Y34.9507
G01 X33.9488 Y34.9507
G01 X33.9489 Y34.9508
G01 X33.9489 Y34.9507
G00 Z2.0000
G00 X33.9489 Y32.4107
G01 F15.00
G01 Z-2.6000
G01 F120.00
G01 X33.9489 Y32.4107
G01 X33.9488 Y32.4107
G01 X33.9489 Y32.4108
G01 X33.9489 Y32.4107
G00 Z2.0000
G00 X33.9489 Y29.8707
G01 F15.00
G01 Z-2.6000
G01 F120.00
G01 X33.9489 Y29.8707
G01 X33.9488 Y29.8707
G01 X33.9489 Y29.8708
G01 X33.9489 Y29.8707
G00 Z2.0000
G00 X33.9489 Y27.3307
G01 F15.00
G01 Z-2.6000
G01 F120.00
G01 X33.9489 Y27.3307
G01 X33.9488 Y27.3307
G01 X33.9489 Y27.3308
G01 X33.9489 Y27.3307
G00 Z2.0000
G00 X33.9489 Y24.7907
G01 F15.00
G01 Z-2.6000
G01 F120.00
G01 X33.9489 Y24.7907
G01 X33.9488 Y24.7907
G01 X33.9489 Y24.7908
G01 X33.9489 Y24.7907
G00 Z2.0000
G00 X33.9489 Y22.2507
G01 F15.00
G01 Z-2.6000
G01 F120.00
G01 X33.9489 Y22.2507
G01 X33.9488 Y22.2507
G01 X33.9489 Y22.2508
G01 X33.9489 Y22.2507
G00 Z2.0000
G00 X33.9489 Y19.7107
G01 F15.00
G01 Z-2.6000
G01 F120.00
G01 X33.9489 Y19.7107
G01 X33.9488 Y19.7107
G01 X33.9489 Y19.7108
G01 X33.9489 Y19.7107
G00 Z2.0000
G00 X33.9489 Y17.1707
G01 F15.00
G01 Z-2.6000
G01 F120.00
G01 X33.9489 Y17.1707
G01 X33.9488 Y17.1707
G01 X33.9489 Y17.1708
G01 X33.9489 Y17.1707
G00 Z2.0000
G00 X33.9489 Y14.6307
G01 F15.00
G01 Z-2.6000
G01 F120.00
G01 X33.9489 Y14.6307
G01 X33.9488 Y14.6307
G01 X33.9489 Y14.6308
G01 X33.9489 Y14.6307
G00 Z2.0000
G00 X33.9489 Y12.0907
G01 F15.00
G01 Z-2.6000
G01 F120.00
G01 X33.9489 Y12.0907
G01 X33.9488 Y12.0907
G01 X33.9489 Y12.0908
G01 X33.9489 Y12.0907
G00 Z2.0000
G00 X33.9489 Y9.5507
G01 F15.00
G01 Z-2.6000
G01 F120.00
G01 X33.9489 Y9.5507
G01 X33.9488 Y9.5507
G01 X33.9489 Y9.5508
G01 X33.9489 Y9.5507
G00 Z2.0000
G00 X33.9489 Y7.0107
G01 F15.00
G01 Z-2.6000
G01 F120.00
G01 X33.9489 Y7.0107
G01 X33.9488 Y7.0107
G01 X33.9489 Y7.0108
G01 X33.9489 Y7.0107
G00 Z2.0000
G00 X31.4394 Y11.3008
G01 F15.00
G01 Z-2.6000
G01 F120.00
G01 X31.4394 Y11.3007
G01 X31.4393 Y11.3008
G01 X31.4394 Y11.3008
G01 X31.4394 Y11.3008
G00 Z2.0000
G00 X29.4049 Y13.5842
G01 F15.00
G01 Z-2.6000
G01 F120.00
G01 X29.4048 Y13.5842
G01 X29.4048 Y13.5842
G01 X29.4048 Y13.5843
G01 X29.4049 Y13.5842
G00 Z2.0000
G00 X22.4402 Y17.3003
G01 F15.00
G01 Z-2.6000
G01 F120.00
G01 X22.4401 Y17.3002
G01 X22.4401 Y17.3003
G01 X22.4401 Y17.3003
G01 X22.4402 Y17.3003
G00 Z2.0000
G00 X19.9408 Y17.3003
G01 F15.00
G01 Z-2.6000
G01 F120.00
G01 X19.9408 Y17.3002
G01 X19.9407 Y17.3003
G01 X19.9408 Y17.3003
G01 X19.9408 Y17.3003
G00 Z2.0000
G00 X18.8893 Y22.7994
G01 F15.00
G01 Z-2.6000
G01 F120.00
G01 X18.8892 Y22.7993
G01 X18.8892 Y22.7994
G01 X18.8892 Y22.7994
G01 X18.8893 Y22.7994
G00 Z2.0000
G00 X18.8893 Y25.3394
G01 F15.00
G01 Z-2.6000
G01 F120.00
G01 X18.8892 Y25.3393
G01 X18.8892 Y25.3394
G01 X18.8892 Y25.3394
G01 X18.8893 Y25.3394
G00 Z2.0000
G00 X18.8893 Y27.8794
G01 F15.00
G01 Z-2.6000
G01 F120.00
G01 X18.8892 Y27.8793
G01 X18.8892 Y27.8794
G01 X18.8892 Y27.8794
G01 X18.8893 Y27.8794
G00 Z2.0000
G00 X18.8893 Y30.4194
G01 F15.00
G01 Z-2.6000
G01 F120.00
G01 X18.8892 Y30.4193
G01 X18.8892 Y30.4194
G01 X18.8892 Y30.4194
G01 X18.8893 Y30.4194
G00 Z2.0000
G00 X18.8893 Y32.9594
G01 F15.00
G01 Z-2.6000
G01 F120.00
G01 X18.8892 Y32.9593
G01 X18.8892 Y32.9594
G01 X18.8892 Y32.9594
G01 X18.8893 Y32.9594
G00 Z2.0000
G00 X18.8893 Y35.4994
G01 F15.00
G01 Z-2.6000
G01 F120.00
G01 X18.8892 Y35.4993
G01 X18.8892 Y35.4994
G01 X18.8892 Y35.4994
G01 X18.8893 Y35.4994
G00 Z2.0000
G00 X18.8893 Y38.0394
G01 F15.00
G01 Z-2.6000
G01 F120.00
G01 X18.8892 Y38.0393
G01 X18.8892 Y38.0394
G01 X18.8892 Y38.0394
G01 X18.8893 Y38.0394
G00 Z2.0000
G00 X18.9401 Y42.7993
G01 F15.00
G01 Z-2.6000
G01 F120.00
G01 X18.9400 Y42.7993
G01 X18.9400 Y42.7993
G01 X18.9400 Y42.7994
G01 X18.9401 Y42.7993
G00 Z2.0000
G00 X14.1903 Y48.5499
G01 F15.00
G01 Z-2.6000
G01 F120.00
G01 X14.1902 Y48.5498
G01 X14.1902 Y48.5499
G01 X14.1902 Y48.5499
G01 X14.1903 Y48.5499
G00 Z2.0000
G00 X16.1892 Y53.5511
G01 F15.00
G01 Z-2.6000
G01 F120.00
G01 X16.1892 Y53.5511
G01 X16.1891 Y53.5511
G01 X16.1892 Y53.5512
G01 X16.1892 Y53.5511
G00 Z2.0000
G00 X16.6896 Y58.0495
G01 F15.00
G01 Z-2.6000
G01 F120.00
G01 X16.6896 Y58.0494
G01 X16.6895 Y58.0495
G01 X16.6896 Y58.0495
G01 X16.6896 Y58.0495
G00 Z2.0000
G00 X14.2309 Y58.0495
G01 F15.00
G01 Z-2.6000
G01 F120.00
G01 X14.2309 Y58.0494
G01 X14.2308 Y58.0495
G01 X14.2309 Y58.0495
G01 X14.2309 Y58.0495
G00 Z2.0000
G00 X9.1509 Y58.0495
G01 F15.00
G01 Z-2.6000
G01 F120.00
G01 X9.1509 Y58.0494
G01 X9.1508 Y58.0495
G01 X9.1509 Y58.0495
G01 X9.1509 Y58.0495
G00 Z2.0000
G00 X14.1699 Y67.4805
G01 F15.00
G01 Z-2.6000
G01 F120.00
G01 X14.1699 Y67.4804
G01 X14.1698 Y67.4805
G01 X14.1699 Y67.4805
G01 X14.1699 Y67.4805
G00 Z2.0000
G00 X14.1699 Y70.0205
G01 F15.00
G01 Z-2.6000
G01 F120.00
G01 X14.1699 Y70.0204
G01 X14.1698 Y70.0205
G01 X14.1699 Y70.0205
G01 X14.1699 Y70.0205
G00 Z2.0000
G00 X14.1699 Y72.5605
G01 F15.00
G01 Z-2.6000
G01 F120.00
G01 X14.1699 Y72.5604
G01 X14.1698 Y72.5605
G01 X14.1699 Y72.5605
G01 X14.1699 Y72.5605
G00 Z2.0000
G00 X14.1699 Y75.1005
G01 F15.00
G01 Z-2.6000
G01 F120.00
G01 X14.1699 Y75.1004
G01 X14.1698 Y75.1005
G01 X14.1699 Y75.1005
G01 X14.1699 Y75.1005
G00 Z2.0000
G00 X21.7899 Y75.1005
G01 F15.00
G01 Z-2.6000
G01 F120.00
G01 X21.7899 Y75.1004
G01 X21.7898 Y75.1005
G01 X21.7899 Y75.1005
G01 X21.7899 Y75.1005
G00 Z2.0000
G00 X21.7899 Y72.5605
G01 F15.00
G01 Z-2.6000
G01 F120.00
G01 X21.7899 Y72.5604
G01 X21.7898 Y72.5605
G01 X21.7899 Y72.5605
G01 X21.7899 Y72.5605
G00 Z2.0000
G00 X21.7899 Y70.0205
G01 F15.00
G01 Z-2.6000
G01 F120.00
G01 X21.7899 Y70.0204
G01 X21.7898 Y70.0205
G01 X21.7899 Y70.0205
G01 X21.7899 Y70.0205
G00 Z2.0000
G00 X21.7899 Y67.4805
G01 F15.00
G01 Z-2.6000
G01 F120.00
G01 X21.7899 Y67.4804
G01 X21.7898 Y67.4805
G01 X21.7899 Y67.4805
G01 X21.7899 Y67.4805
G00 Z2.0000
G00 X28.4397 Y71.0492
G01 F15.00
G01 Z-2.6000
G01 F120.00
G01 X28.4396 Y71.0491
G01 X28.4396 Y71.0492
G01 X28.4396 Y71.0492
G01 X28.4397 Y71.0492
G00 Z2.0000
G00 X21.1905 Y78.3009
G01 F15.00
G01 Z-2.6000
G01 F120.00
G01 X21.1905 Y78.3008
G01 X21.1904 Y78.3009
G01 X21.1905 Y78.3009
G01 X21.1905 Y78.3009
G00 Z2.0000
G00 X22.6891 Y53.5511
G01 F15.00
G01 Z-2.6000
G01 F120.00
G01 X22.6891 Y53.5511
G01 X22.6890 Y53.5511
G01 X22.6891 Y53.5512
G01 X22.6891 Y53.5511
G00 Z2.0000
G00 X31.1905 Y42.7993
G01 F15.00
G01 Z-2.6000
G01 F120.00
G01 X31.1904 Y42.7993
G01 X31.1904 Y42.7993
G01 X31.1904 Y42.7994
G01 X31.1905 Y42.7993
G00 Z2.0000
G00 X29.2906 Y33.0000
G01 F15.00
G01 Z-2.6000
G01 F120.00
G01 X29.2905 Y32.9999
G01 X29.2905 Y33.0000
G01 X29.2905 Y33.0000
G01 X29.2906 Y33.0000
G00 Z2.0000
G00 X29.2906 Y30.3990
G01 F15.00
G01 Z-2.6000
G01 F120.00
G01 X29.2905 Y30.3990
G01 X29.2905 Y30.3990
G01 X29.2905 Y30.3991
G01 X29.2906 Y30.3990
G00 Z2.0000
G00 X27.4745 Y27.8997
G01 F15.00
G01 Z-2.6000
G01 F120.00
G01 X27.4744 Y27.8996
G01 X27.4744 Y27.8997
G01 X27.4744 Y27.8997
G01 X27.4745 Y27.8997
G00 Z2.0000
G00 X23.3901 Y27.8997
G01 F15.00
G01 Z-2.6000
G01 F120.00
G01 X23.3901 Y27.8996
G01 X23.3900 Y27.8997
G01 X23.3901 Y27.8997
G01 X23.3901 Y27.8997
G00 Z2.0000
G00 X23.3901 Y30.3990
G01 F15.00
G01 Z-2.6000
G01 F120.00
G01 X23.3901 Y30.3990
G01 X23.3900 Y30.3990
G01 X23.3901 Y30.3991
G01 X23.3901 Y30.3990
G00 Z2.0000
G00 X23.3901 Y33.0000
G01 F15.00
G01 Z-2.6000
G01 F120.00
G01 X23.3901 Y32.9999
G01 X23.3900 Y33.0000
G01 X23.3901 Y33.0000
G01 X23.3901 Y33.0000
G00 Z2.0000
G00 X4.1903 Y30.3000
G01 F15.00
G01 Z-2.6000
G01 F120.00
G01 X4.1902 Y30.2999
G01 X4.1902 Y30.3000
G01 X4.1902 Y30.3000
G01 X4.1903 Y30.3000
G00 Z2.0000
G00 X5.4400 Y42.7993
G01 F15.00
G01 Z-2.6000
G01 F120.00
G01 X5.4399 Y42.7993
G01 X5.4399 Y42.7993
G01 X5.4399 Y42.7994
G01 X5.4400 Y42.7993
G00 Z2.0000
G00 X16.7506 Y7.6000
G01 F15.00
G01 Z-2.6000
G01 F120.00
G01 X16.7505 Y7.5999
G01 X16.7505 Y7.6000
G01 X16.7505 Y7.6000
G01 X16.7506 Y7.6000
G00 Z2.0000
G00 X21.8306 Y7.6000
G01 F15.00
G01 Z-2.6000
G01 F120.00
G01 X21.8305 Y7.5999
G01 X21.8305 Y7.6000
G01 X21.8305 Y7.6000
G01 X21.8306 Y7.6000
G00 Z2.0000
G00 X49.1889 Y7.0107
G01 F15.00
G01 Z-2.6000
G01 F120.00
G01 X49.1889 Y7.0107
G01 X49.1888 Y7.0107
G01 X49.1889 Y7.0108
G01 X49.1889 Y7.0107
G00 Z2.0000
G00 X49.1889 Y9.5507
G01 F15.00
G01 Z-2.6000
G01 F120.00
G01 X49.1889 Y9.5507
G01 X49.1888 Y9.5507
G01 X49.1889 Y9.5508
G01 X49.1889 Y9.5507
G00 Z2.0000
G00 X49.1889 Y12.0907
G01 F15.00
G01 Z-2.6000
G01 F120.00
G01 X49.1889 Y12.0907
G01 X49.1888 Y12.0907
G01 X49.1889 Y12.0908
G01 X49.1889 Y12.0907
G00 Z2.0000
G00 X49.1889 Y14.6307
G01 F15.00
G01 Z-2.6000
G01 F120.00
G01 X49.1889 Y14.6307
G01 X49.1888 Y14.6307
G01 X49.1889 Y14.6308
G01 X49.1889 Y14.6307
G00 Z2.0000
G00 X49.1889 Y17.1707
G01 F15.00
G01 Z-2.6000
G01 F120.00
G01 X49.1889 Y17.1707
G01 X49.1888 Y17.1707
G01 X49.1889 Y17.1708
G01 X49.1889 Y17.1707
G00 Z2.0000
G00 X49.1889 Y19.7107
G01 F15.00
G01 Z-2.6000
G01 F120.00
G01 X49.1889 Y19.7107
G01 X49.1888 Y19.7107
G01 X49.1889 Y19.7108
G01 X49.1889 Y19.7107
G00 Z2.0000
G00 X49.1889 Y22.2507
G01 F15.00
G01 Z-2.6000
G01 F120.00
G01 X49.1889 Y22.2507
G01 X49.1888 Y22.2507
G01 X49.1889 Y22.2508
G01 X49.1889 Y22.2507
G00 Z2.0000
G00 X49.1889 Y24.7907
G01 F15.00
G01 Z-2.6000
G01 F120.00
G01 X49.1889 Y24.7907
G01 X49.1888 Y24.7907
G01 X49.1889 Y24.7908
G01 X49.1889 Y24.7907
G00 Z2.0000
G00 X54.0911 Y38.6998
G01 F15.00
G01 Z-2.6000
G01 F120.00
G01 X54.0911 Y38.6997
G01 X54.0910 Y38.6998
G01 X54.0911 Y38.6998
G01 X54.0911 Y38.6998
G00 Z2.0000
G00 X63.6898 Y38.9995
G01 F15.00
G01 Z-2.6000
G01 F120.00
G01 X63.6897 Y38.9994
G01 X63.6897 Y38.9995
G01 X63.6897 Y38.9995
G01 X63.6898 Y38.9995
G00 Z2.0000
G00 X50.4411 Y62.5504
G01 F15.00
G01 Z-2.6000
G01 F120.00
G01 X50.4411 Y62.5503
G01 X50.4410 Y62.5504
G01 X50.4411 Y62.5504
G01 X50.4411 Y62.5504
G00 Z2.0000
G00 X63.9412 Y66.7998
G01 F15.00
G01 Z-2.6000
G01 F120.00
G01 X63.9412 Y66.7997
G01 X63.9411 Y66.7998
G01 X63.9412 Y66.7998
G01 X63.9412 Y66.7998
G00 Z2.0000
G00 X63.9412 Y71.0492
G01 F15.00
G01 Z-2.6000
G01 F120.00
G01 X63.9412 Y71.0491
G01 X63.9411 Y71.0492
G01 X63.9412 Y71.0492
G01 X63.9412 Y71.0492
G00 Z2.0000
G00 X63.9412 Y78.3009
G01 F15.00
G01 Z-2.6000
G01 F120.00
G01 X63.9412 Y78.3008
G01 X63.9411 Y78.3009
G01 X63.9412 Y78.3009
G01 X63.9412 Y78.3009
G00 Z2.0000
M05
G00 Z2.0000
G00 Z5.00


