(G-CODE GENERATED BY FLATCAM v8.994 - www.flatcam.org - Version Date: 2020/11/7)

(Name: Gerador_sinais_AD9833-B_Cu.gbr_cutout_cnc)
(Type: G-code from Geometry)
(Units: MM)

(Created on sexta, 21 julho 2023 at 19:56)

(This preprocessor is the default preprocessor used by FlatCAM.)
(It is made to work with MACH3 compatible motion controllers.)

(TOOL DIAMETER: 1.0 mm)
(Feedrate_XY: 60.0 mm/min)
(Feedrate_Z: 60.0 mm/min)
(Feedrate rapids 1500.0 mm/min)

(Z_Cut: -1.6 mm)
(DepthPerCut: 0.2 mm <=>8 passes)
(Z_Move: 1.0 mm)
(Z Start: None mm)
(Z End: 15.0 mm)
(X,Y End: None mm)
(Steps per circle: 64)
(Preprocessor Geometry: default)

(X range:   -2.5000 ...   87.5753  mm)
(Y range:   -2.5000 ...  101.1854  mm)

(Spindle Speed: 1000.0 RPM)
G21
G90
G94

G01 F60.00

M5
G00 Z1.0000
G00 X0.0000 Y0.0000
(T1)
(M6    )
(MSG, Change to Tool Dia = 1.00000)
(M0)
G00 Z1.0000

M03 S1000.0
G01 F60.00
G00 X85.0753 Y-2.5000
G01 F60.00
G01 Z-0.2000
G01 F60.00
G01 X0.0000 Y-2.5000
G01 X-0.2450 Y-2.4880
G01 X-0.4877 Y-2.4520
G01 X-0.7257 Y-2.3924
G01 X-0.9567 Y-2.3097
G01 X-1.1785 Y-2.2048
G01 X-1.3889 Y-2.0787
G01 X-1.5860 Y-1.9325
G01 X-1.7678 Y-1.7678
G01 X-1.9325 Y-1.5860
G01 X-2.0787 Y-1.3889
G01 X-2.2048 Y-1.1785
G01 X-2.3097 Y-0.9567
G01 X-2.3924 Y-0.7257
G01 X-2.4520 Y-0.4877
G01 X-2.4880 Y-0.2450
G01 X-2.5000 Y0.0000
G01 X-2.5000 Y98.6854
G01 X-2.4880 Y98.9305
G01 X-2.4520 Y99.1732
G01 X-2.3924 Y99.4111
G01 X-2.3097 Y99.6421
G01 X-2.2048 Y99.8639
G01 X-2.0787 Y100.0744
G01 X-1.9325 Y100.2714
G01 X-1.7678 Y100.4532
G01 X-1.5860 Y100.6180
G01 X-1.3889 Y100.7641
G01 X-1.1785 Y100.8902
G01 X-0.9567 Y100.9951
G01 X-0.7257 Y101.0778
G01 X-0.4877 Y101.1374
G01 X-0.2450 Y101.1734
G01 X0.0000 Y101.1854
G01 X85.0753 Y101.1854
G01 X85.3204 Y101.1734
G01 X85.5630 Y101.1374
G01 X85.8010 Y101.0778
G01 X86.0320 Y100.9951
G01 X86.2538 Y100.8902
G01 X86.4642 Y100.7641
G01 X86.6613 Y100.6180
G01 X86.8431 Y100.4532
G01 X87.0078 Y100.2714
G01 X87.1540 Y100.0744
G01 X87.2801 Y99.8639
G01 X87.3850 Y99.6421
G01 X87.4677 Y99.4111
G01 X87.5273 Y99.1732
G01 X87.5633 Y98.9305
G01 X87.5753 Y98.6854
G01 X87.5753 Y0.0000
G01 X87.5633 Y-0.2450
G01 X87.5273 Y-0.4877
G01 X87.4677 Y-0.7257
G01 X87.3850 Y-0.9567
G01 X87.2801 Y-1.1785
G01 X87.1540 Y-1.3889
G01 X87.0078 Y-1.5860
G01 X86.8431 Y-1.7678
G01 X86.6613 Y-1.9325
G01 X86.4642 Y-2.0787
G01 X86.2538 Y-2.2048
G01 X86.0320 Y-2.3097
G01 X85.8010 Y-2.3924
G01 X85.5630 Y-2.4520
G01 X85.3204 Y-2.4880
G01 X85.0753 Y-2.5000
G00 X85.0753 Y-2.5000
G01 F60.00
G01 Z-0.4000
G01 F60.00
G01 X85.3204 Y-2.4880
G01 X85.5630 Y-2.4520
G01 X85.8010 Y-2.3924
G01 X86.0320 Y-2.3097
G01 X86.2538 Y-2.2048
G01 X86.4642 Y-2.0787
G01 X86.6613 Y-1.9325
G01 X86.8431 Y-1.7678
G01 X87.0078 Y-1.5860
G01 X87.1540 Y-1.3889
G01 X87.2801 Y-1.1785
G01 X87.3850 Y-0.9567
G01 X87.4677 Y-0.7257
G01 X87.5273 Y-0.4877
G01 X87.5633 Y-0.2450
G01 X87.5753 Y0.0000
G01 X87.5753 Y98.6854
G01 X87.5633 Y98.9305
G01 X87.5273 Y99.1732
G01 X87.4677 Y99.4111
G01 X87.3850 Y99.6421
G01 X87.2801 Y99.8639
G01 X87.1540 Y100.0744
G01 X87.0078 Y100.2714
G01 X86.8431 Y100.4532
G01 X86.6613 Y100.6180
G01 X86.4642 Y100.7641
G01 X86.2538 Y100.8902
G01 X86.0320 Y100.9951
G01 X85.8010 Y101.0778
G01 X85.5630 Y101.1374
G01 X85.3204 Y101.1734
G01 X85.0753 Y101.1854
G01 X0.0000 Y101.1854
G01 X-0.2450 Y101.1734
G01 X-0.4877 Y101.1374
G01 X-0.7257 Y101.0778
G01 X-0.9567 Y100.9951
G01 X-1.1785 Y100.8902
G01 X-1.3889 Y100.7641
G01 X-1.5860 Y100.6180
G01 X-1.7678 Y100.4532
G01 X-1.9325 Y100.2714
G01 X-2.0787 Y100.0744
G01 X-2.2048 Y99.8639
G01 X-2.3097 Y99.6421
G01 X-2.3924 Y99.4111
G01 X-2.4520 Y99.1732
G01 X-2.4880 Y98.9305
G01 X-2.5000 Y98.6854
G01 X-2.5000 Y0.0000
G01 X-2.4880 Y-0.2450
G01 X-2.4520 Y-0.4877
G01 X-2.3924 Y-0.7257
G01 X-2.3097 Y-0.9567
G01 X-2.2048 Y-1.1785
G01 X-2.0787 Y-1.3889
G01 X-1.9325 Y-1.5860
G01 X-1.7678 Y-1.7678
G01 X-1.5860 Y-1.9325
G01 X-1.3889 Y-2.0787
G01 X-1.1785 Y-2.2048
G01 X-0.9567 Y-2.3097
G01 X-0.7257 Y-2.3924
G01 X-0.4877 Y-2.4520
G01 X-0.2450 Y-2.4880
G01 X0.0000 Y-2.5000
G01 X85.0753 Y-2.5000
G00 X85.0753 Y-2.5000
G01 F60.00
G01 Z-0.6000
G01 F60.00
G01 X0.0000 Y-2.5000
G01 X-0.2450 Y-2.4880
G01 X-0.4877 Y-2.4520
G01 X-0.7257 Y-2.3924
G01 X-0.9567 Y-2.3097
G01 X-1.1785 Y-2.2048
G01 X-1.3889 Y-2.0787
G01 X-1.5860 Y-1.9325
G01 X-1.7678 Y-1.7678
G01 X-1.9325 Y-1.5860
G01 X-2.0787 Y-1.3889
G01 X-2.2048 Y-1.1785
G01 X-2.3097 Y-0.9567
G01 X-2.3924 Y-0.7257
G01 X-2.4520 Y-0.4877
G01 X-2.4880 Y-0.2450
G01 X-2.5000 Y0.0000
G01 X-2.5000 Y98.6854
G01 X-2.4880 Y98.9305
G01 X-2.4520 Y99.1732
G01 X-2.3924 Y99.4111
G01 X-2.3097 Y99.6421
G01 X-2.2048 Y99.8639
G01 X-2.0787 Y100.0744
G01 X-1.9325 Y100.2714
G01 X-1.7678 Y100.4532
G01 X-1.5860 Y100.6180
G01 X-1.3889 Y100.7641
G01 X-1.1785 Y100.8902
G01 X-0.9567 Y100.9951
G01 X-0.7257 Y101.0778
G01 X-0.4877 Y101.1374
G01 X-0.2450 Y101.1734
G01 X0.0000 Y101.1854
G01 X85.0753 Y101.1854
G01 X85.3204 Y101.1734
G01 X85.5630 Y101.1374
G01 X85.8010 Y101.0778
G01 X86.0320 Y100.9951
G01 X86.2538 Y100.8902
G01 X86.4642 Y100.7641
G01 X86.6613 Y100.6180
G01 X86.8431 Y100.4532
G01 X87.0078 Y100.2714
G01 X87.1540 Y100.0744
G01 X87.2801 Y99.8639
G01 X87.3850 Y99.6421
G01 X87.4677 Y99.4111
G01 X87.5273 Y99.1732
G01 X87.5633 Y98.9305
G01 X87.5753 Y98.6854
G01 X87.5753 Y0.0000
G01 X87.5633 Y-0.2450
G01 X87.5273 Y-0.4877
G01 X87.4677 Y-0.7257
G01 X87.3850 Y-0.9567
G01 X87.2801 Y-1.1785
G01 X87.1540 Y-1.3889
G01 X87.0078 Y-1.5860
G01 X86.8431 Y-1.7678
G01 X86.6613 Y-1.9325
G01 X86.4642 Y-2.0787
G01 X86.2538 Y-2.2048
G01 X86.0320 Y-2.3097
G01 X85.8010 Y-2.3924
G01 X85.5630 Y-2.4520
G01 X85.3204 Y-2.4880
G01 X85.0753 Y-2.5000
G00 X85.0753 Y-2.5000
G01 F60.00
G01 Z-0.8000
G01 F60.00
G01 X85.3204 Y-2.4880
G01 X85.5630 Y-2.4520
G01 X85.8010 Y-2.3924
G01 X86.0320 Y-2.3097
G01 X86.2538 Y-2.2048
G01 X86.4642 Y-2.0787
G01 X86.6613 Y-1.9325
G01 X86.8431 Y-1.7678
G01 X87.0078 Y-1.5860
G01 X87.1540 Y-1.3889
G01 X87.2801 Y-1.1785
G01 X87.3850 Y-0.9567
G01 X87.4677 Y-0.7257
G01 X87.5273 Y-0.4877
G01 X87.5633 Y-0.2450
G01 X87.5753 Y0.0000
G01 X87.5753 Y98.6854
G01 X87.5633 Y98.9305
G01 X87.5273 Y99.1732
G01 X87.4677 Y99.4111
G01 X87.3850 Y99.6421
G01 X87.2801 Y99.8639
G01 X87.1540 Y100.0744
G01 X87.0078 Y100.2714
G01 X86.8431 Y100.4532
G01 X86.6613 Y100.6180
G01 X86.4642 Y100.7641
G01 X86.2538 Y100.8902
G01 X86.0320 Y100.9951
G01 X85.8010 Y101.0778
G01 X85.5630 Y101.1374
G01 X85.3204 Y101.1734
G01 X85.0753 Y101.1854
G01 X0.0000 Y101.1854
G01 X-0.2450 Y101.1734
G01 X-0.4877 Y101.1374
G01 X-0.7257 Y101.0778
G01 X-0.9567 Y100.9951
G01 X-1.1785 Y100.8902
G01 X-1.3889 Y100.7641
G01 X-1.5860 Y100.6180
G01 X-1.7678 Y100.4532
G01 X-1.9325 Y100.2714
G01 X-2.0787 Y100.0744
G01 X-2.2048 Y99.8639
G01 X-2.3097 Y99.6421
G01 X-2.3924 Y99.4111
G01 X-2.4520 Y99.1732
G01 X-2.4880 Y98.9305
G01 X-2.5000 Y98.6854
G01 X-2.5000 Y0.0000
G01 X-2.4880 Y-0.2450
G01 X-2.4520 Y-0.4877
G01 X-2.3924 Y-0.7257
G01 X-2.3097 Y-0.9567
G01 X-2.2048 Y-1.1785
G01 X-2.0787 Y-1.3889
G01 X-1.9325 Y-1.5860
G01 X-1.7678 Y-1.7678
G01 X-1.5860 Y-1.9325
G01 X-1.3889 Y-2.0787
G01 X-1.1785 Y-2.2048
G01 X-0.9567 Y-2.3097
G01 X-0.7257 Y-2.3924
G01 X-0.4877 Y-2.4520
G01 X-0.2450 Y-2.4880
G01 X0.0000 Y-2.5000
G01 X85.0753 Y-2.5000
G00 X85.0753 Y-2.5000
G01 F60.00
G01 Z-1.0000
G01 F60.00
G01 X0.0000 Y-2.5000
G01 X-0.2450 Y-2.4880
G01 X-0.4877 Y-2.4520
G01 X-0.7257 Y-2.3924
G01 X-0.9567 Y-2.3097
G01 X-1.1785 Y-2.2048
G01 X-1.3889 Y-2.0787
G01 X-1.5860 Y-1.9325
G01 X-1.7678 Y-1.7678
G01 X-1.9325 Y-1.5860
G01 X-2.0787 Y-1.3889
G01 X-2.2048 Y-1.1785
G01 X-2.3097 Y-0.9567
G01 X-2.3924 Y-0.7257
G01 X-2.4520 Y-0.4877
G01 X-2.4880 Y-0.2450
G01 X-2.5000 Y0.0000
G01 X-2.5000 Y98.6854
G01 X-2.4880 Y98.9305
G01 X-2.4520 Y99.1732
G01 X-2.3924 Y99.4111
G01 X-2.3097 Y99.6421
G01 X-2.2048 Y99.8639
G01 X-2.0787 Y100.0744
G01 X-1.9325 Y100.2714
G01 X-1.7678 Y100.4532
G01 X-1.5860 Y100.6180
G01 X-1.3889 Y100.7641
G01 X-1.1785 Y100.8902
G01 X-0.9567 Y100.9951
G01 X-0.7257 Y101.0778
G01 X-0.4877 Y101.1374
G01 X-0.2450 Y101.1734
G01 X0.0000 Y101.1854
G01 X85.0753 Y101.1854
G01 X85.3204 Y101.1734
G01 X85.5630 Y101.1374
G01 X85.8010 Y101.0778
G01 X86.0320 Y100.9951
G01 X86.2538 Y100.8902
G01 X86.4642 Y100.7641
G01 X86.6613 Y100.6180
G01 X86.8431 Y100.4532
G01 X87.0078 Y100.2714
G01 X87.1540 Y100.0744
G01 X87.2801 Y99.8639
G01 X87.3850 Y99.6421
G01 X87.4677 Y99.4111
G01 X87.5273 Y99.1732
G01 X87.5633 Y98.9305
G01 X87.5753 Y98.6854
G01 X87.5753 Y0.0000
G01 X87.5633 Y-0.2450
G01 X87.5273 Y-0.4877
G01 X87.4677 Y-0.7257
G01 X87.3850 Y-0.9567
G01 X87.2801 Y-1.1785
G01 X87.1540 Y-1.3889
G01 X87.0078 Y-1.5860
G01 X86.8431 Y-1.7678
G01 X86.6613 Y-1.9325
G01 X86.4642 Y-2.0787
G01 X86.2538 Y-2.2048
G01 X86.0320 Y-2.3097
G01 X85.8010 Y-2.3924
G01 X85.5630 Y-2.4520
G01 X85.3204 Y-2.4880
G01 X85.0753 Y-2.5000
G00 X85.0753 Y-2.5000
G01 F60.00
G01 Z-1.2000
G01 F60.00
G01 X85.3204 Y-2.4880
G01 X85.5630 Y-2.4520
G01 X85.8010 Y-2.3924
G01 X86.0320 Y-2.3097
G01 X86.2538 Y-2.2048
G01 X86.4642 Y-2.0787
G01 X86.6613 Y-1.9325
G01 X86.8431 Y-1.7678
G01 X87.0078 Y-1.5860
G01 X87.1540 Y-1.3889
G01 X87.2801 Y-1.1785
G01 X87.3850 Y-0.9567
G01 X87.4677 Y-0.7257
G01 X87.5273 Y-0.4877
G01 X87.5633 Y-0.2450
G01 X87.5753 Y0.0000
G01 X87.5753 Y98.6854
G01 X87.5633 Y98.9305
G01 X87.5273 Y99.1732
G01 X87.4677 Y99.4111
G01 X87.3850 Y99.6421
G01 X87.2801 Y99.8639
G01 X87.1540 Y100.0744
G01 X87.0078 Y100.2714
G01 X86.8431 Y100.4532
G01 X86.6613 Y100.6180
G01 X86.4642 Y100.7641
G01 X86.2538 Y100.8902
G01 X86.0320 Y100.9951
G01 X85.8010 Y101.0778
G01 X85.5630 Y101.1374
G01 X85.3204 Y101.1734
G01 X85.0753 Y101.1854
G01 X0.0000 Y101.1854
G01 X-0.2450 Y101.1734
G01 X-0.4877 Y101.1374
G01 X-0.7257 Y101.0778
G01 X-0.9567 Y100.9951
G01 X-1.1785 Y100.8902
G01 X-1.3889 Y100.7641
G01 X-1.5860 Y100.6180
G01 X-1.7678 Y100.4532
G01 X-1.9325 Y100.2714
G01 X-2.0787 Y100.0744
G01 X-2.2048 Y99.8639
G01 X-2.3097 Y99.6421
G01 X-2.3924 Y99.4111
G01 X-2.4520 Y99.1732
G01 X-2.4880 Y98.9305
G01 X-2.5000 Y98.6854
G01 X-2.5000 Y0.0000
G01 X-2.4880 Y-0.2450
G01 X-2.4520 Y-0.4877
G01 X-2.3924 Y-0.7257
G01 X-2.3097 Y-0.9567
G01 X-2.2048 Y-1.1785
G01 X-2.0787 Y-1.3889
G01 X-1.9325 Y-1.5860
G01 X-1.7678 Y-1.7678
G01 X-1.5860 Y-1.9325
G01 X-1.3889 Y-2.0787
G01 X-1.1785 Y-2.2048
G01 X-0.9567 Y-2.3097
G01 X-0.7257 Y-2.3924
G01 X-0.4877 Y-2.4520
G01 X-0.2450 Y-2.4880
G01 X0.0000 Y-2.5000
G01 X85.0753 Y-2.5000
G00 X85.0753 Y-2.5000
G01 F60.00
G01 Z-1.4000
G01 F60.00
G01 X0.0000 Y-2.5000
G01 X-0.2450 Y-2.4880
G01 X-0.4877 Y-2.4520
G01 X-0.7257 Y-2.3924
G01 X-0.9567 Y-2.3097
G01 X-1.1785 Y-2.2048
G01 X-1.3889 Y-2.0787
G01 X-1.5860 Y-1.9325
G01 X-1.7678 Y-1.7678
G01 X-1.9325 Y-1.5860
G01 X-2.0787 Y-1.3889
G01 X-2.2048 Y-1.1785
G01 X-2.3097 Y-0.9567
G01 X-2.3924 Y-0.7257
G01 X-2.4520 Y-0.4877
G01 X-2.4880 Y-0.2450
G01 X-2.5000 Y0.0000
G01 X-2.5000 Y98.6854
G01 X-2.4880 Y98.9305
G01 X-2.4520 Y99.1732
G01 X-2.3924 Y99.4111
G01 X-2.3097 Y99.6421
G01 X-2.2048 Y99.8639
G01 X-2.0787 Y100.0744
G01 X-1.9325 Y100.2714
G01 X-1.7678 Y100.4532
G01 X-1.5860 Y100.6180
G01 X-1.3889 Y100.7641
G01 X-1.1785 Y100.8902
G01 X-0.9567 Y100.9951
G01 X-0.7257 Y101.0778
G01 X-0.4877 Y101.1374
G01 X-0.2450 Y101.1734
G01 X0.0000 Y101.1854
G01 X85.0753 Y101.1854
G01 X85.3204 Y101.1734
G01 X85.5630 Y101.1374
G01 X85.8010 Y101.0778
G01 X86.0320 Y100.9951
G01 X86.2538 Y100.8902
G01 X86.4642 Y100.7641
G01 X86.6613 Y100.6180
G01 X86.8431 Y100.4532
G01 X87.0078 Y100.2714
G01 X87.1540 Y100.0744
G01 X87.2801 Y99.8639
G01 X87.3850 Y99.6421
G01 X87.4677 Y99.4111
G01 X87.5273 Y99.1732
G01 X87.5633 Y98.9305
G01 X87.5753 Y98.6854
G01 X87.5753 Y0.0000
G01 X87.5633 Y-0.2450
G01 X87.5273 Y-0.4877
G01 X87.4677 Y-0.7257
G01 X87.3850 Y-0.9567
G01 X87.2801 Y-1.1785
G01 X87.1540 Y-1.3889
G01 X87.0078 Y-1.5860
G01 X86.8431 Y-1.7678
G01 X86.6613 Y-1.9325
G01 X86.4642 Y-2.0787
G01 X86.2538 Y-2.2048
G01 X86.0320 Y-2.3097
G01 X85.8010 Y-2.3924
G01 X85.5630 Y-2.4520
G01 X85.3204 Y-2.4880
G01 X85.0753 Y-2.5000
G00 X85.0753 Y-2.5000
G01 F60.00
G01 Z-1.6000
G01 F60.00
G01 X85.3204 Y-2.4880
G01 X85.5630 Y-2.4520
G01 X85.8010 Y-2.3924
G01 X86.0320 Y-2.3097
G01 X86.2538 Y-2.2048
G01 X86.4642 Y-2.0787
G01 X86.6613 Y-1.9325
G01 X86.8431 Y-1.7678
G01 X87.0078 Y-1.5860
G01 X87.1540 Y-1.3889
G01 X87.2801 Y-1.1785
G01 X87.3850 Y-0.9567
G01 X87.4677 Y-0.7257
G01 X87.5273 Y-0.4877
G01 X87.5633 Y-0.2450
G01 X87.5753 Y0.0000
G01 X87.5753 Y98.6854
G01 X87.5633 Y98.9305
G01 X87.5273 Y99.1732
G01 X87.4677 Y99.4111
G01 X87.3850 Y99.6421
G01 X87.2801 Y99.8639
G01 X87.1540 Y100.0744
G01 X87.0078 Y100.2714
G01 X86.8431 Y100.4532
G01 X86.6613 Y100.6180
G01 X86.4642 Y100.7641
G01 X86.2538 Y100.8902
G01 X86.0320 Y100.9951
G01 X85.8010 Y101.0778
G01 X85.5630 Y101.1374
G01 X85.3204 Y101.1734
G01 X85.0753 Y101.1854
G01 X0.0000 Y101.1854
G01 X-0.2450 Y101.1734
G01 X-0.4877 Y101.1374
G01 X-0.7257 Y101.0778
G01 X-0.9567 Y100.9951
G01 X-1.1785 Y100.8902
G01 X-1.3889 Y100.7641
G01 X-1.5860 Y100.6180
G01 X-1.7678 Y100.4532
G01 X-1.9325 Y100.2714
G01 X-2.0787 Y100.0744
G01 X-2.2048 Y99.8639
G01 X-2.3097 Y99.6421
G01 X-2.3924 Y99.4111
G01 X-2.4520 Y99.1732
G01 X-2.4880 Y98.9305
G01 X-2.5000 Y98.6854
G01 X-2.5000 Y0.0000
G01 X-2.4880 Y-0.2450
G01 X-2.4520 Y-0.4877
G01 X-2.3924 Y-0.7257
G01 X-2.3097 Y-0.9567
G01 X-2.2048 Y-1.1785
G01 X-2.0787 Y-1.3889
G01 X-1.9325 Y-1.5860
G01 X-1.7678 Y-1.7678
G01 X-1.5860 Y-1.9325
G01 X-1.3889 Y-2.0787
G01 X-1.1785 Y-2.2048
G01 X-0.9567 Y-2.3097
G01 X-0.7257 Y-2.3924
G01 X-0.4877 Y-2.4520
G01 X-0.2450 Y-2.4880
G01 X0.0000 Y-2.5000
G01 X85.0753 Y-2.5000
G00 Z1.0000
M05
G00 Z1.0000
G00 Z15.00


