(G-CODE GENERATED BY FLATCAM v8.994 - www.flatcam.org - Version Date: 2020/11/7)

(Name: Fonte_corrente_mono-B_Cu.gbr_iso_combined_cnc)
(Type: G-code from Geometry)
(Units: MM)

(Created on segunda, 17 julho 2023 at 16:23)

(This preprocessor is the default preprocessor used by FlatCAM.)
(It is made to work with MACH3 compatible motion controllers.)

(TOOL DIAMETER: 0.25 mm)
(Feedrate_XY: 60.0 mm/min)
(Feedrate_Z: 60.0 mm/min)
(Feedrate rapids 1500.0 mm/min)

(Z_Cut: -0.1418 mm)
(Z_Move: 2.0 mm)
(Z Start: None mm)
(Z End: 5.0 mm)
(X,Y End: None mm)
(Steps per circle: 64)
(Preprocessor Geometry: default)

(X range:   -0.1750 ...   85.7653  mm)
(Y range:   -0.1750 ...   99.1754  mm)

(Spindle Speed: 1000.0 RPM)
G21
G90
G94

G01 F60.00

M5
G00 Z15.0000
G00 X0.0000 Y0.0000
(T1)
(M6  )  
(MSG, Change to Tool Dia = 0.2500)
(M0)
G00 Z15.0000

M03 S1000.0
G01 F60.00
G00 X2.1188 Y6.6738
G01 F60.00
G01 Z-0.1418
G01 F60.00
G01 X2.1200 Y6.6860
G01 X2.1250 Y6.7901
G01 X2.1196 Y6.9004
G01 X2.1034 Y7.0096
G01 X2.0766 Y7.1167
G01 X2.0394 Y7.2206
G01 X1.9922 Y7.3204
G01 X1.9354 Y7.4151
G01 X1.8696 Y7.5038
G01 X1.7955 Y7.5856
G01 X1.7137 Y7.6598
G01 X1.6250 Y7.7255
G01 X1.5303 Y7.7823
G01 X1.4305 Y7.8295
G01 X1.3266 Y7.8667
G01 X1.2195 Y7.8935
G01 X1.1103 Y7.9097
G01 X1.0000 Y7.9151
G01 X0.8897 Y7.9097
G01 X0.7805 Y7.8935
G01 X0.6734 Y7.8667
G01 X0.5695 Y7.8295
G01 X0.4697 Y7.7823
G01 X0.3750 Y7.7255
G01 X0.2863 Y7.6598
G01 X0.2045 Y7.5856
G01 X0.1304 Y7.5038
G01 X0.0646 Y7.4151
G01 X0.0078 Y7.3204
G01 X-0.0394 Y7.2206
G01 X-0.0766 Y7.1167
G01 X-0.1034 Y7.0096
G01 X-0.1196 Y6.9004
G01 X-0.1250 Y6.7901
G01 X-0.1196 Y6.6798
G01 X-0.1034 Y6.5706
G01 X-0.0766 Y6.4635
G01 X-0.0394 Y6.3596
G01 X0.0078 Y6.2598
G01 X0.0646 Y6.1651
G01 X0.1304 Y6.0764
G01 X0.2045 Y5.9946
G01 X0.2863 Y5.9205
G01 X0.3750 Y5.8547
G01 X0.4697 Y5.7980
G01 X0.5695 Y5.7508
G01 X0.6734 Y5.7136
G01 X0.7805 Y5.6867
G01 X0.8897 Y5.6705
G01 X1.0000 Y5.6651
G01 X1.1103 Y5.6705
G01 X1.2195 Y5.6867
G01 X1.3266 Y5.7136
G01 X1.4305 Y5.7508
G01 X1.5303 Y5.7980
G01 X1.6250 Y5.8547
G01 X1.7137 Y5.9205
G01 X1.7955 Y5.9946
G01 X1.8696 Y6.0764
G01 X1.9354 Y6.1651
G01 X1.9922 Y6.2598
G01 X2.0394 Y6.3596
G01 X2.0766 Y6.4635
G01 X2.1034 Y6.5706
G01 X2.1188 Y6.6738
G00 Z2.0000
G00 X2.1436 Y6.6701
G01 F60.00
G01 Z-0.1418
G01 F60.00
G01 X2.1450 Y6.6847
G01 X2.1500 Y6.7901
G01 X2.1445 Y6.9028
G01 X2.1279 Y7.0145
G01 X2.1005 Y7.1239
G01 X2.0625 Y7.2302
G01 X2.0142 Y7.3322
G01 X1.9562 Y7.4290
G01 X1.8890 Y7.5197
G01 X1.8132 Y7.6033
G01 X1.7296 Y7.6791
G01 X1.6389 Y7.7463
G01 X1.5421 Y7.8043
G01 X1.4401 Y7.8526
G01 X1.3338 Y7.8906
G01 X1.2244 Y7.9180
G01 X1.1127 Y7.9346
G01 X1.0000 Y7.9401
G01 X0.8873 Y7.9346
G01 X0.7756 Y7.9180
G01 X0.6662 Y7.8906
G01 X0.5599 Y7.8526
G01 X0.4579 Y7.8043
G01 X0.3611 Y7.7463
G01 X0.2704 Y7.6791
G01 X0.1868 Y7.6033
G01 X0.1110 Y7.5197
G01 X0.0438 Y7.4290
G01 X-0.0142 Y7.3322
G01 X-0.0625 Y7.2302
G01 X-0.1005 Y7.1239
G01 X-0.1279 Y7.0145
G01 X-0.1445 Y6.9028
G01 X-0.1500 Y6.7901
G01 X-0.1445 Y6.6774
G01 X-0.1279 Y6.5658
G01 X-0.1005 Y6.4563
G01 X-0.0625 Y6.3500
G01 X-0.0142 Y6.2480
G01 X0.0438 Y6.1512
G01 X0.1110 Y6.0606
G01 X0.1868 Y5.9769
G01 X0.2704 Y5.9012
G01 X0.3611 Y5.8339
G01 X0.4579 Y5.7759
G01 X0.5599 Y5.7277
G01 X0.6662 Y5.6896
G01 X0.7756 Y5.6622
G01 X0.8873 Y5.6457
G01 X1.0000 Y5.6401
G01 X1.1127 Y5.6457
G01 X1.2244 Y5.6622
G01 X1.3338 Y5.6896
G01 X1.4401 Y5.7277
G01 X1.5421 Y5.7759
G01 X1.6389 Y5.8339
G01 X1.7296 Y5.9012
G01 X1.8132 Y5.9769
G01 X1.8890 Y6.0606
G01 X1.9562 Y6.1512
G01 X2.0142 Y6.2480
G01 X2.0625 Y6.3500
G01 X2.1005 Y6.4563
G01 X2.1279 Y6.5658
G01 X2.1436 Y6.6701
G00 Z2.0000
G00 X2.1683 Y6.6664
G01 F60.00
G01 Z-0.1418
G01 F60.00
G01 X2.1700 Y6.6835
G01 X2.1750 Y6.7901
G01 X2.1693 Y6.9053
G01 X2.1524 Y7.0193
G01 X2.1244 Y7.1312
G01 X2.0856 Y7.2398
G01 X2.0363 Y7.3440
G01 X1.9770 Y7.4429
G01 X1.9083 Y7.5355
G01 X1.8309 Y7.6210
G01 X1.7454 Y7.6984
G01 X1.6528 Y7.7671
G01 X1.5539 Y7.8264
G01 X1.4497 Y7.8757
G01 X1.3411 Y7.9145
G01 X1.2292 Y7.9425
G01 X1.1152 Y7.9595
G01 X1.0000 Y7.9651
G01 X0.8848 Y7.9595
G01 X0.7708 Y7.9425
G01 X0.6589 Y7.9145
G01 X0.5503 Y7.8757
G01 X0.4461 Y7.8264
G01 X0.3472 Y7.7671
G01 X0.2546 Y7.6984
G01 X0.1691 Y7.6210
G01 X0.0917 Y7.5355
G01 X0.0230 Y7.4429
G01 X-0.0363 Y7.3440
G01 X-0.0856 Y7.2398
G01 X-0.1244 Y7.1312
G01 X-0.1524 Y7.0193
G01 X-0.1693 Y6.9053
G01 X-0.1750 Y6.7901
G01 X-0.1693 Y6.6749
G01 X-0.1524 Y6.5609
G01 X-0.1244 Y6.4490
G01 X-0.0856 Y6.3405
G01 X-0.0363 Y6.2362
G01 X0.0230 Y6.1373
G01 X0.0917 Y6.0447
G01 X0.1691 Y5.9593
G01 X0.2546 Y5.8818
G01 X0.3472 Y5.8131
G01 X0.4461 Y5.7539
G01 X0.5503 Y5.7046
G01 X0.6589 Y5.6657
G01 X0.7708 Y5.6377
G01 X0.8848 Y5.6208
G01 X1.0000 Y5.6151
G01 X1.1152 Y5.6208
G01 X1.2292 Y5.6377
G01 X1.3411 Y5.6657
G01 X1.4497 Y5.7046
G01 X1.5539 Y5.7539
G01 X1.6528 Y5.8131
G01 X1.7454 Y5.8818
G01 X1.8309 Y5.9593
G01 X1.9083 Y6.0447
G01 X1.9770 Y6.1373
G01 X2.0363 Y6.2362
G01 X2.0856 Y6.3405
G01 X2.1244 Y6.4490
G01 X2.1524 Y6.5609
G01 X2.1683 Y6.6664
G00 Z2.0000
G00 X2.1683 Y9.2064
G01 F60.00
G01 Z-0.1418
G01 F60.00
G01 X2.1700 Y9.2235
G01 X2.1750 Y9.3301
G01 X2.1693 Y9.4453
G01 X2.1524 Y9.5593
G01 X2.1244 Y9.6712
G01 X2.0856 Y9.7798
G01 X2.0363 Y9.8840
G01 X1.9770 Y9.9829
G01 X1.9083 Y10.0755
G01 X1.8309 Y10.1610
G01 X1.7454 Y10.2384
G01 X1.6528 Y10.3071
G01 X1.5539 Y10.3664
G01 X1.4497 Y10.4157
G01 X1.3411 Y10.4545
G01 X1.2292 Y10.4825
G01 X1.1152 Y10.4995
G01 X1.0000 Y10.5051
G01 X0.8848 Y10.4995
G01 X0.7708 Y10.4825
G01 X0.6589 Y10.4545
G01 X0.5503 Y10.4157
G01 X0.4461 Y10.3664
G01 X0.3472 Y10.3071
G01 X0.2546 Y10.2384
G01 X0.1691 Y10.1610
G01 X0.0917 Y10.0755
G01 X0.0230 Y9.9829
G01 X-0.0363 Y9.8840
G01 X-0.0856 Y9.7798
G01 X-0.1244 Y9.6712
G01 X-0.1524 Y9.5593
G01 X-0.1693 Y9.4453
G01 X-0.1750 Y9.3301
G01 X-0.1693 Y9.2149
G01 X-0.1524 Y9.1009
G01 X-0.1244 Y8.9890
G01 X-0.0856 Y8.8805
G01 X-0.0363 Y8.7762
G01 X0.0230 Y8.6773
G01 X0.0917 Y8.5847
G01 X0.1691 Y8.4993
G01 X0.2546 Y8.4218
G01 X0.3472 Y8.3531
G01 X0.4461 Y8.2939
G01 X0.5503 Y8.2446
G01 X0.6589 Y8.2057
G01 X0.7708 Y8.1777
G01 X0.8848 Y8.1608
G01 X1.0000 Y8.1551
G01 X1.1152 Y8.1608
G01 X1.2292 Y8.1777
G01 X1.3411 Y8.2057
G01 X1.4497 Y8.2446
G01 X1.5539 Y8.2939
G01 X1.6528 Y8.3531
G01 X1.7454 Y8.4218
G01 X1.8309 Y8.4993
G01 X1.9083 Y8.5847
G01 X1.9770 Y8.6773
G01 X2.0363 Y8.7762
G01 X2.0856 Y8.8805
G01 X2.1244 Y8.9890
G01 X2.1524 Y9.1009
G01 X2.1683 Y9.2064
G00 Z2.0000
G00 X2.1436 Y9.2101
G01 F60.00
G01 Z-0.1418
G01 F60.00
G01 X2.1450 Y9.2247
G01 X2.1500 Y9.3301
G01 X2.1445 Y9.4428
G01 X2.1279 Y9.5545
G01 X2.1005 Y9.6639
G01 X2.0625 Y9.7702
G01 X2.0142 Y9.8722
G01 X1.9562 Y9.9690
G01 X1.8890 Y10.0597
G01 X1.8132 Y10.1433
G01 X1.7296 Y10.2191
G01 X1.6389 Y10.2863
G01 X1.5421 Y10.3443
G01 X1.4401 Y10.3926
G01 X1.3338 Y10.4306
G01 X1.2244 Y10.4580
G01 X1.1127 Y10.4746
G01 X1.0000 Y10.4801
G01 X0.8873 Y10.4746
G01 X0.7756 Y10.4580
G01 X0.6662 Y10.4306
G01 X0.5599 Y10.3926
G01 X0.4579 Y10.3443
G01 X0.3611 Y10.2863
G01 X0.2704 Y10.2191
G01 X0.1868 Y10.1433
G01 X0.1110 Y10.0597
G01 X0.0438 Y9.9690
G01 X-0.0142 Y9.8722
G01 X-0.0625 Y9.7702
G01 X-0.1005 Y9.6639
G01 X-0.1279 Y9.5545
G01 X-0.1445 Y9.4428
G01 X-0.1500 Y9.3301
G01 X-0.1445 Y9.2174
G01 X-0.1279 Y9.1058
G01 X-0.1005 Y8.9963
G01 X-0.0625 Y8.8900
G01 X-0.0142 Y8.7880
G01 X0.0438 Y8.6912
G01 X0.1110 Y8.6006
G01 X0.1868 Y8.5169
G01 X0.2704 Y8.4412
G01 X0.3611 Y8.3739
G01 X0.4579 Y8.3159
G01 X0.5599 Y8.2677
G01 X0.6662 Y8.2296
G01 X0.7756 Y8.2022
G01 X0.8873 Y8.1857
G01 X1.0000 Y8.1801
G01 X1.1127 Y8.1857
G01 X1.2244 Y8.2022
G01 X1.3338 Y8.2296
G01 X1.4401 Y8.2677
G01 X1.5421 Y8.3159
G01 X1.6389 Y8.3739
G01 X1.7296 Y8.4412
G01 X1.8132 Y8.5169
G01 X1.8890 Y8.6006
G01 X1.9562 Y8.6912
G01 X2.0142 Y8.7880
G01 X2.0625 Y8.8900
G01 X2.1005 Y8.9963
G01 X2.1279 Y9.1058
G01 X2.1436 Y9.2101
G00 Z2.0000
G00 X2.1188 Y9.2138
G01 F60.00
G01 Z-0.1418
G01 F60.00
G01 X2.1200 Y9.2260
G01 X2.1250 Y9.3301
G01 X2.1196 Y9.4404
G01 X2.1034 Y9.5496
G01 X2.0766 Y9.6567
G01 X2.0394 Y9.7606
G01 X1.9922 Y9.8604
G01 X1.9354 Y9.9551
G01 X1.8696 Y10.0438
G01 X1.7955 Y10.1256
G01 X1.7137 Y10.1998
G01 X1.6250 Y10.2655
G01 X1.5303 Y10.3223
G01 X1.4305 Y10.3695
G01 X1.3266 Y10.4067
G01 X1.2195 Y10.4335
G01 X1.1103 Y10.4497
G01 X1.0000 Y10.4551
G01 X0.8897 Y10.4497
G01 X0.7805 Y10.4335
G01 X0.6734 Y10.4067
G01 X0.5695 Y10.3695
G01 X0.4697 Y10.3223
G01 X0.3750 Y10.2655
G01 X0.2863 Y10.1998
G01 X0.2045 Y10.1256
G01 X0.1304 Y10.0438
G01 X0.0646 Y9.9551
G01 X0.0078 Y9.8604
G01 X-0.0394 Y9.7606
G01 X-0.0766 Y9.6567
G01 X-0.1034 Y9.5496
G01 X-0.1196 Y9.4404
G01 X-0.1250 Y9.3301
G01 X-0.1196 Y9.2198
G01 X-0.1034 Y9.1106
G01 X-0.0766 Y9.0035
G01 X-0.0394 Y8.8996
G01 X0.0078 Y8.7998
G01 X0.0646 Y8.7051
G01 X0.1304 Y8.6164
G01 X0.2045 Y8.5346
G01 X0.2863 Y8.4605
G01 X0.3750 Y8.3947
G01 X0.4697 Y8.3380
G01 X0.5695 Y8.2908
G01 X0.6734 Y8.2536
G01 X0.7805 Y8.2267
G01 X0.8897 Y8.2105
G01 X1.0000 Y8.2051
G01 X1.1103 Y8.2105
G01 X1.2195 Y8.2267
G01 X1.3266 Y8.2536
G01 X1.4305 Y8.2908
G01 X1.5303 Y8.3380
G01 X1.6250 Y8.3947
G01 X1.7137 Y8.4605
G01 X1.7955 Y8.5346
G01 X1.8696 Y8.6164
G01 X1.9354 Y8.7051
G01 X1.9922 Y8.7998
G01 X2.0394 Y8.8996
G01 X2.0766 Y9.0035
G01 X2.1034 Y9.1106
G01 X2.1188 Y9.2138
G00 Z2.0000
G00 X2.1683 Y11.7464
G01 F60.00
G01 Z-0.1418
G01 F60.00
G01 X2.1700 Y11.7635
G01 X2.1750 Y11.8701
G01 X2.1693 Y11.9853
G01 X2.1524 Y12.0993
G01 X2.1244 Y12.2112
G01 X2.0856 Y12.3198
G01 X2.0363 Y12.4240
G01 X1.9770 Y12.5229
G01 X1.9083 Y12.6155
G01 X1.8309 Y12.7010
G01 X1.7454 Y12.7784
G01 X1.6528 Y12.8471
G01 X1.5539 Y12.9064
G01 X1.4497 Y12.9557
G01 X1.3411 Y12.9945
G01 X1.2292 Y13.0225
G01 X1.1152 Y13.0395
G01 X1.0000 Y13.0451
G01 X0.8848 Y13.0395
G01 X0.7708 Y13.0225
G01 X0.6589 Y12.9945
G01 X0.5503 Y12.9557
G01 X0.4461 Y12.9064
G01 X0.3472 Y12.8471
G01 X0.2546 Y12.7784
G01 X0.1691 Y12.7010
G01 X0.0917 Y12.6155
G01 X0.0230 Y12.5229
G01 X-0.0363 Y12.4240
G01 X-0.0856 Y12.3198
G01 X-0.1244 Y12.2112
G01 X-0.1524 Y12.0993
G01 X-0.1693 Y11.9853
G01 X-0.1750 Y11.8701
G01 X-0.1693 Y11.7549
G01 X-0.1524 Y11.6409
G01 X-0.1244 Y11.5290
G01 X-0.0856 Y11.4205
G01 X-0.0363 Y11.3162
G01 X0.0230 Y11.2173
G01 X0.0917 Y11.1247
G01 X0.1691 Y11.0393
G01 X0.2546 Y10.9618
G01 X0.3472 Y10.8931
G01 X0.4461 Y10.8339
G01 X0.5503 Y10.7846
G01 X0.6589 Y10.7457
G01 X0.7708 Y10.7177
G01 X0.8848 Y10.7008
G01 X1.0000 Y10.6951
G01 X1.1152 Y10.7008
G01 X1.2292 Y10.7177
G01 X1.3411 Y10.7457
G01 X1.4497 Y10.7846
G01 X1.5539 Y10.8339
G01 X1.6528 Y10.8931
G01 X1.7454 Y10.9618
G01 X1.8309 Y11.0393
G01 X1.9083 Y11.1247
G01 X1.9770 Y11.2173
G01 X2.0363 Y11.3162
G01 X2.0856 Y11.4205
G01 X2.1244 Y11.5290
G01 X2.1524 Y11.6409
G01 X2.1683 Y11.7464
G00 Z2.0000
G00 X2.1436 Y11.7501
G01 F60.00
G01 Z-0.1418
G01 F60.00
G01 X2.1450 Y11.7647
G01 X2.1500 Y11.8701
G01 X2.1445 Y11.9828
G01 X2.1279 Y12.0945
G01 X2.1005 Y12.2039
G01 X2.0625 Y12.3102
G01 X2.0142 Y12.4122
G01 X1.9562 Y12.5090
G01 X1.8890 Y12.5997
G01 X1.8132 Y12.6833
G01 X1.7296 Y12.7591
G01 X1.6389 Y12.8263
G01 X1.5421 Y12.8843
G01 X1.4401 Y12.9326
G01 X1.3338 Y12.9706
G01 X1.2244 Y12.9980
G01 X1.1127 Y13.0146
G01 X1.0000 Y13.0201
G01 X0.8873 Y13.0146
G01 X0.7756 Y12.9980
G01 X0.6662 Y12.9706
G01 X0.5599 Y12.9326
G01 X0.4579 Y12.8843
G01 X0.3611 Y12.8263
G01 X0.2704 Y12.7591
G01 X0.1868 Y12.6833
G01 X0.1110 Y12.5997
G01 X0.0438 Y12.5090
G01 X-0.0142 Y12.4122
G01 X-0.0625 Y12.3102
G01 X-0.1005 Y12.2039
G01 X-0.1279 Y12.0945
G01 X-0.1445 Y11.9828
G01 X-0.1500 Y11.8701
G01 X-0.1445 Y11.7574
G01 X-0.1279 Y11.6458
G01 X-0.1005 Y11.5363
G01 X-0.0625 Y11.4300
G01 X-0.0142 Y11.3280
G01 X0.0438 Y11.2312
G01 X0.1110 Y11.1406
G01 X0.1868 Y11.0569
G01 X0.2704 Y10.9812
G01 X0.3611 Y10.9139
G01 X0.4579 Y10.8559
G01 X0.5599 Y10.8077
G01 X0.6662 Y10.7696
G01 X0.7756 Y10.7422
G01 X0.8873 Y10.7257
G01 X1.0000 Y10.7201
G01 X1.1127 Y10.7257
G01 X1.2244 Y10.7422
G01 X1.3338 Y10.7696
G01 X1.4401 Y10.8077
G01 X1.5421 Y10.8559
G01 X1.6389 Y10.9139
G01 X1.7296 Y10.9812
G01 X1.8132 Y11.0569
G01 X1.8890 Y11.1406
G01 X1.9562 Y11.2312
G01 X2.0142 Y11.3280
G01 X2.0625 Y11.4300
G01 X2.1005 Y11.5363
G01 X2.1279 Y11.6458
G01 X2.1436 Y11.7501
G00 Z2.0000
G00 X2.1188 Y11.7538
G01 F60.00
G01 Z-0.1418
G01 F60.00
G01 X2.1200 Y11.7660
G01 X2.1250 Y11.8701
G01 X2.1196 Y11.9804
G01 X2.1034 Y12.0896
G01 X2.0766 Y12.1967
G01 X2.0394 Y12.3006
G01 X1.9922 Y12.4004
G01 X1.9354 Y12.4951
G01 X1.8696 Y12.5838
G01 X1.7955 Y12.6656
G01 X1.7137 Y12.7398
G01 X1.6250 Y12.8055
G01 X1.5303 Y12.8623
G01 X1.4305 Y12.9095
G01 X1.3266 Y12.9467
G01 X1.2195 Y12.9735
G01 X1.1103 Y12.9897
G01 X1.0000 Y12.9951
G01 X0.8897 Y12.9897
G01 X0.7805 Y12.9735
G01 X0.6734 Y12.9467
G01 X0.5695 Y12.9095
G01 X0.4697 Y12.8623
G01 X0.3750 Y12.8055
G01 X0.2863 Y12.7398
G01 X0.2045 Y12.6656
G01 X0.1304 Y12.5838
G01 X0.0646 Y12.4951
G01 X0.0078 Y12.4004
G01 X-0.0394 Y12.3006
G01 X-0.0766 Y12.1967
G01 X-0.1034 Y12.0896
G01 X-0.1196 Y11.9804
G01 X-0.1250 Y11.8701
G01 X-0.1196 Y11.7598
G01 X-0.1034 Y11.6506
G01 X-0.0766 Y11.5435
G01 X-0.0394 Y11.4396
G01 X0.0078 Y11.3398
G01 X0.0646 Y11.2451
G01 X0.1304 Y11.1564
G01 X0.2045 Y11.0746
G01 X0.2863 Y11.0005
G01 X0.3750 Y10.9347
G01 X0.4697 Y10.8780
G01 X0.5695 Y10.8308
G01 X0.6734 Y10.7936
G01 X0.7805 Y10.7667
G01 X0.8897 Y10.7505
G01 X1.0000 Y10.7451
G01 X1.1103 Y10.7505
G01 X1.2195 Y10.7667
G01 X1.3266 Y10.7936
G01 X1.4305 Y10.8308
G01 X1.5303 Y10.8780
G01 X1.6250 Y10.9347
G01 X1.7137 Y11.0005
G01 X1.7955 Y11.0746
G01 X1.8696 Y11.1564
G01 X1.9354 Y11.2451
G01 X1.9922 Y11.3398
G01 X2.0394 Y11.4396
G01 X2.0766 Y11.5435
G01 X2.1034 Y11.6506
G01 X2.1188 Y11.7538
G00 Z2.0000
G00 X2.1683 Y14.2864
G01 F60.00
G01 Z-0.1418
G01 F60.00
G01 X2.1700 Y14.3035
G01 X2.1750 Y14.4101
G01 X2.1693 Y14.5253
G01 X2.1524 Y14.6393
G01 X2.1244 Y14.7512
G01 X2.0856 Y14.8598
G01 X2.0363 Y14.9640
G01 X1.9770 Y15.0629
G01 X1.9083 Y15.1555
G01 X1.8309 Y15.2410
G01 X1.7454 Y15.3184
G01 X1.6528 Y15.3871
G01 X1.5539 Y15.4464
G01 X1.4497 Y15.4957
G01 X1.3411 Y15.5345
G01 X1.2292 Y15.5625
G01 X1.1152 Y15.5795
G01 X1.0000 Y15.5851
G01 X0.8848 Y15.5795
G01 X0.7708 Y15.5625
G01 X0.6589 Y15.5345
G01 X0.5503 Y15.4957
G01 X0.4461 Y15.4464
G01 X0.3472 Y15.3871
G01 X0.2546 Y15.3184
G01 X0.1691 Y15.2410
G01 X0.0917 Y15.1555
G01 X0.0230 Y15.0629
G01 X-0.0363 Y14.9640
G01 X-0.0856 Y14.8598
G01 X-0.1244 Y14.7512
G01 X-0.1524 Y14.6393
G01 X-0.1693 Y14.5253
G01 X-0.1750 Y14.4101
G01 X-0.1693 Y14.2949
G01 X-0.1524 Y14.1809
G01 X-0.1244 Y14.0690
G01 X-0.0856 Y13.9605
G01 X-0.0363 Y13.8562
G01 X0.0230 Y13.7573
G01 X0.0917 Y13.6647
G01 X0.1691 Y13.5793
G01 X0.2546 Y13.5018
G01 X0.3472 Y13.4331
G01 X0.4461 Y13.3739
G01 X0.5503 Y13.3246
G01 X0.6589 Y13.2857
G01 X0.7708 Y13.2577
G01 X0.8848 Y13.2408
G01 X1.0000 Y13.2351
G01 X1.1152 Y13.2408
G01 X1.2292 Y13.2577
G01 X1.3411 Y13.2857
G01 X1.4497 Y13.3246
G01 X1.5539 Y13.3739
G01 X1.6528 Y13.4331
G01 X1.7454 Y13.5018
G01 X1.8309 Y13.5793
G01 X1.9083 Y13.6647
G01 X1.9770 Y13.7573
G01 X2.0363 Y13.8562
G01 X2.0856 Y13.9605
G01 X2.1244 Y14.0690
G01 X2.1524 Y14.1809
G01 X2.1683 Y14.2864
G00 Z2.0000
G00 X2.1436 Y14.2901
G01 F60.00
G01 Z-0.1418
G01 F60.00
G01 X2.1450 Y14.3047
G01 X2.1500 Y14.4101
G01 X2.1445 Y14.5228
G01 X2.1279 Y14.6345
G01 X2.1005 Y14.7439
G01 X2.0625 Y14.8502
G01 X2.0142 Y14.9522
G01 X1.9562 Y15.0490
G01 X1.8890 Y15.1397
G01 X1.8132 Y15.2233
G01 X1.7296 Y15.2991
G01 X1.6389 Y15.3663
G01 X1.5421 Y15.4243
G01 X1.4401 Y15.4726
G01 X1.3338 Y15.5106
G01 X1.2244 Y15.5380
G01 X1.1127 Y15.5546
G01 X1.0000 Y15.5601
G01 X0.8873 Y15.5546
G01 X0.7756 Y15.5380
G01 X0.6662 Y15.5106
G01 X0.5599 Y15.4726
G01 X0.4579 Y15.4243
G01 X0.3611 Y15.3663
G01 X0.2704 Y15.2991
G01 X0.1868 Y15.2233
G01 X0.1110 Y15.1397
G01 X0.0438 Y15.0490
G01 X-0.0142 Y14.9522
G01 X-0.0625 Y14.8502
G01 X-0.1005 Y14.7439
G01 X-0.1279 Y14.6345
G01 X-0.1445 Y14.5228
G01 X-0.1500 Y14.4101
G01 X-0.1445 Y14.2974
G01 X-0.1279 Y14.1858
G01 X-0.1005 Y14.0763
G01 X-0.0625 Y13.9700
G01 X-0.0142 Y13.8680
G01 X0.0438 Y13.7712
G01 X0.1110 Y13.6806
G01 X0.1868 Y13.5969
G01 X0.2704 Y13.5212
G01 X0.3611 Y13.4539
G01 X0.4579 Y13.3959
G01 X0.5599 Y13.3477
G01 X0.6662 Y13.3096
G01 X0.7756 Y13.2822
G01 X0.8873 Y13.2657
G01 X1.0000 Y13.2601
G01 X1.1127 Y13.2657
G01 X1.2244 Y13.2822
G01 X1.3338 Y13.3096
G01 X1.4401 Y13.3477
G01 X1.5421 Y13.3959
G01 X1.6389 Y13.4539
G01 X1.7296 Y13.5212
G01 X1.8132 Y13.5969
G01 X1.8890 Y13.6806
G01 X1.9562 Y13.7712
G01 X2.0142 Y13.8680
G01 X2.0625 Y13.9700
G01 X2.1005 Y14.0763
G01 X2.1279 Y14.1858
G01 X2.1436 Y14.2901
G00 Z2.0000
G00 X2.1188 Y14.2938
G01 F60.00
G01 Z-0.1418
G01 F60.00
G01 X2.1200 Y14.3060
G01 X2.1250 Y14.4101
G01 X2.1196 Y14.5204
G01 X2.1034 Y14.6296
G01 X2.0766 Y14.7367
G01 X2.0394 Y14.8406
G01 X1.9922 Y14.9404
G01 X1.9354 Y15.0351
G01 X1.8696 Y15.1238
G01 X1.7955 Y15.2056
G01 X1.7137 Y15.2798
G01 X1.6250 Y15.3455
G01 X1.5303 Y15.4023
G01 X1.4305 Y15.4495
G01 X1.3266 Y15.4867
G01 X1.2195 Y15.5135
G01 X1.1103 Y15.5297
G01 X1.0000 Y15.5351
G01 X0.8897 Y15.5297
G01 X0.7805 Y15.5135
G01 X0.6734 Y15.4867
G01 X0.5695 Y15.4495
G01 X0.4697 Y15.4023
G01 X0.3750 Y15.3455
G01 X0.2863 Y15.2798
G01 X0.2045 Y15.2056
G01 X0.1304 Y15.1238
G01 X0.0646 Y15.0351
G01 X0.0078 Y14.9404
G01 X-0.0394 Y14.8406
G01 X-0.0766 Y14.7367
G01 X-0.1034 Y14.6296
G01 X-0.1196 Y14.5204
G01 X-0.1250 Y14.4101
G01 X-0.1196 Y14.2998
G01 X-0.1034 Y14.1906
G01 X-0.0766 Y14.0835
G01 X-0.0394 Y13.9796
G01 X0.0078 Y13.8798
G01 X0.0646 Y13.7851
G01 X0.1304 Y13.6964
G01 X0.2045 Y13.6146
G01 X0.2863 Y13.5405
G01 X0.3750 Y13.4747
G01 X0.4697 Y13.4180
G01 X0.5695 Y13.3708
G01 X0.6734 Y13.3336
G01 X0.7805 Y13.3067
G01 X0.8897 Y13.2905
G01 X1.0000 Y13.2851
G01 X1.1103 Y13.2905
G01 X1.2195 Y13.3067
G01 X1.3266 Y13.3336
G01 X1.4305 Y13.3708
G01 X1.5303 Y13.4180
G01 X1.6250 Y13.4747
G01 X1.7137 Y13.5405
G01 X1.7955 Y13.6146
G01 X1.8696 Y13.6964
G01 X1.9354 Y13.7851
G01 X1.9922 Y13.8798
G01 X2.0394 Y13.9796
G01 X2.0766 Y14.0835
G01 X2.1034 Y14.1906
G01 X2.1188 Y14.2938
G00 Z2.0000
G00 X2.1683 Y16.8264
G01 F60.00
G01 Z-0.1418
G01 F60.00
G01 X2.1700 Y16.8435
G01 X2.1750 Y16.9501
G01 X2.1693 Y17.0653
G01 X2.1524 Y17.1793
G01 X2.1244 Y17.2912
G01 X2.0856 Y17.3998
G01 X2.0363 Y17.5040
G01 X1.9770 Y17.6029
G01 X1.9083 Y17.6955
G01 X1.8309 Y17.7810
G01 X1.7454 Y17.8584
G01 X1.6528 Y17.9271
G01 X1.5539 Y17.9864
G01 X1.4497 Y18.0357
G01 X1.3411 Y18.0745
G01 X1.2292 Y18.1025
G01 X1.1152 Y18.1195
G01 X1.0000 Y18.1251
G01 X0.8848 Y18.1195
G01 X0.7708 Y18.1025
G01 X0.6589 Y18.0745
G01 X0.5503 Y18.0357
G01 X0.4461 Y17.9864
G01 X0.3472 Y17.9271
G01 X0.2546 Y17.8584
G01 X0.1691 Y17.7810
G01 X0.0917 Y17.6955
G01 X0.0230 Y17.6029
G01 X-0.0363 Y17.5040
G01 X-0.0856 Y17.3998
G01 X-0.1244 Y17.2912
G01 X-0.1524 Y17.1793
G01 X-0.1693 Y17.0653
G01 X-0.1750 Y16.9501
G01 X-0.1693 Y16.8349
G01 X-0.1524 Y16.7209
G01 X-0.1244 Y16.6090
G01 X-0.0856 Y16.5005
G01 X-0.0363 Y16.3962
G01 X0.0230 Y16.2973
G01 X0.0917 Y16.2047
G01 X0.1691 Y16.1193
G01 X0.2546 Y16.0418
G01 X0.3472 Y15.9731
G01 X0.4461 Y15.9139
G01 X0.5503 Y15.8646
G01 X0.6589 Y15.8257
G01 X0.7708 Y15.7977
G01 X0.8848 Y15.7808
G01 X1.0000 Y15.7751
G01 X1.1152 Y15.7808
G01 X1.2292 Y15.7977
G01 X1.3411 Y15.8257
G01 X1.4497 Y15.8646
G01 X1.5539 Y15.9139
G01 X1.6528 Y15.9731
G01 X1.7454 Y16.0418
G01 X1.8309 Y16.1193
G01 X1.9083 Y16.2047
G01 X1.9770 Y16.2973
G01 X2.0363 Y16.3962
G01 X2.0856 Y16.5005
G01 X2.1244 Y16.6090
G01 X2.1524 Y16.7209
G01 X2.1683 Y16.8264
G00 Z2.0000
G00 X2.1436 Y16.8301
G01 F60.00
G01 Z-0.1418
G01 F60.00
G01 X2.1450 Y16.8447
G01 X2.1500 Y16.9501
G01 X2.1445 Y17.0628
G01 X2.1279 Y17.1745
G01 X2.1005 Y17.2839
G01 X2.0625 Y17.3902
G01 X2.0142 Y17.4922
G01 X1.9562 Y17.5890
G01 X1.8890 Y17.6797
G01 X1.8132 Y17.7633
G01 X1.7296 Y17.8391
G01 X1.6389 Y17.9063
G01 X1.5421 Y17.9643
G01 X1.4401 Y18.0126
G01 X1.3338 Y18.0506
G01 X1.2244 Y18.0780
G01 X1.1127 Y18.0946
G01 X1.0000 Y18.1001
G01 X0.8873 Y18.0946
G01 X0.7756 Y18.0780
G01 X0.6662 Y18.0506
G01 X0.5599 Y18.0126
G01 X0.4579 Y17.9643
G01 X0.3611 Y17.9063
G01 X0.2704 Y17.8391
G01 X0.1868 Y17.7633
G01 X0.1110 Y17.6797
G01 X0.0438 Y17.5890
G01 X-0.0142 Y17.4922
G01 X-0.0625 Y17.3902
G01 X-0.1005 Y17.2839
G01 X-0.1279 Y17.1745
G01 X-0.1445 Y17.0628
G01 X-0.1500 Y16.9501
G01 X-0.1445 Y16.8374
G01 X-0.1279 Y16.7258
G01 X-0.1005 Y16.6163
G01 X-0.0625 Y16.5100
G01 X-0.0142 Y16.4080
G01 X0.0438 Y16.3112
G01 X0.1110 Y16.2206
G01 X0.1868 Y16.1369
G01 X0.2704 Y16.0612
G01 X0.3611 Y15.9939
G01 X0.4579 Y15.9359
G01 X0.5599 Y15.8877
G01 X0.6662 Y15.8496
G01 X0.7756 Y15.8222
G01 X0.8873 Y15.8057
G01 X1.0000 Y15.8001
G01 X1.1127 Y15.8057
G01 X1.2244 Y15.8222
G01 X1.3338 Y15.8496
G01 X1.4401 Y15.8877
G01 X1.5421 Y15.9359
G01 X1.6389 Y15.9939
G01 X1.7296 Y16.0612
G01 X1.8132 Y16.1369
G01 X1.8890 Y16.2206
G01 X1.9562 Y16.3112
G01 X2.0142 Y16.4080
G01 X2.0625 Y16.5100
G01 X2.1005 Y16.6163
G01 X2.1279 Y16.7258
G01 X2.1436 Y16.8301
G00 Z2.0000
G00 X2.1188 Y16.8338
G01 F60.00
G01 Z-0.1418
G01 F60.00
G01 X2.1200 Y16.8460
G01 X2.1250 Y16.9501
G01 X2.1196 Y17.0604
G01 X2.1034 Y17.1696
G01 X2.0766 Y17.2767
G01 X2.0394 Y17.3806
G01 X1.9922 Y17.4804
G01 X1.9354 Y17.5751
G01 X1.8696 Y17.6638
G01 X1.7955 Y17.7456
G01 X1.7137 Y17.8198
G01 X1.6250 Y17.8855
G01 X1.5303 Y17.9423
G01 X1.4305 Y17.9895
G01 X1.3266 Y18.0267
G01 X1.2195 Y18.0535
G01 X1.1103 Y18.0697
G01 X1.0000 Y18.0751
G01 X0.8897 Y18.0697
G01 X0.7805 Y18.0535
G01 X0.6734 Y18.0267
G01 X0.5695 Y17.9895
G01 X0.4697 Y17.9423
G01 X0.3750 Y17.8855
G01 X0.2863 Y17.8198
G01 X0.2045 Y17.7456
G01 X0.1304 Y17.6638
G01 X0.0646 Y17.5751
G01 X0.0078 Y17.4804
G01 X-0.0394 Y17.3806
G01 X-0.0766 Y17.2767
G01 X-0.1034 Y17.1696
G01 X-0.1196 Y17.0604
G01 X-0.1250 Y16.9501
G01 X-0.1196 Y16.8398
G01 X-0.1034 Y16.7306
G01 X-0.0766 Y16.6235
G01 X-0.0394 Y16.5196
G01 X0.0078 Y16.4198
G01 X0.0646 Y16.3251
G01 X0.1304 Y16.2364
G01 X0.2045 Y16.1546
G01 X0.2863 Y16.0805
G01 X0.3750 Y16.0147
G01 X0.4697 Y15.9580
G01 X0.5695 Y15.9108
G01 X0.6734 Y15.8736
G01 X0.7805 Y15.8467
G01 X0.8897 Y15.8305
G01 X1.0000 Y15.8251
G01 X1.1103 Y15.8305
G01 X1.2195 Y15.8467
G01 X1.3266 Y15.8736
G01 X1.4305 Y15.9108
G01 X1.5303 Y15.9580
G01 X1.6250 Y16.0147
G01 X1.7137 Y16.0805
G01 X1.7955 Y16.1546
G01 X1.8696 Y16.2364
G01 X1.9354 Y16.3251
G01 X1.9922 Y16.4198
G01 X2.0394 Y16.5196
G01 X2.0766 Y16.6235
G01 X2.1034 Y16.7306
G01 X2.1188 Y16.8338
G00 Z2.0000
G00 X2.1683 Y19.3664
G01 F60.00
G01 Z-0.1418
G01 F60.00
G01 X2.1700 Y19.3835
G01 X2.1750 Y19.4901
G01 X2.1693 Y19.6053
G01 X2.1524 Y19.7193
G01 X2.1244 Y19.8312
G01 X2.0856 Y19.9398
G01 X2.0363 Y20.0440
G01 X1.9770 Y20.1429
G01 X1.9083 Y20.2355
G01 X1.8309 Y20.3210
G01 X1.7454 Y20.3984
G01 X1.6528 Y20.4671
G01 X1.5539 Y20.5264
G01 X1.4497 Y20.5757
G01 X1.3411 Y20.6145
G01 X1.2292 Y20.6425
G01 X1.1152 Y20.6595
G01 X1.0000 Y20.6651
G01 X0.8848 Y20.6595
G01 X0.7708 Y20.6425
G01 X0.6589 Y20.6145
G01 X0.5503 Y20.5757
G01 X0.4461 Y20.5264
G01 X0.3472 Y20.4671
G01 X0.2546 Y20.3984
G01 X0.1691 Y20.3210
G01 X0.0917 Y20.2355
G01 X0.0230 Y20.1429
G01 X-0.0363 Y20.0440
G01 X-0.0856 Y19.9398
G01 X-0.1244 Y19.8312
G01 X-0.1524 Y19.7193
G01 X-0.1693 Y19.6053
G01 X-0.1750 Y19.4901
G01 X-0.1693 Y19.3749
G01 X-0.1524 Y19.2609
G01 X-0.1244 Y19.1490
G01 X-0.0856 Y19.0405
G01 X-0.0363 Y18.9362
G01 X0.0230 Y18.8373
G01 X0.0917 Y18.7447
G01 X0.1691 Y18.6593
G01 X0.2546 Y18.5818
G01 X0.3472 Y18.5131
G01 X0.4461 Y18.4539
G01 X0.5503 Y18.4046
G01 X0.6589 Y18.3657
G01 X0.7708 Y18.3377
G01 X0.8848 Y18.3208
G01 X1.0000 Y18.3151
G01 X1.1152 Y18.3208
G01 X1.2292 Y18.3377
G01 X1.3411 Y18.3657
G01 X1.4497 Y18.4046
G01 X1.5539 Y18.4539
G01 X1.6528 Y18.5131
G01 X1.7454 Y18.5818
G01 X1.8309 Y18.6593
G01 X1.9083 Y18.7447
G01 X1.9770 Y18.8373
G01 X2.0363 Y18.9362
G01 X2.0856 Y19.0405
G01 X2.1244 Y19.1490
G01 X2.1524 Y19.2609
G01 X2.1683 Y19.3664
G00 Z2.0000
G00 X2.1436 Y19.3701
G01 F60.00
G01 Z-0.1418
G01 F60.00
G01 X2.1450 Y19.3847
G01 X2.1500 Y19.4901
G01 X2.1445 Y19.6028
G01 X2.1279 Y19.7145
G01 X2.1005 Y19.8239
G01 X2.0625 Y19.9302
G01 X2.0142 Y20.0322
G01 X1.9562 Y20.1290
G01 X1.8890 Y20.2197
G01 X1.8132 Y20.3033
G01 X1.7296 Y20.3791
G01 X1.6389 Y20.4463
G01 X1.5421 Y20.5043
G01 X1.4401 Y20.5526
G01 X1.3338 Y20.5906
G01 X1.2244 Y20.6180
G01 X1.1127 Y20.6346
G01 X1.0000 Y20.6401
G01 X0.8873 Y20.6346
G01 X0.7756 Y20.6180
G01 X0.6662 Y20.5906
G01 X0.5599 Y20.5526
G01 X0.4579 Y20.5043
G01 X0.3611 Y20.4463
G01 X0.2704 Y20.3791
G01 X0.1868 Y20.3033
G01 X0.1110 Y20.2197
G01 X0.0438 Y20.1290
G01 X-0.0142 Y20.0322
G01 X-0.0625 Y19.9302
G01 X-0.1005 Y19.8239
G01 X-0.1279 Y19.7145
G01 X-0.1445 Y19.6028
G01 X-0.1500 Y19.4901
G01 X-0.1445 Y19.3774
G01 X-0.1279 Y19.2658
G01 X-0.1005 Y19.1563
G01 X-0.0625 Y19.0500
G01 X-0.0142 Y18.9480
G01 X0.0438 Y18.8512
G01 X0.1110 Y18.7606
G01 X0.1868 Y18.6769
G01 X0.2704 Y18.6012
G01 X0.3611 Y18.5339
G01 X0.4579 Y18.4759
G01 X0.5599 Y18.4277
G01 X0.6662 Y18.3896
G01 X0.7756 Y18.3622
G01 X0.8873 Y18.3457
G01 X1.0000 Y18.3401
G01 X1.1127 Y18.3457
G01 X1.2244 Y18.3622
G01 X1.3338 Y18.3896
G01 X1.4401 Y18.4277
G01 X1.5421 Y18.4759
G01 X1.6389 Y18.5339
G01 X1.7296 Y18.6012
G01 X1.8132 Y18.6769
G01 X1.8890 Y18.7606
G01 X1.9562 Y18.8512
G01 X2.0142 Y18.9480
G01 X2.0625 Y19.0500
G01 X2.1005 Y19.1563
G01 X2.1279 Y19.2658
G01 X2.1436 Y19.3701
G00 Z2.0000
G00 X2.1188 Y19.3738
G01 F60.00
G01 Z-0.1418
G01 F60.00
G01 X2.1200 Y19.3860
G01 X2.1250 Y19.4901
G01 X2.1196 Y19.6004
G01 X2.1034 Y19.7096
G01 X2.0766 Y19.8167
G01 X2.0394 Y19.9206
G01 X1.9922 Y20.0204
G01 X1.9354 Y20.1151
G01 X1.8696 Y20.2038
G01 X1.7955 Y20.2856
G01 X1.7137 Y20.3598
G01 X1.6250 Y20.4255
G01 X1.5303 Y20.4823
G01 X1.4305 Y20.5295
G01 X1.3266 Y20.5667
G01 X1.2195 Y20.5935
G01 X1.1103 Y20.6097
G01 X1.0000 Y20.6151
G01 X0.8897 Y20.6097
G01 X0.7805 Y20.5935
G01 X0.6734 Y20.5667
G01 X0.5695 Y20.5295
G01 X0.4697 Y20.4823
G01 X0.3750 Y20.4255
G01 X0.2863 Y20.3598
G01 X0.2045 Y20.2856
G01 X0.1304 Y20.2038
G01 X0.0646 Y20.1151
G01 X0.0078 Y20.0204
G01 X-0.0394 Y19.9206
G01 X-0.0766 Y19.8167
G01 X-0.1034 Y19.7096
G01 X-0.1196 Y19.6004
G01 X-0.1250 Y19.4901
G01 X-0.1196 Y19.3798
G01 X-0.1034 Y19.2706
G01 X-0.0766 Y19.1635
G01 X-0.0394 Y19.0596
G01 X0.0078 Y18.9598
G01 X0.0646 Y18.8651
G01 X0.1304 Y18.7764
G01 X0.2045 Y18.6946
G01 X0.2863 Y18.6205
G01 X0.3750 Y18.5547
G01 X0.4697 Y18.4980
G01 X0.5695 Y18.4508
G01 X0.6734 Y18.4136
G01 X0.7805 Y18.3867
G01 X0.8897 Y18.3705
G01 X1.0000 Y18.3651
G01 X1.1103 Y18.3705
G01 X1.2195 Y18.3867
G01 X1.3266 Y18.4136
G01 X1.4305 Y18.4508
G01 X1.5303 Y18.4980
G01 X1.6250 Y18.5547
G01 X1.7137 Y18.6205
G01 X1.7955 Y18.6946
G01 X1.8696 Y18.7764
G01 X1.9354 Y18.8651
G01 X1.9922 Y18.9598
G01 X2.0394 Y19.0596
G01 X2.0766 Y19.1635
G01 X2.1034 Y19.2706
G01 X2.1188 Y19.3738
G00 Z2.0000
G00 X2.1683 Y21.9064
G01 F60.00
G01 Z-0.1418
G01 F60.00
G01 X2.1700 Y21.9235
G01 X2.1750 Y22.0301
G01 X2.1693 Y22.1453
G01 X2.1524 Y22.2593
G01 X2.1244 Y22.3712
G01 X2.0856 Y22.4798
G01 X2.0363 Y22.5840
G01 X1.9770 Y22.6829
G01 X1.9083 Y22.7755
G01 X1.8309 Y22.8610
G01 X1.7454 Y22.9384
G01 X1.6528 Y23.0071
G01 X1.5539 Y23.0664
G01 X1.4497 Y23.1157
G01 X1.3411 Y23.1545
G01 X1.2292 Y23.1825
G01 X1.1152 Y23.1995
G01 X1.0000 Y23.2051
G01 X0.8848 Y23.1995
G01 X0.7708 Y23.1825
G01 X0.6589 Y23.1545
G01 X0.5503 Y23.1157
G01 X0.4461 Y23.0664
G01 X0.3472 Y23.0071
G01 X0.2546 Y22.9384
G01 X0.1691 Y22.8610
G01 X0.0917 Y22.7755
G01 X0.0230 Y22.6829
G01 X-0.0363 Y22.5840
G01 X-0.0856 Y22.4798
G01 X-0.1244 Y22.3712
G01 X-0.1524 Y22.2593
G01 X-0.1693 Y22.1453
G01 X-0.1750 Y22.0301
G01 X-0.1693 Y21.9149
G01 X-0.1524 Y21.8009
G01 X-0.1244 Y21.6890
G01 X-0.0856 Y21.5805
G01 X-0.0363 Y21.4762
G01 X0.0230 Y21.3773
G01 X0.0917 Y21.2847
G01 X0.1691 Y21.1993
G01 X0.2546 Y21.1218
G01 X0.3472 Y21.0531
G01 X0.4461 Y20.9939
G01 X0.5503 Y20.9446
G01 X0.6589 Y20.9057
G01 X0.7708 Y20.8777
G01 X0.8848 Y20.8608
G01 X1.0000 Y20.8551
G01 X1.1152 Y20.8608
G01 X1.2292 Y20.8777
G01 X1.3411 Y20.9057
G01 X1.4497 Y20.9446
G01 X1.5539 Y20.9939
G01 X1.6528 Y21.0531
G01 X1.7454 Y21.1218
G01 X1.8309 Y21.1993
G01 X1.9083 Y21.2847
G01 X1.9770 Y21.3773
G01 X2.0363 Y21.4762
G01 X2.0856 Y21.5805
G01 X2.1244 Y21.6890
G01 X2.1524 Y21.8009
G01 X2.1683 Y21.9064
G00 Z2.0000
G00 X2.1436 Y21.9101
G01 F60.00
G01 Z-0.1418
G01 F60.00
G01 X2.1450 Y21.9247
G01 X2.1500 Y22.0301
G01 X2.1445 Y22.1428
G01 X2.1279 Y22.2545
G01 X2.1005 Y22.3639
G01 X2.0625 Y22.4702
G01 X2.0142 Y22.5722
G01 X1.9562 Y22.6690
G01 X1.8890 Y22.7597
G01 X1.8132 Y22.8433
G01 X1.7296 Y22.9191
G01 X1.6389 Y22.9863
G01 X1.5421 Y23.0443
G01 X1.4401 Y23.0926
G01 X1.3338 Y23.1306
G01 X1.2244 Y23.1580
G01 X1.1127 Y23.1746
G01 X1.0000 Y23.1801
G01 X0.8873 Y23.1746
G01 X0.7756 Y23.1580
G01 X0.6662 Y23.1306
G01 X0.5599 Y23.0926
G01 X0.4579 Y23.0443
G01 X0.3611 Y22.9863
G01 X0.2704 Y22.9191
G01 X0.1868 Y22.8433
G01 X0.1110 Y22.7597
G01 X0.0438 Y22.6690
G01 X-0.0142 Y22.5722
G01 X-0.0625 Y22.4702
G01 X-0.1005 Y22.3639
G01 X-0.1279 Y22.2545
G01 X-0.1445 Y22.1428
G01 X-0.1500 Y22.0301
G01 X-0.1445 Y21.9174
G01 X-0.1279 Y21.8058
G01 X-0.1005 Y21.6963
G01 X-0.0625 Y21.5900
G01 X-0.0142 Y21.4880
G01 X0.0438 Y21.3912
G01 X0.1110 Y21.3006
G01 X0.1868 Y21.2169
G01 X0.2704 Y21.1412
G01 X0.3611 Y21.0739
G01 X0.4579 Y21.0159
G01 X0.5599 Y20.9677
G01 X0.6662 Y20.9296
G01 X0.7756 Y20.9022
G01 X0.8873 Y20.8857
G01 X1.0000 Y20.8801
G01 X1.1127 Y20.8857
G01 X1.2244 Y20.9022
G01 X1.3338 Y20.9296
G01 X1.4401 Y20.9677
G01 X1.5421 Y21.0159
G01 X1.6389 Y21.0739
G01 X1.7296 Y21.1412
G01 X1.8132 Y21.2169
G01 X1.8890 Y21.3006
G01 X1.9562 Y21.3912
G01 X2.0142 Y21.4880
G01 X2.0625 Y21.5900
G01 X2.1005 Y21.6963
G01 X2.1279 Y21.8058
G01 X2.1436 Y21.9101
G00 Z2.0000
G00 X2.1188 Y21.9138
G01 F60.00
G01 Z-0.1418
G01 F60.00
G01 X2.1200 Y21.9260
G01 X2.1250 Y22.0301
G01 X2.1196 Y22.1404
G01 X2.1034 Y22.2496
G01 X2.0766 Y22.3567
G01 X2.0394 Y22.4606
G01 X1.9922 Y22.5604
G01 X1.9354 Y22.6551
G01 X1.8696 Y22.7438
G01 X1.7955 Y22.8256
G01 X1.7137 Y22.8998
G01 X1.6250 Y22.9655
G01 X1.5303 Y23.0223
G01 X1.4305 Y23.0695
G01 X1.3266 Y23.1067
G01 X1.2195 Y23.1335
G01 X1.1103 Y23.1497
G01 X1.0000 Y23.1551
G01 X0.8897 Y23.1497
G01 X0.7805 Y23.1335
G01 X0.6734 Y23.1067
G01 X0.5695 Y23.0695
G01 X0.4697 Y23.0223
G01 X0.3750 Y22.9655
G01 X0.2863 Y22.8998
G01 X0.2045 Y22.8256
G01 X0.1304 Y22.7438
G01 X0.0646 Y22.6551
G01 X0.0078 Y22.5604
G01 X-0.0394 Y22.4606
G01 X-0.0766 Y22.3567
G01 X-0.1034 Y22.2496
G01 X-0.1196 Y22.1404
G01 X-0.1250 Y22.0301
G01 X-0.1196 Y21.9198
G01 X-0.1034 Y21.8106
G01 X-0.0766 Y21.7035
G01 X-0.0394 Y21.5996
G01 X0.0078 Y21.4998
G01 X0.0646 Y21.4051
G01 X0.1304 Y21.3164
G01 X0.2045 Y21.2346
G01 X0.2863 Y21.1605
G01 X0.3750 Y21.0947
G01 X0.4697 Y21.0380
G01 X0.5695 Y20.9908
G01 X0.6734 Y20.9536
G01 X0.7805 Y20.9267
G01 X0.8897 Y20.9105
G01 X1.0000 Y20.9051
G01 X1.1103 Y20.9105
G01 X1.2195 Y20.9267
G01 X1.3266 Y20.9536
G01 X1.4305 Y20.9908
G01 X1.5303 Y21.0380
G01 X1.6250 Y21.0947
G01 X1.7137 Y21.1605
G01 X1.7955 Y21.2346
G01 X1.8696 Y21.3164
G01 X1.9354 Y21.4051
G01 X1.9922 Y21.4998
G01 X2.0394 Y21.5996
G01 X2.0766 Y21.7035
G01 X2.1034 Y21.8106
G01 X2.1188 Y21.9138
G00 Z2.0000
G00 X2.1683 Y24.4464
G01 F60.00
G01 Z-0.1418
G01 F60.00
G01 X2.1700 Y24.4635
G01 X2.1750 Y24.5701
G01 X2.1693 Y24.6853
G01 X2.1524 Y24.7993
G01 X2.1244 Y24.9112
G01 X2.0856 Y25.0198
G01 X2.0363 Y25.1240
G01 X1.9770 Y25.2229
G01 X1.9083 Y25.3155
G01 X1.8309 Y25.4010
G01 X1.7454 Y25.4784
G01 X1.6528 Y25.5471
G01 X1.5539 Y25.6064
G01 X1.4497 Y25.6557
G01 X1.3411 Y25.6945
G01 X1.2292 Y25.7225
G01 X1.1152 Y25.7395
G01 X1.0000 Y25.7451
G01 X0.8848 Y25.7395
G01 X0.7708 Y25.7225
G01 X0.6589 Y25.6945
G01 X0.5503 Y25.6557
G01 X0.4461 Y25.6064
G01 X0.3472 Y25.5471
G01 X0.2546 Y25.4784
G01 X0.1691 Y25.4010
G01 X0.0917 Y25.3155
G01 X0.0230 Y25.2229
G01 X-0.0363 Y25.1240
G01 X-0.0856 Y25.0198
G01 X-0.1244 Y24.9112
G01 X-0.1524 Y24.7993
G01 X-0.1693 Y24.6853
G01 X-0.1750 Y24.5701
G01 X-0.1693 Y24.4549
G01 X-0.1524 Y24.3409
G01 X-0.1244 Y24.2290
G01 X-0.0856 Y24.1205
G01 X-0.0363 Y24.0162
G01 X0.0230 Y23.9173
G01 X0.0917 Y23.8247
G01 X0.1691 Y23.7393
G01 X0.2546 Y23.6618
G01 X0.3472 Y23.5931
G01 X0.4461 Y23.5339
G01 X0.5503 Y23.4846
G01 X0.6589 Y23.4457
G01 X0.7708 Y23.4177
G01 X0.8848 Y23.4008
G01 X1.0000 Y23.3951
G01 X1.1152 Y23.4008
G01 X1.2292 Y23.4177
G01 X1.3411 Y23.4457
G01 X1.4497 Y23.4846
G01 X1.5539 Y23.5339
G01 X1.6528 Y23.5931
G01 X1.7454 Y23.6618
G01 X1.8309 Y23.7393
G01 X1.9083 Y23.8247
G01 X1.9770 Y23.9173
G01 X2.0363 Y24.0162
G01 X2.0856 Y24.1205
G01 X2.1244 Y24.2290
G01 X2.1524 Y24.3409
G01 X2.1683 Y24.4464
G00 Z2.0000
G00 X2.1436 Y24.4501
G01 F60.00
G01 Z-0.1418
G01 F60.00
G01 X2.1450 Y24.4647
G01 X2.1500 Y24.5701
G01 X2.1445 Y24.6828
G01 X2.1279 Y24.7945
G01 X2.1005 Y24.9039
G01 X2.0625 Y25.0102
G01 X2.0142 Y25.1122
G01 X1.9562 Y25.2090
G01 X1.8890 Y25.2997
G01 X1.8132 Y25.3833
G01 X1.7296 Y25.4591
G01 X1.6389 Y25.5263
G01 X1.5421 Y25.5843
G01 X1.4401 Y25.6326
G01 X1.3338 Y25.6706
G01 X1.2244 Y25.6980
G01 X1.1127 Y25.7146
G01 X1.0000 Y25.7201
G01 X0.8873 Y25.7146
G01 X0.7756 Y25.6980
G01 X0.6662 Y25.6706
G01 X0.5599 Y25.6326
G01 X0.4579 Y25.5843
G01 X0.3611 Y25.5263
G01 X0.2704 Y25.4591
G01 X0.1868 Y25.3833
G01 X0.1110 Y25.2997
G01 X0.0438 Y25.2090
G01 X-0.0142 Y25.1122
G01 X-0.0625 Y25.0102
G01 X-0.1005 Y24.9039
G01 X-0.1279 Y24.7945
G01 X-0.1445 Y24.6828
G01 X-0.1500 Y24.5701
G01 X-0.1445 Y24.4574
G01 X-0.1279 Y24.3458
G01 X-0.1005 Y24.2363
G01 X-0.0625 Y24.1300
G01 X-0.0142 Y24.0280
G01 X0.0438 Y23.9312
G01 X0.1110 Y23.8406
G01 X0.1868 Y23.7569
G01 X0.2704 Y23.6812
G01 X0.3611 Y23.6139
G01 X0.4579 Y23.5559
G01 X0.5599 Y23.5077
G01 X0.6662 Y23.4696
G01 X0.7756 Y23.4422
G01 X0.8873 Y23.4257
G01 X1.0000 Y23.4201
G01 X1.1127 Y23.4257
G01 X1.2244 Y23.4422
G01 X1.3338 Y23.4696
G01 X1.4401 Y23.5077
G01 X1.5421 Y23.5559
G01 X1.6389 Y23.6139
G01 X1.7296 Y23.6812
G01 X1.8132 Y23.7569
G01 X1.8890 Y23.8406
G01 X1.9562 Y23.9312
G01 X2.0142 Y24.0280
G01 X2.0625 Y24.1300
G01 X2.1005 Y24.2363
G01 X2.1279 Y24.3458
G01 X2.1436 Y24.4501
G00 Z2.0000
G00 X2.1188 Y24.4538
G01 F60.00
G01 Z-0.1418
G01 F60.00
G01 X2.1200 Y24.4660
G01 X2.1250 Y24.5701
G01 X2.1196 Y24.6804
G01 X2.1034 Y24.7896
G01 X2.0766 Y24.8967
G01 X2.0394 Y25.0006
G01 X1.9922 Y25.1004
G01 X1.9354 Y25.1951
G01 X1.8696 Y25.2838
G01 X1.7955 Y25.3656
G01 X1.7137 Y25.4398
G01 X1.6250 Y25.5055
G01 X1.5303 Y25.5623
G01 X1.4305 Y25.6095
G01 X1.3266 Y25.6467
G01 X1.2195 Y25.6735
G01 X1.1103 Y25.6897
G01 X1.0000 Y25.6951
G01 X0.8897 Y25.6897
G01 X0.7805 Y25.6735
G01 X0.6734 Y25.6467
G01 X0.5695 Y25.6095
G01 X0.4697 Y25.5623
G01 X0.3750 Y25.5055
G01 X0.2863 Y25.4398
G01 X0.2045 Y25.3656
G01 X0.1304 Y25.2838
G01 X0.0646 Y25.1951
G01 X0.0078 Y25.1004
G01 X-0.0394 Y25.0006
G01 X-0.0766 Y24.8967
G01 X-0.1034 Y24.7896
G01 X-0.1196 Y24.6804
G01 X-0.1250 Y24.5701
G01 X-0.1196 Y24.4598
G01 X-0.1034 Y24.3506
G01 X-0.0766 Y24.2435
G01 X-0.0394 Y24.1396
G01 X0.0078 Y24.0398
G01 X0.0646 Y23.9451
G01 X0.1304 Y23.8564
G01 X0.2045 Y23.7746
G01 X0.2863 Y23.7005
G01 X0.3750 Y23.6347
G01 X0.4697 Y23.5780
G01 X0.5695 Y23.5308
G01 X0.6734 Y23.4936
G01 X0.7805 Y23.4667
G01 X0.8897 Y23.4505
G01 X1.0000 Y23.4451
G01 X1.1103 Y23.4505
G01 X1.2195 Y23.4667
G01 X1.3266 Y23.4936
G01 X1.4305 Y23.5308
G01 X1.5303 Y23.5780
G01 X1.6250 Y23.6347
G01 X1.7137 Y23.7005
G01 X1.7955 Y23.7746
G01 X1.8696 Y23.8564
G01 X1.9354 Y23.9451
G01 X1.9922 Y24.0398
G01 X2.0394 Y24.1396
G01 X2.0766 Y24.2435
G01 X2.1034 Y24.3506
G01 X2.1188 Y24.4538
G00 Z2.0000
G00 X2.1683 Y26.9864
G01 F60.00
G01 Z-0.1418
G01 F60.00
G01 X2.1700 Y27.0035
G01 X2.1750 Y27.1101
G01 X2.1693 Y27.2253
G01 X2.1524 Y27.3393
G01 X2.1244 Y27.4512
G01 X2.0856 Y27.5598
G01 X2.0363 Y27.6640
G01 X1.9770 Y27.7629
G01 X1.9083 Y27.8555
G01 X1.8309 Y27.9410
G01 X1.7454 Y28.0184
G01 X1.6528 Y28.0871
G01 X1.5539 Y28.1464
G01 X1.4497 Y28.1957
G01 X1.3411 Y28.2345
G01 X1.2292 Y28.2625
G01 X1.1152 Y28.2795
G01 X1.0000 Y28.2851
G01 X0.8848 Y28.2795
G01 X0.7708 Y28.2625
G01 X0.6589 Y28.2345
G01 X0.5503 Y28.1957
G01 X0.4461 Y28.1464
G01 X0.3472 Y28.0871
G01 X0.2546 Y28.0184
G01 X0.1691 Y27.9410
G01 X0.0917 Y27.8555
G01 X0.0230 Y27.7629
G01 X-0.0363 Y27.6640
G01 X-0.0856 Y27.5598
G01 X-0.1244 Y27.4512
G01 X-0.1524 Y27.3393
G01 X-0.1693 Y27.2253
G01 X-0.1750 Y27.1101
G01 X-0.1693 Y26.9949
G01 X-0.1524 Y26.8809
G01 X-0.1244 Y26.7690
G01 X-0.0856 Y26.6605
G01 X-0.0363 Y26.5562
G01 X0.0230 Y26.4573
G01 X0.0917 Y26.3647
G01 X0.1691 Y26.2793
G01 X0.2546 Y26.2018
G01 X0.3472 Y26.1331
G01 X0.4461 Y26.0739
G01 X0.5503 Y26.0246
G01 X0.6589 Y25.9857
G01 X0.7708 Y25.9577
G01 X0.8848 Y25.9408
G01 X1.0000 Y25.9351
G01 X1.1152 Y25.9408
G01 X1.2292 Y25.9577
G01 X1.3411 Y25.9857
G01 X1.4497 Y26.0246
G01 X1.5539 Y26.0739
G01 X1.6528 Y26.1331
G01 X1.7454 Y26.2018
G01 X1.8309 Y26.2793
G01 X1.9083 Y26.3647
G01 X1.9770 Y26.4573
G01 X2.0363 Y26.5562
G01 X2.0856 Y26.6605
G01 X2.1244 Y26.7690
G01 X2.1524 Y26.8809
G01 X2.1683 Y26.9864
G00 Z2.0000
G00 X2.1436 Y26.9901
G01 F60.00
G01 Z-0.1418
G01 F60.00
G01 X2.1450 Y27.0047
G01 X2.1500 Y27.1101
G01 X2.1445 Y27.2228
G01 X2.1279 Y27.3345
G01 X2.1005 Y27.4439
G01 X2.0625 Y27.5502
G01 X2.0142 Y27.6522
G01 X1.9562 Y27.7490
G01 X1.8890 Y27.8397
G01 X1.8132 Y27.9233
G01 X1.7296 Y27.9991
G01 X1.6389 Y28.0663
G01 X1.5421 Y28.1243
G01 X1.4401 Y28.1726
G01 X1.3338 Y28.2106
G01 X1.2244 Y28.2380
G01 X1.1127 Y28.2546
G01 X1.0000 Y28.2601
G01 X0.8873 Y28.2546
G01 X0.7756 Y28.2380
G01 X0.6662 Y28.2106
G01 X0.5599 Y28.1726
G01 X0.4579 Y28.1243
G01 X0.3611 Y28.0663
G01 X0.2704 Y27.9991
G01 X0.1868 Y27.9233
G01 X0.1110 Y27.8397
G01 X0.0438 Y27.7490
G01 X-0.0142 Y27.6522
G01 X-0.0625 Y27.5502
G01 X-0.1005 Y27.4439
G01 X-0.1279 Y27.3345
G01 X-0.1445 Y27.2228
G01 X-0.1500 Y27.1101
G01 X-0.1445 Y26.9974
G01 X-0.1279 Y26.8858
G01 X-0.1005 Y26.7763
G01 X-0.0625 Y26.6700
G01 X-0.0142 Y26.5680
G01 X0.0438 Y26.4712
G01 X0.1110 Y26.3806
G01 X0.1868 Y26.2969
G01 X0.2704 Y26.2212
G01 X0.3611 Y26.1539
G01 X0.4579 Y26.0959
G01 X0.5599 Y26.0477
G01 X0.6662 Y26.0096
G01 X0.7756 Y25.9822
G01 X0.8873 Y25.9657
G01 X1.0000 Y25.9601
G01 X1.1127 Y25.9657
G01 X1.2244 Y25.9822
G01 X1.3338 Y26.0096
G01 X1.4401 Y26.0477
G01 X1.5421 Y26.0959
G01 X1.6389 Y26.1539
G01 X1.7296 Y26.2212
G01 X1.8132 Y26.2969
G01 X1.8890 Y26.3806
G01 X1.9562 Y26.4712
G01 X2.0142 Y26.5680
G01 X2.0625 Y26.6700
G01 X2.1005 Y26.7763
G01 X2.1279 Y26.8858
G01 X2.1436 Y26.9901
G00 Z2.0000
G00 X2.1188 Y26.9938
G01 F60.00
G01 Z-0.1418
G01 F60.00
G01 X2.1200 Y27.0060
G01 X2.1250 Y27.1101
G01 X2.1196 Y27.2204
G01 X2.1034 Y27.3296
G01 X2.0766 Y27.4367
G01 X2.0394 Y27.5406
G01 X1.9922 Y27.6404
G01 X1.9354 Y27.7351
G01 X1.8696 Y27.8238
G01 X1.7955 Y27.9056
G01 X1.7137 Y27.9798
G01 X1.6250 Y28.0455
G01 X1.5303 Y28.1023
G01 X1.4305 Y28.1495
G01 X1.3266 Y28.1867
G01 X1.2195 Y28.2135
G01 X1.1103 Y28.2297
G01 X1.0000 Y28.2351
G01 X0.8897 Y28.2297
G01 X0.7805 Y28.2135
G01 X0.6734 Y28.1867
G01 X0.5695 Y28.1495
G01 X0.4697 Y28.1023
G01 X0.3750 Y28.0455
G01 X0.2863 Y27.9798
G01 X0.2045 Y27.9056
G01 X0.1304 Y27.8238
G01 X0.0646 Y27.7351
G01 X0.0078 Y27.6404
G01 X-0.0394 Y27.5406
G01 X-0.0766 Y27.4367
G01 X-0.1034 Y27.3296
G01 X-0.1196 Y27.2204
G01 X-0.1250 Y27.1101
G01 X-0.1196 Y26.9998
G01 X-0.1034 Y26.8906
G01 X-0.0766 Y26.7835
G01 X-0.0394 Y26.6796
G01 X0.0078 Y26.5798
G01 X0.0646 Y26.4851
G01 X0.1304 Y26.3964
G01 X0.2045 Y26.3146
G01 X0.2863 Y26.2405
G01 X0.3750 Y26.1747
G01 X0.4697 Y26.1180
G01 X0.5695 Y26.0708
G01 X0.6734 Y26.0336
G01 X0.7805 Y26.0067
G01 X0.8897 Y25.9905
G01 X1.0000 Y25.9851
G01 X1.1103 Y25.9905
G01 X1.2195 Y26.0067
G01 X1.3266 Y26.0336
G01 X1.4305 Y26.0708
G01 X1.5303 Y26.1180
G01 X1.6250 Y26.1747
G01 X1.7137 Y26.2405
G01 X1.7955 Y26.3146
G01 X1.8696 Y26.3964
G01 X1.9354 Y26.4851
G01 X1.9922 Y26.5798
G01 X2.0394 Y26.6796
G01 X2.0766 Y26.7835
G01 X2.1034 Y26.8906
G01 X2.1188 Y26.9938
G00 Z2.0000
G00 X2.1683 Y29.5264
G01 F60.00
G01 Z-0.1418
G01 F60.00
G01 X2.1700 Y29.5435
G01 X2.1750 Y29.6501
G01 X2.1693 Y29.7653
G01 X2.1524 Y29.8793
G01 X2.1244 Y29.9912
G01 X2.0856 Y30.0998
G01 X2.0363 Y30.2040
G01 X1.9770 Y30.3029
G01 X1.9083 Y30.3955
G01 X1.8309 Y30.4810
G01 X1.7454 Y30.5584
G01 X1.6528 Y30.6271
G01 X1.5539 Y30.6864
G01 X1.4497 Y30.7357
G01 X1.3411 Y30.7745
G01 X1.2292 Y30.8025
G01 X1.1152 Y30.8195
G01 X1.0000 Y30.8251
G01 X0.8848 Y30.8195
G01 X0.7708 Y30.8025
G01 X0.6589 Y30.7745
G01 X0.5503 Y30.7357
G01 X0.4461 Y30.6864
G01 X0.3472 Y30.6271
G01 X0.2546 Y30.5584
G01 X0.1691 Y30.4810
G01 X0.0917 Y30.3955
G01 X0.0230 Y30.3029
G01 X-0.0363 Y30.2040
G01 X-0.0856 Y30.0998
G01 X-0.1244 Y29.9912
G01 X-0.1524 Y29.8793
G01 X-0.1693 Y29.7653
G01 X-0.1750 Y29.6501
G01 X-0.1693 Y29.5349
G01 X-0.1524 Y29.4209
G01 X-0.1244 Y29.3090
G01 X-0.0856 Y29.2005
G01 X-0.0363 Y29.0962
G01 X0.0230 Y28.9973
G01 X0.0917 Y28.9047
G01 X0.1691 Y28.8193
G01 X0.2546 Y28.7418
G01 X0.3472 Y28.6731
G01 X0.4461 Y28.6139
G01 X0.5503 Y28.5646
G01 X0.6589 Y28.5257
G01 X0.7708 Y28.4977
G01 X0.8848 Y28.4808
G01 X1.0000 Y28.4751
G01 X1.1152 Y28.4808
G01 X1.2292 Y28.4977
G01 X1.3411 Y28.5257
G01 X1.4497 Y28.5646
G01 X1.5539 Y28.6139
G01 X1.6528 Y28.6731
G01 X1.7454 Y28.7418
G01 X1.8309 Y28.8193
G01 X1.9083 Y28.9047
G01 X1.9770 Y28.9973
G01 X2.0363 Y29.0962
G01 X2.0856 Y29.2005
G01 X2.1244 Y29.3090
G01 X2.1524 Y29.4209
G01 X2.1683 Y29.5264
G00 Z2.0000
G00 X2.1436 Y29.5301
G01 F60.00
G01 Z-0.1418
G01 F60.00
G01 X2.1450 Y29.5447
G01 X2.1500 Y29.6501
G01 X2.1445 Y29.7628
G01 X2.1279 Y29.8745
G01 X2.1005 Y29.9839
G01 X2.0625 Y30.0902
G01 X2.0142 Y30.1922
G01 X1.9562 Y30.2890
G01 X1.8890 Y30.3797
G01 X1.8132 Y30.4633
G01 X1.7296 Y30.5391
G01 X1.6389 Y30.6063
G01 X1.5421 Y30.6643
G01 X1.4401 Y30.7126
G01 X1.3338 Y30.7506
G01 X1.2244 Y30.7780
G01 X1.1127 Y30.7946
G01 X1.0000 Y30.8001
G01 X0.8873 Y30.7946
G01 X0.7756 Y30.7780
G01 X0.6662 Y30.7506
G01 X0.5599 Y30.7126
G01 X0.4579 Y30.6643
G01 X0.3611 Y30.6063
G01 X0.2704 Y30.5391
G01 X0.1868 Y30.4633
G01 X0.1110 Y30.3797
G01 X0.0438 Y30.2890
G01 X-0.0142 Y30.1922
G01 X-0.0625 Y30.0902
G01 X-0.1005 Y29.9839
G01 X-0.1279 Y29.8745
G01 X-0.1445 Y29.7628
G01 X-0.1500 Y29.6501
G01 X-0.1445 Y29.5374
G01 X-0.1279 Y29.4258
G01 X-0.1005 Y29.3163
G01 X-0.0625 Y29.2100
G01 X-0.0142 Y29.1080
G01 X0.0438 Y29.0112
G01 X0.1110 Y28.9206
G01 X0.1868 Y28.8369
G01 X0.2704 Y28.7612
G01 X0.3611 Y28.6939
G01 X0.4579 Y28.6359
G01 X0.5599 Y28.5877
G01 X0.6662 Y28.5496
G01 X0.7756 Y28.5222
G01 X0.8873 Y28.5057
G01 X1.0000 Y28.5001
G01 X1.1127 Y28.5057
G01 X1.2244 Y28.5222
G01 X1.3338 Y28.5496
G01 X1.4401 Y28.5877
G01 X1.5421 Y28.6359
G01 X1.6389 Y28.6939
G01 X1.7296 Y28.7612
G01 X1.8132 Y28.8369
G01 X1.8890 Y28.9206
G01 X1.9562 Y29.0112
G01 X2.0142 Y29.1080
G01 X2.0625 Y29.2100
G01 X2.1005 Y29.3163
G01 X2.1279 Y29.4258
G01 X2.1436 Y29.5301
G00 Z2.0000
G00 X2.1188 Y29.5338
G01 F60.00
G01 Z-0.1418
G01 F60.00
G01 X2.1200 Y29.5460
G01 X2.1250 Y29.6501
G01 X2.1196 Y29.7604
G01 X2.1034 Y29.8696
G01 X2.0766 Y29.9767
G01 X2.0394 Y30.0806
G01 X1.9922 Y30.1804
G01 X1.9354 Y30.2751
G01 X1.8696 Y30.3638
G01 X1.7955 Y30.4456
G01 X1.7137 Y30.5198
G01 X1.6250 Y30.5855
G01 X1.5303 Y30.6423
G01 X1.4305 Y30.6895
G01 X1.3266 Y30.7267
G01 X1.2195 Y30.7535
G01 X1.1103 Y30.7697
G01 X1.0000 Y30.7751
G01 X0.8897 Y30.7697
G01 X0.7805 Y30.7535
G01 X0.6734 Y30.7267
G01 X0.5695 Y30.6895
G01 X0.4697 Y30.6423
G01 X0.3750 Y30.5855
G01 X0.2863 Y30.5198
G01 X0.2045 Y30.4456
G01 X0.1304 Y30.3638
G01 X0.0646 Y30.2751
G01 X0.0078 Y30.1804
G01 X-0.0394 Y30.0806
G01 X-0.0766 Y29.9767
G01 X-0.1034 Y29.8696
G01 X-0.1196 Y29.7604
G01 X-0.1250 Y29.6501
G01 X-0.1196 Y29.5398
G01 X-0.1034 Y29.4306
G01 X-0.0766 Y29.3235
G01 X-0.0394 Y29.2196
G01 X0.0078 Y29.1198
G01 X0.0646 Y29.0251
G01 X0.1304 Y28.9364
G01 X0.2045 Y28.8546
G01 X0.2863 Y28.7805
G01 X0.3750 Y28.7147
G01 X0.4697 Y28.6580
G01 X0.5695 Y28.6108
G01 X0.6734 Y28.5736
G01 X0.7805 Y28.5467
G01 X0.8897 Y28.5305
G01 X1.0000 Y28.5251
G01 X1.1103 Y28.5305
G01 X1.2195 Y28.5467
G01 X1.3266 Y28.5736
G01 X1.4305 Y28.6108
G01 X1.5303 Y28.6580
G01 X1.6250 Y28.7147
G01 X1.7137 Y28.7805
G01 X1.7955 Y28.8546
G01 X1.8696 Y28.9364
G01 X1.9354 Y29.0251
G01 X1.9922 Y29.1198
G01 X2.0394 Y29.2196
G01 X2.0766 Y29.3235
G01 X2.1034 Y29.4306
G01 X2.1188 Y29.5338
G00 Z2.0000
G00 X2.1683 Y32.0664
G01 F60.00
G01 Z-0.1418
G01 F60.00
G01 X2.1700 Y32.0835
G01 X2.1750 Y32.1901
G01 X2.1693 Y32.3053
G01 X2.1524 Y32.4193
G01 X2.1244 Y32.5312
G01 X2.0856 Y32.6398
G01 X2.0363 Y32.7440
G01 X1.9770 Y32.8429
G01 X1.9083 Y32.9355
G01 X1.8309 Y33.0210
G01 X1.7454 Y33.0984
G01 X1.6528 Y33.1671
G01 X1.5539 Y33.2264
G01 X1.4497 Y33.2757
G01 X1.3411 Y33.3145
G01 X1.2292 Y33.3425
G01 X1.1152 Y33.3595
G01 X1.0000 Y33.3651
G01 X0.8848 Y33.3595
G01 X0.7708 Y33.3425
G01 X0.6589 Y33.3145
G01 X0.5503 Y33.2757
G01 X0.4461 Y33.2264
G01 X0.3472 Y33.1671
G01 X0.2546 Y33.0984
G01 X0.1691 Y33.0210
G01 X0.0917 Y32.9355
G01 X0.0230 Y32.8429
G01 X-0.0363 Y32.7440
G01 X-0.0856 Y32.6398
G01 X-0.1244 Y32.5312
G01 X-0.1524 Y32.4193
G01 X-0.1693 Y32.3053
G01 X-0.1750 Y32.1901
G01 X-0.1693 Y32.0749
G01 X-0.1524 Y31.9609
G01 X-0.1244 Y31.8490
G01 X-0.0856 Y31.7405
G01 X-0.0363 Y31.6362
G01 X0.0230 Y31.5373
G01 X0.0917 Y31.4447
G01 X0.1691 Y31.3593
G01 X0.2546 Y31.2818
G01 X0.3472 Y31.2131
G01 X0.4461 Y31.1539
G01 X0.5503 Y31.1046
G01 X0.6589 Y31.0657
G01 X0.7708 Y31.0377
G01 X0.8848 Y31.0208
G01 X1.0000 Y31.0151
G01 X1.1152 Y31.0208
G01 X1.2292 Y31.0377
G01 X1.3411 Y31.0657
G01 X1.4497 Y31.1046
G01 X1.5539 Y31.1539
G01 X1.6528 Y31.2131
G01 X1.7454 Y31.2818
G01 X1.8309 Y31.3593
G01 X1.9083 Y31.4447
G01 X1.9770 Y31.5373
G01 X2.0363 Y31.6362
G01 X2.0856 Y31.7405
G01 X2.1244 Y31.8490
G01 X2.1524 Y31.9609
G01 X2.1683 Y32.0664
G00 Z2.0000
G00 X2.1436 Y32.0701
G01 F60.00
G01 Z-0.1418
G01 F60.00
G01 X2.1450 Y32.0847
G01 X2.1500 Y32.1901
G01 X2.1445 Y32.3028
G01 X2.1279 Y32.4145
G01 X2.1005 Y32.5239
G01 X2.0625 Y32.6302
G01 X2.0142 Y32.7322
G01 X1.9562 Y32.8290
G01 X1.8890 Y32.9197
G01 X1.8132 Y33.0033
G01 X1.7296 Y33.0791
G01 X1.6389 Y33.1463
G01 X1.5421 Y33.2043
G01 X1.4401 Y33.2526
G01 X1.3338 Y33.2906
G01 X1.2244 Y33.3180
G01 X1.1127 Y33.3346
G01 X1.0000 Y33.3401
G01 X0.8873 Y33.3346
G01 X0.7756 Y33.3180
G01 X0.6662 Y33.2906
G01 X0.5599 Y33.2526
G01 X0.4579 Y33.2043
G01 X0.3611 Y33.1463
G01 X0.2704 Y33.0791
G01 X0.1868 Y33.0033
G01 X0.1110 Y32.9197
G01 X0.0438 Y32.8290
G01 X-0.0142 Y32.7322
G01 X-0.0625 Y32.6302
G01 X-0.1005 Y32.5239
G01 X-0.1279 Y32.4145
G01 X-0.1445 Y32.3028
G01 X-0.1500 Y32.1901
G01 X-0.1445 Y32.0774
G01 X-0.1279 Y31.9658
G01 X-0.1005 Y31.8563
G01 X-0.0625 Y31.7500
G01 X-0.0142 Y31.6480
G01 X0.0438 Y31.5512
G01 X0.1110 Y31.4606
G01 X0.1868 Y31.3769
G01 X0.2704 Y31.3012
G01 X0.3611 Y31.2339
G01 X0.4579 Y31.1759
G01 X0.5599 Y31.1277
G01 X0.6662 Y31.0896
G01 X0.7756 Y31.0622
G01 X0.8873 Y31.0457
G01 X1.0000 Y31.0401
G01 X1.1127 Y31.0457
G01 X1.2244 Y31.0622
G01 X1.3338 Y31.0896
G01 X1.4401 Y31.1277
G01 X1.5421 Y31.1759
G01 X1.6389 Y31.2339
G01 X1.7296 Y31.3012
G01 X1.8132 Y31.3769
G01 X1.8890 Y31.4606
G01 X1.9562 Y31.5512
G01 X2.0142 Y31.6480
G01 X2.0625 Y31.7500
G01 X2.1005 Y31.8563
G01 X2.1279 Y31.9658
G01 X2.1436 Y32.0701
G00 Z2.0000
G00 X2.1188 Y32.0738
G01 F60.00
G01 Z-0.1418
G01 F60.00
G01 X2.1200 Y32.0860
G01 X2.1250 Y32.1901
G01 X2.1196 Y32.3004
G01 X2.1034 Y32.4096
G01 X2.0766 Y32.5167
G01 X2.0394 Y32.6206
G01 X1.9922 Y32.7204
G01 X1.9354 Y32.8151
G01 X1.8696 Y32.9038
G01 X1.7955 Y32.9856
G01 X1.7137 Y33.0598
G01 X1.6250 Y33.1255
G01 X1.5303 Y33.1823
G01 X1.4305 Y33.2295
G01 X1.3266 Y33.2667
G01 X1.2195 Y33.2935
G01 X1.1103 Y33.3097
G01 X1.0000 Y33.3151
G01 X0.8897 Y33.3097
G01 X0.7805 Y33.2935
G01 X0.6734 Y33.2667
G01 X0.5695 Y33.2295
G01 X0.4697 Y33.1823
G01 X0.3750 Y33.1255
G01 X0.2863 Y33.0598
G01 X0.2045 Y32.9856
G01 X0.1304 Y32.9038
G01 X0.0646 Y32.8151
G01 X0.0078 Y32.7204
G01 X-0.0394 Y32.6206
G01 X-0.0766 Y32.5167
G01 X-0.1034 Y32.4096
G01 X-0.1196 Y32.3004
G01 X-0.1250 Y32.1901
G01 X-0.1196 Y32.0798
G01 X-0.1034 Y31.9706
G01 X-0.0766 Y31.8635
G01 X-0.0394 Y31.7596
G01 X0.0078 Y31.6598
G01 X0.0646 Y31.5651
G01 X0.1304 Y31.4764
G01 X0.2045 Y31.3946
G01 X0.2863 Y31.3205
G01 X0.3750 Y31.2547
G01 X0.4697 Y31.1980
G01 X0.5695 Y31.1508
G01 X0.6734 Y31.1136
G01 X0.7805 Y31.0867
G01 X0.8897 Y31.0705
G01 X1.0000 Y31.0651
G01 X1.1103 Y31.0705
G01 X1.2195 Y31.0867
G01 X1.3266 Y31.1136
G01 X1.4305 Y31.1508
G01 X1.5303 Y31.1980
G01 X1.6250 Y31.2547
G01 X1.7137 Y31.3205
G01 X1.7955 Y31.3946
G01 X1.8696 Y31.4764
G01 X1.9354 Y31.5651
G01 X1.9922 Y31.6598
G01 X2.0394 Y31.7596
G01 X2.0766 Y31.8635
G01 X2.1034 Y31.9706
G01 X2.1188 Y32.0738
G00 Z2.0000
G00 X2.1683 Y34.6064
G01 F60.00
G01 Z-0.1418
G01 F60.00
G01 X2.1700 Y34.6235
G01 X2.1750 Y34.7301
G01 X2.1693 Y34.8453
G01 X2.1524 Y34.9593
G01 X2.1244 Y35.0712
G01 X2.0856 Y35.1798
G01 X2.0363 Y35.2840
G01 X1.9770 Y35.3829
G01 X1.9083 Y35.4755
G01 X1.8309 Y35.5610
G01 X1.7454 Y35.6384
G01 X1.6528 Y35.7071
G01 X1.5539 Y35.7664
G01 X1.4497 Y35.8157
G01 X1.3411 Y35.8545
G01 X1.2292 Y35.8825
G01 X1.1152 Y35.8995
G01 X1.0000 Y35.9051
G01 X0.8848 Y35.8995
G01 X0.7708 Y35.8825
G01 X0.6589 Y35.8545
G01 X0.5503 Y35.8157
G01 X0.4461 Y35.7664
G01 X0.3472 Y35.7071
G01 X0.2546 Y35.6384
G01 X0.1691 Y35.5610
G01 X0.0917 Y35.4755
G01 X0.0230 Y35.3829
G01 X-0.0363 Y35.2840
G01 X-0.0856 Y35.1798
G01 X-0.1244 Y35.0712
G01 X-0.1524 Y34.9593
G01 X-0.1693 Y34.8453
G01 X-0.1750 Y34.7301
G01 X-0.1693 Y34.6149
G01 X-0.1524 Y34.5009
G01 X-0.1244 Y34.3890
G01 X-0.0856 Y34.2805
G01 X-0.0363 Y34.1762
G01 X0.0230 Y34.0773
G01 X0.0917 Y33.9847
G01 X0.1691 Y33.8993
G01 X0.2546 Y33.8218
G01 X0.3472 Y33.7531
G01 X0.4461 Y33.6939
G01 X0.5503 Y33.6446
G01 X0.6589 Y33.6057
G01 X0.7708 Y33.5777
G01 X0.8848 Y33.5608
G01 X1.0000 Y33.5551
G01 X1.1152 Y33.5608
G01 X1.2292 Y33.5777
G01 X1.3411 Y33.6057
G01 X1.4497 Y33.6446
G01 X1.5539 Y33.6939
G01 X1.6528 Y33.7531
G01 X1.7454 Y33.8218
G01 X1.8309 Y33.8993
G01 X1.9083 Y33.9847
G01 X1.9770 Y34.0773
G01 X2.0363 Y34.1762
G01 X2.0856 Y34.2805
G01 X2.1244 Y34.3890
G01 X2.1524 Y34.5009
G01 X2.1683 Y34.6064
G00 Z2.0000
G00 X2.1436 Y34.6101
G01 F60.00
G01 Z-0.1418
G01 F60.00
G01 X2.1450 Y34.6247
G01 X2.1500 Y34.7301
G01 X2.1445 Y34.8428
G01 X2.1279 Y34.9545
G01 X2.1005 Y35.0639
G01 X2.0625 Y35.1702
G01 X2.0142 Y35.2722
G01 X1.9562 Y35.3690
G01 X1.8890 Y35.4597
G01 X1.8132 Y35.5433
G01 X1.7296 Y35.6191
G01 X1.6389 Y35.6863
G01 X1.5421 Y35.7443
G01 X1.4401 Y35.7926
G01 X1.3338 Y35.8306
G01 X1.2244 Y35.8580
G01 X1.1127 Y35.8746
G01 X1.0000 Y35.8801
G01 X0.8873 Y35.8746
G01 X0.7756 Y35.8580
G01 X0.6662 Y35.8306
G01 X0.5599 Y35.7926
G01 X0.4579 Y35.7443
G01 X0.3611 Y35.6863
G01 X0.2704 Y35.6191
G01 X0.1868 Y35.5433
G01 X0.1110 Y35.4597
G01 X0.0438 Y35.3690
G01 X-0.0142 Y35.2722
G01 X-0.0625 Y35.1702
G01 X-0.1005 Y35.0639
G01 X-0.1279 Y34.9545
G01 X-0.1445 Y34.8428
G01 X-0.1500 Y34.7301
G01 X-0.1445 Y34.6174
G01 X-0.1279 Y34.5058
G01 X-0.1005 Y34.3963
G01 X-0.0625 Y34.2900
G01 X-0.0142 Y34.1880
G01 X0.0438 Y34.0912
G01 X0.1110 Y34.0006
G01 X0.1868 Y33.9169
G01 X0.2704 Y33.8412
G01 X0.3611 Y33.7739
G01 X0.4579 Y33.7159
G01 X0.5599 Y33.6677
G01 X0.6662 Y33.6296
G01 X0.7756 Y33.6022
G01 X0.8873 Y33.5857
G01 X1.0000 Y33.5801
G01 X1.1127 Y33.5857
G01 X1.2244 Y33.6022
G01 X1.3338 Y33.6296
G01 X1.4401 Y33.6677
G01 X1.5421 Y33.7159
G01 X1.6389 Y33.7739
G01 X1.7296 Y33.8412
G01 X1.8132 Y33.9169
G01 X1.8890 Y34.0006
G01 X1.9562 Y34.0912
G01 X2.0142 Y34.1880
G01 X2.0625 Y34.2900
G01 X2.1005 Y34.3963
G01 X2.1279 Y34.5058
G01 X2.1436 Y34.6101
G00 Z2.0000
G00 X2.1188 Y34.6138
G01 F60.00
G01 Z-0.1418
G01 F60.00
G01 X2.1200 Y34.6260
G01 X2.1250 Y34.7301
G01 X2.1196 Y34.8404
G01 X2.1034 Y34.9496
G01 X2.0766 Y35.0567
G01 X2.0394 Y35.1606
G01 X1.9922 Y35.2604
G01 X1.9354 Y35.3551
G01 X1.8696 Y35.4438
G01 X1.7955 Y35.5256
G01 X1.7137 Y35.5998
G01 X1.6250 Y35.6655
G01 X1.5303 Y35.7223
G01 X1.4305 Y35.7695
G01 X1.3266 Y35.8067
G01 X1.2195 Y35.8335
G01 X1.1103 Y35.8497
G01 X1.0000 Y35.8551
G01 X0.8897 Y35.8497
G01 X0.7805 Y35.8335
G01 X0.6734 Y35.8067
G01 X0.5695 Y35.7695
G01 X0.4697 Y35.7223
G01 X0.3750 Y35.6655
G01 X0.2863 Y35.5998
G01 X0.2045 Y35.5256
G01 X0.1304 Y35.4438
G01 X0.0646 Y35.3551
G01 X0.0078 Y35.2604
G01 X-0.0394 Y35.1606
G01 X-0.0766 Y35.0567
G01 X-0.1034 Y34.9496
G01 X-0.1196 Y34.8404
G01 X-0.1250 Y34.7301
G01 X-0.1196 Y34.6198
G01 X-0.1034 Y34.5106
G01 X-0.0766 Y34.4035
G01 X-0.0394 Y34.2996
G01 X0.0078 Y34.1998
G01 X0.0646 Y34.1051
G01 X0.1304 Y34.0164
G01 X0.2045 Y33.9346
G01 X0.2863 Y33.8605
G01 X0.3750 Y33.7947
G01 X0.4697 Y33.7380
G01 X0.5695 Y33.6908
G01 X0.6734 Y33.6536
G01 X0.7805 Y33.6267
G01 X0.8897 Y33.6105
G01 X1.0000 Y33.6051
G01 X1.1103 Y33.6105
G01 X1.2195 Y33.6267
G01 X1.3266 Y33.6536
G01 X1.4305 Y33.6908
G01 X1.5303 Y33.7380
G01 X1.6250 Y33.7947
G01 X1.7137 Y33.8605
G01 X1.7955 Y33.9346
G01 X1.8696 Y34.0164
G01 X1.9354 Y34.1051
G01 X1.9922 Y34.1998
G01 X2.0394 Y34.2996
G01 X2.0766 Y34.4035
G01 X2.1034 Y34.5106
G01 X2.1188 Y34.6138
G00 Z2.0000
G00 X2.1683 Y37.1464
G01 F60.00
G01 Z-0.1418
G01 F60.00
G01 X2.1700 Y37.1635
G01 X2.1750 Y37.2701
G01 X2.1693 Y37.3853
G01 X2.1524 Y37.4993
G01 X2.1244 Y37.6112
G01 X2.0856 Y37.7198
G01 X2.0363 Y37.8240
G01 X1.9770 Y37.9229
G01 X1.9083 Y38.0155
G01 X1.8309 Y38.1010
G01 X1.7454 Y38.1784
G01 X1.6528 Y38.2471
G01 X1.5539 Y38.3064
G01 X1.4497 Y38.3557
G01 X1.3411 Y38.3945
G01 X1.2292 Y38.4225
G01 X1.1152 Y38.4395
G01 X1.0000 Y38.4451
G01 X0.8848 Y38.4395
G01 X0.7708 Y38.4225
G01 X0.6589 Y38.3945
G01 X0.5503 Y38.3557
G01 X0.4461 Y38.3064
G01 X0.3472 Y38.2471
G01 X0.2546 Y38.1784
G01 X0.1691 Y38.1010
G01 X0.0917 Y38.0155
G01 X0.0230 Y37.9229
G01 X-0.0363 Y37.8240
G01 X-0.0856 Y37.7198
G01 X-0.1244 Y37.6112
G01 X-0.1524 Y37.4993
G01 X-0.1693 Y37.3853
G01 X-0.1750 Y37.2701
G01 X-0.1693 Y37.1549
G01 X-0.1524 Y37.0409
G01 X-0.1244 Y36.9290
G01 X-0.0856 Y36.8205
G01 X-0.0363 Y36.7162
G01 X0.0230 Y36.6173
G01 X0.0917 Y36.5247
G01 X0.1691 Y36.4393
G01 X0.2546 Y36.3618
G01 X0.3472 Y36.2931
G01 X0.4461 Y36.2339
G01 X0.5503 Y36.1846
G01 X0.6589 Y36.1457
G01 X0.7708 Y36.1177
G01 X0.8848 Y36.1008
G01 X1.0000 Y36.0951
G01 X1.1152 Y36.1008
G01 X1.2292 Y36.1177
G01 X1.3411 Y36.1457
G01 X1.4497 Y36.1846
G01 X1.5539 Y36.2339
G01 X1.6528 Y36.2931
G01 X1.7454 Y36.3618
G01 X1.8309 Y36.4393
G01 X1.9083 Y36.5247
G01 X1.9770 Y36.6173
G01 X2.0363 Y36.7162
G01 X2.0856 Y36.8205
G01 X2.1244 Y36.9290
G01 X2.1524 Y37.0409
G01 X2.1683 Y37.1464
G00 Z2.0000
G00 X2.1436 Y37.1501
G01 F60.00
G01 Z-0.1418
G01 F60.00
G01 X2.1450 Y37.1647
G01 X2.1500 Y37.2701
G01 X2.1445 Y37.3828
G01 X2.1279 Y37.4945
G01 X2.1005 Y37.6039
G01 X2.0625 Y37.7102
G01 X2.0142 Y37.8122
G01 X1.9562 Y37.9090
G01 X1.8890 Y37.9997
G01 X1.8132 Y38.0833
G01 X1.7296 Y38.1591
G01 X1.6389 Y38.2263
G01 X1.5421 Y38.2843
G01 X1.4401 Y38.3326
G01 X1.3338 Y38.3706
G01 X1.2244 Y38.3980
G01 X1.1127 Y38.4146
G01 X1.0000 Y38.4201
G01 X0.8873 Y38.4146
G01 X0.7756 Y38.3980
G01 X0.6662 Y38.3706
G01 X0.5599 Y38.3326
G01 X0.4579 Y38.2843
G01 X0.3611 Y38.2263
G01 X0.2704 Y38.1591
G01 X0.1868 Y38.0833
G01 X0.1110 Y37.9997
G01 X0.0438 Y37.9090
G01 X-0.0142 Y37.8122
G01 X-0.0625 Y37.7102
G01 X-0.1005 Y37.6039
G01 X-0.1279 Y37.4945
G01 X-0.1445 Y37.3828
G01 X-0.1500 Y37.2701
G01 X-0.1445 Y37.1574
G01 X-0.1279 Y37.0458
G01 X-0.1005 Y36.9363
G01 X-0.0625 Y36.8300
G01 X-0.0142 Y36.7280
G01 X0.0438 Y36.6312
G01 X0.1110 Y36.5406
G01 X0.1868 Y36.4569
G01 X0.2704 Y36.3812
G01 X0.3611 Y36.3139
G01 X0.4579 Y36.2559
G01 X0.5599 Y36.2077
G01 X0.6662 Y36.1696
G01 X0.7756 Y36.1422
G01 X0.8873 Y36.1257
G01 X1.0000 Y36.1201
G01 X1.1127 Y36.1257
G01 X1.2244 Y36.1422
G01 X1.3338 Y36.1696
G01 X1.4401 Y36.2077
G01 X1.5421 Y36.2559
G01 X1.6389 Y36.3139
G01 X1.7296 Y36.3812
G01 X1.8132 Y36.4569
G01 X1.8890 Y36.5406
G01 X1.9562 Y36.6312
G01 X2.0142 Y36.7280
G01 X2.0625 Y36.8300
G01 X2.1005 Y36.9363
G01 X2.1279 Y37.0458
G01 X2.1436 Y37.1501
G00 Z2.0000
G00 X2.1188 Y37.1538
G01 F60.00
G01 Z-0.1418
G01 F60.00
G01 X2.1200 Y37.1660
G01 X2.1250 Y37.2701
G01 X2.1196 Y37.3804
G01 X2.1034 Y37.4896
G01 X2.0766 Y37.5967
G01 X2.0394 Y37.7006
G01 X1.9922 Y37.8004
G01 X1.9354 Y37.8951
G01 X1.8696 Y37.9838
G01 X1.7955 Y38.0656
G01 X1.7137 Y38.1398
G01 X1.6250 Y38.2055
G01 X1.5303 Y38.2623
G01 X1.4305 Y38.3095
G01 X1.3266 Y38.3467
G01 X1.2195 Y38.3735
G01 X1.1103 Y38.3897
G01 X1.0000 Y38.3951
G01 X0.8897 Y38.3897
G01 X0.7805 Y38.3735
G01 X0.6734 Y38.3467
G01 X0.5695 Y38.3095
G01 X0.4697 Y38.2623
G01 X0.3750 Y38.2055
G01 X0.2863 Y38.1398
G01 X0.2045 Y38.0656
G01 X0.1304 Y37.9838
G01 X0.0646 Y37.8951
G01 X0.0078 Y37.8004
G01 X-0.0394 Y37.7006
G01 X-0.0766 Y37.5967
G01 X-0.1034 Y37.4896
G01 X-0.1196 Y37.3804
G01 X-0.1250 Y37.2701
G01 X-0.1196 Y37.1598
G01 X-0.1034 Y37.0506
G01 X-0.0766 Y36.9435
G01 X-0.0394 Y36.8396
G01 X0.0078 Y36.7398
G01 X0.0646 Y36.6451
G01 X0.1304 Y36.5564
G01 X0.2045 Y36.4746
G01 X0.2863 Y36.4005
G01 X0.3750 Y36.3347
G01 X0.4697 Y36.2780
G01 X0.5695 Y36.2308
G01 X0.6734 Y36.1936
G01 X0.7805 Y36.1667
G01 X0.8897 Y36.1505
G01 X1.0000 Y36.1451
G01 X1.1103 Y36.1505
G01 X1.2195 Y36.1667
G01 X1.3266 Y36.1936
G01 X1.4305 Y36.2308
G01 X1.5303 Y36.2780
G01 X1.6250 Y36.3347
G01 X1.7137 Y36.4005
G01 X1.7955 Y36.4746
G01 X1.8696 Y36.5564
G01 X1.9354 Y36.6451
G01 X1.9922 Y36.7398
G01 X2.0394 Y36.8396
G01 X2.0766 Y36.9435
G01 X2.1034 Y37.0506
G01 X2.1188 Y37.1538
G00 Z2.0000
G00 X2.1683 Y39.6864
G01 F60.00
G01 Z-0.1418
G01 F60.00
G01 X2.1700 Y39.7035
G01 X2.1750 Y39.8101
G01 X2.1693 Y39.9253
G01 X2.1524 Y40.0393
G01 X2.1244 Y40.1512
G01 X2.0856 Y40.2598
G01 X2.0363 Y40.3640
G01 X1.9770 Y40.4629
G01 X1.9083 Y40.5555
G01 X1.8309 Y40.6410
G01 X1.7454 Y40.7184
G01 X1.6528 Y40.7871
G01 X1.5539 Y40.8464
G01 X1.4497 Y40.8957
G01 X1.3411 Y40.9345
G01 X1.2292 Y40.9625
G01 X1.1152 Y40.9795
G01 X1.0000 Y40.9851
G01 X0.8848 Y40.9795
G01 X0.7708 Y40.9625
G01 X0.6589 Y40.9345
G01 X0.5503 Y40.8957
G01 X0.4461 Y40.8464
G01 X0.3472 Y40.7871
G01 X0.2546 Y40.7184
G01 X0.1691 Y40.6410
G01 X0.0917 Y40.5555
G01 X0.0230 Y40.4629
G01 X-0.0363 Y40.3640
G01 X-0.0856 Y40.2598
G01 X-0.1244 Y40.1512
G01 X-0.1524 Y40.0393
G01 X-0.1693 Y39.9253
G01 X-0.1750 Y39.8101
G01 X-0.1693 Y39.6949
G01 X-0.1524 Y39.5809
G01 X-0.1244 Y39.4690
G01 X-0.0856 Y39.3605
G01 X-0.0363 Y39.2562
G01 X0.0230 Y39.1573
G01 X0.0917 Y39.0647
G01 X0.1691 Y38.9793
G01 X0.2546 Y38.9018
G01 X0.3472 Y38.8331
G01 X0.4461 Y38.7739
G01 X0.5503 Y38.7246
G01 X0.6589 Y38.6857
G01 X0.7708 Y38.6577
G01 X0.8848 Y38.6408
G01 X1.0000 Y38.6351
G01 X1.1152 Y38.6408
G01 X1.2292 Y38.6577
G01 X1.3411 Y38.6857
G01 X1.4497 Y38.7246
G01 X1.5539 Y38.7739
G01 X1.6528 Y38.8331
G01 X1.7454 Y38.9018
G01 X1.8309 Y38.9793
G01 X1.9083 Y39.0647
G01 X1.9770 Y39.1573
G01 X2.0363 Y39.2562
G01 X2.0856 Y39.3605
G01 X2.1244 Y39.4690
G01 X2.1524 Y39.5809
G01 X2.1683 Y39.6864
G00 Z2.0000
G00 X2.1436 Y39.6901
G01 F60.00
G01 Z-0.1418
G01 F60.00
G01 X2.1450 Y39.7047
G01 X2.1500 Y39.8101
G01 X2.1445 Y39.9228
G01 X2.1279 Y40.0345
G01 X2.1005 Y40.1439
G01 X2.0625 Y40.2502
G01 X2.0142 Y40.3522
G01 X1.9562 Y40.4490
G01 X1.8890 Y40.5397
G01 X1.8132 Y40.6233
G01 X1.7296 Y40.6991
G01 X1.6389 Y40.7663
G01 X1.5421 Y40.8243
G01 X1.4401 Y40.8726
G01 X1.3338 Y40.9106
G01 X1.2244 Y40.9380
G01 X1.1127 Y40.9546
G01 X1.0000 Y40.9601
G01 X0.8873 Y40.9546
G01 X0.7756 Y40.9380
G01 X0.6662 Y40.9106
G01 X0.5599 Y40.8726
G01 X0.4579 Y40.8243
G01 X0.3611 Y40.7663
G01 X0.2704 Y40.6991
G01 X0.1868 Y40.6233
G01 X0.1110 Y40.5397
G01 X0.0438 Y40.4490
G01 X-0.0142 Y40.3522
G01 X-0.0625 Y40.2502
G01 X-0.1005 Y40.1439
G01 X-0.1279 Y40.0345
G01 X-0.1445 Y39.9228
G01 X-0.1500 Y39.8101
G01 X-0.1445 Y39.6974
G01 X-0.1279 Y39.5858
G01 X-0.1005 Y39.4763
G01 X-0.0625 Y39.3700
G01 X-0.0142 Y39.2680
G01 X0.0438 Y39.1712
G01 X0.1110 Y39.0806
G01 X0.1868 Y38.9969
G01 X0.2704 Y38.9212
G01 X0.3611 Y38.8539
G01 X0.4579 Y38.7959
G01 X0.5599 Y38.7477
G01 X0.6662 Y38.7096
G01 X0.7756 Y38.6822
G01 X0.8873 Y38.6657
G01 X1.0000 Y38.6601
G01 X1.1127 Y38.6657
G01 X1.2244 Y38.6822
G01 X1.3338 Y38.7096
G01 X1.4401 Y38.7477
G01 X1.5421 Y38.7959
G01 X1.6389 Y38.8539
G01 X1.7296 Y38.9212
G01 X1.8132 Y38.9969
G01 X1.8890 Y39.0806
G01 X1.9562 Y39.1712
G01 X2.0142 Y39.2680
G01 X2.0625 Y39.3700
G01 X2.1005 Y39.4763
G01 X2.1279 Y39.5858
G01 X2.1436 Y39.6901
G00 Z2.0000
G00 X2.1188 Y39.6938
G01 F60.00
G01 Z-0.1418
G01 F60.00
G01 X2.1200 Y39.7060
G01 X2.1250 Y39.8101
G01 X2.1196 Y39.9204
G01 X2.1034 Y40.0296
G01 X2.0766 Y40.1367
G01 X2.0394 Y40.2406
G01 X1.9922 Y40.3404
G01 X1.9354 Y40.4351
G01 X1.8696 Y40.5238
G01 X1.7955 Y40.6056
G01 X1.7137 Y40.6798
G01 X1.6250 Y40.7455
G01 X1.5303 Y40.8023
G01 X1.4305 Y40.8495
G01 X1.3266 Y40.8867
G01 X1.2195 Y40.9135
G01 X1.1103 Y40.9297
G01 X1.0000 Y40.9351
G01 X0.8897 Y40.9297
G01 X0.7805 Y40.9135
G01 X0.6734 Y40.8867
G01 X0.5695 Y40.8495
G01 X0.4697 Y40.8023
G01 X0.3750 Y40.7455
G01 X0.2863 Y40.6798
G01 X0.2045 Y40.6056
G01 X0.1304 Y40.5238
G01 X0.0646 Y40.4351
G01 X0.0078 Y40.3404
G01 X-0.0394 Y40.2406
G01 X-0.0766 Y40.1367
G01 X-0.1034 Y40.0296
G01 X-0.1196 Y39.9204
G01 X-0.1250 Y39.8101
G01 X-0.1196 Y39.6998
G01 X-0.1034 Y39.5906
G01 X-0.0766 Y39.4835
G01 X-0.0394 Y39.3796
G01 X0.0078 Y39.2798
G01 X0.0646 Y39.1851
G01 X0.1304 Y39.0964
G01 X0.2045 Y39.0146
G01 X0.2863 Y38.9405
G01 X0.3750 Y38.8747
G01 X0.4697 Y38.8180
G01 X0.5695 Y38.7708
G01 X0.6734 Y38.7336
G01 X0.7805 Y38.7067
G01 X0.8897 Y38.6905
G01 X1.0000 Y38.6851
G01 X1.1103 Y38.6905
G01 X1.2195 Y38.7067
G01 X1.3266 Y38.7336
G01 X1.4305 Y38.7708
G01 X1.5303 Y38.8180
G01 X1.6250 Y38.8747
G01 X1.7137 Y38.9405
G01 X1.7955 Y39.0146
G01 X1.8696 Y39.0964
G01 X1.9354 Y39.1851
G01 X1.9922 Y39.2798
G01 X2.0394 Y39.3796
G01 X2.0766 Y39.4835
G01 X2.1034 Y39.5906
G01 X2.1188 Y39.6938
G00 Z2.0000
G00 X2.1683 Y42.2264
G01 F60.00
G01 Z-0.1418
G01 F60.00
G01 X2.1700 Y42.2435
G01 X2.1750 Y42.3501
G01 X2.1693 Y42.4653
G01 X2.1524 Y42.5793
G01 X2.1244 Y42.6912
G01 X2.0856 Y42.7998
G01 X2.0363 Y42.9040
G01 X1.9770 Y43.0029
G01 X1.9083 Y43.0955
G01 X1.8309 Y43.1810
G01 X1.7454 Y43.2584
G01 X1.6528 Y43.3271
G01 X1.5539 Y43.3864
G01 X1.4497 Y43.4357
G01 X1.3411 Y43.4745
G01 X1.2292 Y43.5025
G01 X1.1152 Y43.5195
G01 X1.0000 Y43.5251
G01 X0.8848 Y43.5195
G01 X0.7708 Y43.5025
G01 X0.6589 Y43.4745
G01 X0.5503 Y43.4357
G01 X0.4461 Y43.3864
G01 X0.3472 Y43.3271
G01 X0.2546 Y43.2584
G01 X0.1691 Y43.1810
G01 X0.0917 Y43.0955
G01 X0.0230 Y43.0029
G01 X-0.0363 Y42.9040
G01 X-0.0856 Y42.7998
G01 X-0.1244 Y42.6912
G01 X-0.1524 Y42.5793
G01 X-0.1693 Y42.4653
G01 X-0.1750 Y42.3501
G01 X-0.1693 Y42.2349
G01 X-0.1524 Y42.1209
G01 X-0.1244 Y42.0090
G01 X-0.0856 Y41.9005
G01 X-0.0363 Y41.7962
G01 X0.0230 Y41.6973
G01 X0.0917 Y41.6047
G01 X0.1691 Y41.5193
G01 X0.2546 Y41.4418
G01 X0.3472 Y41.3731
G01 X0.4461 Y41.3139
G01 X0.5503 Y41.2646
G01 X0.6589 Y41.2257
G01 X0.7708 Y41.1977
G01 X0.8848 Y41.1808
G01 X1.0000 Y41.1751
G01 X1.1152 Y41.1808
G01 X1.2292 Y41.1977
G01 X1.3411 Y41.2257
G01 X1.4497 Y41.2646
G01 X1.5539 Y41.3139
G01 X1.6528 Y41.3731
G01 X1.7454 Y41.4418
G01 X1.8309 Y41.5193
G01 X1.9083 Y41.6047
G01 X1.9770 Y41.6973
G01 X2.0363 Y41.7962
G01 X2.0856 Y41.9005
G01 X2.1244 Y42.0090
G01 X2.1524 Y42.1209
G01 X2.1683 Y42.2264
G00 Z2.0000
G00 X2.1436 Y42.2301
G01 F60.00
G01 Z-0.1418
G01 F60.00
G01 X2.1450 Y42.2447
G01 X2.1500 Y42.3501
G01 X2.1445 Y42.4628
G01 X2.1279 Y42.5745
G01 X2.1005 Y42.6839
G01 X2.0625 Y42.7902
G01 X2.0142 Y42.8922
G01 X1.9562 Y42.9890
G01 X1.8890 Y43.0797
G01 X1.8132 Y43.1633
G01 X1.7296 Y43.2391
G01 X1.6389 Y43.3063
G01 X1.5421 Y43.3643
G01 X1.4401 Y43.4126
G01 X1.3338 Y43.4506
G01 X1.2244 Y43.4780
G01 X1.1127 Y43.4946
G01 X1.0000 Y43.5001
G01 X0.8873 Y43.4946
G01 X0.7756 Y43.4780
G01 X0.6662 Y43.4506
G01 X0.5599 Y43.4126
G01 X0.4579 Y43.3643
G01 X0.3611 Y43.3063
G01 X0.2704 Y43.2391
G01 X0.1868 Y43.1633
G01 X0.1110 Y43.0797
G01 X0.0438 Y42.9890
G01 X-0.0142 Y42.8922
G01 X-0.0625 Y42.7902
G01 X-0.1005 Y42.6839
G01 X-0.1279 Y42.5745
G01 X-0.1445 Y42.4628
G01 X-0.1500 Y42.3501
G01 X-0.1445 Y42.2374
G01 X-0.1279 Y42.1258
G01 X-0.1005 Y42.0163
G01 X-0.0625 Y41.9100
G01 X-0.0142 Y41.8080
G01 X0.0438 Y41.7112
G01 X0.1110 Y41.6206
G01 X0.1868 Y41.5369
G01 X0.2704 Y41.4612
G01 X0.3611 Y41.3939
G01 X0.4579 Y41.3359
G01 X0.5599 Y41.2877
G01 X0.6662 Y41.2496
G01 X0.7756 Y41.2222
G01 X0.8873 Y41.2057
G01 X1.0000 Y41.2001
G01 X1.1127 Y41.2057
G01 X1.2244 Y41.2222
G01 X1.3338 Y41.2496
G01 X1.4401 Y41.2877
G01 X1.5421 Y41.3359
G01 X1.6389 Y41.3939
G01 X1.7296 Y41.4612
G01 X1.8132 Y41.5369
G01 X1.8890 Y41.6206
G01 X1.9562 Y41.7112
G01 X2.0142 Y41.8080
G01 X2.0625 Y41.9100
G01 X2.1005 Y42.0163
G01 X2.1279 Y42.1258
G01 X2.1436 Y42.2301
G00 Z2.0000
G00 X2.1188 Y42.2338
G01 F60.00
G01 Z-0.1418
G01 F60.00
G01 X2.1200 Y42.2460
G01 X2.1250 Y42.3501
G01 X2.1196 Y42.4604
G01 X2.1034 Y42.5696
G01 X2.0766 Y42.6767
G01 X2.0394 Y42.7806
G01 X1.9922 Y42.8804
G01 X1.9354 Y42.9751
G01 X1.8696 Y43.0638
G01 X1.7955 Y43.1456
G01 X1.7137 Y43.2198
G01 X1.6250 Y43.2855
G01 X1.5303 Y43.3423
G01 X1.4305 Y43.3895
G01 X1.3266 Y43.4267
G01 X1.2195 Y43.4535
G01 X1.1103 Y43.4697
G01 X1.0000 Y43.4751
G01 X0.8897 Y43.4697
G01 X0.7805 Y43.4535
G01 X0.6734 Y43.4267
G01 X0.5695 Y43.3895
G01 X0.4697 Y43.3423
G01 X0.3750 Y43.2855
G01 X0.2863 Y43.2198
G01 X0.2045 Y43.1456
G01 X0.1304 Y43.0638
G01 X0.0646 Y42.9751
G01 X0.0078 Y42.8804
G01 X-0.0394 Y42.7806
G01 X-0.0766 Y42.6767
G01 X-0.1034 Y42.5696
G01 X-0.1196 Y42.4604
G01 X-0.1250 Y42.3501
G01 X-0.1196 Y42.2398
G01 X-0.1034 Y42.1306
G01 X-0.0766 Y42.0235
G01 X-0.0394 Y41.9196
G01 X0.0078 Y41.8198
G01 X0.0646 Y41.7251
G01 X0.1304 Y41.6364
G01 X0.2045 Y41.5546
G01 X0.2863 Y41.4805
G01 X0.3750 Y41.4147
G01 X0.4697 Y41.3580
G01 X0.5695 Y41.3108
G01 X0.6734 Y41.2736
G01 X0.7805 Y41.2467
G01 X0.8897 Y41.2305
G01 X1.0000 Y41.2251
G01 X1.1103 Y41.2305
G01 X1.2195 Y41.2467
G01 X1.3266 Y41.2736
G01 X1.4305 Y41.3108
G01 X1.5303 Y41.3580
G01 X1.6250 Y41.4147
G01 X1.7137 Y41.4805
G01 X1.7955 Y41.5546
G01 X1.8696 Y41.6364
G01 X1.9354 Y41.7251
G01 X1.9922 Y41.8198
G01 X2.0394 Y41.9196
G01 X2.0766 Y42.0235
G01 X2.1034 Y42.1306
G01 X2.1188 Y42.2338
G00 Z2.0000
G00 X2.1683 Y44.7664
G01 F60.00
G01 Z-0.1418
G01 F60.00
G01 X2.1700 Y44.7835
G01 X2.1750 Y44.8901
G01 X2.1693 Y45.0053
G01 X2.1524 Y45.1193
G01 X2.1244 Y45.2312
G01 X2.0856 Y45.3398
G01 X2.0363 Y45.4440
G01 X1.9770 Y45.5429
G01 X1.9083 Y45.6355
G01 X1.8309 Y45.7210
G01 X1.7454 Y45.7984
G01 X1.6528 Y45.8671
G01 X1.5539 Y45.9264
G01 X1.4497 Y45.9757
G01 X1.3411 Y46.0145
G01 X1.2292 Y46.0425
G01 X1.1152 Y46.0595
G01 X1.0000 Y46.0651
G01 X0.8848 Y46.0595
G01 X0.7708 Y46.0425
G01 X0.6589 Y46.0145
G01 X0.5503 Y45.9757
G01 X0.4461 Y45.9264
G01 X0.3472 Y45.8671
G01 X0.2546 Y45.7984
G01 X0.1691 Y45.7210
G01 X0.0917 Y45.6355
G01 X0.0230 Y45.5429
G01 X-0.0363 Y45.4440
G01 X-0.0856 Y45.3398
G01 X-0.1244 Y45.2312
G01 X-0.1524 Y45.1193
G01 X-0.1693 Y45.0053
G01 X-0.1750 Y44.8901
G01 X-0.1693 Y44.7749
G01 X-0.1524 Y44.6609
G01 X-0.1244 Y44.5490
G01 X-0.0856 Y44.4405
G01 X-0.0363 Y44.3362
G01 X0.0230 Y44.2373
G01 X0.0917 Y44.1447
G01 X0.1691 Y44.0593
G01 X0.2546 Y43.9818
G01 X0.3472 Y43.9131
G01 X0.4461 Y43.8539
G01 X0.5503 Y43.8046
G01 X0.6589 Y43.7657
G01 X0.7708 Y43.7377
G01 X0.8848 Y43.7208
G01 X1.0000 Y43.7151
G01 X1.1152 Y43.7208
G01 X1.2292 Y43.7377
G01 X1.3411 Y43.7657
G01 X1.4497 Y43.8046
G01 X1.5539 Y43.8539
G01 X1.6528 Y43.9131
G01 X1.7454 Y43.9818
G01 X1.8309 Y44.0593
G01 X1.9083 Y44.1447
G01 X1.9770 Y44.2373
G01 X2.0363 Y44.3362
G01 X2.0856 Y44.4405
G01 X2.1244 Y44.5490
G01 X2.1524 Y44.6609
G01 X2.1683 Y44.7664
G00 Z2.0000
G00 X2.1436 Y44.7701
G01 F60.00
G01 Z-0.1418
G01 F60.00
G01 X2.1450 Y44.7847
G01 X2.1500 Y44.8901
G01 X2.1445 Y45.0028
G01 X2.1279 Y45.1145
G01 X2.1005 Y45.2239
G01 X2.0625 Y45.3302
G01 X2.0142 Y45.4322
G01 X1.9562 Y45.5290
G01 X1.8890 Y45.6197
G01 X1.8132 Y45.7033
G01 X1.7296 Y45.7791
G01 X1.6389 Y45.8463
G01 X1.5421 Y45.9043
G01 X1.4401 Y45.9526
G01 X1.3338 Y45.9906
G01 X1.2244 Y46.0180
G01 X1.1127 Y46.0346
G01 X1.0000 Y46.0401
G01 X0.8873 Y46.0346
G01 X0.7756 Y46.0180
G01 X0.6662 Y45.9906
G01 X0.5599 Y45.9526
G01 X0.4579 Y45.9043
G01 X0.3611 Y45.8463
G01 X0.2704 Y45.7791
G01 X0.1868 Y45.7033
G01 X0.1110 Y45.6197
G01 X0.0438 Y45.5290
G01 X-0.0142 Y45.4322
G01 X-0.0625 Y45.3302
G01 X-0.1005 Y45.2239
G01 X-0.1279 Y45.1145
G01 X-0.1445 Y45.0028
G01 X-0.1500 Y44.8901
G01 X-0.1445 Y44.7774
G01 X-0.1279 Y44.6658
G01 X-0.1005 Y44.5563
G01 X-0.0625 Y44.4500
G01 X-0.0142 Y44.3480
G01 X0.0438 Y44.2512
G01 X0.1110 Y44.1606
G01 X0.1868 Y44.0769
G01 X0.2704 Y44.0012
G01 X0.3611 Y43.9339
G01 X0.4579 Y43.8759
G01 X0.5599 Y43.8277
G01 X0.6662 Y43.7896
G01 X0.7756 Y43.7622
G01 X0.8873 Y43.7457
G01 X1.0000 Y43.7401
G01 X1.1127 Y43.7457
G01 X1.2244 Y43.7622
G01 X1.3338 Y43.7896
G01 X1.4401 Y43.8277
G01 X1.5421 Y43.8759
G01 X1.6389 Y43.9339
G01 X1.7296 Y44.0012
G01 X1.8132 Y44.0769
G01 X1.8890 Y44.1606
G01 X1.9562 Y44.2512
G01 X2.0142 Y44.3480
G01 X2.0625 Y44.4500
G01 X2.1005 Y44.5563
G01 X2.1279 Y44.6658
G01 X2.1436 Y44.7701
G00 Z2.0000
G00 X2.1188 Y44.7738
G01 F60.00
G01 Z-0.1418
G01 F60.00
G01 X2.1200 Y44.7860
G01 X2.1250 Y44.8901
G01 X2.1196 Y45.0004
G01 X2.1034 Y45.1096
G01 X2.0766 Y45.2167
G01 X2.0394 Y45.3206
G01 X1.9922 Y45.4204
G01 X1.9354 Y45.5151
G01 X1.8696 Y45.6038
G01 X1.7955 Y45.6856
G01 X1.7137 Y45.7598
G01 X1.6250 Y45.8255
G01 X1.5303 Y45.8823
G01 X1.4305 Y45.9295
G01 X1.3266 Y45.9667
G01 X1.2195 Y45.9935
G01 X1.1103 Y46.0097
G01 X1.0000 Y46.0151
G01 X0.8897 Y46.0097
G01 X0.7805 Y45.9935
G01 X0.6734 Y45.9667
G01 X0.5695 Y45.9295
G01 X0.4697 Y45.8823
G01 X0.3750 Y45.8255
G01 X0.2863 Y45.7598
G01 X0.2045 Y45.6856
G01 X0.1304 Y45.6038
G01 X0.0646 Y45.5151
G01 X0.0078 Y45.4204
G01 X-0.0394 Y45.3206
G01 X-0.0766 Y45.2167
G01 X-0.1034 Y45.1096
G01 X-0.1196 Y45.0004
G01 X-0.1250 Y44.8901
G01 X-0.1196 Y44.7798
G01 X-0.1034 Y44.6706
G01 X-0.0766 Y44.5635
G01 X-0.0394 Y44.4596
G01 X0.0078 Y44.3598
G01 X0.0646 Y44.2651
G01 X0.1304 Y44.1764
G01 X0.2045 Y44.0946
G01 X0.2863 Y44.0205
G01 X0.3750 Y43.9547
G01 X0.4697 Y43.8980
G01 X0.5695 Y43.8508
G01 X0.6734 Y43.8136
G01 X0.7805 Y43.7867
G01 X0.8897 Y43.7705
G01 X1.0000 Y43.7651
G01 X1.1103 Y43.7705
G01 X1.2195 Y43.7867
G01 X1.3266 Y43.8136
G01 X1.4305 Y43.8508
G01 X1.5303 Y43.8980
G01 X1.6250 Y43.9547
G01 X1.7137 Y44.0205
G01 X1.7955 Y44.0946
G01 X1.8696 Y44.1764
G01 X1.9354 Y44.2651
G01 X1.9922 Y44.3598
G01 X2.0394 Y44.4596
G01 X2.0766 Y44.5635
G01 X2.1034 Y44.6706
G01 X2.1188 Y44.7738
G00 Z2.0000
G00 X2.1683 Y47.3064
G01 F60.00
G01 Z-0.1418
G01 F60.00
G01 X2.1700 Y47.3235
G01 X2.1750 Y47.4301
G01 X2.1693 Y47.5453
G01 X2.1524 Y47.6593
G01 X2.1244 Y47.7712
G01 X2.0856 Y47.8798
G01 X2.0363 Y47.9840
G01 X1.9770 Y48.0829
G01 X1.9083 Y48.1755
G01 X1.8309 Y48.2610
G01 X1.7454 Y48.3384
G01 X1.6528 Y48.4071
G01 X1.5539 Y48.4664
G01 X1.4497 Y48.5157
G01 X1.3411 Y48.5545
G01 X1.2292 Y48.5825
G01 X1.1152 Y48.5995
G01 X1.0000 Y48.6051
G01 X0.8848 Y48.5995
G01 X0.7708 Y48.5825
G01 X0.6589 Y48.5545
G01 X0.5503 Y48.5157
G01 X0.4461 Y48.4664
G01 X0.3472 Y48.4071
G01 X0.2546 Y48.3384
G01 X0.1691 Y48.2610
G01 X0.0917 Y48.1755
G01 X0.0230 Y48.0829
G01 X-0.0363 Y47.9840
G01 X-0.0856 Y47.8798
G01 X-0.1244 Y47.7712
G01 X-0.1524 Y47.6593
G01 X-0.1693 Y47.5453
G01 X-0.1750 Y47.4301
G01 X-0.1693 Y47.3149
G01 X-0.1524 Y47.2009
G01 X-0.1244 Y47.0890
G01 X-0.0856 Y46.9805
G01 X-0.0363 Y46.8762
G01 X0.0230 Y46.7773
G01 X0.0917 Y46.6847
G01 X0.1691 Y46.5993
G01 X0.2546 Y46.5218
G01 X0.3472 Y46.4531
G01 X0.4461 Y46.3939
G01 X0.5503 Y46.3446
G01 X0.6589 Y46.3057
G01 X0.7708 Y46.2777
G01 X0.8848 Y46.2608
G01 X1.0000 Y46.2551
G01 X1.1152 Y46.2608
G01 X1.2292 Y46.2777
G01 X1.3411 Y46.3057
G01 X1.4497 Y46.3446
G01 X1.5539 Y46.3939
G01 X1.6528 Y46.4531
G01 X1.7454 Y46.5218
G01 X1.8309 Y46.5993
G01 X1.9083 Y46.6847
G01 X1.9770 Y46.7773
G01 X2.0363 Y46.8762
G01 X2.0856 Y46.9805
G01 X2.1244 Y47.0890
G01 X2.1524 Y47.2009
G01 X2.1683 Y47.3064
G00 Z2.0000
G00 X2.1436 Y47.3101
G01 F60.00
G01 Z-0.1418
G01 F60.00
G01 X2.1450 Y47.3247
G01 X2.1500 Y47.4301
G01 X2.1445 Y47.5428
G01 X2.1279 Y47.6545
G01 X2.1005 Y47.7639
G01 X2.0625 Y47.8702
G01 X2.0142 Y47.9722
G01 X1.9562 Y48.0690
G01 X1.8890 Y48.1597
G01 X1.8132 Y48.2433
G01 X1.7296 Y48.3191
G01 X1.6389 Y48.3863
G01 X1.5421 Y48.4443
G01 X1.4401 Y48.4926
G01 X1.3338 Y48.5306
G01 X1.2244 Y48.5580
G01 X1.1127 Y48.5746
G01 X1.0000 Y48.5801
G01 X0.8873 Y48.5746
G01 X0.7756 Y48.5580
G01 X0.6662 Y48.5306
G01 X0.5599 Y48.4926
G01 X0.4579 Y48.4443
G01 X0.3611 Y48.3863
G01 X0.2704 Y48.3191
G01 X0.1868 Y48.2433
G01 X0.1110 Y48.1597
G01 X0.0438 Y48.0690
G01 X-0.0142 Y47.9722
G01 X-0.0625 Y47.8702
G01 X-0.1005 Y47.7639
G01 X-0.1279 Y47.6545
G01 X-0.1445 Y47.5428
G01 X-0.1500 Y47.4301
G01 X-0.1445 Y47.3174
G01 X-0.1279 Y47.2058
G01 X-0.1005 Y47.0963
G01 X-0.0625 Y46.9900
G01 X-0.0142 Y46.8880
G01 X0.0438 Y46.7912
G01 X0.1110 Y46.7006
G01 X0.1868 Y46.6169
G01 X0.2704 Y46.5412
G01 X0.3611 Y46.4739
G01 X0.4579 Y46.4159
G01 X0.5599 Y46.3677
G01 X0.6662 Y46.3296
G01 X0.7756 Y46.3022
G01 X0.8873 Y46.2857
G01 X1.0000 Y46.2801
G01 X1.1127 Y46.2857
G01 X1.2244 Y46.3022
G01 X1.3338 Y46.3296
G01 X1.4401 Y46.3677
G01 X1.5421 Y46.4159
G01 X1.6389 Y46.4739
G01 X1.7296 Y46.5412
G01 X1.8132 Y46.6169
G01 X1.8890 Y46.7006
G01 X1.9562 Y46.7912
G01 X2.0142 Y46.8880
G01 X2.0625 Y46.9900
G01 X2.1005 Y47.0963
G01 X2.1279 Y47.2058
G01 X2.1436 Y47.3101
G00 Z2.0000
G00 X2.1188 Y47.3138
G01 F60.00
G01 Z-0.1418
G01 F60.00
G01 X2.1200 Y47.3260
G01 X2.1250 Y47.4301
G01 X2.1196 Y47.5404
G01 X2.1034 Y47.6496
G01 X2.0766 Y47.7567
G01 X2.0394 Y47.8606
G01 X1.9922 Y47.9604
G01 X1.9354 Y48.0551
G01 X1.8696 Y48.1438
G01 X1.7955 Y48.2256
G01 X1.7137 Y48.2998
G01 X1.6250 Y48.3655
G01 X1.5303 Y48.4223
G01 X1.4305 Y48.4695
G01 X1.3266 Y48.5067
G01 X1.2195 Y48.5335
G01 X1.1103 Y48.5497
G01 X1.0000 Y48.5551
G01 X0.8897 Y48.5497
G01 X0.7805 Y48.5335
G01 X0.6734 Y48.5067
G01 X0.5695 Y48.4695
G01 X0.4697 Y48.4223
G01 X0.3750 Y48.3655
G01 X0.2863 Y48.2998
G01 X0.2045 Y48.2256
G01 X0.1304 Y48.1438
G01 X0.0646 Y48.0551
G01 X0.0078 Y47.9604
G01 X-0.0394 Y47.8606
G01 X-0.0766 Y47.7567
G01 X-0.1034 Y47.6496
G01 X-0.1196 Y47.5404
G01 X-0.1250 Y47.4301
G01 X-0.1196 Y47.3198
G01 X-0.1034 Y47.2106
G01 X-0.0766 Y47.1035
G01 X-0.0394 Y46.9996
G01 X0.0078 Y46.8998
G01 X0.0646 Y46.8051
G01 X0.1304 Y46.7164
G01 X0.2045 Y46.6346
G01 X0.2863 Y46.5605
G01 X0.3750 Y46.4947
G01 X0.4697 Y46.4380
G01 X0.5695 Y46.3908
G01 X0.6734 Y46.3536
G01 X0.7805 Y46.3267
G01 X0.8897 Y46.3105
G01 X1.0000 Y46.3051
G01 X1.1103 Y46.3105
G01 X1.2195 Y46.3267
G01 X1.3266 Y46.3536
G01 X1.4305 Y46.3908
G01 X1.5303 Y46.4380
G01 X1.6250 Y46.4947
G01 X1.7137 Y46.5605
G01 X1.7955 Y46.6346
G01 X1.8696 Y46.7164
G01 X1.9354 Y46.8051
G01 X1.9922 Y46.8998
G01 X2.0394 Y46.9996
G01 X2.0766 Y47.1035
G01 X2.1034 Y47.2106
G01 X2.1188 Y47.3138
G00 Z2.0000
G00 X2.1683 Y49.8464
G01 F60.00
G01 Z-0.1418
G01 F60.00
G01 X2.1700 Y49.8635
G01 X2.1750 Y49.9701
G01 X2.1693 Y50.0853
G01 X2.1524 Y50.1993
G01 X2.1244 Y50.3112
G01 X2.0856 Y50.4198
G01 X2.0363 Y50.5240
G01 X1.9770 Y50.6229
G01 X1.9083 Y50.7155
G01 X1.8309 Y50.8010
G01 X1.7454 Y50.8784
G01 X1.6528 Y50.9471
G01 X1.5539 Y51.0064
G01 X1.4497 Y51.0557
G01 X1.3411 Y51.0945
G01 X1.2292 Y51.1225
G01 X1.1152 Y51.1395
G01 X1.0000 Y51.1451
G01 X0.8848 Y51.1395
G01 X0.7708 Y51.1225
G01 X0.6589 Y51.0945
G01 X0.5503 Y51.0557
G01 X0.4461 Y51.0064
G01 X0.3472 Y50.9471
G01 X0.2546 Y50.8784
G01 X0.1691 Y50.8010
G01 X0.0917 Y50.7155
G01 X0.0230 Y50.6229
G01 X-0.0363 Y50.5240
G01 X-0.0856 Y50.4198
G01 X-0.1244 Y50.3112
G01 X-0.1524 Y50.1993
G01 X-0.1693 Y50.0853
G01 X-0.1750 Y49.9701
G01 X-0.1693 Y49.8549
G01 X-0.1524 Y49.7409
G01 X-0.1244 Y49.6290
G01 X-0.0856 Y49.5205
G01 X-0.0363 Y49.4162
G01 X0.0230 Y49.3173
G01 X0.0917 Y49.2247
G01 X0.1691 Y49.1393
G01 X0.2546 Y49.0618
G01 X0.3472 Y48.9931
G01 X0.4461 Y48.9339
G01 X0.5503 Y48.8846
G01 X0.6589 Y48.8457
G01 X0.7708 Y48.8177
G01 X0.8848 Y48.8008
G01 X1.0000 Y48.7951
G01 X1.1152 Y48.8008
G01 X1.2292 Y48.8177
G01 X1.3411 Y48.8457
G01 X1.4497 Y48.8846
G01 X1.5539 Y48.9339
G01 X1.6528 Y48.9931
G01 X1.7454 Y49.0618
G01 X1.8309 Y49.1393
G01 X1.9083 Y49.2247
G01 X1.9770 Y49.3173
G01 X2.0363 Y49.4162
G01 X2.0856 Y49.5205
G01 X2.1244 Y49.6290
G01 X2.1524 Y49.7409
G01 X2.1683 Y49.8464
G00 Z2.0000
G00 X2.1436 Y49.8501
G01 F60.00
G01 Z-0.1418
G01 F60.00
G01 X2.1450 Y49.8647
G01 X2.1500 Y49.9701
G01 X2.1445 Y50.0828
G01 X2.1279 Y50.1945
G01 X2.1005 Y50.3039
G01 X2.0625 Y50.4102
G01 X2.0142 Y50.5122
G01 X1.9562 Y50.6090
G01 X1.8890 Y50.6997
G01 X1.8132 Y50.7833
G01 X1.7296 Y50.8591
G01 X1.6389 Y50.9263
G01 X1.5421 Y50.9843
G01 X1.4401 Y51.0326
G01 X1.3338 Y51.0706
G01 X1.2244 Y51.0980
G01 X1.1127 Y51.1146
G01 X1.0000 Y51.1201
G01 X0.8873 Y51.1146
G01 X0.7756 Y51.0980
G01 X0.6662 Y51.0706
G01 X0.5599 Y51.0326
G01 X0.4579 Y50.9843
G01 X0.3611 Y50.9263
G01 X0.2704 Y50.8591
G01 X0.1868 Y50.7833
G01 X0.1110 Y50.6997
G01 X0.0438 Y50.6090
G01 X-0.0142 Y50.5122
G01 X-0.0625 Y50.4102
G01 X-0.1005 Y50.3039
G01 X-0.1279 Y50.1945
G01 X-0.1445 Y50.0828
G01 X-0.1500 Y49.9701
G01 X-0.1445 Y49.8574
G01 X-0.1279 Y49.7458
G01 X-0.1005 Y49.6363
G01 X-0.0625 Y49.5300
G01 X-0.0142 Y49.4280
G01 X0.0438 Y49.3312
G01 X0.1110 Y49.2406
G01 X0.1868 Y49.1569
G01 X0.2704 Y49.0812
G01 X0.3611 Y49.0139
G01 X0.4579 Y48.9559
G01 X0.5599 Y48.9077
G01 X0.6662 Y48.8696
G01 X0.7756 Y48.8422
G01 X0.8873 Y48.8257
G01 X1.0000 Y48.8201
G01 X1.1127 Y48.8257
G01 X1.2244 Y48.8422
G01 X1.3338 Y48.8696
G01 X1.4401 Y48.9077
G01 X1.5421 Y48.9559
G01 X1.6389 Y49.0139
G01 X1.7296 Y49.0812
G01 X1.8132 Y49.1569
G01 X1.8890 Y49.2406
G01 X1.9562 Y49.3312
G01 X2.0142 Y49.4280
G01 X2.0625 Y49.5300
G01 X2.1005 Y49.6363
G01 X2.1279 Y49.7458
G01 X2.1436 Y49.8501
G00 Z2.0000
G00 X2.1188 Y49.8538
G01 F60.00
G01 Z-0.1418
G01 F60.00
G01 X2.1200 Y49.8660
G01 X2.1250 Y49.9701
G01 X2.1196 Y50.0804
G01 X2.1034 Y50.1896
G01 X2.0766 Y50.2967
G01 X2.0394 Y50.4006
G01 X1.9922 Y50.5004
G01 X1.9354 Y50.5951
G01 X1.8696 Y50.6838
G01 X1.7955 Y50.7656
G01 X1.7137 Y50.8398
G01 X1.6250 Y50.9055
G01 X1.5303 Y50.9623
G01 X1.4305 Y51.0095
G01 X1.3266 Y51.0467
G01 X1.2195 Y51.0735
G01 X1.1103 Y51.0897
G01 X1.0000 Y51.0951
G01 X0.8897 Y51.0897
G01 X0.7805 Y51.0735
G01 X0.6734 Y51.0467
G01 X0.5695 Y51.0095
G01 X0.4697 Y50.9623
G01 X0.3750 Y50.9055
G01 X0.2863 Y50.8398
G01 X0.2045 Y50.7656
G01 X0.1304 Y50.6838
G01 X0.0646 Y50.5951
G01 X0.0078 Y50.5004
G01 X-0.0394 Y50.4006
G01 X-0.0766 Y50.2967
G01 X-0.1034 Y50.1896
G01 X-0.1196 Y50.0804
G01 X-0.1250 Y49.9701
G01 X-0.1196 Y49.8598
G01 X-0.1034 Y49.7506
G01 X-0.0766 Y49.6435
G01 X-0.0394 Y49.5396
G01 X0.0078 Y49.4398
G01 X0.0646 Y49.3451
G01 X0.1304 Y49.2564
G01 X0.2045 Y49.1746
G01 X0.2863 Y49.1005
G01 X0.3750 Y49.0347
G01 X0.4697 Y48.9780
G01 X0.5695 Y48.9308
G01 X0.6734 Y48.8936
G01 X0.7805 Y48.8667
G01 X0.8897 Y48.8505
G01 X1.0000 Y48.8451
G01 X1.1103 Y48.8505
G01 X1.2195 Y48.8667
G01 X1.3266 Y48.8936
G01 X1.4305 Y48.9308
G01 X1.5303 Y48.9780
G01 X1.6250 Y49.0347
G01 X1.7137 Y49.1005
G01 X1.7955 Y49.1746
G01 X1.8696 Y49.2564
G01 X1.9354 Y49.3451
G01 X1.9922 Y49.4398
G01 X2.0394 Y49.5396
G01 X2.0766 Y49.6435
G01 X2.1034 Y49.7506
G01 X2.1188 Y49.8538
G00 Z2.0000
G00 X2.1683 Y52.3864
G01 F60.00
G01 Z-0.1418
G01 F60.00
G01 X2.1700 Y52.4035
G01 X2.1750 Y52.5101
G01 X2.1693 Y52.6253
G01 X2.1524 Y52.7393
G01 X2.1244 Y52.8512
G01 X2.0856 Y52.9598
G01 X2.0363 Y53.0640
G01 X1.9770 Y53.1629
G01 X1.9083 Y53.2555
G01 X1.8309 Y53.3410
G01 X1.7454 Y53.4184
G01 X1.6528 Y53.4871
G01 X1.5539 Y53.5464
G01 X1.4497 Y53.5957
G01 X1.3411 Y53.6345
G01 X1.2292 Y53.6625
G01 X1.1152 Y53.6795
G01 X1.0000 Y53.6851
G01 X0.8848 Y53.6795
G01 X0.7708 Y53.6625
G01 X0.6589 Y53.6345
G01 X0.5503 Y53.5957
G01 X0.4461 Y53.5464
G01 X0.3472 Y53.4871
G01 X0.2546 Y53.4184
G01 X0.1691 Y53.3410
G01 X0.0917 Y53.2555
G01 X0.0230 Y53.1629
G01 X-0.0363 Y53.0640
G01 X-0.0856 Y52.9598
G01 X-0.1244 Y52.8512
G01 X-0.1524 Y52.7393
G01 X-0.1693 Y52.6253
G01 X-0.1750 Y52.5101
G01 X-0.1693 Y52.3949
G01 X-0.1524 Y52.2809
G01 X-0.1244 Y52.1690
G01 X-0.0856 Y52.0605
G01 X-0.0363 Y51.9562
G01 X0.0230 Y51.8573
G01 X0.0917 Y51.7647
G01 X0.1691 Y51.6793
G01 X0.2546 Y51.6018
G01 X0.3472 Y51.5331
G01 X0.4461 Y51.4739
G01 X0.5503 Y51.4246
G01 X0.6589 Y51.3857
G01 X0.7708 Y51.3577
G01 X0.8848 Y51.3408
G01 X1.0000 Y51.3351
G01 X1.1152 Y51.3408
G01 X1.2292 Y51.3577
G01 X1.3411 Y51.3857
G01 X1.4497 Y51.4246
G01 X1.5539 Y51.4739
G01 X1.6528 Y51.5331
G01 X1.7454 Y51.6018
G01 X1.8309 Y51.6793
G01 X1.9083 Y51.7647
G01 X1.9770 Y51.8573
G01 X2.0363 Y51.9562
G01 X2.0856 Y52.0605
G01 X2.1244 Y52.1690
G01 X2.1524 Y52.2809
G01 X2.1683 Y52.3864
G00 Z2.0000
G00 X2.1436 Y52.3901
G01 F60.00
G01 Z-0.1418
G01 F60.00
G01 X2.1450 Y52.4047
G01 X2.1500 Y52.5101
G01 X2.1445 Y52.6228
G01 X2.1279 Y52.7345
G01 X2.1005 Y52.8439
G01 X2.0625 Y52.9502
G01 X2.0142 Y53.0522
G01 X1.9562 Y53.1490
G01 X1.8890 Y53.2397
G01 X1.8132 Y53.3233
G01 X1.7296 Y53.3991
G01 X1.6389 Y53.4663
G01 X1.5421 Y53.5243
G01 X1.4401 Y53.5726
G01 X1.3338 Y53.6106
G01 X1.2244 Y53.6380
G01 X1.1127 Y53.6546
G01 X1.0000 Y53.6601
G01 X0.8873 Y53.6546
G01 X0.7756 Y53.6380
G01 X0.6662 Y53.6106
G01 X0.5599 Y53.5726
G01 X0.4579 Y53.5243
G01 X0.3611 Y53.4663
G01 X0.2704 Y53.3991
G01 X0.1868 Y53.3233
G01 X0.1110 Y53.2397
G01 X0.0438 Y53.1490
G01 X-0.0142 Y53.0522
G01 X-0.0625 Y52.9502
G01 X-0.1005 Y52.8439
G01 X-0.1279 Y52.7345
G01 X-0.1445 Y52.6228
G01 X-0.1500 Y52.5101
G01 X-0.1445 Y52.3974
G01 X-0.1279 Y52.2858
G01 X-0.1005 Y52.1763
G01 X-0.0625 Y52.0700
G01 X-0.0142 Y51.9680
G01 X0.0438 Y51.8712
G01 X0.1110 Y51.7806
G01 X0.1868 Y51.6969
G01 X0.2704 Y51.6212
G01 X0.3611 Y51.5539
G01 X0.4579 Y51.4959
G01 X0.5599 Y51.4477
G01 X0.6662 Y51.4096
G01 X0.7756 Y51.3822
G01 X0.8873 Y51.3657
G01 X1.0000 Y51.3601
G01 X1.1127 Y51.3657
G01 X1.2244 Y51.3822
G01 X1.3338 Y51.4096
G01 X1.4401 Y51.4477
G01 X1.5421 Y51.4959
G01 X1.6389 Y51.5539
G01 X1.7296 Y51.6212
G01 X1.8132 Y51.6969
G01 X1.8890 Y51.7806
G01 X1.9562 Y51.8712
G01 X2.0142 Y51.9680
G01 X2.0625 Y52.0700
G01 X2.1005 Y52.1763
G01 X2.1279 Y52.2858
G01 X2.1436 Y52.3901
G00 Z2.0000
G00 X2.1188 Y52.3938
G01 F60.00
G01 Z-0.1418
G01 F60.00
G01 X2.1200 Y52.4060
G01 X2.1250 Y52.5101
G01 X2.1196 Y52.6204
G01 X2.1034 Y52.7296
G01 X2.0766 Y52.8367
G01 X2.0394 Y52.9406
G01 X1.9922 Y53.0404
G01 X1.9354 Y53.1351
G01 X1.8696 Y53.2238
G01 X1.7955 Y53.3056
G01 X1.7137 Y53.3798
G01 X1.6250 Y53.4455
G01 X1.5303 Y53.5023
G01 X1.4305 Y53.5495
G01 X1.3266 Y53.5867
G01 X1.2195 Y53.6135
G01 X1.1103 Y53.6297
G01 X1.0000 Y53.6351
G01 X0.8897 Y53.6297
G01 X0.7805 Y53.6135
G01 X0.6734 Y53.5867
G01 X0.5695 Y53.5495
G01 X0.4697 Y53.5023
G01 X0.3750 Y53.4455
G01 X0.2863 Y53.3798
G01 X0.2045 Y53.3056
G01 X0.1304 Y53.2238
G01 X0.0646 Y53.1351
G01 X0.0078 Y53.0404
G01 X-0.0394 Y52.9406
G01 X-0.0766 Y52.8367
G01 X-0.1034 Y52.7296
G01 X-0.1196 Y52.6204
G01 X-0.1250 Y52.5101
G01 X-0.1196 Y52.3998
G01 X-0.1034 Y52.2906
G01 X-0.0766 Y52.1835
G01 X-0.0394 Y52.0796
G01 X0.0078 Y51.9798
G01 X0.0646 Y51.8851
G01 X0.1304 Y51.7964
G01 X0.2045 Y51.7146
G01 X0.2863 Y51.6405
G01 X0.3750 Y51.5747
G01 X0.4697 Y51.5180
G01 X0.5695 Y51.4708
G01 X0.6734 Y51.4336
G01 X0.7805 Y51.4067
G01 X0.8897 Y51.3905
G01 X1.0000 Y51.3851
G01 X1.1103 Y51.3905
G01 X1.2195 Y51.4067
G01 X1.3266 Y51.4336
G01 X1.4305 Y51.4708
G01 X1.5303 Y51.5180
G01 X1.6250 Y51.5747
G01 X1.7137 Y51.6405
G01 X1.7955 Y51.7146
G01 X1.8696 Y51.7964
G01 X1.9354 Y51.8851
G01 X1.9922 Y51.9798
G01 X2.0394 Y52.0796
G01 X2.0766 Y52.1835
G01 X2.1034 Y52.2906
G01 X2.1188 Y52.3938
G00 Z2.0000
G00 X2.1683 Y54.9264
G01 F60.00
G01 Z-0.1418
G01 F60.00
G01 X2.1700 Y54.9435
G01 X2.1750 Y55.0501
G01 X2.1693 Y55.1653
G01 X2.1524 Y55.2793
G01 X2.1244 Y55.3912
G01 X2.0856 Y55.4998
G01 X2.0363 Y55.6040
G01 X1.9770 Y55.7029
G01 X1.9083 Y55.7955
G01 X1.8309 Y55.8810
G01 X1.7454 Y55.9584
G01 X1.6528 Y56.0271
G01 X1.5539 Y56.0864
G01 X1.4497 Y56.1357
G01 X1.3411 Y56.1745
G01 X1.2292 Y56.2025
G01 X1.1152 Y56.2195
G01 X1.0000 Y56.2251
G01 X0.8848 Y56.2195
G01 X0.7708 Y56.2025
G01 X0.6589 Y56.1745
G01 X0.5503 Y56.1357
G01 X0.4461 Y56.0864
G01 X0.3472 Y56.0271
G01 X0.2546 Y55.9584
G01 X0.1691 Y55.8810
G01 X0.0917 Y55.7955
G01 X0.0230 Y55.7029
G01 X-0.0363 Y55.6040
G01 X-0.0856 Y55.4998
G01 X-0.1244 Y55.3912
G01 X-0.1524 Y55.2793
G01 X-0.1693 Y55.1653
G01 X-0.1750 Y55.0501
G01 X-0.1693 Y54.9349
G01 X-0.1524 Y54.8209
G01 X-0.1244 Y54.7090
G01 X-0.0856 Y54.6005
G01 X-0.0363 Y54.4962
G01 X0.0230 Y54.3973
G01 X0.0917 Y54.3047
G01 X0.1691 Y54.2193
G01 X0.2546 Y54.1418
G01 X0.3472 Y54.0731
G01 X0.4461 Y54.0139
G01 X0.5503 Y53.9646
G01 X0.6589 Y53.9257
G01 X0.7708 Y53.8977
G01 X0.8848 Y53.8808
G01 X1.0000 Y53.8751
G01 X1.1152 Y53.8808
G01 X1.2292 Y53.8977
G01 X1.3411 Y53.9257
G01 X1.4497 Y53.9646
G01 X1.5539 Y54.0139
G01 X1.6528 Y54.0731
G01 X1.7454 Y54.1418
G01 X1.8309 Y54.2193
G01 X1.9083 Y54.3047
G01 X1.9770 Y54.3973
G01 X2.0363 Y54.4962
G01 X2.0856 Y54.6005
G01 X2.1244 Y54.7090
G01 X2.1524 Y54.8209
G01 X2.1683 Y54.9264
G00 Z2.0000
G00 X2.1436 Y54.9301
G01 F60.00
G01 Z-0.1418
G01 F60.00
G01 X2.1450 Y54.9447
G01 X2.1500 Y55.0501
G01 X2.1445 Y55.1628
G01 X2.1279 Y55.2745
G01 X2.1005 Y55.3839
G01 X2.0625 Y55.4902
G01 X2.0142 Y55.5922
G01 X1.9562 Y55.6890
G01 X1.8890 Y55.7797
G01 X1.8132 Y55.8633
G01 X1.7296 Y55.9391
G01 X1.6389 Y56.0063
G01 X1.5421 Y56.0643
G01 X1.4401 Y56.1126
G01 X1.3338 Y56.1506
G01 X1.2244 Y56.1780
G01 X1.1127 Y56.1946
G01 X1.0000 Y56.2001
G01 X0.8873 Y56.1946
G01 X0.7756 Y56.1780
G01 X0.6662 Y56.1506
G01 X0.5599 Y56.1126
G01 X0.4579 Y56.0643
G01 X0.3611 Y56.0063
G01 X0.2704 Y55.9391
G01 X0.1868 Y55.8633
G01 X0.1110 Y55.7797
G01 X0.0438 Y55.6890
G01 X-0.0142 Y55.5922
G01 X-0.0625 Y55.4902
G01 X-0.1005 Y55.3839
G01 X-0.1279 Y55.2745
G01 X-0.1445 Y55.1628
G01 X-0.1500 Y55.0501
G01 X-0.1445 Y54.9374
G01 X-0.1279 Y54.8258
G01 X-0.1005 Y54.7163
G01 X-0.0625 Y54.6100
G01 X-0.0142 Y54.5080
G01 X0.0438 Y54.4112
G01 X0.1110 Y54.3206
G01 X0.1868 Y54.2369
G01 X0.2704 Y54.1612
G01 X0.3611 Y54.0939
G01 X0.4579 Y54.0359
G01 X0.5599 Y53.9877
G01 X0.6662 Y53.9496
G01 X0.7756 Y53.9222
G01 X0.8873 Y53.9057
G01 X1.0000 Y53.9001
G01 X1.1127 Y53.9057
G01 X1.2244 Y53.9222
G01 X1.3338 Y53.9496
G01 X1.4401 Y53.9877
G01 X1.5421 Y54.0359
G01 X1.6389 Y54.0939
G01 X1.7296 Y54.1612
G01 X1.8132 Y54.2369
G01 X1.8890 Y54.3206
G01 X1.9562 Y54.4112
G01 X2.0142 Y54.5080
G01 X2.0625 Y54.6100
G01 X2.1005 Y54.7163
G01 X2.1279 Y54.8258
G01 X2.1436 Y54.9301
G00 Z2.0000
G00 X2.1188 Y54.9338
G01 F60.00
G01 Z-0.1418
G01 F60.00
G01 X2.1200 Y54.9460
G01 X2.1250 Y55.0501
G01 X2.1196 Y55.1604
G01 X2.1034 Y55.2696
G01 X2.0766 Y55.3767
G01 X2.0394 Y55.4806
G01 X1.9922 Y55.5804
G01 X1.9354 Y55.6751
G01 X1.8696 Y55.7638
G01 X1.7955 Y55.8456
G01 X1.7137 Y55.9198
G01 X1.6250 Y55.9855
G01 X1.5303 Y56.0423
G01 X1.4305 Y56.0895
G01 X1.3266 Y56.1267
G01 X1.2195 Y56.1535
G01 X1.1103 Y56.1697
G01 X1.0000 Y56.1751
G01 X0.8897 Y56.1697
G01 X0.7805 Y56.1535
G01 X0.6734 Y56.1267
G01 X0.5695 Y56.0895
G01 X0.4697 Y56.0423
G01 X0.3750 Y55.9855
G01 X0.2863 Y55.9198
G01 X0.2045 Y55.8456
G01 X0.1304 Y55.7638
G01 X0.0646 Y55.6751
G01 X0.0078 Y55.5804
G01 X-0.0394 Y55.4806
G01 X-0.0766 Y55.3767
G01 X-0.1034 Y55.2696
G01 X-0.1196 Y55.1604
G01 X-0.1250 Y55.0501
G01 X-0.1196 Y54.9398
G01 X-0.1034 Y54.8306
G01 X-0.0766 Y54.7235
G01 X-0.0394 Y54.6196
G01 X0.0078 Y54.5198
G01 X0.0646 Y54.4251
G01 X0.1304 Y54.3364
G01 X0.2045 Y54.2546
G01 X0.2863 Y54.1805
G01 X0.3750 Y54.1147
G01 X0.4697 Y54.0580
G01 X0.5695 Y54.0108
G01 X0.6734 Y53.9736
G01 X0.7805 Y53.9467
G01 X0.8897 Y53.9305
G01 X1.0000 Y53.9251
G01 X1.1103 Y53.9305
G01 X1.2195 Y53.9467
G01 X1.3266 Y53.9736
G01 X1.4305 Y54.0108
G01 X1.5303 Y54.0580
G01 X1.6250 Y54.1147
G01 X1.7137 Y54.1805
G01 X1.7955 Y54.2546
G01 X1.8696 Y54.3364
G01 X1.9354 Y54.4251
G01 X1.9922 Y54.5198
G01 X2.0394 Y54.6196
G01 X2.0766 Y54.7235
G01 X2.1034 Y54.8306
G01 X2.1188 Y54.9338
G00 Z2.0000
G00 X2.1683 Y57.4664
G01 F60.00
G01 Z-0.1418
G01 F60.00
G01 X2.1700 Y57.4835
G01 X2.1750 Y57.5901
G01 X2.1693 Y57.7053
G01 X2.1524 Y57.8193
G01 X2.1244 Y57.9312
G01 X2.0856 Y58.0398
G01 X2.0363 Y58.1440
G01 X1.9770 Y58.2429
G01 X1.9083 Y58.3355
G01 X1.8309 Y58.4210
G01 X1.7454 Y58.4984
G01 X1.6528 Y58.5671
G01 X1.5539 Y58.6264
G01 X1.4497 Y58.6757
G01 X1.3411 Y58.7145
G01 X1.2292 Y58.7425
G01 X1.1152 Y58.7595
G01 X1.0000 Y58.7651
G01 X0.8848 Y58.7595
G01 X0.7708 Y58.7425
G01 X0.6589 Y58.7145
G01 X0.5503 Y58.6757
G01 X0.4461 Y58.6264
G01 X0.3472 Y58.5671
G01 X0.2546 Y58.4984
G01 X0.1691 Y58.4210
G01 X0.0917 Y58.3355
G01 X0.0230 Y58.2429
G01 X-0.0363 Y58.1440
G01 X-0.0856 Y58.0398
G01 X-0.1244 Y57.9312
G01 X-0.1524 Y57.8193
G01 X-0.1693 Y57.7053
G01 X-0.1750 Y57.5901
G01 X-0.1693 Y57.4749
G01 X-0.1524 Y57.3609
G01 X-0.1244 Y57.2490
G01 X-0.0856 Y57.1405
G01 X-0.0363 Y57.0362
G01 X0.0230 Y56.9373
G01 X0.0917 Y56.8447
G01 X0.1691 Y56.7593
G01 X0.2546 Y56.6818
G01 X0.3472 Y56.6131
G01 X0.4461 Y56.5539
G01 X0.5503 Y56.5046
G01 X0.6589 Y56.4657
G01 X0.7708 Y56.4377
G01 X0.8848 Y56.4208
G01 X1.0000 Y56.4151
G01 X1.1152 Y56.4208
G01 X1.2292 Y56.4377
G01 X1.3411 Y56.4657
G01 X1.4497 Y56.5046
G01 X1.5539 Y56.5539
G01 X1.6528 Y56.6131
G01 X1.7454 Y56.6818
G01 X1.8309 Y56.7593
G01 X1.9083 Y56.8447
G01 X1.9770 Y56.9373
G01 X2.0363 Y57.0362
G01 X2.0856 Y57.1405
G01 X2.1244 Y57.2490
G01 X2.1524 Y57.3609
G01 X2.1683 Y57.4664
G00 Z2.0000
G00 X2.1436 Y57.4701
G01 F60.00
G01 Z-0.1418
G01 F60.00
G01 X2.1450 Y57.4847
G01 X2.1500 Y57.5901
G01 X2.1445 Y57.7028
G01 X2.1279 Y57.8145
G01 X2.1005 Y57.9239
G01 X2.0625 Y58.0302
G01 X2.0142 Y58.1322
G01 X1.9562 Y58.2290
G01 X1.8890 Y58.3197
G01 X1.8132 Y58.4033
G01 X1.7296 Y58.4791
G01 X1.6389 Y58.5463
G01 X1.5421 Y58.6043
G01 X1.4401 Y58.6526
G01 X1.3338 Y58.6906
G01 X1.2244 Y58.7180
G01 X1.1127 Y58.7346
G01 X1.0000 Y58.7401
G01 X0.8873 Y58.7346
G01 X0.7756 Y58.7180
G01 X0.6662 Y58.6906
G01 X0.5599 Y58.6526
G01 X0.4579 Y58.6043
G01 X0.3611 Y58.5463
G01 X0.2704 Y58.4791
G01 X0.1868 Y58.4033
G01 X0.1110 Y58.3197
G01 X0.0438 Y58.2290
G01 X-0.0142 Y58.1322
G01 X-0.0625 Y58.0302
G01 X-0.1005 Y57.9239
G01 X-0.1279 Y57.8145
G01 X-0.1445 Y57.7028
G01 X-0.1500 Y57.5901
G01 X-0.1445 Y57.4774
G01 X-0.1279 Y57.3658
G01 X-0.1005 Y57.2563
G01 X-0.0625 Y57.1500
G01 X-0.0142 Y57.0480
G01 X0.0438 Y56.9512
G01 X0.1110 Y56.8606
G01 X0.1868 Y56.7769
G01 X0.2704 Y56.7012
G01 X0.3611 Y56.6339
G01 X0.4579 Y56.5759
G01 X0.5599 Y56.5277
G01 X0.6662 Y56.4896
G01 X0.7756 Y56.4622
G01 X0.8873 Y56.4457
G01 X1.0000 Y56.4401
G01 X1.1127 Y56.4457
G01 X1.2244 Y56.4622
G01 X1.3338 Y56.4896
G01 X1.4401 Y56.5277
G01 X1.5421 Y56.5759
G01 X1.6389 Y56.6339
G01 X1.7296 Y56.7012
G01 X1.8132 Y56.7769
G01 X1.8890 Y56.8606
G01 X1.9562 Y56.9512
G01 X2.0142 Y57.0480
G01 X2.0625 Y57.1500
G01 X2.1005 Y57.2563
G01 X2.1279 Y57.3658
G01 X2.1436 Y57.4701
G00 Z2.0000
G00 X2.1188 Y57.4738
G01 F60.00
G01 Z-0.1418
G01 F60.00
G01 X2.1200 Y57.4860
G01 X2.1250 Y57.5901
G01 X2.1196 Y57.7004
G01 X2.1034 Y57.8096
G01 X2.0766 Y57.9167
G01 X2.0394 Y58.0206
G01 X1.9922 Y58.1204
G01 X1.9354 Y58.2151
G01 X1.8696 Y58.3038
G01 X1.7955 Y58.3856
G01 X1.7137 Y58.4598
G01 X1.6250 Y58.5255
G01 X1.5303 Y58.5823
G01 X1.4305 Y58.6295
G01 X1.3266 Y58.6667
G01 X1.2195 Y58.6935
G01 X1.1103 Y58.7097
G01 X1.0000 Y58.7151
G01 X0.8897 Y58.7097
G01 X0.7805 Y58.6935
G01 X0.6734 Y58.6667
G01 X0.5695 Y58.6295
G01 X0.4697 Y58.5823
G01 X0.3750 Y58.5255
G01 X0.2863 Y58.4598
G01 X0.2045 Y58.3856
G01 X0.1304 Y58.3038
G01 X0.0646 Y58.2151
G01 X0.0078 Y58.1204
G01 X-0.0394 Y58.0206
G01 X-0.0766 Y57.9167
G01 X-0.1034 Y57.8096
G01 X-0.1196 Y57.7004
G01 X-0.1250 Y57.5901
G01 X-0.1196 Y57.4798
G01 X-0.1034 Y57.3706
G01 X-0.0766 Y57.2635
G01 X-0.0394 Y57.1596
G01 X0.0078 Y57.0598
G01 X0.0646 Y56.9651
G01 X0.1304 Y56.8764
G01 X0.2045 Y56.7946
G01 X0.2863 Y56.7205
G01 X0.3750 Y56.6547
G01 X0.4697 Y56.5980
G01 X0.5695 Y56.5508
G01 X0.6734 Y56.5136
G01 X0.7805 Y56.4867
G01 X0.8897 Y56.4705
G01 X1.0000 Y56.4651
G01 X1.1103 Y56.4705
G01 X1.2195 Y56.4867
G01 X1.3266 Y56.5136
G01 X1.4305 Y56.5508
G01 X1.5303 Y56.5980
G01 X1.6250 Y56.6547
G01 X1.7137 Y56.7205
G01 X1.7955 Y56.7946
G01 X1.8696 Y56.8764
G01 X1.9354 Y56.9651
G01 X1.9922 Y57.0598
G01 X2.0394 Y57.1596
G01 X2.0766 Y57.2635
G01 X2.1034 Y57.3706
G01 X2.1188 Y57.4738
G00 Z2.0000
G00 X2.1683 Y60.0064
G01 F60.00
G01 Z-0.1418
G01 F60.00
G01 X2.1700 Y60.0235
G01 X2.1750 Y60.1301
G01 X2.1693 Y60.2453
G01 X2.1524 Y60.3593
G01 X2.1244 Y60.4712
G01 X2.0856 Y60.5798
G01 X2.0363 Y60.6840
G01 X1.9770 Y60.7829
G01 X1.9083 Y60.8755
G01 X1.8309 Y60.9610
G01 X1.7454 Y61.0384
G01 X1.6528 Y61.1071
G01 X1.5539 Y61.1664
G01 X1.4497 Y61.2157
G01 X1.3411 Y61.2545
G01 X1.2292 Y61.2825
G01 X1.1152 Y61.2995
G01 X1.0000 Y61.3051
G01 X0.8848 Y61.2995
G01 X0.7708 Y61.2825
G01 X0.6589 Y61.2545
G01 X0.5503 Y61.2157
G01 X0.4461 Y61.1664
G01 X0.3472 Y61.1071
G01 X0.2546 Y61.0384
G01 X0.1691 Y60.9610
G01 X0.0917 Y60.8755
G01 X0.0230 Y60.7829
G01 X-0.0363 Y60.6840
G01 X-0.0856 Y60.5798
G01 X-0.1244 Y60.4712
G01 X-0.1524 Y60.3593
G01 X-0.1693 Y60.2453
G01 X-0.1750 Y60.1301
G01 X-0.1693 Y60.0149
G01 X-0.1524 Y59.9009
G01 X-0.1244 Y59.7890
G01 X-0.0856 Y59.6805
G01 X-0.0363 Y59.5762
G01 X0.0230 Y59.4773
G01 X0.0917 Y59.3847
G01 X0.1691 Y59.2993
G01 X0.2546 Y59.2218
G01 X0.3472 Y59.1531
G01 X0.4461 Y59.0939
G01 X0.5503 Y59.0446
G01 X0.6589 Y59.0057
G01 X0.7708 Y58.9777
G01 X0.8848 Y58.9608
G01 X1.0000 Y58.9551
G01 X1.1152 Y58.9608
G01 X1.2292 Y58.9777
G01 X1.3411 Y59.0057
G01 X1.4497 Y59.0446
G01 X1.5539 Y59.0939
G01 X1.6528 Y59.1531
G01 X1.7454 Y59.2218
G01 X1.8309 Y59.2993
G01 X1.9083 Y59.3847
G01 X1.9770 Y59.4773
G01 X2.0363 Y59.5762
G01 X2.0856 Y59.6805
G01 X2.1244 Y59.7890
G01 X2.1524 Y59.9009
G01 X2.1683 Y60.0064
G00 Z2.0000
G00 X2.1436 Y60.0101
G01 F60.00
G01 Z-0.1418
G01 F60.00
G01 X2.1450 Y60.0247
G01 X2.1500 Y60.1301
G01 X2.1445 Y60.2428
G01 X2.1279 Y60.3545
G01 X2.1005 Y60.4639
G01 X2.0625 Y60.5702
G01 X2.0142 Y60.6722
G01 X1.9562 Y60.7690
G01 X1.8890 Y60.8597
G01 X1.8132 Y60.9433
G01 X1.7296 Y61.0191
G01 X1.6389 Y61.0863
G01 X1.5421 Y61.1443
G01 X1.4401 Y61.1926
G01 X1.3338 Y61.2306
G01 X1.2244 Y61.2580
G01 X1.1127 Y61.2746
G01 X1.0000 Y61.2801
G01 X0.8873 Y61.2746
G01 X0.7756 Y61.2580
G01 X0.6662 Y61.2306
G01 X0.5599 Y61.1926
G01 X0.4579 Y61.1443
G01 X0.3611 Y61.0863
G01 X0.2704 Y61.0191
G01 X0.1868 Y60.9433
G01 X0.1110 Y60.8597
G01 X0.0438 Y60.7690
G01 X-0.0142 Y60.6722
G01 X-0.0625 Y60.5702
G01 X-0.1005 Y60.4639
G01 X-0.1279 Y60.3545
G01 X-0.1445 Y60.2428
G01 X-0.1500 Y60.1301
G01 X-0.1445 Y60.0174
G01 X-0.1279 Y59.9058
G01 X-0.1005 Y59.7963
G01 X-0.0625 Y59.6900
G01 X-0.0142 Y59.5880
G01 X0.0438 Y59.4912
G01 X0.1110 Y59.4006
G01 X0.1868 Y59.3169
G01 X0.2704 Y59.2412
G01 X0.3611 Y59.1739
G01 X0.4579 Y59.1159
G01 X0.5599 Y59.0677
G01 X0.6662 Y59.0296
G01 X0.7756 Y59.0022
G01 X0.8873 Y58.9857
G01 X1.0000 Y58.9801
G01 X1.1127 Y58.9857
G01 X1.2244 Y59.0022
G01 X1.3338 Y59.0296
G01 X1.4401 Y59.0677
G01 X1.5421 Y59.1159
G01 X1.6389 Y59.1739
G01 X1.7296 Y59.2412
G01 X1.8132 Y59.3169
G01 X1.8890 Y59.4006
G01 X1.9562 Y59.4912
G01 X2.0142 Y59.5880
G01 X2.0625 Y59.6900
G01 X2.1005 Y59.7963
G01 X2.1279 Y59.9058
G01 X2.1436 Y60.0101
G00 Z2.0000
G00 X2.1188 Y60.0138
G01 F60.00
G01 Z-0.1418
G01 F60.00
G01 X2.1200 Y60.0260
G01 X2.1250 Y60.1301
G01 X2.1196 Y60.2404
G01 X2.1034 Y60.3496
G01 X2.0766 Y60.4567
G01 X2.0394 Y60.5606
G01 X1.9922 Y60.6604
G01 X1.9354 Y60.7551
G01 X1.8696 Y60.8438
G01 X1.7955 Y60.9256
G01 X1.7137 Y60.9998
G01 X1.6250 Y61.0655
G01 X1.5303 Y61.1223
G01 X1.4305 Y61.1695
G01 X1.3266 Y61.2067
G01 X1.2195 Y61.2335
G01 X1.1103 Y61.2497
G01 X1.0000 Y61.2551
G01 X0.8897 Y61.2497
G01 X0.7805 Y61.2335
G01 X0.6734 Y61.2067
G01 X0.5695 Y61.1695
G01 X0.4697 Y61.1223
G01 X0.3750 Y61.0655
G01 X0.2863 Y60.9998
G01 X0.2045 Y60.9256
G01 X0.1304 Y60.8438
G01 X0.0646 Y60.7551
G01 X0.0078 Y60.6604
G01 X-0.0394 Y60.5606
G01 X-0.0766 Y60.4567
G01 X-0.1034 Y60.3496
G01 X-0.1196 Y60.2404
G01 X-0.1250 Y60.1301
G01 X-0.1196 Y60.0198
G01 X-0.1034 Y59.9106
G01 X-0.0766 Y59.8035
G01 X-0.0394 Y59.6996
G01 X0.0078 Y59.5998
G01 X0.0646 Y59.5051
G01 X0.1304 Y59.4164
G01 X0.2045 Y59.3346
G01 X0.2863 Y59.2605
G01 X0.3750 Y59.1947
G01 X0.4697 Y59.1380
G01 X0.5695 Y59.0908
G01 X0.6734 Y59.0536
G01 X0.7805 Y59.0267
G01 X0.8897 Y59.0105
G01 X1.0000 Y59.0051
G01 X1.1103 Y59.0105
G01 X1.2195 Y59.0267
G01 X1.3266 Y59.0536
G01 X1.4305 Y59.0908
G01 X1.5303 Y59.1380
G01 X1.6250 Y59.1947
G01 X1.7137 Y59.2605
G01 X1.7955 Y59.3346
G01 X1.8696 Y59.4164
G01 X1.9354 Y59.5051
G01 X1.9922 Y59.5998
G01 X2.0394 Y59.6996
G01 X2.0766 Y59.8035
G01 X2.1034 Y59.9106
G01 X2.1188 Y60.0138
G00 Z2.0000
G00 X2.1683 Y62.5464
G01 F60.00
G01 Z-0.1418
G01 F60.00
G01 X2.1700 Y62.5635
G01 X2.1750 Y62.6701
G01 X2.1693 Y62.7853
G01 X2.1524 Y62.8993
G01 X2.1244 Y63.0112
G01 X2.0856 Y63.1198
G01 X2.0363 Y63.2240
G01 X1.9770 Y63.3229
G01 X1.9083 Y63.4155
G01 X1.8309 Y63.5010
G01 X1.7454 Y63.5784
G01 X1.6528 Y63.6471
G01 X1.5539 Y63.7064
G01 X1.4497 Y63.7557
G01 X1.3411 Y63.7945
G01 X1.2292 Y63.8225
G01 X1.1152 Y63.8395
G01 X1.0000 Y63.8451
G01 X0.8848 Y63.8395
G01 X0.7708 Y63.8225
G01 X0.6589 Y63.7945
G01 X0.5503 Y63.7557
G01 X0.4461 Y63.7064
G01 X0.3472 Y63.6471
G01 X0.2546 Y63.5784
G01 X0.1691 Y63.5010
G01 X0.0917 Y63.4155
G01 X0.0230 Y63.3229
G01 X-0.0363 Y63.2240
G01 X-0.0856 Y63.1198
G01 X-0.1244 Y63.0112
G01 X-0.1524 Y62.8993
G01 X-0.1693 Y62.7853
G01 X-0.1750 Y62.6701
G01 X-0.1693 Y62.5549
G01 X-0.1524 Y62.4409
G01 X-0.1244 Y62.3290
G01 X-0.0856 Y62.2205
G01 X-0.0363 Y62.1162
G01 X0.0230 Y62.0173
G01 X0.0917 Y61.9247
G01 X0.1691 Y61.8393
G01 X0.2546 Y61.7618
G01 X0.3472 Y61.6931
G01 X0.4461 Y61.6339
G01 X0.5503 Y61.5846
G01 X0.6589 Y61.5457
G01 X0.7708 Y61.5177
G01 X0.8848 Y61.5008
G01 X1.0000 Y61.4951
G01 X1.1152 Y61.5008
G01 X1.2292 Y61.5177
G01 X1.3411 Y61.5457
G01 X1.4497 Y61.5846
G01 X1.5539 Y61.6339
G01 X1.6528 Y61.6931
G01 X1.7454 Y61.7618
G01 X1.8309 Y61.8393
G01 X1.9083 Y61.9247
G01 X1.9770 Y62.0173
G01 X2.0363 Y62.1162
G01 X2.0856 Y62.2205
G01 X2.1244 Y62.3290
G01 X2.1524 Y62.4409
G01 X2.1683 Y62.5464
G00 Z2.0000
G00 X2.1436 Y62.5501
G01 F60.00
G01 Z-0.1418
G01 F60.00
G01 X2.1450 Y62.5647
G01 X2.1500 Y62.6701
G01 X2.1445 Y62.7828
G01 X2.1279 Y62.8945
G01 X2.1005 Y63.0039
G01 X2.0625 Y63.1102
G01 X2.0142 Y63.2122
G01 X1.9562 Y63.3090
G01 X1.8890 Y63.3997
G01 X1.8132 Y63.4833
G01 X1.7296 Y63.5591
G01 X1.6389 Y63.6263
G01 X1.5421 Y63.6843
G01 X1.4401 Y63.7326
G01 X1.3338 Y63.7706
G01 X1.2244 Y63.7980
G01 X1.1127 Y63.8146
G01 X1.0000 Y63.8201
G01 X0.8873 Y63.8146
G01 X0.7756 Y63.7980
G01 X0.6662 Y63.7706
G01 X0.5599 Y63.7326
G01 X0.4579 Y63.6843
G01 X0.3611 Y63.6263
G01 X0.2704 Y63.5591
G01 X0.1868 Y63.4833
G01 X0.1110 Y63.3997
G01 X0.0438 Y63.3090
G01 X-0.0142 Y63.2122
G01 X-0.0625 Y63.1102
G01 X-0.1005 Y63.0039
G01 X-0.1279 Y62.8945
G01 X-0.1445 Y62.7828
G01 X-0.1500 Y62.6701
G01 X-0.1445 Y62.5574
G01 X-0.1279 Y62.4458
G01 X-0.1005 Y62.3363
G01 X-0.0625 Y62.2300
G01 X-0.0142 Y62.1280
G01 X0.0438 Y62.0312
G01 X0.1110 Y61.9406
G01 X0.1868 Y61.8569
G01 X0.2704 Y61.7812
G01 X0.3611 Y61.7139
G01 X0.4579 Y61.6559
G01 X0.5599 Y61.6077
G01 X0.6662 Y61.5696
G01 X0.7756 Y61.5422
G01 X0.8873 Y61.5257
G01 X1.0000 Y61.5201
G01 X1.1127 Y61.5257
G01 X1.2244 Y61.5422
G01 X1.3338 Y61.5696
G01 X1.4401 Y61.6077
G01 X1.5421 Y61.6559
G01 X1.6389 Y61.7139
G01 X1.7296 Y61.7812
G01 X1.8132 Y61.8569
G01 X1.8890 Y61.9406
G01 X1.9562 Y62.0312
G01 X2.0142 Y62.1280
G01 X2.0625 Y62.2300
G01 X2.1005 Y62.3363
G01 X2.1279 Y62.4458
G01 X2.1436 Y62.5501
G00 Z2.0000
G00 X2.1188 Y62.5538
G01 F60.00
G01 Z-0.1418
G01 F60.00
G01 X2.1200 Y62.5660
G01 X2.1250 Y62.6701
G01 X2.1196 Y62.7804
G01 X2.1034 Y62.8896
G01 X2.0766 Y62.9967
G01 X2.0394 Y63.1006
G01 X1.9922 Y63.2004
G01 X1.9354 Y63.2951
G01 X1.8696 Y63.3838
G01 X1.7955 Y63.4656
G01 X1.7137 Y63.5398
G01 X1.6250 Y63.6055
G01 X1.5303 Y63.6623
G01 X1.4305 Y63.7095
G01 X1.3266 Y63.7467
G01 X1.2195 Y63.7735
G01 X1.1103 Y63.7897
G01 X1.0000 Y63.7951
G01 X0.8897 Y63.7897
G01 X0.7805 Y63.7735
G01 X0.6734 Y63.7467
G01 X0.5695 Y63.7095
G01 X0.4697 Y63.6623
G01 X0.3750 Y63.6055
G01 X0.2863 Y63.5398
G01 X0.2045 Y63.4656
G01 X0.1304 Y63.3838
G01 X0.0646 Y63.2951
G01 X0.0078 Y63.2004
G01 X-0.0394 Y63.1006
G01 X-0.0766 Y62.9967
G01 X-0.1034 Y62.8896
G01 X-0.1196 Y62.7804
G01 X-0.1250 Y62.6701
G01 X-0.1196 Y62.5598
G01 X-0.1034 Y62.4506
G01 X-0.0766 Y62.3435
G01 X-0.0394 Y62.2396
G01 X0.0078 Y62.1398
G01 X0.0646 Y62.0451
G01 X0.1304 Y61.9564
G01 X0.2045 Y61.8746
G01 X0.2863 Y61.8005
G01 X0.3750 Y61.7347
G01 X0.4697 Y61.6780
G01 X0.5695 Y61.6308
G01 X0.6734 Y61.5936
G01 X0.7805 Y61.5667
G01 X0.8897 Y61.5505
G01 X1.0000 Y61.5451
G01 X1.1103 Y61.5505
G01 X1.2195 Y61.5667
G01 X1.3266 Y61.5936
G01 X1.4305 Y61.6308
G01 X1.5303 Y61.6780
G01 X1.6250 Y61.7347
G01 X1.7137 Y61.8005
G01 X1.7955 Y61.8746
G01 X1.8696 Y61.9564
